yildirimyigit/pemp/data/ur10/raw/0_2024-12-14_13-14-25.csv
Time,ROS secs,ROS nsecs,________p_x________,________p_y________,________p_z________,________q_x________,________q_y________,________q_z________,________q_w________,gripper_position,gripper_force,shoulder_pan_joint,shoulder_lift_joint,elbow_joint,wrist_1_joint,wrist_2_joint,wrist_3_joint
0,1734171265,637942552,-0.006862970891715613,0.25614842678809685,1.4272739839662882,-0.7070809783320224,-0.005088917516917335,-0.006959611168916888,0.7070800215052844,0,-1,-0.0010650793658655289,-1.5732429663287562,-0.004933182393209279,-1.576935116444723,-0.0015686194049280289,-0.003544632588521779
10,1734171265,653934955,-0.006900158579639849,0.2561482923477891,1.4272737767098587,-0.707080778134175,-0.005097177914007495,-0.006967871691145545,0.7070800808498132,0,-1,-0.0010650793658655289,-1.5732787291156214,-0.004980866109029591,-1.5769112745868128,-0.0015566984759729507,-0.0035207907306116226
25,1734171265,669481039,-0.006908412750558481,0.2561485631080951,1.4272736634059935,-0.707080857038778,-0.005109990430836485,-0.006980683587550655,0.7070797830964722,0,-1,-0.0010407606707971695,-1.5732911268817347,-0.004921261464254201,-1.576935116444723,-0.0015566984759729507,-0.0035207907306116226
41,1734171265,686127901,-0.006884282263541256,0.2561485368318852,1.427273898254987,-0.7070809983521542,-0.005093132198717098,-0.006963825577759683,0.7070799296451921,0,-1,-0.0010889212237756851,-1.5732668081866663,-0.004957024251119435,-1.576935116444723,-0.0015447775470178726,-0.0035207907306116226
57,1734171265,701762676,-0.006909076797443133,0.25614839252865956,1.4272736970461752,-0.7070807895118121,-0.005118419527505285,-0.006972254509813042,0.7070798728233914,0,-1,-0.0010889212237756851,-1.5732429663287562,-0.004980866109029591,-1.5769231955157679,-0.0015085379229944351,-0.003544632588521779
73,1734171265,718298196,-0.006893019627444989,0.25614837882225305,1.4272737867605934,-0.7070808621806899,-0.005126848709891198,-0.006963825373071957,0.707079822153264,0,-1,-0.0010531584369104507,-1.5732911268817347,-0.004945103322164357,-1.5768874327289026,-0.0015447775470178726,-0.003556553517476857
90,1734171265,734101533,-0.006916997958078844,0.2561484026697589,1.427273631503908,-0.7070807856223597,-0.00512684870238942,-0.006972254422531661,0.7070798156462372,0,-1,-0.0010407606707971695,-1.5732911268817347,-0.0049927870379846695,-1.5769112745868128,-0.0015209356891077164,-0.003568474446431935
105,1734171265,749816894,-0.006855397826311256,0.256148592149392,1.4272740374084714,-0.7070811420355227,-0.0050847031049012946,-0.00695539655606955,0.70707992959129,0,-1,-0.0010650793658655289,-1.5732911268817347,-0.004933182393209279,-1.576935116444723,-0.0015447775470178726,-0.003556553517476857
122,1734171265,766072988,-0.006891551808338558,0.2561484609917296,1.427273801898249,-0.707081037979601,-0.005097346771816585,-0.006951181973527555,0.7070799840574961,0,-1,-0.001077000294820607,-1.573231045399801,-0.004933182393209279,-1.5769112745868128,-0.0015686194049280289,-0.003568474446431935
137,1734171265,781828165,-0.006881956266250342,0.2561485342990565,1.4272738503710716,-0.7070810352579197,-0.005088917631122504,-0.006959611082018982,0.7070799645793389,0,-1,-0.0010650793658655289,-1.5732668081866663,-0.004933182393209279,-1.5769231955157679,-0.0015566984759729507,-0.0035327116595667007
153,1734171265,798164367,-0.006892409136034083,0.256148292774063,1.4272738701061367,-0.7070810644601417,-0.005101561417240004,-0.00693010925866176,0.7070801340291509,0,-1,-0.001077000294820607,-1.5732787291156214,-0.004945103322164357,-1.5769231955157679,-0.0015566984759729507,-0.0035207907306116226
170,1734171265,813968420,-0.00697351073407166,0.2561483764955977,1.4272732863364908,-0.7070806114965981,-0.005148090040278015,-0.0069850664860860645,0.707079708986702,0,-1,-0.0010889212237756851,-1.5732911268817347,-0.004909340535299123,-1.5768874327289026,-0.0015447775470178726,-0.003544632588521779
186,1734171265,830109119,-0.006874838875943253,0.2561486118464961,1.4272738669719716,-0.7070809310261534,-0.005101561296993468,-0.006980683645923476,0.7070797699746164,0,-1,-0.001077000294820607,-1.5732668081866663,-0.004921261464254201,-1.576935116444723,-0.0015447775470178726,-0.0035207907306116226
201,1734171265,845799207,-0.0069297459349559635,0.2561483304043133,1.4272736597704478,-0.7070809626651913,-0.005105944488745635,-0.006942921444560334,0.7070800784982978,0,-1,-0.0011008421527307632,-1.5732668081866663,-0.004957024251119435,-1.5769231955157679,-0.001580540333883107,-0.0035207907306116226
217,1734171265,862110376,-0.006907697650352801,0.25614839105975795,1.42727371403789,-0.7070807350061478,-0.00512684855070705,-0.006980683587550655,0.7070797830964722,0,-1,-0.0010650793658655289,-1.5733030478106897,-0.004921261464254201,-1.5769112745868128,-0.0015447775470178726,-0.0035083929644983414
233,1734171265,877795219,-0.0068653988370054025,0.25614834255997765,1.4272740312245515,-0.7070809517258778,-0.0050847028712283976,-0.006955396729322319,0.7070801199011862,0,-1,-0.001077000294820607,-1.5732787291156214,-0.004933182393209279,-1.5768874327289026,-0.0015447775470178726,-0.003544632588521779
250,1734171265,894053459,-0.006874121266992173,0.25614809646403003,1.4272740353374034,-0.7070808951858,-0.005110158795013163,-0.006938369931355474,0.7070801602103068,0,-1,-0.0010531584369104507,-1.5732911268817347,-0.004933182393209279,-1.576935116444723,-0.0015686194049280289,-0.003556553517476857
265,1734171265,909752130,-0.00691762353591851,0.2561484050273782,1.427273583860476,-0.7070807816324238,-0.005135277877226591,-0.00697225433456868,0.707079758469084,0,-1,-0.0010531584369104507,-1.5732548872577112,-0.004980866109029591,-1.5769231955157679,-0.0015447775470178726,-0.003556553517476857
282,1734171265,926127195,-0.006900595351673551,0.25614838519967476,1.427273766679565,-0.7070808902058152,-0.005114205039593848,-0.006959610907437327,0.7070799271854504,0,-1,-0.0010407606707971695,-1.5732668081866663,-0.004957024251119435,-1.5769112745868128,-0.0015566984759729507,-0.0035327116595667007
298,1734171265,942127466,-0.006975170022202133,0.25614837653866024,1.4272732671539787,-0.7070805410449771,-0.005148089996794817,-0.006993495561684048,0.7070796961197203,0,-1,-0.0010407606707971695,-1.5732911268817347,-0.004933182393209279,-1.5769112745868128,-0.0015924612628381851,-0.003544632588521779
313,1734171265,957760572,-0.006876617017771512,0.2561483613521654,1.4272739215385024,-0.7070810275794971,-0.00510577598433708,-0.0069427528068787174,0.7070800164565414,0,-1,-0.001077000294820607,-1.5732668081866663,-0.004945103322164357,-1.5769112745868128,-0.0015566984759729507,-0.003556553517476857
330,1734171265,974025964,-0.0069093026962846705,0.25614822158095085,1.4272737347939204,-0.707080817465552,-0.005131231892683383,-0.006951013160607797,0.7070799611412781,0,-1,-0.0011008421527307632,-1.5732911268817347,-0.004945103322164357,-1.5768993536578577,-0.0015209356891077164,-0.0035083929644983414
346,1734171265,989873886,-0.006935927422109402,0.25614841940918287,1.4272736204037082,-0.7070807679576517,-0.005114373428444034,-0.006976637730499264,0.7070798804200479,0,-1,-0.0010650793658655289,-1.5732911268817347,-0.004957024251119435,-1.576935116444723,-0.0015447775470178726,-0.003544632588521779
362,1734171266,6228685,-0.006891014899743586,0.2561483749957292,1.427273851076236,-0.7070808727315189,-0.005118419498159612,-0.006963825490105868,0.7070798726690061,0,-1,-0.001077000294820607,-1.5732911268817347,-0.004933182393209279,-1.5769231955157679,-0.0015686194049280289,-0.0035207907306116226
377,1734171266,21491050,-0.006897155256803411,0.2561484636046823,1.4272736971980025,-0.7070807933007809,-0.005109990352575385,-0.006980683645528305,0.7070798468345538,0,-1,-0.001077000294820607,-1.5733030478106897,-0.004957024251119435,-1.5769231955157679,-0.0015328566180627945,-0.0035327116595667007
393,1734171266,37482023,-0.006943276242040521,0.2561483446538756,1.4272734450613067,-0.7070807420301007,-0.005131063304464024,-0.006968039839737173,0.7070798702129198,0,-1,-0.0010889212237756851,-1.5732429663287562,-0.005004707966939748,-1.5768993536578577,-0.0015447775470178726,-0.0035327116595667007
409,1734171266,54042339,-0.0069067383682818425,0.25614864696281603,1.4272736464142788,-0.707080789511812,-0.005118419527505284,-0.006997541652137455,0.70707962302397,0,-1,-0.001077000294820607,-1.5732787291156214,-0.004921261464254201,-1.576935116444723,-0.001580540333883107,-0.003556553517476857
425,1734171266,70091724,-0.006930522733127778,0.2561482419746096,1.4272736134367763,-0.7070806619614216,-0.005143875401719375,-0.006972085841566507,0.7070798173085321,0,-1,-0.001077000294820607,-1.5732668081866663,-0.004933182393209279,-1.5768874327289026,-0.0015447775470178726,-0.0035327116595667007
441,1734171266,85549116,-0.0069118501815941345,0.2561483115572427,1.4272736991406203,-0.707080822678849,-0.005122634136301604,-0.006959610878280387,0.707079933696135,0,-1,-0.0010650793658655289,-1.5732668081866663,-0.004921261464254201,-1.5768993536578577,-0.0015209356891077164,-0.0035083929644983414
457,1734171266,101473569,-0.006945945864400939,0.2561484317971568,1.4272734090406776,-0.7070807153234718,-0.005126848659816544,-0.006980683499404832,0.7070798027792533,0,-1,-0.0010531584369104507,-1.5732548872577112,-0.004933182393209279,-1.5769112745868128,-0.0015924612628381851,-0.003556553517476857
473,1734171266,118113756,-0.006910890902293127,0.2561485675110396,1.427273631503908,-0.7070809393176425,-0.005105607469355782,-0.006967871317308832,0.7070798588528417,0,-1,-0.0010650793658655289,-1.5732668081866663,-0.004980866109029591,-1.576935116444723,-0.0015447775470178726,-0.003544632588521779
489,1734171266,133595228,-0.0069650142002374,0.2561484538108869,1.4272733203070367,-0.7070806663057235,-0.005139661018425351,-0.006985066456772346,0.7070797154973859,0,-1,-0.0010889212237756851,-1.5732429663287562,-0.004933182393209279,-1.5769112745868128,-0.0015566984759729507,-0.003544632588521779
505,1734171266,149850845,-0.006910697617534706,0.2561485655961362,1.4272735966730627,-0.7070808439169954,-0.005109990503810784,-0.006980683528864986,0.7070797962183266,0,-1,-0.0010531584369104507,-1.5732668081866663,-0.0049927870379846695,-1.5769231955157679,-0.0015447775470178726,-0.0035207907306116226
521,1734171266,165220975,-0.006980317793195052,0.2561484684060027,1.427273198939854,-0.707080503786518,-0.0051523045616788206,-0.007006139101259912,0.7070795775141587,0,-1,-0.0010650793658655289,-1.5732668081866663,-0.004921261464254201,-1.5768993536578577,-0.0015686194049280289,-0.0035327116595667007
537,1734171266,181327104,-0.006874699148941626,0.2561483541961879,1.4272739491602464,-0.7070808197453192,-0.005109990206297246,-0.006972254714525344,0.7070799035558673,0,-1,-0.0010650793658655289,-1.5732548872577112,-0.004909340535299123,-1.576935116444723,-0.0015566984759729507,-0.0035083929644983414
553,1734171266,197765588,-0.006899164186379629,0.25614837502218857,1.4272738243462497,-0.7070808007924776,-0.00508891720751254,-0.0069764694989543855,0.7070800329139935,0,-1,-0.001077000294820607,-1.5732668081866663,-0.0049927870379846695,-1.576935116444723,-0.0015566984759729507,-0.0035327116595667007
569,1734171266,213821411,-0.007004209256883395,0.2561484955567488,1.4272730790492871,-0.7070805240337446,-0.005156519242484342,-0.00700192446095236,0.7070795682915115,0,-1,-0.001077000294820607,-1.5732911268817347,-0.004933182393209279,-1.5769231955157679,-0.0015447775470178726,-0.0035083929644983414
585,1734171266,229308843,-0.006940603583593573,0.25614842950296207,1.4272735586917529,-0.7070807495274354,-0.005139660989634266,-0.006976637438014962,0.7070797154937273,0,-1,-0.0010889212237756851,-1.5732787291156214,-0.004980866109029591,-1.576947037373678,-0.0015566984759729507,-0.0035207907306116226
601,1734171266,245404481,-0.006901501073052876,0.2561483861643402,1.427273717120782,-0.7070807921330099,-0.00512684866633691,-0.006972254451649797,0.7070798091355524,0,-1,-0.0010889212237756851,-1.5732548872577112,-0.004921261464254201,-1.5769112745868128,-0.0015566984759729507,-0.0035207907306116226
617,1734171266,261334419,-0.0069231409711801705,0.2561486650195,1.4272735108737555,-0.7070808068856272,-0.005114205070538264,-0.006993327070429894,0.707079677841863,0,-1,-0.001077000294820607,-1.5732668081866663,-0.004909340535299123,-1.5769231955157679,-0.0015566984759729507,-0.003544632588521779
633,1734171266,277503967,-0.006918046758737119,0.2561483163787912,1.4272736959707581,-0.7070808265683014,-0.005114204961076816,-0.006959610964804068,0.7070799908230485,0,-1,-0.0010650793658655289,-1.5732787291156214,-0.004945103322164357,-1.5769231955157679,-0.0015447775470178726,-0.003568474446431935
649,1734171266,293379068,-0.0068973878582019735,0.2561485459109423,1.4272738081491052,-0.7070808443453753,-0.005088917397847262,-0.006984898402947554,0.707079906144878,0,-1,-0.0010407606707971695,-1.5732668081866663,-0.004921261464254201,-1.576935116444723,-0.0015447775470178726,-0.0035327116595667007
665,1734171266,309645652,-0.006907890933684871,0.2561483929700515,1.4272737486124332,-0.7070808597102175,-0.005118419570031795,-0.006963825432102443,0.7070798856903766,0,-1,-0.0010650793658655289,-1.5733149687396448,-0.0048974196063440445,-1.5768993536578577,-0.0015209356891077164,-0.003544632588521779
681,1734171266,325814723,-0.0069367444703310015,0.25614850451165716,1.4272735689815028,-0.7070807784079972,-0.005105944216298358,-0.0069850668959455684,0.7070798476693138,0,-1,-0.001077000294820607,-1.5733030478106897,-0.004921261464254201,-1.576947037373678,-0.0015566984759729507,-0.003544632588521779
697,1734171266,341958999,-0.006947223061917384,0.25614852094970914,1.4272733928694588,-0.7070806371451976,-0.005143706964917765,-0.006997541446493957,0.7070795918895587,0,-1,-0.0010650793658655289,-1.5732787291156214,-0.004933182393209279,-1.5769594351397913,-0.0015566984759729507,-0.0035327116595667007
713,1734171266,357939720,-0.006896440314354499,0.256148119426761,1.4272738997696641,-0.7070809190712658,-0.0051059443003802244,-0.006934155375788356,0.7070802081145816,0,-1,-0.001077000294820607,-1.5732787291156214,-0.004945103322164357,-1.576935116444723,-0.0015328566180627945,-0.003568474446431935
730,1734171266,373925209,-0.006934449364092411,0.2561483336533398,1.4272735606257692,-0.7070806300961234,-0.005139492211124821,-0.006984898052749103,0.7070797545976503,0,-1,-0.001077000294820607,-1.5733030478106897,-0.005004707966939748,-1.5769231955157679,-0.0015566984759729507,-0.003556553517476857
745,1734171266,389871835,-0.00686664999906732,0.25614834734073505,1.427273936539728,-0.7070810049130468,-0.005093132162425478,-0.006946967505872044,0.7070800889138404,0,-1,-0.0010288397418420914,-1.5732668081866663,-0.005004707966939748,-1.576935116444723,-0.0014970938311975601,-0.0035207907306116226
761,1734171266,406154870,-0.006936272858495258,0.25614842319906533,1.427273575125229,-0.7070808887260478,-0.005114373622256958,-0.006959779487263955,0.7070799257865572,0,-1,-0.0010650793658655289,-1.5732429663287562,-0.004980866109029591,-1.5769112745868128,-0.0015447775470178726,-0.003544632588521779
778,1734171266,421969413,-0.006907206632179555,0.25614812878604687,1.4272737638774935,-0.7070807138149089,-0.005122802449730408,-0.0069594424993135295,0.7070800429980744,0,-1,-0.0010407606707971695,-1.5732429663287562,-0.004980866109029591,-1.5769112745868128,-0.0015447775470178726,-0.0035207907306116226
793,1734171266,437902688,-0.006901817168970584,0.256148811175676,1.4272735945850397,-0.707080840944106,-0.005101561366079614,-0.007005970728019256,0.7070796099560235,0,-1,-0.0010650793658655289,-1.5733030478106897,-0.004909340535299123,-1.5769112745868128,-0.0015686194049280289,-0.0035327116595667007
810,1734171266,453920841,-0.0068987303488856466,0.2561486398516787,1.4272737486124332,-0.707080951121649,-0.005105775978173025,-0.006976469004612768,0.7070797610544319,0,-1,-0.0010407606707971695,-1.5732911268817347,-0.0048974196063440445,-1.576935116444723,-0.0015566984759729507,-0.0035327116595667007
825,1734171266,470163106,-0.00690788912157996,0.2561484734344261,1.427273710149603,-0.7070808103120182,-0.0051015611036677845,-0.00698068379171256,0.7070798906888848,0,-1,-0.0011008421527307632,-1.5732548872577112,-0.004957024251119435,-1.5769112745868128,-0.0015924612628381851,-0.003544632588521779
842,1734171266,485882282,-0.006893022289998869,0.25614855142307646,1.4272738202584265,-0.7070811149256324,-0.005101561566086032,-0.006946967244160409,0.7070799181360058,0,-1,-0.0010650793658655289,-1.5732429663287562,-0.004980866109029591,-1.576935116444723,-0.0015447775470178726,-0.003544632588521779
858,1734171266,502007484,-0.006945942827343987,0.25614860397540834,1.4272734869992645,-0.7070807880290298,-0.005118588110158643,-0.006989281185456922,0.7070797049870086,0,-1,-0.0010650793658655289,-1.5732668081866663,-0.0049927870379846695,-1.576935116444723,-0.0015209356891077164,-0.003544632588521779
873,1734171266,518229246,-0.006934059758024005,0.25614850162022007,1.4272735688807965,-0.7070807279775088,-0.005110158856855424,-0.006989281330873913,0.7070798260067471,0,-1,-0.001077000294820607,-1.5732911268817347,-0.0049927870379846695,-1.5769594351397913,-0.0015447775470178726,-0.0035207907306116226
889,1734171266,533884048,-0.006930296832975906,0.2561484134121562,1.4272735755492407,-0.7070806952028562,-0.00512263397825977,-0.006984898140107178,0.7070798118250462,0,-1,-0.0010889212237756851,-1.5732668081866663,-0.004957024251119435,-1.576935116444723,-0.0015447775470178726,-0.003544632588521779
906,1734171266,550050258,-0.006904066932171545,0.25614864057381526,1.4272736435019584,-0.7070808577543732,-0.005093132117292217,-0.00698911278093316,0.7070798207452331,0,-1,-0.0010650793658655289,-1.5732548872577112,-0.004957024251119435,-1.5769231955157679,-0.0015686194049280289,-0.0035327116595667007
921,1734171266,566182851,-0.006909091887126331,0.2561483086523206,1.427273733100929,-0.7070808662208681,-0.005118419534056898,-0.006955396411643088,0.707079962144719,0,-1,-0.001077000294820607,-1.5732787291156214,-0.004980866109029591,-1.576935116444723,-0.0015686194049280289,-0.003544632588521779
937,1734171266,582327365,-0.006875622623039778,0.25614844383598573,1.427273969121719,-0.7070811723301547,-0.005080488572781156,-0.006934323928968304,0.707080136564254,0,-1,-0.0010173956500452164,-1.5732668081866663,-0.004945103322164357,-1.576935116444723,-0.0015447775470178726,-0.0035207907306116226
953,1734171266,597754478,-0.006921520154751256,0.2561484915632285,1.427273611338992,-0.7070807829509206,-0.005118419563953329,-0.006980683528864986,0.7070797962183267,0,-1,-0.0010889212237756851,-1.5732787291156214,-0.004909340535299123,-1.5769231955157679,-0.0015209356891077164,-0.003556553517476857
970,1734171266,613898992,-0.006904033633388934,0.25614838715728755,1.4272737973978267,-0.707080907166811,-0.005105775791422435,-0.006959611052832572,0.7070799711402669,0,-1,-0.0010650793658655289,-1.5733030478106897,-0.004909340535299123,-1.5769112745868128,-0.0015328566180627945,-0.0035207907306116226
986,1734171266,630049228,-0.006920996525947613,0.2561484017759512,1.4272736581678878,-0.7070807665690315,-0.005105775707483471,-0.00697646920735346,0.7070799456072662,0,-1,-0.0010650793658655289,-1.5732548872577112,-0.004957024251119435,-1.5768993536578577,-0.0015686194049280289,-0.003556553517476857
1001,1734171266,645618200,-0.006882372784870849,0.25614819355334806,1.4272738890437768,-0.7070809654443215,-0.005114373627908589,-0.006934155174711117,0.7070801008236148,0,-1,-0.0010531584369104507,-1.5732911268817347,-0.004909340535299123,-1.576935116444723,-0.0015328566180627945,-0.003556553517476857
1017,1734171266,661910533,-0.00689797678133086,0.25614864071344845,1.4272737182298616,-0.7070810754740333,-0.005097346992904841,-0.006959610848785549,0.7070798636483376,0,-1,-0.0010531584369104507,-1.5732668081866663,-0.0049927870379846695,-1.5769594351397913,-0.0015566984759729507,-0.003568474446431935
1034,1734171266,678079843,-0.006927347066600902,0.25614832787792385,1.4272736134367763,-0.707080847909224,-0.005118251061003508,-0.00695522774305111,0.7070799833350478,0,-1,-0.0011008421527307632,-1.5732668081866663,-0.004980866109029591,-1.5768874327289026,-0.0015686194049280289,-0.003544632588521779
1049,1734171266,694200515,-0.006941411240770574,0.256148600745297,1.427273426994175,-0.7070808031469006,-0.005122634244808396,-0.006984897935551886,0.70707970388094,0,-1,-0.0010531584369104507,-1.5732787291156214,-0.004980866109029591,-1.5769231955157679,-0.001580540333883107,-0.0035327116595667007
1065,1734171266,710319757,-0.006902461202443869,0.2561483837649894,1.4272737797723543,-0.7070808806109086,-0.0051015611457166776,-0.006963825664734283,0.7070799866213793,0,-1,-0.0010650793658655289,-1.5733030478106897,-0.004921261464254201,-1.5769231955157679,-0.0015686194049280289,-0.003544632588521779
1082,1734171266,725953102,-0.006898117199074735,0.2561483808558131,1.4272737985225663,-0.7070808091944895,-0.005118419418630428,-0.006972254597724228,0.7070798531406092,0,-1,-0.0010650793658655289,-1.5732548872577112,-0.004933182393209279,-1.5769112745868128,-0.0015447775470178726,-0.0035207907306116226
1098,1734171266,742075681,-0.00688787184904242,0.25614828799557915,1.4272738541984313,-0.7070809297076565,-0.005118419613144786,-0.006946967303298321,0.7070799815223925,0,-1,-0.0010407606707971695,-1.5732787291156214,-0.004957024251119435,-1.5768993536578577,-0.0015686194049280289,-0.0035083929644983414
1113,1734171266,758233070,-0.006867662145693142,0.25614835349273896,1.4272739584680163,-0.7070811277459651,-0.005101561495323113,-0.006930109200356444,0.7070800707432467,0,-1,-0.0010650793658655289,-1.5732668081866663,-0.004945103322164357,-1.576935116444723,-0.0015447775470178726,-0.0035327116595667007
1129,1734171266,773789882,-0.006935309902089177,0.25614851322023985,1.4272735116946844,-0.7070808507518259,-0.005139998458108361,-0.0069682081515084595,0.7070796949362087,0,-1,-0.001077000294820607,-1.5732668081866663,-0.004933182393209279,-1.5769112745868128,-0.0015566984759729507,-0.0035327116595667007
1145,1734171266,789845943,-0.006884312216624185,0.25614819217607276,1.4272738679063302,-0.707080831909852,-0.005114373505953491,-0.006951013362447732,0.7070800688341796,0,-1,-0.001077000294820607,-1.5732548872577112,-0.004909340535299123,-1.576935116444723,-0.0015566984759729507,-0.003556553517476857
1162,1734171266,806072235,-0.006941741578742631,0.25614868889160164,1.4272733450166124,-0.7070807863868777,-0.005131063491121049,-0.006993326834965273,0.7070795762074762,0,-1,-0.001077000294820607,-1.5732911268817347,-0.004980866109029591,-1.5769231955157679,-0.0015686194049280289,-0.003544632588521779
1177,1734171266,822316169,-0.006868592094323631,0.25614851802898647,1.4272739491602464,-0.7070810335465342,-0.005080319909840924,-0.006959442558451757,0.707080029775735,0,-1,-0.0010889212237756851,-1.5732787291156214,-0.004957024251119435,-1.5769231955157679,-0.0015566984759729507,-0.0035327116595667007
1194,1734171266,837484598,-0.006884714561775628,0.2561485373026242,1.4272738165027279,-0.7070808701605625,-0.005109990358175034,-0.006980683645923476,0.7070797699746164,0,-1,-0.0010407606707971695,-1.5732548872577112,-0.004957024251119435,-1.5768993536578577,-0.0015686194049280289,-0.0035327116595667007
1210,1734171266,853925228,-0.006952474597919002,0.25614844382476576,1.427273362943907,-0.7070807837729981,-0.00513932408346698,-0.006967871026117777,0.7070797701393323,0,-1,-0.0010531584369104507,-1.5732787291156214,-0.005004707966939748,-1.5769231955157679,-0.001580540333883107,-0.0035207907306116226
1225,1734171266,870317220,-0.006954754609300108,0.25614869982113947,1.4272733352703362,-0.7070807617854663,-0.005118588256426345,-0.006997710114511236,0.7070796478617518,0,-1,-0.0010889212237756851,-1.5732668081866663,-0.0049927870379846695,-1.5769112745868128,-0.0015209356891077164,-0.003544632588521779
1241,1734171266,885856866,-0.006898710098884315,0.25614820544329403,1.427273797465891,-0.7070807072037738,-0.005122802486219556,-0.006967871520168444,0.7070799665959832,0,-1,-0.0010407606707971695,-1.5732429663287562,-0.004933182393209279,-1.5769112745868128,-0.0015924612628381851,-0.003556553517476857
1257,1734171266,902164697,-0.006945558072556032,0.25614851915651443,1.4272734562726521,-0.707080709949228,-0.005135446416643616,-0.006989281038647462,0.7070796608292167,0,-1,-0.0011008421527307632,-1.5732668081866663,-0.004945103322164357,-1.5768993536578577,-0.0015447775470178726,-0.0035327116595667007
1273,1734171266,917749404,-0.006914085698532704,0.25614847836440524,1.4272737069666388,-0.7070808140005036,-0.005093131928012308,-0.006980683878160144,0.7070799477655566,0,-1,-0.001077000294820607,-1.5732787291156214,-0.004933182393209279,-1.5769112745868128,-0.0015209356891077164,-0.0035327116595667007
1289,1734171266,933745145,-0.006845152478179543,0.2561484992966019,1.4272740928152956,-0.7070813237704412,-0.005076105648157978,-0.006921511624488125,0.7070801421361806,0,-1,-0.0010650793658655289,-1.5732911268817347,-0.004921261464254201,-1.576947037373678,-0.0015566984759729507,-0.003544632588521779
1305,1734171266,949897766,-0.006912611055985279,0.25614840309837045,1.4272736863363573,-0.7070809645763225,-0.005127017594908787,-0.006946798457595629,0.7070798860210835,0,-1,-0.001077000294820607,-1.5732548872577112,-0.005004707966939748,-1.5769231955157679,-0.0015924612628381851,-0.0035327116595667007
1321,1734171266,965604543,-0.006938352009702798,0.25614868176445915,1.4272734712097495,-0.7070808979592622,-0.005101561481093679,-0.006980683498224799,0.7070798030416904,0,-1,-0.0010288397418420914,-1.5732911268817347,-0.004957024251119435,-1.5768993536578577,-0.0015328566180627945,-0.003544632588521779
1337,1734171266,981760740,-0.0069123719990259475,0.2561484817106583,1.4272736136812176,-0.7070808200074096,-0.005114204997485753,-0.006976469034153911,0.7070798312529558,0,-1,-0.0010531584369104507,-1.5732787291156214,-0.004980866109029591,-1.5769231955157679,-0.0015566984759729507,-0.003544632588521779
1354,1734171266,997875928,-0.006861348253022014,0.25614833474520304,1.427274045357986,-0.7070808446359508,-0.005084702602861559,-0.006972255033572377,0.7070800609606366,0,-1,-0.0010531584369104507,-1.5732787291156214,-0.004921261464254201,-1.5769231955157679,-0.001580540333883107,-0.0035327116595667007
1369,1734171267,14002799,-0.006891814359337128,0.256148198266477,1.4272738821123458,-0.7070808621956137,-0.0051059441845672645,-0.006951013566137551,0.7070800994661743,0,-1,-0.001077000294820607,-1.5732548872577112,-0.004980866109029591,-1.576947037373678,-0.0015328566180627945,-0.003544632588521779
1385,1734171267,30099868,-0.006895013465483159,0.2561483741019192,1.4272738775830014,-0.7070808843998776,-0.00509313196942596,-0.006963825751029673,0.7070800435975676,0,-1,-0.0010288397418420914,-1.5732787291156214,-0.004980866109029591,-1.5769231955157679,-0.0015447775470178726,-0.003556553517476857
1401,1734171267,45676469,-0.006932313609860437,0.2561485048922188,1.4272736245697455,-0.7070808952366979,-0.0051143735862416995,-0.006968208565333361,0.707079836258594,0,-1,-0.0010650793658655289,-1.5732548872577112,-0.004957024251119435,-1.5769231955157679,-0.0015447775470178726,-0.0035327116595667007
1417,1734171267,61664104,-0.006894592906486318,0.2561486352970058,1.4272737994789135,-0.7070810314689501,-0.005097346807752675,-0.006968040043292455,0.7070798246381254,0,-1,-0.0011008421527307632,-1.5732911268817347,-0.0049927870379846695,-1.5769231955157679,-0.0015566984759729507,-0.0035327116595667007
1433,1734171267,77751874,-0.006937553092343373,0.25614834031781897,1.4272734810006091,-0.707080738090407,-0.005139492478642622,-0.006968039752643805,0.7070798129352817,0,-1,-0.0010889212237756851,-1.5732548872577112,-0.005004707966939748,-1.5769112745868128,-0.0015085379229944351,-0.0035207907306116226
1449,1734171267,93901872,-0.0069414917150880835,0.2561481674818801,1.4272735918471993,-0.707080752344212,-0.0051314003960230906,-0.006951181797644658,0.7070800233820321,0,-1,-0.0010407606707971695,-1.5732668081866663,-0.004945103322164357,-1.5769231955157679,-0.0015447775470178726,-0.0035207907306116226
1465,1734171267,110178709,-0.006925390731070174,0.25614849401430817,1.4272735598168769,-0.7070807628303045,-0.0051142048824358065,-0.00698489816971412,0.7070798052138767,0,-1,-0.0010531584369104507,-1.5733030478106897,-0.004921261464254201,-1.5769112745868128,-0.0015447775470178726,-0.0035327116595667007
1481,1734171267,126024961,-0.006966567235461203,0.2561482743357223,1.427273382228867,-0.7070805302246577,-0.005135614685866279,-0.006989112689997812,0.7070798409959244,0,-1,-0.0010889212237756851,-1.5732787291156214,-0.0049927870379846695,-1.576935116444723,-0.0015085379229944351,-0.003556553517476857
1497,1734171267,141806125,-0.006935685599694182,0.256148249039249,1.4272735818325752,-0.7070807627066686,-0.005139660916890365,-0.006959442238990993,0.7070798717680608,0,-1,-0.0010650793658655289,-1.5732668081866663,-0.004957024251119435,-1.5769112745868128,-0.0015447775470178726,-0.003544632588521779
1514,1734171267,157906532,-0.006919563135614379,0.25614823056828745,1.4272737150337973,-0.7070808344787988,-0.005122802645559819,-0.006951013305512453,0.7070800052468228,0,-1,-0.0010650793658655289,-1.5732787291156214,-0.004921261464254201,-1.5769231955157679,-0.0015686194049280289,-0.0035327116595667007
1529,1734171267,174115419,-0.0069019744987888305,0.2561483866685764,1.4272737496911903,-0.707080822678849,-0.005122634136301605,-0.006968039927440831,0.7070798506808672,0,-1,-0.0011008421527307632,-1.5732911268817347,-0.004945103322164357,-1.576935116444723,-0.0015566984759729507,-0.003544632588521779
1545,1734171267,190005302,-0.006886458210513536,0.25614818921763116,1.4272738790091195,-0.7070807891268082,-0.005097515002068244,-0.006959442699598407,0.707080150439768,0,-1,-0.0010650793658655289,-1.5732668081866663,-0.004921261464254201,-1.5769112745868128,-0.001580540333883107,-0.0035207907306116226
1561,1734171267,205836296,-0.006906598645460899,0.2561483881716963,1.4272737289351591,-0.7070807389458422,-0.005118419375505598,-0.0069806836750958435,0.7070798402233841,0,-1,-0.0010889212237756851,-1.5732548872577112,-0.004945103322164357,-1.5769112745868128,-0.0015924612628381851,-0.0035207907306116226
1578,1734171267,221901416,-0.006923507293034466,0.25614823296878153,1.427273629406124,-0.7070806900900432,-0.0051312317339765375,-0.006967871374734951,0.707079922590923,0,-1,-0.0010650793658655289,-1.5733030478106897,-0.0048974196063440445,-1.5769231955157679,-0.0015686194049280289,-0.003556553517476857
1594,1734171267,237942934,-0.006895447573371494,0.25614829428269115,1.4272738341207425,-0.7070808662208681,-0.005118419534056898,-0.006955396411643087,0.707079962144719,0,-1,-0.0010531584369104507,-1.573231045399801,-0.004921261464254201,-1.5769112745868128,-0.0015447775470178726,-0.003544632588521779
1609,1734171267,254060268,-0.006965294342275137,0.2561484524048291,1.4272733181957606,-0.707080602364751,-0.005139660939533908,-0.006993495561684049,0.7070796961197203,0,-1,-0.001077000294820607,-1.5732548872577112,-0.004909340535299123,-1.5769112745868128,-0.0015447775470178726,-0.0035207907306116226
1625,1734171267,270185947,-0.006922077939531477,0.25614814235560807,1.4272737257652963,-0.7070807427850528,-0.005109990200257776,-0.006955059447747227,0.7070801498633443,0,-1,-0.0010889212237756851,-1.573231045399801,-0.004957024251119435,-1.5769231955157679,-0.0015447775470178726,-0.0035327116595667007
1641,1734171267,285720586,-0.006891295041982389,0.25614837358967163,1.4272738489918095,-0.7070808396900863,-0.005114204888493576,-0.006968040073252972,0.7070798946859248,0,-1,-0.0010889212237756851,-1.5732668081866663,-0.004945103322164357,-1.5769594351397913,-0.0015686194049280289,-0.003568474446431935
1658,1734171267,301822185,-0.006934794799447651,0.25614833741289844,1.4272735150857647,-0.7070807816324239,-0.005135277877226591,-0.006963825286507186,0.7070798415345916,0,-1,-0.0011008421527307632,-1.5732668081866663,-0.004957024251119435,-1.5768993536578577,-0.0015924612628381851,-0.0035083929644983414
1674,1734171267,317932367,-0.006938933089797237,0.25614859634235326,1.427273458955344,-0.7070808134465181,-0.005114205033972903,-0.0069848980527491035,0.7070797545976503,0,-1,-0.0010889212237756851,-1.5732787291156214,-0.004933182393209279,-1.576947037373678,-0.001580540333883107,-0.0035207907306116226
1689,1734171267,334083557,-0.006878798126982603,0.25614853086009026,1.4272738174370867,-0.70708086359967,-0.005109990394466655,-0.006980683616776171,0.7070797765355445,0,-1,-0.0010531584369104507,-1.5732548872577112,-0.004957024251119435,-1.576935116444723,-0.0015566984759729507,-0.0035327116595667007
1705,1734171267,349765777,-0.0068733350873688434,0.2561482692903,1.4272740019074421,-0.7070810245957266,-0.005093132054019891,-0.00693853854154969,0.7070801519951223,0,-1,-0.0010889212237756851,-1.5732429663287562,-0.004909340535299123,-1.5769112745868128,-0.0015686194049280289,-0.0035327116595667007
1721,1734171267,365751743,-0.00686344431585588,0.256148427297975,1.4272740163796873,-0.7070809479871502,-0.005093132047881005,-0.006963825694144195,0.707079980010209,0,-1,-0.001077000294820607,-1.5732911268817347,-0.004933182393209279,-1.5769231955157679,-0.001580540333883107,-0.0035327116595667007
1738,1734171267,381942033,-0.006926717391471054,0.25614858132288104,1.4272735869802966,-0.7070807771129098,-0.005110327591527311,-0.006989449793973628,0.7070797739865625,0,-1,-0.0010650793658655289,-1.5732787291156214,-0.004957024251119435,-1.5769231955157679,-0.0015686194049280289,-0.003556553517476857
1754,1734171267,398043155,-0.006891134373891216,0.25614819927630833,1.4272738174370867,-0.7070808319098522,-0.005114373505953491,-0.006951013362447732,0.7070800688341796,0,-1,-0.0010650793658655289,-1.5732668081866663,-0.004945103322164357,-1.5769231955157679,-0.0015924612628381851,-0.003544632588521779
1769,1734171267,414102554,-0.006896532338919978,0.25614863401005034,1.4272737783807699,-0.70708095849862,-0.005088917626862371,-0.006976469180229565,0.7070798752077712,0,-1,-0.0010650793658655289,-1.5732429663287562,-0.0048974196063440445,-1.5769112745868128,-0.0015328566180627945,-0.0035327116595667007
1785,1734171267,429723978,-0.0069073137457357475,0.2561485601938311,1.4272736783032627,-0.7070808911726195,-0.005097346725099487,-0.00697646915070143,0.707079881818941,0,-1,-0.001077000294820607,-1.5732787291156214,-0.004933182393209279,-1.5769231955157679,-0.0015566984759729507,-0.0035327116595667007
1802,1734171267,445760726,-0.006959152180387157,0.25614844414540305,1.4272734340353186,-0.7070807547353839,-0.005114373501822687,-0.006976637671203415,0.7070798936423864,0,-1,-0.0010407606707971695,-1.5732668081866663,-0.004933182393209279,-1.5768874327289026,-0.0015566984759729507,-0.0035207907306116226
1817,1734171267,462059736,-0.00691452711230582,0.25614849083716057,1.427273620249225,-0.707080970934236,-0.005127017559664152,-0.00695522753458579,0.7070797968006037,0,-1,-0.0010650793658655289,-1.5732668081866663,-0.004957024251119435,-1.576935116444723,-0.0015686194049280289,-0.003556553517476857
1833,1734171267,478096723,-0.006879043152992589,0.2561483570922626,1.4272739305300441,-0.7070809214061268,-0.005088917402033557,-0.006959611255136185,0.7070800784312309,0,-1,-0.0010650793658655289,-1.5732787291156214,-0.004957024251119435,-1.5768874327289026,-0.001580540333883107,-0.003556553517476857
1849,1734171267,493654727,-0.00683660306829327,0.256148315338357,1.4272741714060175,-0.7070810786994575,-0.005084703027133708,-0.006938538512402386,0.7070801585560503,0,-1,-0.0010531584369104507,-1.5732787291156214,-0.004933182393209279,-1.576935116444723,-0.0015566984759729507,-0.0035803953753870132
1866,1734171267,509949684,-0.006919843277794039,0.25614822915541713,1.4272737129460318,-0.70708080141325,-0.005118588036043962,-0.006955227887957295,0.7070800273903511,0,-1,-0.0010531584369104507,-1.5732668081866663,-0.004945103322164357,-1.576935116444723,-0.0015447775470178726,-0.003556553517476857
1881,1734171267,525575637,-0.006878378255491252,0.256148274601557,1.427273901807555,-0.7070807852346656,-0.005122633912489345,-0.006968040102439385,0.7070798881249969,0,-1,-0.001077000294820607,-1.5732787291156214,-0.004909340535299123,-1.5768993536578577,-0.0015566984759729507,-0.003544632588521779
1897,1734171267,541646957,-0.006878837442563614,0.25614861105637976,1.4272738936050096,-0.7070808813767447,-0.005084702830256042,-0.0069891129573437325,0.7070798577874237,0,-1,-0.0010650793658655289,-1.5732911268817347,-0.004980866109029591,-1.5768874327289026,-0.001580540333883107,-0.0035327116595667007
1913,1734171267,557556629,-0.006941420632503842,0.25614851470048855,1.427273507338394,-0.7070808822153978,-0.005114373658349827,-0.006968208507249219,0.7070798492799643,0,-1,-0.001077000294820607,-1.5732787291156214,-0.004945103322164357,-1.576947037373678,-0.0015447775470178726,-0.0035083929644983414
1929,1734171267,573829412,-0.006966968723198855,0.25614836790138984,1.4272733352703362,-0.7070807019392543,-0.005126848734413074,-0.006972254390313738,0.707079899329533,0,-1,-0.001077000294820607,-1.5732668081866663,-0.0049927870379846695,-1.5769112745868128,-0.001580540333883107,-0.003556553517476857
1945,1734171267,590106248,-0.006953049974747886,0.25614835663849733,1.4272733949903627,-0.70708073163,-0.005139492514570947,-0.0069680397235193335,0.707079819395723,0,-1,-0.0010650793658655289,-1.5732787291156214,-0.005052868519918263,-1.5769231955157679,-0.0015085379229944351,-0.0035327116595667007
1961,1734171267,605780363,-0.00708708811010255,0.2561485953934909,1.4272722154875426,-0.7070803625295743,-0.005224121466108158,-0.007010521139622563,0.707079148379659,0,-1,-0.001077000294820607,-1.5732429663287562,-0.0052445570575159195,-1.5768993536578577,-0.0013054052935999039,-0.003472630177633107
1977,1734171267,621756076,-0.007280381713340516,0.25614882958148927,1.4272704316817608,-0.7070804723478982,-0.005346851140732466,-0.0069720825179075555,0.7070785012093888,0,-1,-0.000981632863179982,-1.5732548872577112,-0.005747620259420216,-1.576827351246969,-0.0010417143451135757,-0.003376785908834279
1993,1734171267,637876749,-0.007777339056120647,0.2561487285043783,1.4272660105374433,-0.7070799547890074,-0.005668677130886214,-0.006929764244564728,0.7070769279241655,0,-1,-0.0009334723102014664,-1.5733030478106897,-0.006525818501607716,-1.5766356627093714,-0.00047904649843388825,-0.0031855742083948257
2009,1734171267,653593778,-0.008483450120168498,0.2561486110155732,1.4272589865598455,-0.7070800620849473,-0.006117277164513741,-0.006777191454704039,0.7070745607063131,0,-1,-0.0008733908282678726,-1.5732911268817347,-0.007615391408101857,-1.5763714949237269,0.000514947168994695,-0.0029218832599084976
2025,1734171267,669765233,-0.009623856993315317,0.25614826169259813,1.4272463963087476,-0.7070797644693808,-0.0069219159671394205,-0.006616186895273629,0.7070689639831716,0,-1,-0.000645939503804982,-1.57335073152651,-0.009363476430074513,-1.5759642759906214,0.001928711193613708,-0.0025747458087366226
2041,1734171267,686161756,-0.011217887490474253,0.2561473887797588,1.4272262054266338,-0.7070798194292452,-0.007971763652553988,-0.006395734619606756,0.7070598804336514,0,-1,-0.00041848817934209137,-1.573458496724264,-0.011590305958883107,-1.5755441824542444,0.003785517066717148,-0.002083603535787404
2057,1734171267,701789379,-0.013270418638185382,0.25614390913605395,1.4271956518807225,-0.7070791034137532,-0.0093640374409502,-0.0061625725870600384,0.7070455989662312,0,-1,-0.00017911592592412262,-1.5735543409930628,-0.014416042958394826,-1.575029198323385,0.005977132357656956,-0.0015204588519495132
2073,1734171267,718103885,-0.015882902680591247,0.2561385632792254,1.4271499592276236,-0.7070792199813667,-0.011036149096594214,-0.005895313878736107,0.70702363847182,0,-1,0.00016777915880084038,-1.573770825062887,-0.017732922230855763,-1.5743334929095667,0.008696427568793297,-0.0007661024676721695
2090,1734171267,733781576,-0.018889783081432278,0.25612947170777783,1.4270872395159617,-0.7070803897772272,-0.01298291403402632,-0.005538765918043242,0.7069922831317005,0,-1,0.0005744937807321548,-1.5739863554583948,-0.021528546010152638,-1.573578182850973,0.011810453608632088,7.190534961409867e-05
2105,1734171267,750022411,-0.02231281529119364,0.25611616062329373,1.4270022356140866,-0.707083530128222,-0.015175845981283942,-0.0051322981851576925,0.7069485374732044,0,-1,0.0010171610629186034,-1.5742862860309046,-0.025755230580465138,-1.5727384726153772,0.015284006483852863,0.0011980480048805475
2121,1734171267,765840291,-0.02608266402330553,0.2560933624579001,1.4268935572996466,-0.7070887485307974,-0.0175798255950338,-0.004539497220946832,0.7068916779805658,0,-1,0.0016036391025409102,-1.5745623747455042,-0.03036529222597295,-1.571730915700094,0.019033197313547134,0.0025032050907611847
2137,1734171267,782191514,-0.030119900252323393,0.2560652811819073,1.426757941073406,-0.7070974381740676,-0.020063648555696204,-0.003924787658539925,0.7068205281230446,0,-1,0.0022024759091436863,-1.5748737494098108,-0.0352862516986292,-1.5706399122821253,0.02302207052707672,0.0038566733710467815
2154,1734171267,798057317,-0.034308987355006274,0.25602652418701966,1.426596796705986,-0.7071067779210551,-0.022745821548490273,-0.0032216981714787976,0.7067335090973681,0,-1,0.002788579324260354,-1.5751617590533655,-0.04039889970888311,-1.5695131460772913,0.02721392922103405,0.005222126375883818
2169,1734171267,814274549,-0.03867524305933837,0.2559816732784674,1.4264053778660128,-0.7071197856717877,-0.025516569006254236,-0.0025481064891470216,0.7066286298834445,0,-1,0.003446962684392929,-1.575437370930807,-0.04567939439882451,-1.5682781378375452,0.031550344079732895,0.006670719478279352
2186,1734171267,830191373,-0.04317365126127923,0.255925468253931,1.426185157220176,-0.7071352007664368,-0.028371474375178108,-0.0018073305279314887,0.7065066176867366,0,-1,0.00416526710614562,-1.5757129828082483,-0.051043335591451466,-1.5671027342425745,0.03599424660205841,0.008167623542249203
2202,1734171267,845985651,-0.0476854816156811,0.2558615779125688,1.425940053393749,-0.7071534997231314,-0.03122163745039057,-0.0010121750612914328,0.7063696714085967,0,-1,0.004834885708987713,-1.5759652296649378,-0.05649120012392217,-1.5658920446978968,0.04051005095243454,0.00960498210042715
2217,1734171267,862463712,-0.05224024346635265,0.25578774899470125,1.4256670335795725,-0.7071718324161475,-0.03416412835313538,-0.0002847761458097381,0.7062157819488357,0,-1,0.0055412063375115395,-1.5762651602374476,-0.06196290651430303,-1.564704720173971,0.04508578032255173,0.011006012558937073
2234,1734171267,877857446,-0.056927608809898576,0.2557055577187832,1.4253622148909808,-0.7071956682104157,-0.037139607595954104,0.0004929243317819782,0.7060415663667723,0,-1,0.006259136367589235,-1.5765894095050257,-0.06747085252870733,-1.563469711934225,0.049649521708488464,0.012575197033584118
2250,1734171267,894157886,-0.061601089261184835,0.2556153547356588,1.425032238449604,-0.7072226387265322,-0.040084900309559454,0.0012652721225759737,0.7058524910534136,0,-1,0.006977440789341927,-1.576960865651266,-0.07294255891908819,-1.5622709433185022,0.05420127883553505,0.014084085822105408
2265,1734171267,910284996,-0.06619922072112426,0.25551698905639614,1.4246843362630714,-0.7072476049933195,-0.04302924828624012,0.0019953132281940052,0.7056524128409511,0,-1,0.007659792434424162,-1.577308479939596,-0.07818633714784795,-1.5610840956317347,0.05862158536911011,0.015449538826942444
2282,1734171267,926099300,-0.07071434280810303,0.2554130350937353,1.424316604886422,-0.7072763152826914,-0.04590483326187602,0.002733359833936199,0.7054399257678547,0,-1,0.008330159820616245,-1.5777161757098597,-0.08343059221376592,-1.5598967711078089,0.06294602155685425,0.016922475770115852
2298,1734171267,942213773,-0.0751507036806249,0.2553043163720288,1.423933679535196,-0.7073080214986948,-0.04863154928089041,0.003432375236649841,0.7052223436182217,0,-1,0.008988169021904469,-1.578088108693258,-0.08849507967104131,-1.5587218443499964,0.06710267066955566,0.01835983246564865
2313,1734171267,958325862,-0.07949402918273593,0.2551945221318426,1.4235346310443275,-0.7073405222699047,-0.05129850983227419,0.004046740993314017,0.7049974981028369,0,-1,0.009562662802636623,-1.5784114042865198,-0.09353572527040654,-1.5576069990741175,0.07105521857738495,0.019665364176034927
2330,1734171267,974426984,-0.0835508334338857,0.2550846473835071,1.4231403428629048,-0.7073719549389794,-0.05386351147343551,0.00464340538543884,0.7047709402947769,0,-1,0.010065251030027866,-1.5787118116961878,-0.09816915193666631,-1.5565274397479456,0.07492462545633316,0.020814726129174232
2345,1734171267,989962816,-0.0873929005544546,0.2549732574181241,1.422747378936345,-0.7074025872602268,-0.05630929829517898,0.005231252326015985,0.7045448718585235,0,-1,0.01066333893686533,-1.578963581715719,-0.1026833693133753,-1.5555203596698206,0.07863786816596985,0.02206033654510975
2361,1734171268,5995750,-0.09108460787638491,0.2548618875121259,1.4223542078277287,-0.7074371535451828,-0.05861933885915963,0.005853290149030765,0.7043168220978652,0,-1,0.01117828581482172,-1.5792034308062952,-0.10700494447817022,-1.5544889608966272,0.0821717157959938,0.02326999418437481
2377,1734171268,22140979,-0.09461913240883982,0.2547481546215016,1.421957208140358,-0.7074733264816798,-0.06084806398114281,0.006478609779066926,0.7040859557199135,0,-1,0.011704842559993267,-1.5794313589679163,-0.1112435499774378,-1.5534818808185022,0.08570556342601776,0.02441973052918911
2393,1734171268,37851333,-0.09809925957922333,0.25463290281334516,1.4215526254261495,-0.7075052622675527,-0.06309727339375958,0.007032152556614587,0.7038505429311077,0,-1,0.012255743145942688,-1.5795872847186487,-0.11555415788759404,-1.5525229612933558,0.08922705054283142,0.02544962614774704
2410,1734171268,53878307,-0.10161423863611038,0.2545098692097011,1.4211274741427167,-0.7075399204466767,-0.06537146621353368,0.007618266422703943,0.7036020142069777,0,-1,0.01272200420498848,-1.5797551313983362,-0.11988765398134404,-1.551563564931051,0.09276127070188522,0.02657501958310604
2426,1734171268,69982290,-0.1052367709990932,0.25438386612963815,1.4206715024726715,-0.7075801292445427,-0.06767763114868904,0.008178498014661022,0.7033371958816074,0,-1,0.013284513726830482,-1.5799711386310022,-0.12442523637880498,-1.5505927244769495,0.0964265763759613,0.027785051614046097
2441,1734171268,85973978,-0.10897969953545338,0.2542442145811765,1.4201845178361547,-0.7076225120020482,-0.0700886882051592,0.008750588920579266,0.7030514799693791,0,-1,0.013811444863677025,-1.5801628271686,-0.1290348211871546,-1.5495970884906214,0.10016415268182755,0.029030662029981613
2457,1734171268,101988077,-0.11292837536765782,0.2540941954259337,1.4196561343947358,-0.7076653740523845,-0.07260366356837032,0.00929173850492151,0.7027461063565601,0,-1,0.01442151702940464,-1.5804384390460413,-0.13382369676698858,-1.5486376921283167,0.10411745309829712,0.030180398374795914
2473,1734171268,118203163,-0.11696830581825782,0.25393438764129284,1.4190944099650642,-0.7077120224087857,-0.07527708051565674,0.009874014967234616,0.7024098221946591,0,-1,0.014960058033466339,-1.5807507673846644,-0.13878041902651006,-1.5476544539081019,0.10817822813987732,0.03142600879073143
2490,1734171268,133750438,-0.12119711461067713,0.25375899730249996,1.4184868644590272,-0.7077602145798104,-0.07798728914043451,0.010434038397383324,0.702057399528834,0,-1,0.015546536073088646,-1.5810864607440394,-0.1438205877887171,-1.5465996901141565,0.11227495968341827,0.03271918371319771
2506,1734171268,149893045,-0.12546741440043854,0.25358171888234227,1.4178494124247858,-0.7078128452426643,-0.08070799449629952,0.010972363460866597,0.7016885370119368,0,-1,0.0161210298538208,-1.5813620726214808,-0.14895660081972295,-1.5454848448382776,0.11644397675991058,0.034072648733854294
2521,1734171268,166078805,-0.12975972122304782,0.2533952464676654,1.417186694541348,-0.7078728916505672,-0.08344793759263162,0.011648622312858521,0.7012964569823614,0,-1,0.016815366223454475,-1.5816858450519007,-0.15417653719057256,-1.5443699995623987,0.12064856290817261,0.035402148962020874
2537,1734171268,182234525,-0.1341074019901912,0.25318606528277793,1.4164964707557477,-0.7079279714617264,-0.08619920763252217,0.012285512374957452,0.7008971037258572,0,-1,0.0174733754247427,-1.5819738546954554,-0.15939647356142217,-1.5432303587542933,0.12494940310716629,0.03679119795560837
2554,1734171268,197945356,-0.13842461999248434,0.2529697613695312,1.4157835671132544,-0.7079847787260708,-0.0889907181604829,0.012972204188194811,0.7004783559054326,0,-1,0.018155353143811226,-1.5822375456439417,-0.16464025179018194,-1.5420315901385706,0.12920230627059937,0.038156650960445404
2569,1734171268,214198350,-0.1427410723029403,0.2527528670465831,1.4150448832978597,-0.7080471476976721,-0.09175488186933511,0.01363232662090044,0.7000460256020573,0,-1,0.018790140748023987,-1.5825255552874964,-0.16986018816103154,-1.540832821522848,0.13341888785362244,0.03953371196985245
2586,1734171268,229914426,-0.14706445419077677,0.25252906575759165,1.4142866612405656,-0.7081156941281175,-0.0945129680159728,0.014362384548078503,0.6995950146451584,0,-1,0.019436540082097054,-1.5828493277179163,-0.17503196397890264,-1.5396454969989222,0.13789911568164825,0.040851227939128876
2602,1734171268,246121644,-0.15143454777765328,0.25229554461135056,1.41349303609214,-0.7081782918368781,-0.09735801749042439,0.015003214599589147,0.6991279045732722,0,-1,0.020070206373929977,-1.583149258290426,-0.18041927019228154,-1.5384581724749964,0.1422119289636612,0.04221668094396591
2617,1734171268,262258291,-0.1558364368805891,0.25205006622678383,1.4126722978836854,-0.7082466403554497,-0.10020857824886796,0.01567564680764107,0.6986409745840282,0,-1,0.020740574225783348,-1.5834010283099573,-0.18573505083192998,-1.5373676458941858,0.1465962827205658,0.04361733794212341
2633,1734171268,277915716,-0.16026274325479098,0.2518026233566614,1.4118177524785918,-0.7083185742300763,-0.10306087396338866,0.016284113683683602,0.6981390128764552,0,-1,0.021351395174860954,-1.5836766401873987,-0.19105035463442022,-1.5362399260150355,0.15095704793930054,0.04492286965250969
2650,1734171268,293943643,-0.1645831843300316,0.25154497073153526,1.4109610936437946,-0.7083910645995538,-0.10584873222105581,0.016962091426208987,0.6976320182855392,0,-1,0.02197345159947872,-1.5839765707599085,-0.19629413286317998,-1.5351737181292933,0.15523391962051392,0.04633625969290733
2666,1734171268,310145616,-0.16884447268200142,0.2512934464160384,1.4100905630437666,-0.7084711858741469,-0.10858760165103491,0.017609920235312094,0.6971134787558351,0,-1,0.02263183519244194,-1.5843122641192835,-0.20144206682314092,-1.534034554158346,0.1594388782978058,0.047761257737874985
2681,1734171268,326232671,-0.17309315258941235,0.25103388995376397,1.409203882182097,-0.7085495586051608,-0.11117030186710908,0.018142281530863925,0.6966129087262612,0,-1,0.023254266008734703,-1.5846002737628382,-0.20654231706728154,-1.5329673925982874,0.16346408426761627,0.04919861629605293
2698,1734171268,342019081,-0.17727223839047693,0.25076715798296756,1.4083074038023273,-0.7086284791383284,-0.11390145433375569,0.01879151809294736,0.6960740018866655,0,-1,0.023900290951132774,-1.5848763624774378,-0.2116182486163538,-1.5318520704852503,0.16762110590934753,0.05046819522976875
2713,1734171268,357733488,-0.18136367551371424,0.25049734257967005,1.4074052568977629,-0.708708468481628,-0.11654224913278992,0.019461259587188008,0.6955368216311599,0,-1,0.02448676899075508,-1.585128132496969,-0.21671802202333623,-1.5307610670672815,0.17174255847930908,0.05185724049806595
2730,1734171268,374118804,-0.18548953437013882,0.250225086542774,1.4064739285956203,-0.7087922050306392,-0.11917717830476116,0.020082432246151465,0.6949871266248019,0,-1,0.02508523128926754,-1.5854280630694788,-0.22165042558778936,-1.5296581427203577,0.17582768201828003,0.05315078794956207
2745,1734171268,389604806,-0.18949293176076348,0.24995491401756192,1.4055468764220969,-0.708877301820175,-0.12173440599833066,0.02072033187841716,0.6944381709030909,0,-1,0.025671709328889847,-1.5856316725360315,-0.2266781965838831,-1.52844745317568,0.17994876205921173,0.054492272436618805
2761,1734171268,405937194,-0.19352387955243627,0.24967279169242712,1.4045912083843826,-0.7089626533971161,-0.12433123808892745,0.021364674199955875,0.6938712056424629,0,-1,0.02626979537308216,-1.5858715216266077,-0.23165876070131475,-1.5272844473468226,0.18403425812721252,0.05580941215157509
2777,1734171268,421616554,-0.19753981808386253,0.24938841250030253,1.4036179080799653,-0.7090465783738876,-0.12697614688768313,0.02197452099379255,0.6932871903078358,0,-1,0.02684466540813446,-1.5861471335040491,-0.23661452928651983,-1.5261929670916956,0.1882392168045044,0.05709097534418106
2794,1734171268,437822818,-0.20150588446287077,0.24910484929836652,1.4026300066111448,-0.709139406151506,-0.12952640480754768,0.022625032921898203,0.6926993005525585,0,-1,0.027467094361782074,-1.58635121980776,-0.24165469804872686,-1.52509051958193,0.19231273233890533,0.05837253853678703
2809,1734171268,453551054,-0.20554490741342993,0.24880009020313903,1.4016095784601192,-0.7092310666050778,-0.13212450630186723,0.023238528372588888,0.692094198643355,0,-1,0.028005260974168777,-1.5866149107562464,-0.2466824690448206,-1.523987118397848,0.1964457929134369,0.059689681977033615
2825,1734171268,469818353,-0.20959876745276224,0.24849020140116085,1.4005625835308464,-0.7093196730244635,-0.13480795632781747,0.023864172670590024,0.6914643285332467,0,-1,0.028591739013791084,-1.5868905226336878,-0.25177032152284795,-1.522872273121969,0.20065076649188995,0.06098322942852974
2841,1734171268,485521554,-0.2136632095520746,0.24817960870272296,1.3994902307616097,-0.7094143854980982,-0.13744683228299356,0.024471068021072906,0.6908261465619512,0,-1,0.02920255996286869,-1.5871427694903772,-0.25683433214296514,-1.5217812697040003,0.20476022362709045,0.06230074539780617
2857,1734171268,501977682,-0.21777055627741024,0.2478715680281302,1.3983823322039843,-0.709514493983765,-0.14006592948557725,0.02498292365149656,0.690178652053312,0,-1,0.029824616387486458,-1.587454620991842,-0.26182634035219365,-1.5206897894488733,0.2088577002286911,0.06358230859041214
2873,1734171268,517599582,-0.22185905155839816,0.24752921524703073,1.3972695983309074,-0.7096099241864962,-0.14269957895729227,0.02559385833611548,0.6895183391882463,0,-1,0.03043506294488907,-1.5877183119403284,-0.2670334021197718,-1.5196107069598597,0.21293121576309204,0.06485151499509811
2890,1734171268,533766031,-0.2260321302334004,0.24719045843320836,1.3960981131151573,-0.7097085276355977,-0.1453967551328486,0.026092750439564376,0.6888343471202996,0,-1,0.03105749376118183,-1.587982479725973,-0.2720735708819788,-1.518543545399801,0.217016339302063,0.06619299203157425
2905,1734171268,549447774,-0.22997520651711864,0.24684910316620656,1.3949733770280917,-0.7098102487737201,-0.14797899984935522,0.026738443698518067,0.6881545480253367,0,-1,0.03163161501288414,-1.5882580916034144,-0.27710134187807256,-1.5174649397479456,0.22105389833450317,0.06752249598503113
2921,1734171268,565657854,-0.23405217184478125,0.24650759958995855,1.3937867609553767,-0.7099122419434977,-0.15058348827924337,0.027247764397772625,0.6874640216998525,0,-1,0.0322420597076416,-1.588534180318014,-0.2821291128741663,-1.5163500944720667,0.22513939440250397,0.06877971440553665
2937,1734171268,581940412,-0.23802932047574857,0.2461496811474894,1.3926103161130141,-0.7100187048079935,-0.15316861722696798,0.02788929201067625,0.6867568717608155,0,-1,0.03285288065671921,-1.5888097921954554,-0.2870853582965296,-1.515294377003805,0.22924886643886566,0.07012119889259338
2953,1734171268,597678422,-0.24198994070927504,0.24579305268720458,1.3914153955093707,-0.7101210201343561,-0.15578420882373936,0.028513706736183593,0.6860367231953882,0,-1,0.033450596034526825,-1.5890854040728968,-0.29210120836366826,-1.5141318480121058,0.23340627551078796,0.0713907778263092
2969,1734171268,614053010,-0.2460175170163159,0.24543861348360485,1.390178853697368,-0.7102269705259864,-0.15838083894371746,0.02905194365037222,0.6853095247865006,0,-1,0.03406141698360443,-1.58942157426943,-0.2970212141620081,-1.5130046049701136,0.23749177157878876,0.07262440770864487
2985,1734171268,629784107,-0.24999327003511057,0.24506483205509286,1.3889443824176502,-0.710335963413664,-0.16096989129514774,0.029658581290534922,0.6845669300612197,0,-1,0.03467186167836189,-1.5897091070758265,-0.30204898515810186,-1.5119016806231897,0.24166114628314972,0.07390596717596054
3001,1734171268,645983695,-0.2540836970562624,0.2446905602699217,1.3876434164284877,-0.7104549724033371,-0.16360783301287266,0.0302328162692713,0.6837925021412812,0,-1,0.035257965326309204,-1.5899971167193812,-0.3071244398700159,-1.5107868353473108,0.24578259885311127,0.07525905966758728
3017,1734171268,661583423,-0.25817041566198545,0.24430514134192854,1.3863179541726955,-0.7105699885989454,-0.16628431885287287,0.0307540414722087,0.6830036643673709,0,-1,0.03584444150328636,-1.590297047291891,-0.3123438994037073,-1.5097315947162073,0.24998794496059418,0.07662451267242432
3033,1734171268,677644968,-0.2623399912639429,0.24389259436073984,1.3849615299330695,-0.7106873281418693,-0.16892068606987018,0.03134368712229675,0.6822073707560149,0,-1,0.03649084270000458,-1.590632740651266,-0.3174670378314417,-1.5086281935321253,0.25407344102859497,0.07793004810810089
3049,1734171268,693323373,-0.26637286859005094,0.24350405024838515,1.38359769787043,-0.7108142794648481,-0.17151563392839167,0.03186053243258002,0.6814032241632874,0,-1,0.03710091486573219,-1.590968434010641,-0.32249480882753545,-1.5075495878802698,0.25814732909202576,0.07930673658847809
3066,1734171268,709527969,-0.2703969184695093,0.24308758016241308,1.3822407158590992,-0.7109348212759553,-0.17409604924363473,0.032463576541564385,0.6805941240807278,0,-1,0.03772372007369995,-1.591304127370016,-0.3274629751788538,-1.5064824263202112,0.2622571587562561,0.08067218959331512
3081,1734171268,725762844,-0.27434291606942335,0.24267874653772029,1.3808807983083538,-0.7110607253498069,-0.17666864299741963,0.03306930237180696,0.6797700027855735,0,-1,0.03834577649831772,-1.5915802160846155,-0.33243066469301397,-1.5054038206683558,0.26633068919181824,0.0819777175784111
3097,1734171268,741173982,-0.27823652738628685,0.2422740634037075,1.3795001291485263,-0.7111822092667436,-0.1792270786639339,0.03361101651217803,0.6789461091022496,0,-1,0.03894423693418503,-1.5918801466571253,-0.3373506704913538,-1.504312817250387,0.2704521417617798,0.08336713910102844
3113,1734171268,757593870,-0.28215854600804197,0.24186249123821396,1.3780935028633992,-0.7113143187939279,-0.18175568283279606,0.034174691350906145,0.6781068515416906,0,-1,0.039530716836452484,-1.5921199957477015,-0.34243804613222295,-1.5031970183001917,0.2745380103588104,0.08469626307487488
3129,1734171268,773408174,-0.2859994631053564,0.24143631158328935,1.376684955913721,-0.7114421735036334,-0.18429425143171171,0.03479964876009997,0.6772552303938484,0,-1,0.040129177272319794,-1.5923836866961878,-0.34738189378847295,-1.5021422545062464,0.27869540452957153,0.08600179851055145
3145,1734171268,789490938,-0.2899168282334661,0.24101117538487987,1.3752348184546135,-0.7115743848557408,-0.18685753117623782,0.03535919069801846,0.6763844213855583,0,-1,0.040691688656806946,-1.592635456715719,-0.3523977438556116,-1.5010398069964808,0.28275731205940247,0.08727137744426727
3161,1734171268,805436849,-0.2937907288036527,0.240590165339643,1.3737744804920209,-0.7116985269985194,-0.18941471969669438,0.035863866448729145,0.6755153985763078,0,-1,0.04126618057489395,-1.5929115454303187,-0.3575089613543909,-1.4999602476703089,0.28681883215904236,0.08851698786020279
3177,1734171268,821448802,-0.29773176428273523,0.240153068436491,1.3722674089172082,-0.7118376674319297,-0.1919657438711712,0.036396943309009326,0.6746195601395041,0,-1,0.04188861325383186,-1.5932348410235804,-0.3624528090106409,-1.49884540239443,0.2909526526927948,0.08990602940320969
3193,1734171268,837673664,-0.30163145464032165,0.2397053240667326,1.3707580823787964,-0.7119725202648823,-0.19453080607048134,0.03699555709458367,0.6737093027652964,0,-1,0.04251066967844963,-1.5934751669513147,-0.3675163427935999,-1.4976704756366175,0.2951347529888153,0.0911756083369255
3209,1734171268,853665590,-0.3056162059641461,0.23923213055478457,1.3691985612623294,-0.7121018209467948,-0.19714182595613253,0.03753135315751237,0.6727833935176365,0,-1,0.04310913011431694,-1.5937631765948694,-0.37259179750551397,-1.4965794722186487,0.29925620555877686,0.09240923821926117
3225,1734171268,869850635,-0.30948019373820906,0.23877534183688148,1.367645783361777,-0.7122409069833031,-0.19970755042619054,0.03806517267427957,0.6718488128676342,0,-1,0.04373156279325485,-1.5940387884723108,-0.37766725221742803,-1.49548846880068,0.30340200662612915,0.09378667175769806
3241,1734171268,885508298,-0.3133171037638973,0.2383120267201776,1.3660806860278474,-0.7123857752554426,-0.20224421123754566,0.03866399238862924,0.6709015441383162,0,-1,0.04434163495898247,-1.5942547957049769,-0.38271838823427373,-1.4943373839007776,0.3075358271598816,0.09509183466434479
3257,1734171268,901611566,-0.31717747963818504,0.23784673462865225,1.3644848910851777,-0.7125322984520963,-0.2047846062133738,0.039209898538929075,0.6699429621819851,0,-1,0.04496406391263008,-1.5945184866534632,-0.3877461592303675,-1.4932706991778772,0.3116815984249115,0.09639736264944077
3273,1734171268,917752742,-0.3209464596940892,0.23736788606602893,1.3629052499156273,-0.7126692035008924,-0.20733576953850075,0.03977561235031634,0.6689786137937735,0,-1,0.04557488486170769,-1.5947945753680628,-0.3926780859576624,-1.4922154585467737,0.3157315254211426,0.09770289063453674
3289,1734171268,933678388,-0.32470732678752484,0.23687829202358798,1.3613158333166344,-0.7128138881995575,-0.20980938286928208,0.04037112119598556,0.6680168831872579,0,-1,0.04620892554521561,-1.5950458685504358,-0.39758569398988897,-1.4910882155047815,0.3198173940181732,0.09900842607021332
3305,1734171268,949177742,-0.32850369833913057,0.23639615042297052,1.3596878515489734,-0.7129593498450528,-0.21229891185576888,0.04091092157601647,0.6670415534201577,0,-1,0.04677143320441246,-1.5953095594989222,-0.40264922777284795,-1.4899495283709925,0.3239871561527252,0.10030197352170944
3321,1734171268,965274095,-0.33236008244108134,0.2358956663632042,1.3580070807259934,-0.7131025963308745,-0.21485399285452508,0.0414338566164209,0.6660372995459964,0,-1,0.04732196033000946,-1.595621411000387,-0.40770036378969365,-1.4888585249530237,0.3280850052833557,0.10160712897777557
3337,1734171268,981607675,-0.3361511412316769,0.2354020846682326,1.3563291564534068,-0.7132573389557584,-0.21739065085418718,0.04198328033640683,0.6650132912349481,0,-1,0.04796798527240753,-1.5958731810199183,-0.4127996603595179,-1.4878037611590784,0.3321828842163086,0.10285273939371109
3353,1734171268,997437238,-0.34000908570068666,0.23491075432694764,1.3545903756701485,-0.7134062632732816,-0.2199406148932683,0.042413798849578487,0.6639869720935583,0,-1,0.048554837703704834,-1.5961616675006312,-0.41781503358949834,-1.4866645971881312,0.3362451493740082,0.10412231832742691
3369,1734171269,13836145,-0.34378539779370043,0.23439617922106584,1.3528795722652323,-0.7135539668953992,-0.22245925830342317,0.04294620316665892,0.6629541751557935,0,-1,0.04917726665735245,-1.5965092817889612,-0.4227822462665003,-1.485621754323141,0.34046322107315063,0.10540388524532318
3385,1734171269,29506206,-0.347633078360217,0.2338714676109078,1.351124845568066,-0.7137110017167771,-0.22499996588235213,0.043459996953611434,0.6618933826880028,0,-1,0.04977535456418991,-1.596809212361471,-0.42781001726259404,-1.4845307509051722,0.344573050737381,0.10673300921916962
3401,1734171269,45714378,-0.3513557497963529,0.2333474312476913,1.349379891243838,-0.7138686220631599,-0.22747633700894268,0.044019990804201305,0.6608391233456425,0,-1,0.05043374001979828,-1.5970366636859339,-0.43286115327943975,-1.4834039847003382,0.34867092967033386,0.1080741211771965
3417,1734171269,61396598,-0.3551675666625126,0.23280384246364438,1.3475728319584772,-0.7140264590223453,-0.23002054132212435,0.04453218281215224,0.6597527196456813,0,-1,0.051068153232336044,-1.5972884337054651,-0.4379966894732874,-1.4822528998004358,0.35284069180488586,0.10941559821367264
3433,1734171269,77769517,-0.35892014581484605,0.23228659419345266,1.3457635610499712,-0.7141991892516908,-0.2324778037378069,0.04506009588800608,0.658667728524813,0,-1,0.05166624113917351,-1.5975645224200647,-0.4430354277240198,-1.4811738173114222,0.3569992184638977,0.11076907068490982
3449,1734171269,93491554,-0.36264856847071175,0.23172164804799508,1.3439488342775632,-0.7143561160143832,-0.2350058735669598,0.045616583672074565,0.6575611805725484,0,-1,0.052252721041440964,-1.597804371510641,-0.44801503816713506,-1.4800589720355433,0.3611210286617279,0.11217047274112701
3465,1734171269,109509706,-0.36625133890503203,0.23120543748721784,1.3421662976462794,-0.7145342833079211,-0.23739476094179934,0.04617841268719913,0.6564693745002216,0,-1,0.05287514999508858,-1.5980923811541956,-0.4529345671283167,-1.4789555708514612,0.3652312457561493,0.11345203965902328
3481,1734171269,125706434,-0.36987980463663384,0.23065066383744826,1.3403624528882114,-0.7147021763970779,-0.23982936918732034,0.04678550641912007,0.6553577565861248,0,-1,0.05349758267402649,-1.5983203093158167,-0.4578302542315882,-1.4778292814837855,0.36934107542037964,0.11480513215065002
3497,1734171269,142211914,-0.37358715169910706,0.2301018409511246,1.3384956469279052,-0.714871343455639,-0.24231097862236495,0.04731956125894003,0.6542210720140884,0,-1,0.05406009033322334,-1.598572079335348,-0.4628098646747034,-1.4767020384417933,0.3735235929489136,0.11609867960214615
3513,1734171269,157673120,-0.3772327858088226,0.2295225590633916,1.3366282876708189,-0.7150383881495278,-0.24478049951549252,0.04786414278709886,0.6530785820747205,0,-1,0.05473008379340172,-1.5988958517657679,-0.46789676347841436,-1.4755991140948694,0.3776454031467438,0.11745215207338333
3530,1734171269,173864126,-0.3809115362067627,0.22896978282282407,1.3347057896811239,-0.7152092882370319,-0.24726475403283374,0.04833759955400441,0.6519196974336006,0,-1,0.055328547954559326,-1.599135700856344,-0.47294837633241826,-1.4745562712298792,0.3817436397075653,0.1187097430229187
3545,1734171269,189994096,-0.38464204667827984,0.22839052515995223,1.3327520825619055,-0.7153809730469756,-0.24978336823054903,0.04879638233934869,0.6507359260317171,0,-1,0.05596296116709709,-1.5993636290179651,-0.47807103792299444,-1.4734652678119105,0.3858654499053955,0.12003923952579498
3561,1734171269,206096410,-0.3883596667825638,0.22780847073110808,1.3307761680657797,-0.7155561936511406,-0.25226149068152937,0.04923890619544821,0.6495529263757495,0,-1,0.056561049073934555,-1.59967548051943,-0.4831464926349085,-1.4723742643939417,0.3900359869003296,0.12136837095022202
3577,1734171269,221720933,-0.3920596660288463,0.2272367779824178,1.3287837666263234,-0.7157311750510975,-0.25476260871175255,0.049676682166952736,0.6483495396090301,0,-1,0.05715988576412201,-1.5999987761126917,-0.48812610307802373,-1.4713318983661097,0.3941222131252289,0.12263756990432739
3594,1734171269,238041162,-0.39564554433125815,0.22666322590338528,1.3268200547780586,-0.7159151923295072,-0.2571710445229566,0.05017046962566523,0.6471564070827983,0,-1,0.05773438140749931,-1.600239102040426,-0.4931891600238245,-1.4702404181109827,0.39818450808525085,0.12390714883804321
3609,1734171269,254251718,-0.3992902431876223,0.22605524890098755,1.3248119882943892,-0.7160855242942069,-0.2596718471016858,0.05065056078487371,0.6459307814396734,0,-1,0.05833246558904648,-1.6005147139178675,-0.4982522169696253,-1.469149414693014,0.4023190438747406,0.1252845823764801
3625,1734171269,269749402,-0.4028544319337916,0.22547972763086263,1.3228046112953216,-0.7162719341885371,-0.262086364930262,0.0511300364850193,0.6447099913763505,0,-1,0.05890696123242378,-1.6006949583636683,-0.5033395926104944,-1.4680703322040003,0.406429260969162,0.12655416131019592
3641,1734171269,285960912,-0.406359729157777,0.22490447138688935,1.3207864327210364,-0.7164591539632427,-0.2644762104220932,0.0515866046101613,0.6434884902217273,0,-1,0.05946984514594078,-1.6009467283831995,-0.5083783308612269,-1.4669197241412562,0.41049155592918396,0.1278952807188034
3657,1734171269,301713228,-0.4099108791562899,0.22430574420313232,1.3187560739349018,-0.7166498659443452,-0.2668489014923705,0.0521005557465612,0.642253972743779,0,-1,0.06005594879388809,-1.6012104193316858,-0.513346020375387,-1.4657805601703089,0.41462573409080505,0.12920081615447998
3673,1734171269,317862749,-0.41343402585388456,0.22371282114598043,1.3167141296843878,-0.7168373438118023,-0.2692335538220408,0.05257170359124252,0.6410099312761923,0,-1,0.0606304407119751,-1.6015341917621058,-0.5182531515704554,-1.464677635823385,0.4187842607498169,0.13055427372455597
3690,1734171269,334147214,-0.41696557360800546,0.22309599638699468,1.314658256381868,-0.717030864477292,-0.27162015192399463,0.0531196130781665,0.6397402122441258,0,-1,0.061216920614242554,-1.6018098036395472,-0.5232203642474573,-1.4635627905475062,0.4228944778442383,0.13183583319187164
3705,1734171269,349737405,-0.42048663652187085,0.22249599991214608,1.3125625121980398,-0.7172173260533694,-0.2740189869362024,0.05357677582080845,0.6384688176410489,0,-1,0.061862945556640625,-1.6020978132831019,-0.5282238165484827,-1.4624360243426722,0.4270166754722595,0.13308145105838776
3722,1734171269,365888357,-0.4241091691003203,0.22187037059399056,1.3103978432668317,-0.7174098027171598,-0.27646516823057105,0.05397418957830628,0.6371632228714499,0,-1,0.062461405992507935,-1.6024335066424769,-0.5334070364581507,-1.4613330999957483,0.43113961815834045,0.13433904945850372
3737,1734171269,382453441,-0.42773574619658883,0.2212421759635957,1.3081979142501345,-0.7175944807249013,-0.27894749342094355,0.05434519208887326,0.6358404337914942,0,-1,0.06301230937242508,-1.602685276662008,-0.5385053793536585,-1.4602301756488245,0.43527379631996155,0.13560862839221954
3754,1734171269,398032188,-0.4312734562442948,0.22060974839444536,1.3060198118572546,-0.7177898436967298,-0.28135989014270046,0.054778567881498215,0.6345184481207491,0,-1,0.0636463463306427,-1.6030214468585413,-0.5435441176043909,-1.4591153303729456,0.43938401341438293,0.13693775236606598
3769,1734171269,413912296,-0.434876495707214,0.21994862945886418,1.3038152201778712,-0.7179811461836573,-0.2837718031239758,0.05521121649724862,0.6331890389523994,0,-1,0.06425679475069046,-1.6033814589129847,-0.5484760443316858,-1.4580720106707972,0.4434710144996643,0.13827922940254211
3785,1734171269,430193185,-0.4384079040464598,0.21928834694832156,1.3016168393633474,-0.7181802716235821,-0.2861888089857109,0.055667541105277905,0.6318339876338642,0,-1,0.06487885117530823,-1.6037052313434046,-0.5535267035113733,-1.4569810072528284,0.44759321212768555,0.13959674537181854
3801,1734171269,445295095,-0.4418870742225992,0.21865523471735693,1.2994010615682325,-0.7183806584504189,-0.28854220072345316,0.05608081041098039,0.6304978752300888,0,-1,0.06550128012895584,-1.603992764149801,-0.5585420767413538,-1.4558542410479944,0.45172739028930664,0.14098580181598663
3817,1734171269,461323022,-0.4453856475038808,0.21797336878331192,1.2971639453725672,-0.7185990050776742,-0.29090897466823745,0.056612700039850514,0.6291124228252448,0,-1,0.06609974056482315,-1.6042926947223108,-0.5636289755450647,-1.4547994772540491,0.4557904303073883,0.14237521588802338
3833,1734171269,477493762,-0.4489018710363917,0.21733103658730618,1.2948745997155595,-0.7188123728467313,-0.293232959079857,0.05695656810916665,0.6277572410581567,0,-1,0.06670981645584106,-1.604544464741842,-0.5686562697040003,-1.4536727110492151,0.459817111492157,0.14370471239089966
3849,1734171269,493360280,-0.4522803428938884,0.21668570181893915,1.2926311565951418,-0.7190220029953477,-0.2955729205569632,0.057395023070763836,0.6263783354879794,0,-1,0.06733261793851852,-1.604856316243307,-0.573623005543844,-1.4525941053973597,0.46401122212409973,0.1450338363647461
3865,1734171269,509714365,-0.4557138397517364,0.21599390642738475,1.2903718279380296,-0.7192224025686366,-0.2979254837835795,0.057876861066052464,0.6249878484489592,0,-1,0.06794306635856628,-1.6051681677447718,-0.5786264578448694,-1.4514668623553675,0.4681221842765808,0.14639928936958313
3881,1734171269,525543928,-0.4591169955255571,0.21531494346029473,1.2880862060123872,-0.7194208292474255,-0.300288033877991,0.05830791619112613,0.6235871663721808,0,-1,0.06854115426540375,-1.6054204146014612,-0.583557430897848,-1.4503634611712855,0.47220879793167114,0.14768086373806
3897,1734171269,541569471,-0.46249979983334233,0.21464386437667465,1.285778464105826,-0.7196328968425897,-0.30261505172952025,0.058721036092765175,0.622177196760597,0,-1,0.06918755173683167,-1.6057317892657679,-0.5886090437518519,-1.4492366949664515,0.4763197600841522,0.14901036024093628
3913,1734171269,558163881,-0.4659159917714757,0.2139483535777896,1.2834296553398774,-0.7198397697373136,-0.30496841265787605,0.05912845349184741,0.6207485796787047,0,-1,0.06984556466341019,-1.605971638356344,-0.59375507036318,-1.4481337706195276,0.48044195771217346,0.1502559632062912
3929,1734171269,573277711,-0.469290276947957,0.21328580625728644,1.2810551377935668,-0.7200605163394074,-0.30731956197925464,0.05950915244857647,0.6192949219949709,0,-1,0.07042005658149719,-1.6062477270709437,-0.5988181273089808,-1.4470670858966272,0.48458850383758545,0.15158547461032867
3945,1734171269,590169191,-0.47266059522266374,0.21257802716352492,1.2786759620392216,-0.7202664493910785,-0.30966962909874346,0.059891948725332884,0.6178461921654108,0,-1,0.07100653648376465,-1.6064990202533167,-0.6038811842547815,-1.445916477833883,0.48863956332206726,0.15290260314941406
3962,1734171269,606164693,-0.47596218507847676,0.21188932064296728,1.2763000574301788,-0.7204816202867746,-0.31199632931468024,0.060290027488552,0.6163843264624265,0,-1,0.07159300893545151,-1.6067751089679163,-0.6088121573077601,-1.4448731581317347,0.49278610944747925,0.15415982902050018
3977,1734171269,621777772,-0.47922716636987994,0.21120119705169782,1.2739488357514226,-0.7206984637574861,-0.3142983727341877,0.060740942318566665,0.6149152747822203,0,-1,0.07220345735549927,-1.6070268789874476,-0.6137679258929651,-1.443794075642721,0.4969685971736908,0.15548932552337646
3993,1734171269,637853622,-0.48243533230067553,0.21050274404783131,1.2716033151411383,-0.720911890694482,-0.31658111908326225,0.06118806646356835,0.6134480103625297,0,-1,0.07275398075580597,-1.6072548071490687,-0.6187942663775843,-1.4426797072040003,0.5010915398597717,0.15679486095905304
4009,1734171269,653181791,-0.485680483042373,0.20981883334916612,1.2691923826734222,-0.7211427096915384,-0.31884942804845207,0.06160004231128157,0.6119588787485389,0,-1,0.07336405664682388,-1.607507054005758,-0.6238096396075647,-1.4416125456439417,0.5051785111427307,0.15813635289669037
4025,1734171269,670227050,-0.48904577531043625,0.20910122682327603,1.2666804988301679,-0.7213569108324085,-0.32120935731279343,0.061892067792643043,0.6104409290941898,0,-1,0.07392694056034088,-1.607734505330221,-0.6289084593402308,-1.4405096212970179,0.5092895030975342,0.1594059318304062
4041,1734171269,685560226,-0.4922373997841171,0.2084010920391453,1.264243971175011,-0.7215764480655821,-0.3234846708492852,0.062273412549422404,0.6089393396817432,0,-1,0.07452540099620819,-1.6080101172076624,-0.6340311209308069,-1.4394429365741175,0.5134360194206238,0.16075938940048218
4057,1734171269,701992034,-0.49552895763084204,0.2076906773177759,1.2617386621397237,-0.7218158748082795,-0.3257845617999774,0.06265113248746439,0.6073887534072334,0,-1,0.07514745742082596,-1.6083105246173304,-0.6389983336078089,-1.438376251851217,0.5176065564155579,0.1620769053697586
4073,1734171269,717371702,-0.4987839735687569,0.2069636216718126,1.2592541169977614,-0.7220411087495283,-0.3280607073240525,0.06302871588762468,0.6058549253405069,0,-1,0.07572194933891296,-1.6086457411395472,-0.6439774672137659,-1.4372733275042933,0.5216459631919861,0.16337046027183533
4089,1734171269,733309268,-0.5019905250716161,0.20623021412857073,1.2567926362966162,-0.7222587032324345,-0.3303154807891588,0.06341802624966224,0.6043278933680178,0,-1,0.07635636627674103,-1.608945671712057,-0.6488364378558558,-1.4361937681781214,0.5257565975189209,0.16459210216999054
4105,1734171269,749239206,-0.5052126858159626,0.20551450835699342,1.2542624018511088,-0.7224900195929383,-0.3325559951376795,0.06376530234766434,0.6027840972546424,0,-1,0.07699078321456909,-1.6092575232135218,-0.6538274923907679,-1.4350312391864222,0.5298678874969482,0.16590961813926697
4121,1734171269,765281200,-0.5084227534811433,0.20475490851479178,1.251715069837361,-0.722696301110499,-0.3348464414230547,0.06408722671035728,0.6012326874015544,0,-1,0.07757726311683655,-1.609509293233053,-0.6589387098895472,-1.4339402357684534,0.533607006072998,0.1671428680419922
4137,1734171269,781474351,-0.5116411223474611,0.20401841470199245,1.2491324290392778,-0.7229180949005591,-0.3370780703907511,0.06434302937480116,0.5996897340274114,0,-1,0.07818733155727386,-1.6097734610186976,-0.664013687764303,-1.4328015486346644,0.5377779006958008,0.16847199201583862
4153,1734171269,797417402,-0.514760640311842,0.20326440220104292,1.246583108728408,-0.723138871359193,-0.3393083562878957,0.0647324978753718,0.5981218235454829,0,-1,0.07883372902870178,-1.6100853125201624,-0.6689923445331019,-1.4317224661456507,0.5418768525123596,0.1698014885187149
4169,1734171269,813547849,-0.5178659259967007,0.20252127822867577,1.2440331371079063,-0.7233790342140471,-0.34154078293969414,0.06511281719080504,0.5965173823837575,0,-1,0.07946814596652985,-1.6103609243976038,-0.6739228407489222,-1.4305956999408167,0.5461196303367615,0.17107106745243073
4185,1734171269,829896688,-0.5209933613939578,0.2017775184590132,1.2414678235150416,-0.7236219311116457,-0.3437333851703246,0.06552159564968943,0.5949164489549105,0,-1,0.08009020239114761,-1.6106365362750452,-0.6789024511920374,-1.429469410573141,0.5502665638923645,0.17249643802642822
4201,1734171269,845672845,-0.5240699579187424,0.20100338506883847,1.2388805495393527,-0.7238678251922753,-0.3459119950802086,0.06595247243282347,0.5933047570102847,0,-1,0.08067668229341507,-1.6108887831317347,-0.6839173475848597,-1.4283903280841272,0.5544138550758362,0.1738738864660263
4217,1734171269,862079381,-0.5271122527166039,0.2002404058452531,1.2362680732001825,-0.7241219493187739,-0.34812497464969905,0.0663694189389298,0.5916515061838635,0,-1,0.08128750324249268,-1.6111286322223108,-0.6890280882464808,-1.4272273222552698,0.55860835313797,0.17521536350250244
4233,1734171269,877779483,-0.53030770681414,0.1994695212297577,1.2335341901636654,-0.7243591147073206,-0.3504052441769718,0.06664764008805378,0.589981465695658,0,-1,0.08186162263154984,-1.6113799254046839,-0.694162670766012,-1.4261487166034144,0.5627196431159973,0.17653287947177887
4249,1734171269,893727064,-0.5333651184453806,0.19871399206711812,1.230859021720374,-0.7246081701447319,-0.3526035867896754,0.06695566245894742,0.58832869181032,0,-1,0.0825200080871582,-1.611692253743307,-0.6992252508746546,-1.4250934759723108,0.5668066740036011,0.1778620034456253
4265,1734171269,909841775,-0.5364283004537536,0.19794299521035646,1.2281770631981193,-0.7248430810718969,-0.354818090247698,0.06722479924133341,0.5866749159646578,0,-1,0.08310610800981522,-1.6119921843158167,-0.7042163054095667,-1.4239791075335901,0.5709060430526733,0.17919112741947174
4281,1734171269,925593376,-0.5394590993731796,0.19716811101606985,1.2255152498156885,-0.7250830298099771,-0.3569886239304706,0.06755747135748494,0.585021119558598,0,-1,0.08369258791208267,-1.6122921148883265,-0.7091239134417933,-1.4229477087603968,0.5750409364700317,0.1804727017879486
4298,1734171269,942026615,-0.542506922211015,0.19637156882021958,1.222801047090722,-0.7253176212517829,-0.35921922743255147,0.06785644924145089,0.5833278642759648,0,-1,0.08430302888154984,-1.6125677267657679,-0.7141383329974573,-1.4218090216266077,0.5791040062904358,0.18171830475330353
4313,1734171269,957737684,-0.5454539456619234,0.19561046337193,1.2201172940927467,-0.725562164797311,-0.36132573678499114,0.06816843826100294,0.5816840387843548,0,-1,0.0849134773015976,-1.6127713362323206,-0.7192133108722132,-1.4206822554217737,0.5831317901611328,0.18308375775814056
4330,1734171269,973901987,-0.5484289684407211,0.19482091929749068,1.2173860349876073,-0.7258187244650586,-0.363493010001456,0.0685145677300062,0.5799704862359526,0,-1,0.0854640007019043,-1.6129997412311,-0.7242277304278772,-1.4195674101458948,0.5872547626495361,0.18438929319381714
4345,1734171269,989698410,-0.5513422120689787,0.19404063521667841,1.2146504086695629,-0.7260555117035975,-0.3656605898622102,0.06882494411641667,0.5782723009221691,0,-1,0.08611002564430237,-1.6131795088397425,-0.7292669455157679,-1.4184282461749476,0.5914739370346069,0.18568283319473267
4362,1734171270,5850076,-0.5542410648805852,0.19327633205383993,1.2119252554225048,-0.7263179876656293,-0.36778041807809214,0.06913870830356093,0.5765583959025918,0,-1,0.08668452501296997,-1.6134913603412073,-0.7341859976397913,-1.4173615614520472,0.5955609679222107,0.18696439266204834
4377,1734171270,21502971,-0.5571138953005483,0.19249009435039677,1.2092227866567242,-0.7265606344601079,-0.36989782995901427,0.06948327005777055,0.5748541684867707,0,-1,0.08733129501342773,-1.6137908140765589,-0.7391050497638147,-1.4162591139422815,0.5996966361999512,0.18828190863132477
4393,1734171270,37526845,-0.5600059059721889,0.19168358501414945,1.2064729168544668,-0.7268166381613625,-0.37201442676759505,0.06982645155773204,0.573120499922528,0,-1,0.08786946535110474,-1.6140425840960901,-0.7441080252276819,-1.4151199499713343,0.6038195490837097,0.1896350085735321
4409,1734171270,53752899,-0.5628968978968348,0.19088702064706553,1.2036794985644241,-0.727062974816718,-0.3741557179682946,0.07010361516880272,0.5713776443846563,0,-1,0.08849189430475235,-1.6143549124347132,-0.7491591612445276,-1.4140051046954554,0.6079308986663818,0.19086863100528717
4425,1734171270,69797039,-0.5659270563421185,0.19006336024801349,1.200741113706674,-0.727313690316447,-0.37636907537275904,0.07032053358089092,0.5695754010999988,0,-1,0.08912631124258041,-1.6146305243121546,-0.7544010321246546,-1.4129141012774866,0.6120063066482544,0.19217416644096375
4441,1734171270,85554122,-0.5688938990722086,0.1892529311730985,1.1978161573408452,-0.7275749698882907,-0.3785255857775074,0.07050343247265026,0.5677872049574754,0,-1,0.08970043063163757,-1.6149786154376429,-0.759559456502096,-1.4118474165545862,0.6161416172981262,0.19349168241024017
4457,1734171270,101587533,-0.5718393629411834,0.18843749734272786,1.1949045730129122,-0.7278354007698551,-0.3806752382035643,0.07070836885880152,0.5659879141626363,0,-1,0.09031125158071518,-1.6153138319598597,-0.7645867506610315,-1.410781208668844,0.6203008890151978,0.19482117891311646
4473,1734171270,117765426,-0.5747169869054394,0.1876128670539291,1.1920347873905484,-0.7280856791135609,-0.3828223708914725,0.07097103545208663,0.564182052480966,0,-1,0.0909692570567131,-1.6157096068011683,-0.7695296446429651,-1.409677807484762,0.6244122385978699,0.19605481624603271
4489,1734171270,134044885,-0.5776662432783518,0.18677404820163107,1.1891049393767346,-0.7283344480242215,-0.3849765303589713,0.07116826633715964,0.5623673894889211,0,-1,0.09157970547676086,-1.6159732977496546,-0.7744963804828089,-1.4085992018329065,0.6284995675086975,0.1973603367805481
4505,1734171270,149832248,-0.580443995741655,0.18593322408106797,1.1862603413191832,-0.7285819201721058,-0.3870588142970503,0.07145261053734822,0.560578615646982,0,-1,0.09215419739484787,-1.6162856260882776,-0.7795470396624964,-1.4074962774859827,0.6325869560241699,0.19865389168262482
4521,1734171270,165509223,-0.5832864717495927,0.18512051650721795,1.1832964754682198,-0.7288472314641083,-0.3891748026459799,0.07164577929269865,0.5587410567356841,0,-1,0.09277625381946564,-1.6165731588946741,-0.7845981756793421,-1.4064772764789026,0.63675856590271,0.19995903968811035
4537,1734171270,181687116,-0.5860607666568808,0.18429313446752288,1.1803703909258763,-0.7291205926980049,-0.3912529954800295,0.07191426108326884,0.55689549637653,0,-1,0.0934106707572937,-1.6168373266803187,-0.7896726767169397,-1.4053381125079554,0.6409298777580261,0.2013121396303177
4553,1734171270,197870731,-0.5887948593660922,0.18347553796139826,1.1774470900641476,-0.729391108232873,-0.3933016616720006,0.07215359018758108,0.5550642067183824,0,-1,0.0939495861530304,-1.61708909669985,-0.794687573109762,-1.4042475859271448,0.645029604434967,0.20259369909763336
4569,1734171270,214080572,-0.5915473201231183,0.18262263891750227,1.1745116696774542,-0.7296519837944543,-0.39537741743223226,0.07240500591741707,0.5532108056134971,0,-1,0.09455965459346771,-1.6173647085772913,-0.7996304670916956,-1.4031088987933558,0.649092972278595,0.20404304563999176
4585,1734171270,229513406,-0.5942487019769294,0.18178967531453283,1.1716004071708785,-0.729941558017954,-0.39736716717919507,0.07271579743028866,0.5513592922318264,0,-1,0.09514613449573517,-1.6177247206317347,-0.8045733610736292,-1.4019702116595667,0.6532406210899353,0.20537254214286804
4601,1734171270,245554208,-0.5969376304423799,0.1809872808961816,1.1686413026414397,-0.7302260214350819,-0.3993407370852743,0.07293692233512868,0.5495244659553935,0,-1,0.09573224186897278,-1.617988411580221,-0.8096244970904749,-1.4008429686175745,0.6573519706726074,0.20670203864574432
4617,1734171270,261853933,-0.5996878852094696,0.18014011915951203,1.1655979587915541,-0.7304942150377943,-0.40138509458591093,0.07309973926390248,0.5476537553601959,0,-1,0.09631909430027008,-1.618216339741842,-0.8147347609149378,-1.399752442036764,0.6613554358482361,0.20804353058338165
4633,1734171270,277858734,-0.6023392562527891,0.17930272635888445,1.1625875763240874,-0.7307734798871464,-0.40340428930726546,0.07328923222593475,0.5457689885857052,0,-1,0.09691755473613739,-1.6184681097613733,-0.8198455015765589,-1.398637596760885,0.665455162525177,0.20933669805526733
4649,1734171270,293417215,-0.604961927914579,0.17847368445901696,1.1595781290499094,-0.7310447178340401,-0.40542618925893803,0.07350758000074063,0.5438748580991394,0,-1,0.09753961116075516,-1.6187318007098597,-0.8249080816852015,-1.3975470701800745,0.669578492641449,0.21066619455814362
4665,1734171270,309554338,-0.6075656102011193,0.1776344932647252,1.1565938698863478,-0.7313271968416811,-0.4074297851530285,0.0737386520590567,0.5419632021847601,0,-1,0.09812608361244202,-1.6189959684955042,-0.8298872152911585,-1.396456543599264,0.6737145781517029,0.21200768649578094
4681,1734171270,325809717,-0.6101852353312623,0.17678574546822057,1.1535840607650834,-0.7315899515637334,-0.4094436954413512,0.07392741863770186,0.5400617925829141,0,-1,0.09876012802124023,-1.6192715803729456,-0.8347342650042933,-1.395365063344137,0.6778618693351746,0.2132652848958969
4698,1734171270,341730117,-0.6126970840645182,0.17594194501501328,1.150622049915918,-0.7318575707821505,-0.411409322235634,0.07417939898732084,0.5381675226473126,0,-1,0.09933461993932724,-1.619499985371725,-0.8397734800921839,-1.3942387739764612,0.681997537612915,0.2145708054304123
4713,1734171270,357470035,-0.6152710839379311,0.17505622489689446,1.1475691124519216,-0.7321288499555313,-0.41342162365300095,0.0744082127289701,0.53622134052776,0,-1,0.09994544088840485,-1.6197994391070765,-0.8447883764850062,-1.3931477705584925,0.6861451864242554,0.21592427790164948
4729,1734171270,373633861,-0.6178528606439886,0.17420345941399892,1.1444610171628724,-0.7324064294864554,-0.41543339884970804,0.07455722341965189,0.5342631688625308,0,-1,0.10056749731302261,-1.6200149695025843,-0.8499587217914026,-1.392069164906637,0.6902568936347961,0.21713393926620483
4745,1734171270,389851570,-0.620430536523404,0.17329953787600985,1.141330338986954,-0.7326639543073117,-0.41746249376471284,0.074693038679442,0.5323058766643028,0,-1,0.10116595774888992,-1.6202910582171839,-0.8550332228290003,-1.390954319630758,0.6943686604499817,0.21847504377365112
4761,1734171270,406236886,-0.622958109018213,0.17243819625096968,1.138256284760446,-0.73294887481816,-0.4194029923261029,0.0748832268947129,0.5303579727509893,0,-1,0.101811982691288,-1.6206148306476038,-0.8599522749530237,-1.3898752371417444,0.698456346988678,0.21979255974292755
4777,1734171270,422157287,-0.6254705222798929,0.1715759497025162,1.135157848062236,-0.7332242704618077,-0.42137641785391466,0.07508488869140656,0.5283808694233278,0,-1,0.1024104505777359,-1.6209147612201136,-0.8648951689349573,-1.3887608687030237,0.7025800943374634,0.22109809517860413
4793,1734171270,437579154,-0.6279815910196239,0.17067558450130516,1.1320786215374934,-0.7334991245656052,-0.4232868788498244,0.07527937093298322,0.5264411351395321,0,-1,0.10302127152681351,-1.6212380568133753,-0.8699219862567347,-1.3876336256610315,0.7066681981086731,0.2224036306142807
4809,1734171270,453845262,-0.6305046062241577,0.16981586061799248,1.1288886220768095,-0.733789140659085,-0.42525072202815645,0.07538040053036565,0.5244359976977312,0,-1,0.10365530848503113,-1.621514145527975,-0.8750088850604456,-1.386543099080221,0.7108035087585449,0.22370915114879608
4826,1734171270,469632863,-0.6329863931423164,0.16893274282295404,1.1257119553938166,-0.7340569714832235,-0.4272299440844829,0.07550634236620869,0.5224305980289867,0,-1,0.10425376892089844,-1.6217783133136194,-0.8801553885089319,-1.3854277769671839,0.714939534664154,0.2250266671180725
4842,1734171270,485891342,-0.635451182515282,0.168024943913682,1.122507381784724,-0.7343389133569874,-0.42919144100790513,0.07564283060576367,0.5204029491395917,0,-1,0.10491178184747696,-1.622077767048971,-0.8852298895465296,-1.3843615690814417,0.7191231846809387,0.22632022202014923
4857,1734171270,501617908,-0.6378983419345484,0.1671534360770946,1.1193282774502755,-0.7346153230433523,-0.4311250934286888,0.07576152927332565,0.5183933560995768,0,-1,0.10549826174974442,-1.6223180929767054,-0.8902571837054651,-1.3832467238055628,0.7231753468513489,0.22761376202106476
4874,1734171270,517897367,-0.6402824847078971,0.16628959091815443,1.1161710621648875,-0.73491354297779,-0.43301185092256383,0.075923602740215,0.5163704366589873,0,-1,0.10610870271921158,-1.622629467641012,-0.8951399962054651,-1.382143799458639,0.7273349761962891,0.2289189249277115
4889,1734171270,533710479,-0.6425834766561459,0.16537897105535695,1.113090708175275,-0.7351801375152553,-0.4349118664642703,0.07612489358503131,0.5143606073449665,0,-1,0.10670679062604904,-1.6228936354266565,-0.9000948111163538,-1.3810413519488733,0.7314343452453613,0.23017652332782745
4906,1734171270,549883127,-0.6448974063980006,0.1645258315525862,1.1099280295631009,-0.7354605712460746,-0.4367943746870617,0.07623471357097411,0.5123443088694241,0,-1,0.1073056310415268,-1.6230972448932093,-0.9050853888141077,-1.3799861113177698,0.7356063723564148,0.23149403929710388
4921,1734171270,565554380,-0.6472512721211504,0.1636374558164664,1.1066936851662008,-0.7357575781482807,-0.43868983915932364,0.07635802103311935,0.5102758703286383,0,-1,0.10787975043058395,-1.6233728567706507,-0.9101846853839319,-1.3788836638080042,0.7397184371948242,0.23282353579998016
4938,1734171270,581994295,-0.6496097865232185,0.16272965374532727,1.1034292454333934,-0.7360477611170968,-0.4405929181084177,0.07647373594709857,0.5081961644655651,0,-1,0.10850217938423157,-1.62360126176943,-0.9152711073504847,-1.3777568976031702,0.7438780665397644,0.2341650128364563
4953,1734171270,597846031,-0.6518395045811403,0.161846707883307,1.1002346680124597,-0.7363455141477357,-0.4424430241500816,0.07662861897542934,0.5061299328525785,0,-1,0.10906506329774857,-1.6239007155047815,-0.9202740828143519,-1.37671405473818,0.7480025291442871,0.23548252880573273
4970,1734171270,614061355,-0.6541824799317248,0.16093673781672918,1.0969630589356045,-0.7366522978168625,-0.4442929124784901,0.07671611015125979,0.5040454726369213,0,-1,0.10966315120458603,-1.6241772810565394,-0.9253009001361292,-1.3756349722491663,0.7521262168884277,0.23689554631710052
4985,1734171270,629762887,-0.6564221505715707,0.160088437164572,1.0937714360827964,-0.7369628806923125,-0.4460676110116464,0.07684219109911539,0.5020006738592465,0,-1,0.11024963110685349,-1.624476734791891,-0.9303038755999964,-1.3745325247394007,0.7561900019645691,0.238225057721138
5002,1734171270,646055698,-0.6587119132476005,0.1591672812068849,1.0904644283474196,-0.7372504614009673,-0.44793554520029144,0.07691689321077345,0.4998992859056523,0,-1,0.11086007207632065,-1.6247404257403772,-0.9352830092059534,-1.3733933607684534,0.7602785229682922,0.239578515291214
5017,1734171270,661891222,-0.6609244943667963,0.15831252986332603,1.08718553539623,-0.7375677378172824,-0.4497281253525257,0.07699933461905556,0.4978047286499218,0,-1,0.11147052049636841,-1.625028435383932,-0.9404175917254847,-1.3723028341876429,0.7644381523132324,0.24089603126049042
5033,1734171270,678090810,-0.6631549123827668,0.15737313153387533,1.0838630937094416,-0.7378494287565605,-0.45159770954002554,0.07707320241777339,0.4956787777289737,0,-1,0.11208096891641617,-1.6252320448504847,-0.9455159346209925,-1.371187988911764,0.7685741782188416,0.24218958616256714
5049,1734171270,693813323,-0.6653570724018105,0.15646433658063277,1.0805338332458225,-0.7381366767305113,-0.45344080002476655,0.07712988659201286,0.4935551316037952,0,-1,0.11271500587463379,-1.6254962126361292,-0.9505904356585901,-1.3700850645648401,0.7726383805274963,0.24348312616348267
5065,1734171270,710082769,-0.6675251548550164,0.15555763646297188,1.0772447547147457,-0.7384317066721432,-0.4552373051474969,0.07721066797389642,0.4914428993630242,0,-1,0.113337442278862,-1.6257599035846155,-0.9555338064776819,-1.3689826170550745,0.776786744594574,0.2447403520345688
5081,1734171270,725802183,-0.6696100518116809,0.1546305537208855,1.0740630117348293,-0.7387178788424612,-0.4569975131278695,0.07738536623581298,0.48934719123132464,0,-1,0.11395949870347977,-1.6260111967669886,-0.9603570143329065,-1.3678558508502405,0.7808505296707153,0.24608182907104492
5097,1734171270,742034196,-0.671686612657223,0.15372278344348406,1.0708214231412743,-0.7390199967797088,-0.4587165696228072,0.07750308489402338,0.48725950472526774,0,-1,0.11458192765712738,-1.626251522694723,-0.9654315153705042,-1.3667410055743616,0.7849270701408386,0.24744728207588196
5113,1734171270,757753372,-0.6737974339766155,0.1528142236247711,1.0674798260175917,-0.7393054658547011,-0.4604993303185318,0.07753150504706503,0.4851357136499888,0,-1,0.11518038809299469,-1.6265390555011194,-0.970494572316305,-1.365626637135641,0.7890151739120483,0.24877679347991943
5129,1734171270,773517131,-0.6759081135621369,0.15192398869153179,1.0640766343024424,-0.7396209190272307,-0.4622980446930931,0.07755372914921282,0.482935640748649,0,-1,0.11580244451761246,-1.6267789045916956,-0.9756053129779261,-1.3645594755755823,0.7932354807853699,0.25004637241363525
5145,1734171270,789861679,-0.6780094128854743,0.15096008316563544,1.0606931423655968,-0.7399056886018035,-0.46411255580566735,0.07762814418772956,0.4807421125179187,0,-1,0.11636532843112946,-1.6270669142352503,-0.9806917349444788,-1.3634446302997034,0.7973591685295105,0.2513878643512726
5161,1734171270,805593252,-0.6801059088425702,0.15005386200553397,1.0573062399746695,-0.7402122015424999,-0.46587654808827866,0.07763112204451231,0.478558614507215,0,-1,0.11697540432214737,-1.6274507681476038,-0.9856107870685022,-1.362389866505758,0.8015195727348328,0.2526334524154663
5177,1734171270,821903705,-0.6821921821145487,0.14912959138122303,1.0539587275047035,-0.7404986779378117,-0.46763364259232465,0.07766637908448999,0.47639103460087423,0,-1,0.11764577031135559,-1.6277983824359339,-0.990554157887594,-1.3612874189959925,0.8055956959724426,0.25396257638931274
5193,1734171270,837675571,-0.684272903562853,0.14817483575387566,1.0505459690518844,-0.7407873762502434,-0.4694076666897394,0.07770434875407606,0.47418618687798125,0,-1,0.11827980726957321,-1.6281102339373987,-0.995521370564596,-1.3601725737201136,0.8098040819168091,0.25529244542121887
5209,1734171270,853936195,-0.686309222383725,0.1472242139375211,1.0471378663638318,-0.7410877668256551,-0.47115753685435263,0.07771766527561143,0.47197400546090545,0,-1,0.11887826770544052,-1.6283982435809534,-1.0006316343890589,-1.3591416517840784,0.8139281272888184,0.25657403469085693
5225,1734171270,870042800,-0.6883107459901769,0.14632600682090072,1.0436331776947096,-0.7413965958512528,-0.4728879174232793,0.07765363770669047,0.46976378933051655,0,-1,0.11950107663869858,-1.6286619345294397,-1.0058019796954554,-1.3579910437213343,0.817944347858429,0.2578555941581726
5241,1734171270,885611534,-0.6902529455634,0.14544280261998993,1.0402326238094846,-0.741686631794734,-0.47462820999457245,0.07762237811445179,0.4675508196016638,0,-1,0.12002725899219513,-1.628901783620016,-1.0109007994281214,-1.3568404356585901,0.82209312915802,0.25910118222236633
5257,1734171270,901755094,-0.6921784772668824,0.1445130687227064,1.036847067292259,-0.7419863095868607,-0.47630206126024627,0.07766369356414754,0.4653611646096889,0,-1,0.12062571942806244,-1.6292017141925257,-1.0158441702472132,-1.3557737509356897,0.8262292146682739,0.2603827714920044
5273,1734171270,918111324,-0.6941343699946034,0.14359721848693824,1.0334199046791208,-0.7422889669744869,-0.47800636613916286,0.07764889367792252,0.4631281169924541,0,-1,0.12123654037714005,-1.6295378843890589,-1.0207751433001917,-1.3546350638019007,0.8302937150001526,0.2616759240627289
5289,1734171270,933506011,-0.6960349396745403,0.14267252703517508,1.0300265250770297,-0.7425955328936236,-0.4796534848392914,0.07766999681512424,0.4609249186176611,0,-1,0.12179867923259735,-1.6298134962665003,-1.0256827513324183,-1.3535082975970667,0.8343698382377625,0.26302939653396606
5305,1734171270,949621200,-0.6979277885300843,0.14178366911476178,1.0265841696906701,-0.7429269445728606,-0.48126936062226977,0.07768170968891257,0.45869914926198957,0,-1,0.12237317115068436,-1.6300528685199183,-1.0307930151568812,-1.352405850087301,0.8385066390037537,0.2643469274044037
5321,1734171270,965921878,-0.6997994217539779,0.14086014883814224,1.0230972383121704,-0.7432349606251438,-0.4829524071145288,0.07763867364221491,0.45643291086631876,0,-1,0.12298323959112167,-1.6303651968585413,-1.0359280745135706,-1.3513148466693323,0.8426187634468079,0.26568838953971863
5337,1734171270,981471538,-0.7016652922484862,0.13995174166985547,1.0195456391506672,-0.7435554244498537,-0.4846189734035482,0.07755500641177891,0.45415306050819243,0,-1,0.12357009202241898,-1.6306045691119593,-1.0410988966571253,-1.3502243200885218,0.8464795351028442,0.2670658230781555
5353,1734171270,997708320,-0.7035582623183443,0.1390317693284951,1.0159782002706366,-0.7438901657569948,-0.48621087007992997,0.07744282878620531,0.4519170492200296,0,-1,0.12415657192468643,-1.6309407393084925,-1.0461137930499476,-1.349133316670553,0.8507477641105652,0.2684069573879242
5369,1734171271,14002084,-0.705342578804531,0.1381108332914807,1.0125701950733372,-0.744201582497496,-0.4878335264091571,0.07741625501027562,0.4496545102404877,0,-1,0.12474267929792404,-1.6312163511859339,-1.0510085264789026,-1.3480427900897425,0.8548722267150879,0.26974841952323914
