yildirimyigit/pemp/data/ur10/raw/10_2024-12-14_13-43-17.csv
Time,ROS secs,ROS nsecs,________p_x________,________p_y________,________p_z________,________q_x________,________q_y________,________q_z________,________q_w________,gripper_position,gripper_force,shoulder_pan_joint,shoulder_lift_joint,elbow_joint,wrist_1_joint,wrist_2_joint,wrist_3_joint
0,1734172997,46433448,-0.00015327835311781913,0.25614099487185865,1.4272999917652751,-0.7071067803102086,8.639208395647117e-06,1.732648375513139e-05,0.7071067817978324,0,-1,2.3968450477696024e-05,-1.5709040800677698,-3.5587941304981996e-05,-1.5707719961749476,-4.7985707418263246e-05,0.00014381069922819734
13,1734172997,61919689,-0.0001244475990402495,0.2561409945457491,1.4272999950358347,-0.7071067804567651,1.7046199179672588e-05,3.420760206012205e-05,0.7071067808834358,0,-1,2.3968450477696024e-05,-1.5709040800677698,-8.374849428349762e-05,-1.5707839171039026,-3.5587941304981996e-05,0.00011984225420746952
28,1734172997,78124523,-0.00013707769118577164,0.25614099861216744,1.4272999925977041,-0.707106780501514,2.554270473512124e-05,2.5711096485129035e-05,0.7071067809428032,0,-1,2.3968450477696024e-05,-1.5708921591388147,-2.366701234990387e-05,-1.5707719961749476,-3.5587941304981996e-05,0.00014381069922819734
45,1734172997,93762397,-0.00012155595070233283,0.25614099587274186,1.4272999946491594,-0.7071067788647653,1.2809137897293213e-05,-4.12887048966202e-06,0.7071067833802575,0,-1,1.1984225238848012e-05,-1.5708921591388147,-3.5587941304981996e-05,-1.5707719961749476,-3.5587941304981996e-05,0.00011984225420746952
60,1734172997,109810113,-0.00011132610056474846,0.25614099764180426,1.4272999956372274,-0.7071067808076528,1.6984383885105516e-05,2.5626902552844092e-05,0.7071067808970797,0,-1,2.3968450477696024e-05,-1.5708683172809046,-7.18275653284195e-05,-1.5707839171039026,-1.1746083394825746e-05,0.00014381069922819734
76,1734172997,126304626,-0.00019269920521946163,0.2561410025176745,1.4272999846659264,-0.7071067805000381,-4.336702671469526e-06,-2.0948173000340294e-05,0.7071067815494616,0,-1,2.3968450477696024e-05,-1.5708802382098597,-4.7985707418263246e-05,-1.5707600752459925,-2.366701234990387e-05,0.00014381069922819734
93,1734172997,141846418,-0.00010357188232251888,0.25614099780819943,1.4272999957554189,-0.7071067803429919,2.111467878470048e-05,2.1327827803709922e-05,0.7071067813932078,0,-1,0.0,-1.5708563963519495,-2.366701234990387e-05,-1.5707357565509241,-1.1746083394825746e-05,0.00011984225420746952
108,1734172997,157497406,-0.00012592507896087377,0.25614099439459403,1.4272999948564804,-0.7071067794221583,-4.116738268136134e-06,-4.151249473203713e-06,0.7071067829267675,0,-1,4.793690095539205e-05,-1.5708683172809046,-3.5587941304981996e-05,-1.5707839171039026,-1.1746083394825746e-05,0.000107858024421148
124,1734172997,173759698,-0.0001439908763017888,0.25614099842952753,1.427299992205421,-0.7071067788192026,3.416304195143221e-05,8.70615002980363e-06,0.707106782675022,0,-1,3.5952674807049334e-05,-1.5708921591388147,-4.7985707418263246e-05,-1.5707719961749476,-4.7985707418263246e-05,0.00013182648399379104
140,1734172997,189556598,-0.00015034364684380784,0.25614099665458884,1.4272999914403834,-0.7071067795526157,1.6944749170154002e-05,8.728528645221352e-06,0.7071067825635792,0,-1,2.3968450477696024e-05,-1.5708921591388147,-1.1746083394825746e-05,-1.5707719961749476,-4.7985707418263246e-05,0.000107858024421148
156,1734172997,205835819,-0.00010221979838323324,0.2561409990299123,1.4272999961380823,-0.707106780846428,1.283151466506353e-05,1.2999906407111348e-05,0.7071067812907442,0,-1,2.3968450477696024e-05,-1.5708802382098597,-4.7985707418263246e-05,-1.5707476774798792,-1.1746083394825746e-05,0.000107858024421148
172,1734172997,222397804,-0.00013520319300529553,0.25614099864099227,1.4272999930431955,-0.7071067810493874,1.7219912743150408e-05,2.5694039668437506e-05,0.7071067806472122,0,-1,3.5952674807049334e-05,-1.5708802382098597,-2.366701234990387e-05,-1.5707719961749476,-2.366701234990387e-05,0.00013182648399379104
188,1734172997,237864255,-8.1765868525696e-05,0.2561409992230115,1.4272999974110185,-0.7071067801892035,2.9667876407503755e-05,1.2977528762426064e-05,0.7071067814424201,0,-1,1.1984225238848012e-05,-1.5708563963519495,-2.366701234990387e-05,-1.5707600752459925,-3.5587941304981996e-05,0.000107858024421148
204,1734172997,253618478,-8.288914159192952e-05,0.25614100018451835,1.4272999973048357,-0.7071067795476172,3.3803490533862215e-05,8.639016036031255e-06,0.7071067819647107,0,-1,3.5952674807049334e-05,-1.5708802382098597,-5.990663637334137e-05,-1.5707839171039026,-3.5587941304981996e-05,0.00013182648399379104
220,1734172997,269835233,-0.00014706052770945805,0.2561409966855147,1.427299992205421,-0.7071067795253846,1.2977723389834922e-05,-4.005041684380116e-06,0.7071067827172763,0,-1,1.1984225238848012e-05,-1.5709040800677698,0.0,-1.5707839171039026,-3.5587941304981996e-05,0.000107858024421148
236,1734172997,285562515,-0.00017429843153148159,0.2561409940835668,1.4272999886647169,-0.7071067797479399,4.4021484422181245e-06,4.6600541713045926e-06,0.7071067825960965,0,-1,3.5952674807049334e-05,-1.5708802382098597,-1.1746083394825746e-05,-1.5707839171039026,-4.7985707418263246e-05,0.00013182648399379104
252,1734172997,301730155,-0.00010692001765916046,0.25614100007746016,1.4272999951745284,-0.7071067784520356,4.695330722626164e-05,4.592918602301866e-06,0.7071067823472462,0,-1,4.793690095539205e-05,-1.5708921591388147,-5.990663637334137e-05,-1.5707719961749476,-4.7985707418263246e-05,9.58738019107841e-05
268,1734172997,317430973,-0.00013468733073124372,0.25614099555971703,1.427299993569558,-0.70710678068894,2.145185037632406e-05,3.856849532650874e-05,0.7071067803069155,0,-1,4.793690095539205e-05,-1.5708802382098597,-5.990663637334137e-05,-1.5707839171039026,-3.5587941304981996e-05,0.000107858024421148
284,1734172997,333761930,-0.00012155543743595542,0.25614099874616436,1.427299994448109,-0.7071067801559694,1.6962004600386367e-05,2.7165699491738553e-07,0.7071067820136321,0,-1,1.1984225238848012e-05,-1.5708563963519495,-4.7985707418263246e-05,-1.570796314870016,-1.1746083394825746e-05,0.00013182648399379104
300,1734172997,349498033,-0.00018868613440744703,0.25614099330501094,1.4272999873189458,-0.7071067766378762,8.448245752181937e-06,-2.5011326914255074e-05,0.7071067852424082,0,-1,3.5952674807049334e-05,-1.5708683172809046,-5.990663637334137e-05,-1.5707600752459925,-3.5587941304981996e-05,0.00013182648399379104
316,1734172997,365884780,-0.00013837243605801733,0.25614099384567174,1.4272999935788722,-0.7071067801983306,4.3350090982915095e-06,1.3067042318153354e-05,0.7071067820407394,0,-1,0.0,-1.5708683172809046,-1.1746083394825746e-05,-1.5707476774798792,-7.135072817021637e-05,0.00013182648399379104
332,1734172997,381579875,-0.00015347147218263243,0.2561409948843769,1.4272999918874343,-0.7071067808501365,4.4021484950540255e-06,2.1518793478182773e-05,0.7071067811818238,0,-1,0.0,-1.5708683172809046,-2.366701234990387e-05,-1.5707719961749476,-2.366701234990387e-05,0.00011984225420746952
348,1734172997,397855043,-0.00017136470338582338,0.25614099231614995,1.4272999896492897,-0.7071067808143084,1.8745978252844664e-07,2.5778232351857836e-05,0.707106781088877,0,-1,1.1984225238848012e-05,-1.5708802382098597,-3.5587941304981996e-05,-1.5707600752459925,-5.990663637334137e-05,0.00011984225420746952
364,1734172997,413545131,-0.0001380612874053564,0.256140995386389,1.4272999933945791,-0.7071067798625528,-8.331421821823748e-06,-8.073516174502059e-06,0.7071067824153697,0,-1,3.5952674807049334e-05,-1.5708921591388147,-4.7985707418263246e-05,-1.5707839171039026,-3.5587941304981996e-05,0.00013182648399379104
380,1734172997,429973840,-0.00010375011185215787,0.2561409989921112,1.427299995748549,-0.7071067803350467,2.985884145716699e-05,2.159786349966928e-05,0.7071067810777845,0,-1,3.5952674807049334e-05,-1.5708802382098597,-2.366701234990387e-05,-1.5707719961749476,-1.1746083394825746e-05,0.00011984225420746952
396,1734172997,445666790,-0.00015079999199838604,0.25614099492839854,1.427299991983346,-0.7071067800482012,4.357388023918107e-06,4.6152936847673424e-06,0.7071067822964061,0,-1,3.5952674807049334e-05,-1.5708802382098597,-2.366701234990387e-05,-1.5707719961749476,-2.366701234990387e-05,0.000107858024421148
412,1734172997,461293935,-0.0001418803436320584,0.2561409985609718,1.4272999917736022,-0.707106781245743,4.340135270531106e-06,1.2814262201737982e-05,0.7071067809979218,0,-1,3.5952674807049334e-05,-1.5708921591388147,-5.990663637334137e-05,-1.5707600752459925,-1.1746083394825746e-05,0.00013182648399379104
428,1734172997,477683782,-0.0002028669498560153,0.25614099039464927,1.4272999851442474,-0.7071067763352509,1.2809139077412991e-05,-2.060567568588222e-05,0.707106785621593,0,-1,3.5952674807049334e-05,-1.5708802382098597,-1.1746083394825746e-05,-1.5707719961749476,-1.1746083394825746e-05,0.00016777915880084038
444,1734172997,493642091,-0.00014090799325916612,0.2561409968807469,1.4272999928392764,-0.7071067800093968,8.59445116226668e-06,3.7823053278615964e-07,0.7071067823113669,0,-1,5.992112710373476e-05,-1.5708563963519495,-4.7985707418263246e-05,-1.5707476774798792,-1.1746083394825746e-05,0.00011984225420746952
461,1734172997,509973526,-0.00016393317189709167,0.256140996328869,1.427299989320387,-0.7071067797499184,-4.071981046750428e-06,-1.2288201658838333e-05,0.707106782504679,0,-1,2.3968450477696024e-05,-1.5708563963519495,-3.5587941304981996e-05,-1.570796314870016,-5.990663637334137e-05,0.00011984225420746952
476,1734172997,525723218,-0.00012129147261475822,0.256140998801353,1.42729999402176,-0.707106780748924,4.109730605958173e-06,4.2781223835466346e-06,0.7071067815992865,0,-1,2.3968450477696024e-05,-1.5708563963519495,-3.5587941304981996e-05,-1.5707476774798792,-4.7985707418263246e-05,0.00014381069922819734
492,1734172997,541511535,-7.014342372143946e-05,0.25614099942068325,1.4272999981471122,-0.7071067802279393,3.8186759296203626e-05,4.66608862058403e-05,0.7071067795744925,0,-1,1.1984225238848012e-05,-1.5708921591388147,-4.7985707418263246e-05,-1.5707839171039026,-1.1746083394825746e-05,0.00013182648399379104
508,1734172997,557547807,-0.00015321986919487746,0.25614098988138845,1.4272999928538261,-0.7071067807604137,-1.6889744259269374e-05,2.5649280852349973e-05,0.7071067809457743,0,-1,1.1984225238848012e-05,-1.5708563963519495,1.1920928955078125e-05,-1.5707357565509241,-5.990663637334137e-05,0.000107858024421148
524,1734172997,573995590,-0.00016509506020541442,0.25614099446621735,1.4272999902606232,-0.7071067815652223,-1.6822804713411252e-05,1.7073702314143298e-05,0.7071067804016271,0,-1,5.992112710373476e-05,-1.5709040800677698,-3.5587941304981996e-05,-1.5707839171039026,-5.990663637334137e-05,0.00014381069922819734
540,1734172997,589383602,-0.00011720918661517479,0.2561409974487705,1.4272999951142307,-0.7071067795455376,3.397207599879533e-05,2.5755855381937465e-05,0.7071067815424149,0,-1,2.3968450477696024e-05,-1.5709040800677698,-2.366701234990387e-05,-1.5707476774798792,-3.5587941304981996e-05,0.00011984225420746952
556,1734172997,605381727,-0.00021672418367553898,0.25614098769056726,1.4272999836063183,-0.7071067787392873,-3.8002805734495996e-05,-1.2367275197029782e-05,0.7071067825044433,0,-1,3.5952674807049334e-05,-1.5708802382098597,-2.366701234990387e-05,-1.5707600752459925,1.1984225238848012e-05,0.00013182648399379104
572,1734172997,621400117,-0.00012113084784598824,0.25614100315562327,1.4272999934873738,-0.7071067799398756,2.967319562595488e-05,-3.7970141305934597e-06,0.7071067818004183,0,-1,5.992112710373476e-05,-1.5708683172809046,-5.990663637334137e-05,-1.5707719961749476,-3.5587941304981996e-05,0.00013182648399379104
588,1734172997,637450456,-9.445814116590681e-05,0.25614099684698055,1.4272999970104103,-0.7071067789746011,4.246345732979581e-05,2.552544882814814e-05,0.7071067816627633,0,-1,4.793690095539205e-05,-1.5709040800677698,-4.7985707418263246e-05,-1.5707476774798792,-3.5587941304981996e-05,0.00013182648399379104
604,1734172997,653464317,-0.00015217924347449182,0.25614099487881076,1.4272999918829785,-0.7071067798980709,4.379768233966895e-06,4.637673927137202e-06,0.7071067824462516,0,-1,3.5952674807049334e-05,-1.5708921591388147,-4.7985707418263246e-05,-1.5707476774798792,-3.5587941304981996e-05,0.000107858024421148
620,1734172997,669397830,-0.00013916039704868372,0.2561409953794369,1.4272999932768757,-0.7071067803492812,4.402148471044572e-06,1.3089423821458893e-05,0.7071067818889601,0,-1,1.1984225238848012e-05,-1.5708921591388147,-3.5587941304981996e-05,-1.5707719961749476,-5.990663637334137e-05,9.58738019107841e-05
636,1734172997,685383796,-0.00016896867970751765,0.2561409943272109,1.4272999900753207,-0.7071067808027373,-4.049601431162729e-06,1.306704355742317e-05,0.7071067814380249,0,-1,2.3968450477696024e-05,-1.5708802382098597,-2.366701234990387e-05,-1.5707476774798792,-5.990663637334137e-05,0.00013182648399379104
652,1734172997,701440095,-0.00014188606939361843,0.2561409985025175,1.4272999922412881,-0.7071067795506522,8.324415387729327e-06,-8.365932084706042e-06,0.7071067827239538,0,-1,2.3968450477696024e-05,-1.5708802382098597,0.0,-1.5707839171039026,-3.5587941304981996e-05,0.000107858024421148
668,1734172997,717386484,-0.00016208447434734623,0.256140996325414,1.4272999903254902,-0.7071067789747844,2.571129363661709e-05,8.728528673391311e-06,0.7071067828769907,0,-1,7.190534961409867e-05,-1.5708802382098597,-3.5587941304981996e-05,-1.5707839171039026,-3.5587941304981996e-05,0.00011984225420746952
684,1734172997,733570337,-0.00013095879798133515,0.25614099567430637,1.4272999941649476,-0.7071067804102307,8.616833327163022e-06,1.730410866276859e-05,0.7071067816986313,0,-1,1.1984225238848012e-05,-1.5708683172809046,-3.5587941304981996e-05,-1.5707839171039026,-4.7985707418263246e-05,0.00014381069922819734
700,1734172997,749712705,-0.00014755511517813638,0.25614099509708577,1.4272999925035024,-0.707106780703428,-1.252372900283569e-05,4.592915976907626e-06,0.7071067815438453,0,-1,2.3968450477696024e-05,-1.5709040800677698,-4.7985707418263246e-05,-1.570796314870016,-4.7985707418263246e-05,8.388957940042019e-05
716,1734172997,765688419,-0.00010196795718040977,0.2561409966840408,1.427299996399058,-0.7071067803541986,2.559939969720142e-05,2.5857305271992018e-05,0.7071067810827368,0,-1,-1.1746083394825746e-05,-1.5708444754229944,-4.7985707418263246e-05,-1.570808235798971,-3.5587941304981996e-05,0.000107858024421148
732,1734172997,781662225,-0.00011682690622517466,0.25614099741016777,1.4272999946892875,-0.7071067797230185,1.2786758361384633e-05,-4.196006750783644e-06,0.7071067825220142,0,-1,3.5952674807049334e-05,-1.5708921591388147,-4.7985707418263246e-05,-1.570796314870016,-4.7985707418263246e-05,0.00013182648399379104
748,1734172997,797902584,-0.00016052901930028202,0.25614099817203795,1.4272999899236047,-0.7071067784233055,8.61682969481171e-06,-2.5269431881718544e-05,0.7071067834457682,0,-1,3.5952674807049334e-05,-1.5708563963519495,-1.1746083394825746e-05,-1.5707357565509241,-2.366701234990387e-05,0.00014381069922819734
764,1734172997,813406705,-0.00012789856363722133,0.2561410002170822,1.427299992608403,-0.7071067804102308,8.616830754723548e-06,-8.118274091647817e-06,0.707106781863759,0,-1,3.5952674807049334e-05,-1.5708802382098597,-2.366701234990387e-05,-1.5707839171039026,-2.366701234990387e-05,0.00014381069922819734
780,1734172997,829411745,-0.00012132075179641182,0.2561409934267099,1.427299995526138,-0.7071067809628412,1.2032555552413453e-07,3.4185225664699714e-05,0.7071067805838976,0,-1,4.793690095539205e-05,-1.5708921591388147,-3.5587941304981996e-05,-1.5707719961749476,-1.1746083394825746e-05,0.00013182648399379104
796,1734172997,846008539,-0.00011358775145520924,0.25614099742851254,1.4272999952984715,-0.7071067791798783,3.407352786590873e-05,8.661393074915432e-06,0.7071067823192151,0,-1,3.5952674807049334e-05,-1.5708921591388147,-7.18275653284195e-05,-1.5707839171039026,-3.5587941304981996e-05,0.00013182648399379104
812,1734172997,861852407,-0.00015626000385746304,0.25614099651278294,1.4272999909021806,-0.7071067797918497,1.2685309043527341e-05,4.469088462911393e-06,0.7071067824533369,0,-1,2.3968450477696024e-05,-1.5708921591388147,-1.1746083394825746e-05,-1.5707839171039026,-4.7985707418263246e-05,0.000107858024421148
828,1734172997,877651214,-0.0001243774056008902,0.25614100171516097,1.4272999936084954,-0.7071067803393055,2.9695575878169908e-05,1.308410547906923e-05,0.7071067812891912,0,-1,0.0,-1.5708921591388147,-2.366701234990387e-05,-1.5707719961749476,-3.5587941304981996e-05,0.00011984225420746952
844,1734172997,893949270,-0.00013797426463724632,0.256140995441543,1.4272999935148072,-0.7071067807965153,1.2853893276356186e-05,2.9970538250395856e-05,0.7071067808246029,0,-1,2.3968450477696024e-05,-1.5708683172809046,-5.990663637334137e-05,-1.5707600752459925,-3.5587941304981996e-05,9.58738019107841e-05
860,1734172997,909687995,-0.00013713113358438704,0.25614099393773976,1.4272999937532593,-0.707106780441251,2.1429471428598766e-05,3.859087428904523e-05,0.7071067805540622,0,-1,2.3968450477696024e-05,-1.5708802382098597,-1.1746083394825746e-05,-1.5707719961749476,-3.5587941304981996e-05,0.00011984225420746952
877,1734172997,925948143,-0.0001590363142127272,0.2561410021222674,1.4272999896652014,-0.7071067806627539,8.622151611307628e-06,-7.989318758438293e-06,0.7071067816126397,0,-1,2.3968450477696024e-05,-1.5708802382098597,-3.5587941304981996e-05,-1.5707600752459925,0.0,0.00011984225420746952
892,1734172997,941646575,-0.00013746644547408456,0.2561409938891021,1.4272999937652875,-0.7071067803099232,8.549693954125816e-06,1.7281727156149817e-05,0.7071067818003011,0,-1,1.1984225238848012e-05,-1.5708802382098597,-4.7985707418263246e-05,-1.5707719961749476,-1.1746083394825746e-05,0.00011984225420746952
908,1734172997,957896947,-0.00012256407984309866,0.25614099594355505,1.427299994838248,-0.7071067800093968,8.594453091596292e-06,8.852358765912395e-06,0.7071067822560562,0,-1,3.5952674807049334e-05,-1.5708802382098597,-7.18275653284195e-05,-1.5707600752459925,-2.366701234990387e-05,0.00013182648399379104
924,1734172997,973779678,-8.200204597228558e-05,0.2561409991724156,1.4272999974471396,-0.7071067798239782,2.9836463786393618e-05,4.379571687099647e-06,0.7071067819060773,0,-1,1.1984225238848012e-05,-1.570916000996725,-3.5587941304981996e-05,-1.5707719961749476,-1.1746083394825746e-05,0.00011984225420746952
941,1734172997,989883661,-8.674557690146434e-05,0.2561409992150983,1.4272999972156704,-0.7071067809507684,2.5497951069370472e-05,4.2446204889771354e-05,0.707106779688624,0,-1,1.1984225238848012e-05,-1.5708802382098597,0.0,-1.5707719961749476,-1.1746083394825746e-05,0.000107858024421148
956,1734172998,5567073,-0.00015296365301492078,0.256140993146214,1.4272999921805616,-0.7071067800061528,1.7046199158071635e-05,2.5778232409642363e-05,0.7071067816915915,0,-1,4.793690095539205e-05,-1.5708683172809046,-2.366701234990387e-05,-1.5707839171039026,-2.366701234990387e-05,0.00014381069922819734
972,1734172998,21846055,-0.0001316261792353355,0.2561409955106902,1.4272999938075719,-0.7071067789282623,3.426449224710186e-05,1.7326483809468406e-05,0.7071067824023717,0,-1,1.1984225238848012e-05,-1.5708683172809046,-5.990663637334137e-05,-1.5707476774798792,-3.5587941304981996e-05,0.00014381069922819734
988,1734172998,37572145,-0.00013278248515534528,0.2561409985045586,1.4272999931519017,-0.7071067789282622,3.4264493854876524e-05,3.7823216054455845e-07,0.707106782614549,0,-1,0.0,-1.5708683172809046,0.0,-1.5707719961749476,-1.1746083394825746e-05,0.00014381069922819734
1004,1734172998,53939342,-0.00011895753442748346,0.2561409947285965,1.427299995304949,-0.7071067793746943,-8.522388153822134e-06,-8.556899379175786e-06,0.707106782895268,0,-1,2.3968450477696024e-05,-1.5709040800677698,-3.5587941304981996e-05,-1.5707600752459925,-2.366701234990387e-05,0.000107858024421148
1020,1734172998,69790601,-9.244582875360993e-05,0.25614099912758426,1.4272999967623519,-0.7071067797296479,3.8209139483943865e-05,2.9948161574635445e-05,0.7071067809769161,0,-1,1.1984225238848012e-05,-1.5708802382098597,-4.7985707418263246e-05,-1.5707839171039026,-4.7985707418263246e-05,0.00011984225420746952
1036,1734172998,85970640,-9.465254797241202e-05,0.2561409979416528,1.4272999968581357,-0.7071067795839562,2.5644158172737942e-05,8.661393071454455e-06,0.7071067822710824,0,-1,3.5952674807049334e-05,-1.5709040800677698,-4.7985707418263246e-05,-1.5707476774798792,-3.5587941304981996e-05,0.00011984225420746952
1052,1734172998,101717710,-0.00013164184300362464,0.2561409986578504,1.4272999933903459,-0.7071067802561867,1.7090959929139314e-05,8.829982043490413e-06,0.7071067818552298,0,-1,2.3968450477696024e-05,-1.5708563963519495,-2.366701234990387e-05,-1.5707476774798792,-3.5587941304981996e-05,0.000107858024421148
1068,1734172998,118065595,-0.00020131720480854118,0.25614099543283164,1.427299984858134,-0.7071067795978084,4.424526719342237e-06,-3.7916938214281413e-06,0.7071067827512779,0,-1,0.0,-1.5708683172809046,-4.7985707418263246e-05,-1.570796314870016,-3.5587941304981996e-05,0.00013182648399379104
1084,1734172998,133700847,-6.399134626729186e-05,0.2561409980819654,1.4272999985735821,-0.7071067799895792,4.244108230583855e-05,5.112835751142147e-05,0.7071067792613888,0,-1,0.0,-1.5708802382098597,-4.7985707418263246e-05,-1.5707839171039026,-3.5587941304981996e-05,0.00014381069922819734
1100,1734172998,149566650,-9.524383801758046e-05,0.25614099681873265,1.4272999969608446,-0.7071067791798782,3.407352979523834e-05,1.713552130754089e-05,0.7071067821646371,0,-1,3.5952674807049334e-05,-1.5708921591388147,-2.366701234990387e-05,-1.5707719961749476,-3.5587941304981996e-05,0.00014381069922819734
1117,1734172998,165931224,-0.00015539707166410623,0.2561409964264079,1.427299991052626,-0.7071067786118719,1.2831516165720517e-05,-1.258061848001418e-05,0.7071067835328843,0,-1,0.0,-1.5708802382098597,-2.366701234990387e-05,-1.5707476774798792,-5.990663637334137e-05,0.000107858024421148
1132,1734172998,181622743,-0.00013710185459862864,0.2561410002170822,1.4272999923801355,-0.7071067801559665,1.6944751139252417e-05,2.096463347088212e-07,0.7071067820140697,0,-1,5.992112710373476e-05,-1.5708683172809046,-1.1746083394825746e-05,-1.5707476774798792,-2.366701234990387e-05,0.00011984225420746952
1148,1734172998,198095560,-0.00020102246800956982,0.25614099549828173,1.4272999842839245,-0.7071067808097571,-2.5207417524010833e-05,-8.259163658433407e-06,0.707106781065798,0,-1,4.793690095539205e-05,-1.5708921591388147,-3.5587941304981996e-05,-1.5707476774798792,0.0,0.00014381069922819734
1165,1734172998,213850021,-6.514765216388299e-05,0.2561409994547318,1.4272999981788232,-0.7071067799895795,4.244107876873426e-05,3.418010078319381e-05,0.7071067802837447,0,-1,3.5952674807049334e-05,-1.5708802382098597,-4.7985707418263246e-05,-1.5707839171039026,-1.1746083394825746e-05,0.00014381069922819734
1180,1734172998,230091333,-0.00012667314105369617,0.2561409942301937,1.427299994417568,-0.7071067790024453,2.5430813540652202e-05,8.874737760868464e-06,0.7071067828576527,0,-1,2.3968450477696024e-05,-1.5708921591388147,0.0,-1.5707476774798792,-5.990663637334137e-05,0.000107858024421148
1196,1734172998,245817661,-8.772754827019344e-05,0.2561410001367529,1.4272999969368125,-0.7071067789705385,4.2508217764558624e-05,8.577198802461688e-06,0.7071067820728303,0,-1,3.5952674807049334e-05,-1.5708921591388147,-4.7985707418263246e-05,-1.5707357565509241,-4.7985707418263246e-05,0.00014381069922819734
1212,1734172998,261585235,-8.5934629596282e-05,0.25614099823093706,1.4272999973719298,-0.7071067801475536,3.3927320739799854e-05,3.414046971605582e-05,0.7071067805874333,0,-1,4.793690095539205e-05,-1.5709040800677698,-4.7985707418263246e-05,-1.5707476774798792,-2.366701234990387e-05,0.00011984225420746952
1229,1734172998,277908802,-0.0001293851401429322,0.25614099427649484,1.4272999944993918,-0.7071067801922991,2.1176691707545065e-05,2.9908724904766472e-05,0.7071067812311627,0,-1,3.5952674807049334e-05,-1.570916000996725,-4.7985707418263246e-05,-1.5707600752459925,-8.32716571252945e-05,0.00011984225420746952
1244,1734172998,293509960,-0.000134431352584208,0.2561409970880072,1.4272999933958754,-0.7071067807067989,1.7090956419036217e-05,2.5733475106778706e-05,0.7071067809914953,0,-1,3.5952674807049334e-05,-1.5708921591388147,-3.5587941304981996e-05,-1.5707600752459925,-4.7985707418263246e-05,9.58738019107841e-05
1260,1734172998,309508800,-0.00016180801612486072,0.25614099456519446,1.4272999906533836,-0.7071067802466634,-4.218188848503761e-06,4.469086506036462e-06,0.707106782099727,0,-1,2.3968450477696024e-05,-1.5708683172809046,-4.7985707418263246e-05,-1.5707719961749476,-4.7985707418263246e-05,0.00015579492901451886
1276,1734172998,325803756,-0.00014617586370468068,0.25614099514667354,1.4272999926300747,-0.7071067808501365,4.40214849505402e-06,2.1518793478182776e-05,0.7071067811818238,0,-1,2.3968450477696024e-05,-1.5708802382098597,-1.1746083394825746e-05,-1.5707600752459925,-4.7985707418263246e-05,0.00013182648399379104
1292,1734172998,341533660,-0.00012566676384339424,0.2561409958320053,1.4272999944736988,-0.7071067800525928,2.564416012453253e-05,2.5902065749440682e-05,0.7071067813810826,0,-1,1.1984225238848012e-05,-1.5708444754229944,-2.366701234990387e-05,-1.570796314870016,-2.366701234990387e-05,0.000107858024421148
1309,1734172998,357822418,-0.00012000096053123629,0.2561409974338813,1.4272999949040697,-0.7071067809490779,4.295571458740706e-06,1.293809013117899e-05,0.7071067812926042,0,-1,3.5952674807049334e-05,-1.5708683172809046,-2.366701234990387e-05,-1.5707600752459925,-4.7985707418263246e-05,0.00011984225420746952
1324,1734172998,373373508,-0.00010954168194795846,0.25614099408049973,1.427299996380516,-0.7071067803433089,2.1216130020858824e-05,3.842229076393501e-05,0.7071067806676181,0,-1,3.5952674807049334e-05,-1.5708921591388147,-2.366701234990387e-05,-1.5707719961749476,-4.7985707418263246e-05,0.00011984225420746952
1340,1734172998,389782428,-0.00013022231099984793,0.2561409971888914,1.4272999936897917,-0.7071067807613487,8.492999317340427e-06,1.7135518023913456e-05,0.7071067813531171,0,-1,3.5952674807049334e-05,-1.5708802382098597,-3.5587941304981996e-05,-1.5707719961749476,-1.1746083394825746e-05,9.58738019107841e-05
1356,1734172998,405721426,-0.00011586449360148575,0.2561409988663912,1.427299994832865,-0.707106780846428,1.283151466506353e-05,1.2999906407111348e-05,0.7071067812907442,0,-1,2.3968450477696024e-05,-1.5708563963519495,-2.366701234990387e-05,-1.5707839171039026,-1.1746083394825746e-05,0.00011984225420746952
1373,1734172998,421944856,-0.00013127221078079203,0.25614099568249976,1.4272999941970028,-0.7071067809126147,8.088596235575363e-08,1.7197530933234245e-05,0.7071067812513453,0,-1,1.1984225238848012e-05,-1.5708802382098597,-3.5587941304981996e-05,-1.5707600752459925,-3.5587941304981996e-05,0.00011984225420746952
1388,1734172998,437558889,-0.00011327660300335698,0.2561409987383216,1.427299995233404,-0.707106778864491,2.9881221599648927e-05,-4.005040066809506e-06,0.707106782865895,0,-1,3.5952674807049334e-05,-1.5708921591388147,-3.5587941304981996e-05,-1.5707839171039026,-4.7985707418263246e-05,0.00014381069922819734
1404,1734172998,453851461,-0.00019680223647077752,0.2561409932744948,1.4272999856734925,-0.7071067786456727,-1.698607558136615e-05,-1.6728169698867175e-05,0.7071067833255322,0,-1,1.1984225238848012e-05,-1.5708683172809046,-9.566942323857575e-05,-1.5707839171039026,-2.366701234990387e-05,0.000107858024421148
1421,1734172998,469530344,-0.00014080585467899672,0.2561409967761368,1.4272999922769958,-0.7071067784073184,2.1305641138067536e-05,-4.1064934468677985e-06,0.7071067836328753,0,-1,4.793690095539205e-05,-1.5708802382098597,-1.1746083394825746e-05,-1.5707600752459925,-2.366701234990387e-05,8.388957940042019e-05
1436,1734172998,485506296,-0.0001350246688335313,0.25614099858474604,1.427299992993043,-0.7071067797352977,2.9903601864815773e-05,1.321325429447423e-05,0.7071067818820307,0,-1,3.5952674807049334e-05,-1.5709040800677698,-1.1746083394825746e-05,-1.5707719961749476,-3.5587941304981996e-05,0.00013182648399379104
1452,1734172998,501433849,-0.00013651146950538837,0.25614099249634154,1.4272999942761977,-0.7071067816112636,-8.207594189813844e-06,5.111129489665798e-05,0.7071067788669768,0,-1,2.3968450477696024e-05,-1.5708563963519495,-0.000119511281148732,-1.5707476774798792,-1.1746083394825746e-05,0.000107858024421148
1468,1734172998,517796277,-0.00018710775373851452,0.25614099791302103,1.427299983159332,-0.707106783290147,-3.368154267359194e-05,8.689091610783022e-06,0.7071067782273867,0,-1,3.5952674807049334e-05,-1.5708921591388147,-0.0002511183368127945,-1.5707600752459925,0.000107858024421148,0.00014381069922819734
1484,1734172998,533466100,-0.00040144374613186747,0.25614097425761884,1.4272999116077258,-0.7071067872075768,-0.0001947481441800902,8.6308950722367e-06,0.707106748294518,0,-1,8.388957940042019e-05,-1.5708563963519495,-0.0006225744830530289,-1.5706518332110804,0.0003954794374294579,0.0002037318336078897
1500,1734172998,549616813,-0.0007465288034970239,0.25614088254478107,1.4272996711000137,-0.7071068153502685,-0.0004529195533956609,0.00012332099972513078,0.7071065912159287,0,-1,0.00015579492901451886,-1.5708563963519495,-0.0012930075274866226,-1.5705202261554163,0.0009224108653143048,0.0004074636672157794
1516,1734172998,565699815,-0.001394690867321391,0.2561406252771838,1.4272987960977126,-0.7071069006297603,-0.0008635489271813374,0.00022087395460395357,0.7071060999452068,0,-1,0.00026327845989726484,-1.5708563963519495,-0.0022872130023401382,-1.57025653520693,0.0017729162937030196,0.0006587578682228923
1532,1734172998,581849575,-0.0023906282320635994,0.25613984019331215,1.4272964632289304,-0.7071071360007339,-0.0014814216501590194,0.000398772589288446,0.7071047621018799,0,-1,0.0005025884602218866,-1.5708320776568812,-0.003819290791646779,-1.5699685255633753,0.0029226529877632856,0.0010422531049698591
1548,1734172998,597570657,-0.0037329767808854217,0.25613820483008676,1.4272912655380023,-0.7071076054224784,-0.0023915031860098687,0.000597999192727381,0.7071016599210933,0,-1,0.00075388269033283,-1.57092792192568,-0.005771462117330373,-1.5695131460772913,0.004407947883009911,0.0015448415651917458
1564,1734172998,613672256,-0.005564870027916589,0.25613485040917144,1.4272808194730013,-0.7071085529145078,-0.0035388009093179273,0.0008732717294820817,0.7070956149487574,0,-1,0.0010411295806989074,-1.571036163960592,-0.008261982594625294,-1.5690091292010706,0.006396205630153418,0.0021560369059443474
1580,1734172998,629792928,-0.007894864635229946,0.2561291338728155,1.427261686997957,-0.7071102822639043,-0.00501206238681752,0.001144823919206133,0.7070845899363712,0,-1,0.0013882976491004229,-1.5712159315692347,-0.01125508943666631,-1.5684216658221644,0.008851848542690277,0.0029582311399281025
1596,1734172998,645934343,-0.010603390539068168,0.2561199131535714,1.4272312793973974,-0.7071131616875937,-0.006764626584031366,0.0015432253755619319,0.7070663581664692,0,-1,0.0017714182613417506,-1.5714557806598108,-0.014715496693746388,-1.5677383581744593,0.011642674915492535,0.0038566733710467815
1612,1734172998,661493778,-0.013757486588273353,0.2561062117417127,1.4271848245122087,-0.7071176654935003,-0.008792207194117614,0.0019882220527135314,0.7070384368708303,0,-1,0.0022144601680338383,-1.571683708821432,-0.01872712770570928,-1.566934887562887,0.014876543544232845,0.004898551851511002
1628,1734172998,677674293,-0.0173505811182475,0.2560858232820171,1.427117839526418,-0.7071236419088043,-0.011069590692909338,0.0024625718078742295,0.7069989780442485,0,-1,0.0027765952982008457,-1.5719836393939417,-0.023049179707662404,-1.5660832563983362,0.018458329141139984,0.005976383108645678
1644,1734172998,693799257,-0.02123720818626027,0.25605882342742203,1.427028833568974,-0.7071315208462232,-0.01353680071914083,0.002975574449281158,0.7069461883401694,0,-1,0.0032791835255920887,-1.5722959677325647,-0.02771932283510381,-1.5650647322284144,0.022255081683397293,0.007162072695791721
1660,1734172998,709945678,-0.02541905584015621,0.25602402497344207,1.4269123577384766,-0.7071419361265443,-0.01615654017691779,0.0035220170189836624,0.7068782382962655,0,-1,0.003925582859665155,-1.5726435820208948,-0.0326765219317835,-1.564033333455221,0.026315860450267792,0.008431277237832546
1676,1734172998,726132392,-0.029781887533360786,0.2559805527285659,1.426769067844436,-0.7071547197504279,-0.018940934144478956,0.004131998502681027,0.7067930177476304,0,-1,0.004571607336401939,-1.573015038167135,-0.03796846071352178,-1.5629780928241175,0.030615950003266335,0.009688871912658215
1693,1734172998,741729021,-0.034388142623879764,0.25592630874713607,1.4265930433054514,-0.7071688214890401,-0.02191525439521826,0.004694539685746377,0.7066894231808862,0,-1,0.005206022411584854,-1.5733626524554651,-0.043320480977193654,-1.5618036429034632,0.03492802381515503,0.011077918112277985
1708,1734172998,757848739,-0.03899211328269962,0.25586350929625196,1.4263924752531718,-0.7071873672378521,-0.02478333163563021,0.005414108618978818,0.706570945850518,0,-1,0.005936311092227697,-1.5737221876727503,-0.048780266438619435,-1.560580078755514,0.03939589485526085,0.012515276670455933
1724,1734172998,773796558,-0.04358488398493715,0.25579374414026745,1.4261664633581472,-0.7072081600723357,-0.027689057848701817,0.0061626085071766635,0.706436095240709,0,-1,0.006606304086744785,-1.57399827638735,-0.05430013338197881,-1.5593693892108362,0.04392368346452713,0.013988212682306767
1740,1734172998,789504528,-0.0481734362388048,0.25571423520994857,1.4259143321373686,-0.7072303965505027,-0.030661349390027084,0.00691942218846964,0.7062840571931235,0,-1,0.007264687679708004,-1.574334446583883,-0.05980807939638311,-1.5580742994891565,0.04849940910935402,0.015461523085832596
1756,1734172998,805532932,-0.052862162255611966,0.2556278687868092,1.4256313655611372,-0.7072574860767052,-0.0336083346295903,0.007632714926716723,0.7061154791496445,0,-1,0.00791108701378107,-1.5746100584613245,-0.06532794633974248,-1.556899372731344,0.0530511699616909,0.017006363719701767
1773,1734172998,821798324,-0.057434481772192195,0.25553372688084564,1.4253290642628618,-0.7072866983955833,-0.036528539602336416,0.008396936943552353,0.7059324921812012,0,-1,0.008545126765966415,-1.5748618284808558,-0.07069141069521123,-1.5557358900653284,0.05751941353082657,0.01841975376009941
1788,1734172998,837809085,-0.061855728757066436,0.2554390207990047,1.4250112622811284,-0.7073176768534843,-0.039342459610887705,0.009079995826776589,0.7057417576976307,0,-1,0.009167557582259178,-1.5751741568194788,-0.07589990297426397,-1.5545972029315394,0.061927735805511475,0.019796816632151604
1804,1734172998,853601217,-0.06612218567665386,0.25534063871470625,1.4246826573319082,-0.7073509761742068,-0.04207501567945013,0.009800877923483204,0.705541091895362,0,-1,0.009718082845211029,-1.575437370930807,-0.08096391359438115,-1.553458038960592,0.0660960003733635,0.021198222413659096
1820,1734172998,869723558,-0.07029023131405125,0.2552373313289785,1.424339010182953,-0.7073835855132452,-0.04473943293541508,0.010445108582881073,0.7053352010170303,0,-1,0.010304560884833336,-1.5757010618792933,-0.08592111269106084,-1.5523789564715784,0.07016913592815399,0.022467801347374916
1836,1734172998,885733604,-0.07435506311270122,0.2551296441161942,1.4239858051608527,-0.7074172069045667,-0.04733965846072384,0.01106766113071413,0.7051222298220778,0,-1,0.010867070406675339,-1.5759413878070276,-0.09074622789491826,-1.5513117949115198,0.07406176626682281,0.023713037371635437
1852,1734172998,901362419,-0.07826407961161284,0.25502053061383745,1.423624259422402,-0.7074508723603544,-0.04985463425889771,0.011647722152826168,0.704905744910719,0,-1,0.011381643824279308,-1.5761688391314905,-0.0953438917743128,-1.5503523985492151,0.07789521664381027,0.02488674223423004
1868,1734172998,917760372,-0.08202836061519177,0.25491012083691206,1.4232595537639987,-0.707484399377448,-0.05229299544836391,0.01221854430646472,0.7046857274271986,0,-1,0.011872622184455395,-1.5763729254352015,-0.0997851530658167,-1.5493691603290003,0.0815245658159256,0.02602449432015419
1884,1734172998,933789014,-0.0856605431185373,0.25479955312034763,1.4228923397272037,-0.7075198415949387,-0.05458732638737642,0.0127804049037072,0.7044661516338795,0,-1,0.01242277305573225,-1.576637093220846,-0.10413152376283819,-1.5484464804278772,0.0850587859749794,0.02717423066496849
1900,1734172998,949522972,-0.08930583060346281,0.25468306399124335,1.4225107461186854,-0.7075552709455651,-0.05691423093405869,0.013316833872746812,0.7042364452440233,0,-1,0.012949704192578793,-1.5768526236163538,-0.10845357576479131,-1.5475347677813929,0.0885443240404129,0.028276029974222183
1917,1734172998,965834856,-0.09283394593438457,0.25456376956170923,1.4221198989520498,-0.7075917544845407,-0.05918979992953685,0.013861153839486306,0.7040016654696415,0,-1,0.013416340574622154,-1.5770686308490198,-0.11272794405092412,-1.5465520063983362,0.09215007722377777,0.029377829283475876
1932,1734172998,981671571,-0.09640152081018856,0.25443831370984765,1.421709149159941,-0.7076288532198508,-0.06150666631709541,0.014438919096007289,0.7037541145205869,0,-1,0.013978850096464157,-1.5772488752948206,-0.1172416845904749,-1.5455449263202112,0.09571988135576248,0.030491240322589874
1948,1734172998,997771501,-0.100173736248409,0.2543019666215972,1.4212605133659721,-0.707670475258559,-0.06386903697002821,0.014969158486334505,0.7034907027516835,0,-1,0.014493422582745552,-1.5775001684771937,-0.12176734605898076,-1.5444534460650843,0.09942113608121872,0.03168928623199463
1964,1734172999,14082193,-0.10401668068598445,0.25415716467614374,1.4207840970640284,-0.7077132258367737,-0.06636513606012438,0.015532159783921494,0.703204387574392,0,-1,0.015127837657928467,-1.5777762571917933,-0.12643653551210576,-1.5434702078448694,0.10326657444238663,0.03289894387125969
1981,1734172999,29900550,-0.10791947505741215,0.2540074894553452,1.4202802485785109,-0.7077600456099229,-0.06888969722249298,0.016115242335296882,0.7029012920882333,0,-1,0.015654394403100014,-1.5780280272113245,-0.1313098112689417,-1.5424030462848108,0.10723184794187546,0.0341205857694149
1996,1734172999,46313285,-0.11206197299126044,0.2538373719805461,1.4197334988146841,-0.7078107777029086,-0.07150103777580172,0.01673553699503514,0.7025748546354864,0,-1,0.016252482309937477,-1.5783517996417444,-0.13630181947817022,-1.541419808064596,0.11132895946502686,0.03537818044424057
2012,1734172999,61775922,-0.11632105645285915,0.25366016224803745,1.4191476678509662,-0.7078636649677846,-0.07424194222550627,0.017298767018926714,0.7022235530745073,0,-1,0.01683933474123478,-1.5786998907672327,-0.14140254655946904,-1.5403888861285608,0.1154017224907875,0.03674326092004776
2028,1734172999,77413082,-0.12069168078642621,0.2534675889368883,1.4185286696525763,-0.7079189636469553,-0.07698921132057314,0.017887122155961124,0.701857145799795,0,-1,0.017509328201413155,-1.5790355841266077,-0.14652663866151983,-1.539393726979391,0.11954639106988907,0.03801283985376358
2044,1734172999,93683481,-0.1250588150475708,0.25326418956581354,1.4178826510923983,-0.7079742045772195,-0.07979043336381922,0.01848635361991019,0.7014729268665377,0,-1,0.01816733554005623,-1.579395596181051,-0.15179425874818975,-1.538266960774557,0.12379929423332214,0.03931837156414986
2060,1734172999,109431028,-0.12945474096035076,0.2530650228411053,1.4172045854238133,-0.7080354650794597,-0.08263094074878169,0.01904276945232613,0.7010672441016411,0,-1,0.018801750615239143,-1.5797069708453577,-0.15700227419008428,-1.5371993223773401,0.12805218994617462,0.040611542761325836
2076,1734172999,125714778,-0.1338929817510939,0.2528529228393238,1.416494278839681,-0.7080981920082213,-0.08547426176137699,0.01958498162484224,0.7006479355181106,0,-1,0.019436540082097054,-1.5800307432757776,-0.16224605241884404,-1.5361083189593714,0.132340669631958,0.041941042989492416
2092,1734172999,141387701,-0.13827624200769173,0.25262741790628135,1.4157725323752084,-0.7081612778464084,-0.08830724262963306,0.020227479704397217,0.700214456093918,0,-1,0.02008219063282013,-1.5803425947772425,-0.16757327715028936,-1.5349696318255823,0.1366415172815323,0.043330464512109756
2108,1734172999,157459259,-0.14266180982360993,0.2524016142595313,1.4150283522188245,-0.7082303232065805,-0.09111333629830073,0.020910649454295584,0.699764899075893,0,-1,0.02066904306411743,-1.580618683491842,-0.17281705537904912,-1.5338543097125452,0.14103785157203674,0.04465958848595619
2124,1734172999,173748016,-0.1470251224026023,0.2521599577418401,1.4142631240661636,-0.7083002217372458,-0.0939213273516626,0.021588294670796655,0.6993021705162061,0,-1,0.021351395174860954,-1.5809662977801722,-0.17801314989198858,-1.5326913038836878,0.14538662135601044,0.046060994267463684
2140,1734172999,189432621,-0.15145811792590202,0.2519161229921689,1.4134600533570112,-0.7083743472572486,-0.09675241335093214,0.02221365441257524,0.6988213707495472,0,-1,0.02197345159947872,-1.5812543074237269,-0.1833403746234339,-1.531588379536764,0.14971105754375458,0.04750958830118179
2156,1734172999,205509424,-0.15582145057492322,0.25167194549682503,1.4126378416662173,-0.7084546786387831,-0.0995348392132299,0.022859129813062956,0.6983281780665911,0,-1,0.022595882415771484,-1.5815900007831019,-0.18863231340517217,-1.5304253737079065,0.15403586626052856,0.04889900982379913
2172,1734172999,221880912,-0.1601452049943297,0.2514203200498172,1.4118020422887358,-0.7085332896479379,-0.10230308118321775,0.023507374217300987,0.6978266693087181,0,-1,0.023206328973174095,-1.5819018522845667,-0.19391185442079717,-1.5292628447162073,0.15824083983898163,0.05027644708752632
2188,1734172999,237585306,-0.16447383882083086,0.2511660610602419,1.4109473472043732,-0.7086112245965953,-0.1050190478105342,0.024079011778545656,0.6973244102743363,0,-1,0.023828759789466858,-1.5822137037860315,-0.19898778596986944,-1.5280755201922815,0.1624218374490738,0.05162953957915306
2204,1734172999,253806352,-0.16869372393212684,0.2508971699991001,1.4100895750861542,-0.7086936814094409,-0.1076949357111278,0.024771136479035942,0.6968080492862054,0,-1,0.024438831955194473,-1.5825255552874964,-0.2040637175189417,-1.527020279561178,0.16653092205524445,0.05295903980731964
2220,1734172999,269587039,-0.17285618739967087,0.2506347869978637,1.4092210410040689,-0.7087734328459186,-0.11034477935231055,0.02534427965318411,0.696291546731944,0,-1,0.025061262771487236,-1.5828254858600062,-0.209116284047262,-1.5258577505694788,0.17069993913173676,0.05427655577659607
2236,1734172999,285597801,-0.17702535027197625,0.2503659874369202,1.408332524159133,-0.7088548336717759,-0.1130086468287059,0.025975707500816337,0.6957579558596048,0,-1,0.025659725069999695,-1.5831249395953577,-0.21415597597231084,-1.524790112172262,0.17480939626693726,0.0555817149579525
2252,1734172999,301766633,-0.18109905499886175,0.25008664313836276,1.407432945499099,-0.7089328221323321,-0.11567962201417294,0.02655452995206641,0.6952174736678949,0,-1,0.02626979537308216,-1.5834129492389124,-0.21920806566347295,-1.5236991087542933,0.1788705587387085,0.056815341114997864
2268,1734172999,317861795,-0.18523599487658388,0.2498159533116563,1.4064980251241885,-0.7090214194680778,-0.11833053270981575,0.027090002887762116,0.6946600920649063,0,-1,0.026808712631464005,-1.5837004820453089,-0.22420055070985967,-1.5226438681231897,0.182991623878479,0.058144837617874146
2284,1734172999,333418607,-0.1892872432411277,0.2495215892592071,1.4055661665367558,-0.7091074616915755,-0.12092108662528733,0.02777597571645165,0.6940988357256405,0,-1,0.027419159188866615,-1.5839527289019983,-0.22919255891908819,-1.5214808622943323,0.1871010959148407,0.059414416551589966
2300,1734172999,349545955,-0.1933876793657438,0.24923224159092416,1.4045988294181195,-0.7091950179567801,-0.12359722197301931,0.028337664714259327,0.6935150538988875,0,-1,0.02802922949194908,-1.5842283407794397,-0.2341840902911585,-1.5204384962665003,0.19121018052101135,0.060719575732946396
2317,1734172999,365775108,-0.19743151268837877,0.24893888672403858,1.4036196968081949,-0.7092858973755432,-0.12620769310776414,0.028936708489932753,0.6929269809196029,0,-1,0.028615707531571388,-1.5845044294940394,-0.2391884962665003,-1.5193708578692835,0.1953076720237732,0.06200113892555237
2332,1734172999,381900787,-0.20156531225955424,0.2486225696433286,1.4026020192701703,-0.7093762548414084,-0.1288835726693924,0.029524071144265758,0.6923168949160631,0,-1,0.029262106865644455,-1.5847919623004358,-0.24422866502870733,-1.5182679335223597,0.19948866963386536,0.06325872987508774
2348,1734172999,397489070,-0.20561080164424375,0.24830877955611677,1.4015781676705859,-0.7094716113737347,-0.1315305828009768,0.030135365296982655,0.6916947290540888,0,-1,0.029848584905266762,-1.5851038138019007,-0.24928027788271123,-1.5172126928912562,0.20362210273742676,0.06456426531076431
2364,1734172999,413585424,-0.2097930030432641,0.24798377712689582,1.4005047370925885,-0.709564876307239,-0.134259639933619,0.030677086467857172,0.6910506144717848,0,-1,0.030423078685998917,-1.5854399839984339,-0.2543681303607386,-1.516193691884176,0.2077435553073883,0.06585744023323059
2380,1734172999,429718255,-0.2138939932039437,0.24765280406847412,1.3994228355785208,-0.7096632669750413,-0.13687702213566438,0.03123427402040853,0.6904108548132786,0,-1,0.031033525243401527,-1.5856674353228968,-0.2594559828387659,-1.5150788466082972,0.21172118186950684,0.06721090525388718
2397,1734172999,445849657,-0.21795593675181307,0.24734299841879231,1.3983284169825392,-0.7097679931939654,-0.13939980694093207,0.03167254451889126,0.6897781814365692,0,-1,0.031655583530664444,-1.585991684590475,-0.26454383531679326,-1.51396352449526,0.215674489736557,0.0685284212231636
2412,1734172999,461950063,-0.222091128108107,0.24699426923509757,1.3972052394108196,-0.7098663130268482,-0.1420827496456664,0.032298055889439375,0.6891002434106074,0,-1,0.032266028225421906,-1.5862911383258265,-0.26954776445497686,-1.512921158467428,0.2197839468717575,0.06976205110549927
2428,1734172999,477481842,-0.22610027804253266,0.24665412739699744,1.3960761358826024,-0.7099660431255687,-0.14470934393536392,0.03283394268645182,0.6884252723383145,0,-1,0.032840896397829056,-1.586555306111471,-0.2745397726642054,-1.511794392262594,0.2238215059041977,0.0710432380437851
2444,1734172999,493587017,-0.23010413346190323,0.24630812867695773,1.3949314767633303,-0.710071433802209,-0.14728735710500712,0.03340587932880308,0.6877419869117827,0,-1,0.03342700004577637,-1.586794678364889,-0.2795675436602991,-1.510702912007467,0.2279309779405594,0.07228884845972061
2460,1734172999,509723186,-0.2340568287911788,0.24596097813522133,1.3937756399937808,-0.7101730569906156,-0.1499085687271672,0.03398968275607194,0.6870417393527976,0,-1,0.03400149568915367,-1.5870707670794886,-0.28449947038759404,-1.5096357504474085,0.2320883721113205,0.07353445887565613
2476,1734172999,525860309,-0.23798476629384574,0.24560832962092555,1.3926079436069867,-0.7102863897935003,-0.15248451361813511,0.03462079407055886,0.6863258105292853,0,-1,0.03459995612502098,-1.5872748533831995,-0.2895153204547327,-1.5085204283343714,0.23617388308048248,0.0748399868607521
2492,1734172999,541938543,-0.2419750227188335,0.2452468036594412,1.3914049390094092,-0.7103956741691945,-0.15507063540601812,0.03517876731643355,0.6856045058826304,0,-1,0.03517407551407814,-1.5875385443316858,-0.2944834868060511,-1.507453743611471,0.24021144211292267,0.07614514231681824
2508,1734172999,558020114,-0.24582614450841916,0.24489496475080602,1.3902069914980308,-0.7105148574054342,-0.157586480883608,0.035786094492884404,0.6848755316769626,0,-1,0.03573695942759514,-1.5878141562091272,-0.2994030157672327,-1.5063985029803675,0.24436883628368378,0.07751059532165527
2524,1734172999,573608636,-0.2498527269445492,0.24450623302118374,1.388950869351075,-0.7106331722782814,-0.16021960687200035,0.03639236919932092,0.6841094704033474,0,-1,0.03633542358875275,-1.5880783239947718,-0.30449086824526006,-1.505319897328512,0.24846631288528442,0.07891200482845306
2540,1734172999,589708328,-0.25391753044818693,0.24412850243434908,1.3876496205422637,-0.7107649327450649,-0.16279395834139546,0.03695881809281967,0.6833340202804372,0,-1,0.036957476288080215,-1.588330094014303,-0.30967456499208623,-1.5042765776263636,0.2526117265224457,0.08026546984910965
2556,1734172999,605760097,-0.2579751732386677,0.2437250690202486,1.3863299182410886,-0.7108784768793568,-0.16547486175307807,0.037447450218585976,0.6825449067347965,0,-1,0.037555940449237823,-1.5885818640338343,-0.31477386156191045,-1.5032332579242151,0.25669723749160767,0.08153467625379562
2573,1734172999,621908903,-0.2619742587515408,0.2433283837228281,1.385000756261826,-0.7110011592812991,-0.16808205842860283,0.03799787667143186,0.6817491727193478,0,-1,0.03817836940288544,-1.5888574759112757,-0.3199093977557581,-1.5021422545062464,0.2607715129852295,0.08291210979223251
2588,1734172999,637562036,-0.266014162707736,0.24292448902725478,1.383649493826292,-0.7111289775328156,-0.1706890835828714,0.03852444644673592,0.6809380890247985,0,-1,0.03876447305083275,-1.5891693274127405,-0.3249252478228968,-1.5011714140521448,0.2649528682231903,0.08421764522790909
2604,1734172999,653613090,-0.2699571489388788,0.24250798996268125,1.3823057426924346,-0.7112468694155303,-0.17330318067739403,0.03909178912846132,0.6801218496243464,0,-1,0.03939888998866081,-1.5894578138934534,-0.32988101640810186,-1.5000680128680628,0.2689664661884308,0.08551119267940521
2620,1734172999,669761896,-0.27389395826616175,0.24208984596512856,1.3809430459733123,-0.7113772203682358,-0.17583832247761505,0.03968205319468727,0.679300132006225,0,-1,0.039985742419958115,-1.58974534669985,-0.3348010222064417,-1.4989412466632288,0.27307629585266113,0.08680398762226105
2636,1734172999,685832738,-0.2777870789475586,0.24167933079288292,1.3795712776859195,-0.7114985506847904,-0.17839662479079132,0.0402307948228357,0.678473241760218,0,-1,0.040571846067905426,-1.589985195790426,-0.339792553578512,-1.4978259245501917,0.2771618068218231,0.08803761750459671
2652,1734172999,701405286,-0.28166735932111864,0.24125294547172166,1.3781721215858223,-0.7116295584223438,-0.18093826854598197,0.04083801592568528,0.6776259816524567,0,-1,0.04119427502155304,-1.5902488867389124,-0.34482032457460576,-1.4967110792743128,0.2812596559524536,0.0893910825252533
2668,1734172999,717494487,-0.2855131925956293,0.24083349799615628,1.3767650501902677,-0.7117649867554054,-0.18343890311669192,0.04140598239833337,0.6767764158671985,0,-1,0.04175678640604019,-1.590536896382467,-0.34982377687563115,-1.4956086317645472,0.2853451371192932,0.09068462997674942
2684,1734172999,733616590,-0.28944262490750083,0.24038735116627502,1.3753099574220904,-0.7118920685746557,-0.18601962359727137,0.041945404458273265,0.6759045534556334,0,-1,0.04239082708954811,-1.590752903615133,-0.35488731065859014,-1.49449330965151,0.28943103551864624,0.0919538363814354
2700,1734172999,749749422,-0.2933429510641182,0.2399546368398207,1.3738387464168096,-0.7120296731811888,-0.18860273905220487,0.04247427688565421,0.6750101385420341,0,-1,0.04296569526195526,-1.59108812013735,-0.35987884203066045,-1.4933903853045862,0.29355284571647644,0.09324738383293152
2716,1734172999,765564680,-0.297346132441395,0.23950699614544146,1.372326337474452,-0.71216845621012,-0.19120715389323406,0.04300881582794173,0.6740965480110559,0,-1,0.043588124215602875,-1.5913642088519495,-0.3649066130267542,-1.492347542439596,0.2976866662502289,0.0945529192686081
2732,1734172999,781810998,-0.30124690367770707,0.23903326129158903,1.3708157654495408,-0.7122971407153772,-0.19379403284467445,0.04353999094414896,0.6731871399180755,0,-1,0.04418621212244034,-1.5917003790484827,-0.36998254457582647,-1.491220776234762,0.3017845153808594,0.09582249075174332
2748,1734172999,797857046,-0.3051677109519663,0.2385889956953716,1.3692657877800603,-0.7124425229691775,-0.19636151576743152,0.04404048502208356,0.672256083847405,0,-1,0.0448206290602684,-1.5920360724078577,-0.3750694433795374,-1.4901655356036585,0.3058943450450897,0.09712802618741989
2764,1734172999,813416004,-0.309129060568536,0.23809229754774247,1.367695512812939,-0.712580970171126,-0.19894330574923758,0.04458572732748733,0.6713136636224688,0,-1,0.045383136719465256,-1.592287842427389,-0.3800852934466761,-1.4890740553485315,0.31001579761505127,0.09842120110988617
2780,1734172999,829535007,-0.31303695802761394,0.2376437907871835,1.366103022984183,-0.712732687454217,-0.20150702161776973,0.04506035948260228,0.6703555776424357,0,-1,0.04596924036741257,-1.5925992170916956,-0.38520843187441045,-1.4880431334124964,0.3141496181488037,0.0997147485613823
2796,1734172999,845682859,-0.3169160455972692,0.23717751239749185,1.3645041222871084,-0.7128796808484109,-0.20406791715394884,0.04554056279219088,0.6693914422536991,0,-1,0.046567704528570175,-1.5929234663592737,-0.39015180269350225,-1.4869406859027308,0.31823548674583435,0.10098432749509811
2812,1734172999,861816644,-0.32074094693650357,0.236682363578596,1.3629133492063392,-0.7130162639990271,-0.20661913085880143,0.04607730430489952,0.6684259301254081,0,-1,0.04716654121875763,-1.5931990782367151,-0.3951075712787073,-1.4858854452716272,0.3223097324371338,0.10224191844463348
2828,1734172999,877374887,-0.3245983342715122,0.23619705642163602,1.361290378288654,-0.7131639032107733,-0.20916467501915556,0.04659432858190045,0.6674401504444482,0,-1,0.047776613384485245,-1.59351092973818,-0.4001229445086878,-1.4847944418536585,0.3264794945716858,0.10353546589612961
2844,1734172999,893514394,-0.3284393455229803,0.23570670358652285,1.3596345882319487,-0.71331491842477,-0.2117176971798688,0.04709532714716144,0.6664378995933672,0,-1,0.0483630895614624,-1.5937750975238245,-0.40521032014955694,-1.483715836201803,0.3305653929710388,0.10475710779428482
2860,1734172999,909627676,-0.33230403401288866,0.23519904942375375,1.3579476820941712,-0.7134605801231233,-0.21426791819131846,0.04758601199512707,0.6654313122379607,0,-1,0.048985522240400314,-1.5940988699542444,-0.41025001207460576,-1.482600514088766,0.3346392810344696,0.1060742512345314
2876,1734172999,925761938,-0.3360923263146875,0.23470380608549513,1.3562724778293915,-0.7136151494022357,-0.21676462818348116,0.048108417473831544,0.6644186140380667,0,-1,0.049571625888347626,-1.5943744818316858,-0.4152892271624964,-1.481473747883932,0.3387015461921692,0.10730787366628647
2892,1734172999,941447257,-0.3398968235133144,0.23418663178021726,1.3545701261496252,-0.7137703249604557,-0.2192731736555907,0.04863476199804213,0.6633896731531509,0,-1,0.05021802335977554,-1.5946744124041956,-0.42024499574770147,-1.4804065863238733,0.3427997827529907,0.1086253896355629
2908,1734172999,957596302,-0.34372303553557226,0.2336635945284174,1.3528419482699245,-0.7139272461689447,-0.2218261066059535,0.049157135785054824,0.662332727265595,0,-1,0.0508408285677433,-1.5949862639056605,-0.4252126852618616,-1.4793036619769495,0.34695756435394287,0.11002679914236069
2924,1734172999,973734140,-0.3475319557939458,0.23312224985676722,1.3510960606219686,-0.7140900527031112,-0.22432149387507572,0.04969621236745295,0.6612756993058577,0,-1,0.05140296369791031,-1.5952375570880335,-0.43023997942079717,-1.4782245794879358,0.3510434329509735,0.11135592311620712
2940,1734172999,989922523,-0.3513501493957349,0.23259411513435974,1.3493202196201612,-0.714256668534413,-0.22683183959535044,0.05017901647611466,0.6602020859595951,0,-1,0.052037376910448074,-1.5955856482135218,-0.4353387991534632,-1.4771936575519007,0.3552015721797943,0.11267343908548355
2956,1734173000,5408763,-0.35519323441548484,0.23206000569631147,1.3475065256857428,-0.714419303907229,-0.22939095182222147,0.050655358396474164,0.6591046078526006,0,-1,0.05262385681271553,-1.595921818410055,-0.4403427282916468,-1.476114575062887,0.3593837022781372,0.11401492357254028
2972,1734173000,21537303,-0.35891922659256875,0.23151990464514355,1.3457183476189558,-0.7145875330604529,-0.23186924544238624,0.051183050429262154,0.658013378254052,0,-1,0.0532459132373333,-1.5961855093585413,-0.4453938643084925,-1.4750121275531214,0.3633500933647156,0.11529648303985596
2988,1734173000,37678480,-0.3626640779498252,0.23096433219915294,1.3438974423617394,-0.7147510040101506,-0.23438803114507495,0.051677831288759406,0.656903839900261,0,-1,0.05385635793209076,-1.5964973608600062,-0.45028955141176397,-1.473992649708883,0.3675558269023895,0.11657767742872238
3004,1734173000,53843498,-0.36634058942377984,0.23042125920450096,1.3420966408141273,-0.7149200587859904,-0.23686577175078935,0.05221868739274909,0.6557874079343985,0,-1,0.054467178881168365,-1.5967853705035608,-0.45529252687563115,-1.4729493300067347,0.3717019855976105,0.11790680140256882
3020,1734173000,69384098,-0.3700303638454077,0.22986170531546113,1.3402519468452017,-0.7150862597483546,-0.23935565967684744,0.05270440726413378,0.6546623211661917,0,-1,0.05511320382356644,-1.5970247427569788,-0.460212532673971,-1.4718950430499476,0.3758481442928314,0.11915241181850433
3036,1734173000,85546493,-0.3737345863247395,0.22928075407700915,1.338387874650751,-0.7152502260639564,-0.24186572775380383,0.05321957662419055,0.6535179879066253,0,-1,0.05568769946694374,-1.5973246733294886,-0.46523982683290654,-1.4708154837237757,0.3799104392528534,0.12050587683916092
3052,1734173000,101625204,-0.37737438742796625,0.2287476734827092,1.3365069492307349,-0.7154350776205439,-0.24427960788870756,0.053684647022459106,0.6523787868668779,0,-1,0.05628615990281105,-1.5975645224200647,-0.47024280229677373,-1.469736401234762,0.383972704410553,0.1218114122748375
3068,1734173000,117763042,-0.38101923400818694,0.22817835625526192,1.3346124408338276,-0.7156028210819958,-0.24675251552394678,0.05414145497926466,0.6512253844828392,0,-1,0.056896232068538666,-1.5978520552264612,-0.4753063360797327,-1.468682114277975,0.3880346119403839,0.12308099120855331
3084,1734173000,133320331,-0.3847379220745493,0.2276099873500227,1.3326559421119675,-0.7157879516208573,-0.2492051118325911,0.05462294158205713,0.6500467327845331,0,-1,0.057494696229696274,-1.598116699849264,-0.48034555116762334,-1.467590634022848,0.39214518666267395,0.12438651919364929
3100,1734173000,149498701,-0.38846916524458563,0.2270191990068849,1.330678375950594,-0.7159630495127043,-0.25169892471791,0.055053719378675973,0.6488556472828843,0,-1,0.05811712518334389,-1.5984280745135706,-0.48538428941835576,-1.4665120283709925,0.3962194621562958,0.12569168210029602
3116,1734173000,165598630,-0.39209399282361745,0.22643713825068634,1.3287333466408688,-0.716141246546766,-0.2541248138505168,0.0555432716381367,0.647670625361083,0,-1,0.05866765230894089,-1.5987160841571253,-0.49040013948549444,-1.4653852621661585,0.40032967925071716,0.12696126103401184
3132,1734173000,181736707,-0.39568902966542496,0.22585810801897266,1.326756792842875,-0.7163240894945688,-0.25658451857490994,0.056012070171356315,0.6464571382795442,0,-1,0.05924214422702789,-1.5989797751056116,-0.4954751173602503,-1.4642942587481897,0.4044758379459381,0.12825480103492737
3148,1734173000,197918415,-0.3993403914878562,0.22527743735960526,1.3247344701336465,-0.7165129041343116,-0.2590256513162398,0.05643139504067421,0.645236753310733,0,-1,0.059769075363874435,-1.5992916266070765,-0.5005505720721644,-1.463203255330221,0.40856245160102844,0.12958429753780365
3164,1734173000,213389396,-0.4029952447722802,0.2246687719450693,1.32268861462034,-0.716695190196648,-0.2614719085309379,0.05686236188881437,0.6440086313075353,0,-1,0.060403116047382355,-1.5995314756976526,-0.5056374708758753,-1.4621003309832972,0.41258877515792847,0.13086587190628052
3180,1734173000,229524135,-0.40653653932727873,0.22407317551044548,1.3206707868483352,-0.716881836983988,-0.2638853630285072,0.05733051927087698,0.6427738004476439,0,-1,0.06098959594964981,-1.5997832457171839,-0.5106051603900355,-1.4610217253314417,0.41669899225234985,0.13215941190719604
3196,1734173000,245685338,-0.4101060179045074,0.22347249918412093,1.3186314771653718,-0.7170583882364281,-0.26635143371126146,0.057781013474063156,0.6415181494717368,0,-1,0.061587683856487274,-1.60002309480776,-0.5156081358539026,-1.459930721913473,0.4208691418170929,0.1333690732717514
3212,1734173000,261250495,-0.4136311763122822,0.2228728376909611,1.3165812744304572,-0.717252521471561,-0.2687257653825999,0.05824728726380585,0.6402675510976886,0,-1,0.062198128551244736,-1.6002867857562464,-0.520515267048971,-1.458815876637594,0.42497971653938293,0.13461430370807648
3228,1734173000,277422904,-0.41703793758189917,0.2222683562711747,1.314562565358089,-0.7174303296886753,-0.2711318104895021,0.05872170210510944,0.6390094092306954,0,-1,0.06273704767227173,-1.600562874470846,-0.5255425612079065,-1.4577487150775355,0.4290659725666046,0.1358838826417923
3244,1734173000,293791770,-0.42056838127642954,0.2216485575587922,1.3124554790305794,-0.7176250223098584,-0.2735317840937952,0.05914166471483007,0.6377279623319017,0,-1,0.06333513557910919,-1.6008270422564905,-0.5306180159198206,-1.4566815535174769,0.4331406056880951,0.13718941807746887
3260,1734173000,309696912,-0.42411065225787636,0.2210182725669662,1.310322022896973,-0.7178208805219616,-0.2759540362804437,0.05960295968997852,0.6364197047101875,0,-1,0.0639575645327568,-1.6010664145099085,-0.535656754170553,-1.455590550099508,0.4372871518135071,0.13850656151771545
3276,1734173000,325831651,-0.42767865184078774,0.22036321928041624,1.3081538055322979,-0.7180183421659201,-0.2783823284711938,0.060035821878095134,0.6350973465538032,0,-1,0.06459198147058487,-1.6012824217425745,-0.5407798925982874,-1.4545119444476526,0.4413374364376068,0.1398480385541916
3292,1734173000,341395616,-0.4312009976679939,0.2197460546787131,1.3059747307063785,-0.7182273291786604,-0.2807757460311909,0.06041474670899961,0.6337701021992155,0,-1,0.06516610085964203,-1.6016424337970179,-0.5457466284381312,-1.4534924666034144,0.44542407989501953,0.14127342402935028
3308,1734173000,357563734,-0.43468779539291763,0.21908995626983735,1.3038198564057697,-0.7184298182439866,-0.2831270539822473,0.06090629697284955,0.6324461167169114,0,-1,0.06578852981328964,-1.6019538084613245,-0.5506780783282679,-1.4524138609515589,0.44957059621810913,0.14263887703418732
3324,1734173000,373703718,-0.43817243836422104,0.21844167295735337,1.3016299692783382,-0.7186502817159373,-0.2854653472405563,0.06139550189529564,0.6310957934113152,0,-1,0.0663633942604065,-1.6021936575519007,-0.5557773748980921,-1.451287094746725,0.45368120074272156,0.14399196207523346
3340,1734173000,389819383,-0.4416686860505794,0.21778680796746733,1.299403728671591,-0.7188480209901478,-0.28785361881495053,0.06176444063935437,0.6297483392008216,0,-1,0.06703338772058487,-1.6025174299823206,-0.5608761946307581,-1.4501717726336878,0.4576959013938904,0.1453334540128708
3356,1734173000,405398845,-0.44521353904747607,0.21712433310456253,1.2971146099443218,-0.7190630643034667,-0.2902555287169625,0.06214947548933326,0.6283609474658223,0,-1,0.06760787963867188,-1.6027339140521448,-0.5658791700946253,-1.4490931669818323,0.4618065059185028,0.14661501348018646
3372,1734173000,421494483,-0.44860806696512534,0.21644632438764808,1.2948922319340495,-0.7192562170597616,-0.2926243171048166,0.06259944140327436,0.6269950663249423,0,-1,0.06821795552968979,-1.6030333677874964,-0.5709541479693812,-1.4479902426349085,0.46594107151031494,0.14786061644554138
3388,1734173000,437597513,-0.4520984509582117,0.21578186803337146,1.2926020531813422,-0.7194666768079063,-0.29500514806612166,0.06298519231222002,0.6255977374694269,0,-1,0.06885237246751785,-1.6032970587359827,-0.575897518788473,-1.4469712416278284,0.470051646232605,0.1491781324148178
3404,1734173000,453731298,-0.4554251687544582,0.21510828975167218,1.2903714899883019,-0.7196659112363532,-0.29734618106036553,0.06342106408568118,0.6242147013996111,0,-1,0.06948678195476532,-1.6035850683795374,-0.5809004942523401,-1.4458563963519495,0.47412627935409546,0.15048329532146454
3420,1734173000,469817161,-0.4588392235523475,0.2144114731179023,1.288085148579598,-0.7198621053678582,-0.2997210153541033,0.0638425572355231,0.6228081487071992,0,-1,0.07008486986160278,-1.6038969198810022,-0.5859034697162073,-1.4447534720050257,0.47827282547950745,0.1517648547887802
3436,1734173000,485828399,-0.46226354901781885,0.2137346084464014,1.2857578827964733,-0.7200824025241628,-0.3020679707638901,0.06424101202878636,0.6213769926438639,0,-1,0.07059981673955917,-1.6041606108294886,-0.5909183661090296,-1.4437101523028772,0.4820598363876343,0.1530580371618271
3452,1734173000,501635313,-0.4656336566335732,0.21307339957779475,1.2834103041700748,-0.7202952267125663,-0.30440033492862134,0.06452745686912913,0.6199608292307173,0,-1,0.07123423367738724,-1.6044605414019983,-0.5960176626788538,-1.4427035490619105,0.4863146245479584,0.15433959662914276
3468,1734173000,517372608,-0.4690031312048009,0.21238264772466042,1.2810621832429734,-0.7205007223509104,-0.306744555375153,0.06487581750101572,0.618528588783971,0,-1,0.0718083530664444,-1.6047118345843714,-0.6010683218585413,-1.4416363875018519,0.49031734466552734,0.1556331366300583
3484,1734173000,533638477,-0.4723275574033882,0.21171589227408416,1.278697735672137,-0.7207314695500319,-0.30901950744524737,0.06525749265255675,0.6170855309203496,0,-1,0.0723828449845314,-1.604987923298971,-0.6061313788043421,-1.4405816237079065,0.4944758713245392,0.15693867206573486
3500,1734173000,549931764,-0.47572323727019883,0.2110175108098551,1.2762871381517935,-0.7209462863471383,-0.3114065951527607,0.06560800755472296,0.615595625424949,0,-1,0.0729696974158287,-1.6053240934955042,-0.6110385099994105,-1.439514462147848,0.49861079454421997,0.15822023153305054
3516,1734173000,565626859,-0.47906977627406355,0.2103128605017986,1.2739010469540093,-0.7211652656557698,-0.3137488992565804,0.06599603117823753,0.614106514943172,0,-1,0.07355580478906631,-1.605624024068014,-0.6160300413714808,-1.4384601751910608,0.5027573704719543,0.15948981046676636
3532,1734173000,581372261,-0.4824043833231954,0.20960745805856004,1.2714691751090332,-0.7213823362382294,-0.31606391892849345,0.06634072528540193,0.6126255236958738,0,-1,0.07413029670715332,-1.6059234778033655,-0.6211169401751917,-1.437392536793844,0.5068327188491821,0.1608552634716034
3548,1734173000,597680568,-0.4857251970463444,0.20888855891694585,1.2690213115229736,-0.7216160775001474,-0.3183827320289372,0.066724186182832,0.6111060101302637,0,-1,0.07476434111595154,-1.6061995665179651,-0.6262033621417444,-1.4362900892840784,0.5109673142433167,0.16214881837368011
3564,1734173000,613933324,-0.4890582634401905,0.20816970245821548,1.266534482296267,-0.7218356630578235,-0.3207186328028215,0.06707193497409589,0.6095852603613312,0,-1,0.0753747820854187,-1.6064632574664515,-0.6313260237323206,-1.4351871649371546,0.5151018500328064,0.16339442133903503
3580,1734173000,629626989,-0.4923673829439338,0.20746057759444841,1.2640342478385218,-0.7220613998005531,-0.3230173803546779,0.06740066258095309,0.608065997726,0,-1,0.07597324997186661,-1.6067751089679163,-0.6363766829120081,-1.4340961615191858,0.519140899181366,0.16464003920555115
3596,1734173000,645363807,-0.4956057777254969,0.2067467243742597,1.26156659295257,-0.7222838820729851,-0.32529611313491874,0.06774370561526004,0.6065469667110744,0,-1,0.07657171040773392,-1.6071108023272913,-0.6412838141070765,-1.4329455534564417,0.5232518911361694,0.16594481468200684
3612,1734173000,661822319,-0.4988339051480889,0.20600556652338675,1.259114290988863,-0.72249291049508,-0.3275664074400791,0.06812616125580379,0.6050314612924658,0,-1,0.07721810787916183,-1.607386891041891,-0.6462152639972132,-1.4319146315204065,0.5272785425186157,0.16719043254852295
3628,1734173000,677591085,-0.5020917183335432,0.2052617837893935,1.2566048093060491,-0.7227103232450619,-0.3298541151345728,0.06847209496374,0.6034878819123733,0,-1,0.07779259979724884,-1.6076987425433558,-0.6511943976031702,-1.4307878653155726,0.5313898921012878,0.16848397254943848
3645,1734173000,693878412,-0.5052440438287453,0.20453731770394856,1.2541025736230311,-0.7229414760327076,-0.3320791963307251,0.0687891795142568,0.6019527210485432,0,-1,0.07840267568826675,-1.6079981962787073,-0.6563051382647913,-1.4296849409686487,0.5353447198867798,0.1697775274515152
3660,1734173000,709616184,-0.5084637936511571,0.20380062365724444,1.2515386699124262,-0.723168972199637,-0.33433327587002964,0.06908936996703662,0.6003953341351791,0,-1,0.07902510464191437,-1.608298126851217,-0.6613319555865687,-1.428582016621725,0.5394796133041382,0.17108304798603058
3677,1734173000,725893974,-0.511729835247961,0.2030279454619025,1.2489303800391218,-0.7233997847279442,-0.336623975127904,0.0694110695716372,0.5987980913843778,0,-1,0.07963517308235168,-1.6085737387286585,-0.6663830916034144,-1.4275029341327112,0.54361492395401,0.17246049642562866
3692,1734173000,741488218,-0.5149087228534046,0.20228142441625602,1.2463375576382627,-0.7236571107331041,-0.3388637031883851,0.06980161962766843,0.5971762810462455,0,-1,0.08022203296422958,-1.6089099089251917,-0.6713979879962366,-1.4264605681048792,0.5477734804153442,0.17386189103126526
3708,1734173000,757780313,-0.5180790473121739,0.20153395449191608,1.2437598817988498,-0.7239045000484023,-0.34108911987646384,0.0701558057149537,0.595565823428492,0,-1,0.08088041096925735,-1.6092093626605433,-0.6763413588153284,-1.4253810087787073,0.5518968105316162,0.1751794070005417
3724,1734173000,773660421,-0.5212250973355567,0.20076406917912104,1.2411516709232777,-0.7241391504682261,-0.3433385338697711,0.07051872687974102,0.5939429695505895,0,-1,0.08145453035831451,-1.6095336119281214,-0.681403938923971,-1.4242785612689417,0.5560317039489746,0.17649692296981812
3740,1734173000,789828538,-0.5243587455650719,0.1999913224476386,1.2385277023838992,-0.7243737543833276,-0.34560691266123716,0.07082950756632529,0.5923020401275707,0,-1,0.08207695931196213,-1.6098092238055628,-0.6865022818194788,-1.4232237974749964,0.560202956199646,0.17776650190353394
3756,1734173000,805662631,-0.527536683311338,0.19919843164500992,1.235822602872621,-0.7246059071143306,-0.34789484034717205,0.0711040890375941,0.5906434355488662,0,-1,0.08267542719841003,-1.610060993825094,-0.6915534178363245,-1.4221447149859827,0.5642780065536499,0.17907129228115082
3772,1734173000,821999311,-0.5306524271019541,0.19842693669070816,1.2331468948401119,-0.7248475892140109,-0.3501044842944953,0.07139140253842978,0.5890043209783081,0,-1,0.0832618996500969,-1.610373322163717,-0.6966522375689905,-1.4210298697101038,0.5683773756027222,0.18036483228206635
3788,1734173000,837437391,-0.5337036731340394,0.1976828229033014,1.2304780331029725,-0.7250873593224609,-0.35233368898916606,0.07166006206046789,0.5873449824928753,0,-1,0.08382441103458405,-1.6106365362750452,-0.7016313711749476,-1.4199393431292933,0.572476327419281,0.1815984696149826
3804,1734173000,853530406,-0.5366914382547785,0.19691641811005228,1.2278405469619598,-0.7253197193789019,-0.3545126832858451,0.07198891503672464,0.5857044119531765,0,-1,0.0844348594546318,-1.6109245459186,-0.7065981070147913,-1.4188359419452112,0.5764914155006409,0.18288002908229828
3820,1734173000,869652271,-0.5396848163688561,0.196132327609548,1.2251978714759932,-0.7255643973449841,-0.3566735729994698,0.07233160510247819,0.5840448668831026,0,-1,0.08508088439702988,-1.6111882368670862,-0.7115410009967249,-1.4177334944354456,0.5805788040161133,0.18422150611877441
3836,1734173000,885321617,-0.5427089242628482,0.1953812908460682,1.2224943447591516,-0.7258205887554612,-0.3588062029513919,0.07260319079701316,0.5823842016644791,0,-1,0.08565537631511688,-1.6114404837237757,-0.7165682951556605,-1.416666332875387,0.5846657752990723,0.18546712398529053
3852,1734173000,901610851,-0.5456917147873042,0.1945999789006585,1.2197761181063844,-0.7260667929683564,-0.3609866487377155,0.0728914179011792,0.5806913920303234,0,-1,0.08624185621738434,-1.6117280165301722,-0.7215831915484827,-1.4155638853656214,0.5887647867202759,0.18676066398620605
3868,1734173000,917340517,-0.548642984937213,0.19380934383357623,1.21705412312373,-0.7263124794710003,-0.3631671893543566,0.073191039786902,0.5789843231349677,0,-1,0.0868523046374321,-1.6119559446917933,-0.7266815344439905,-1.4144967238055628,0.5928521156311035,0.18810215592384338
3884,1734173000,933611631,-0.5516025699014004,0.193014112775312,1.214285255393116,-0.7265616329726633,-0.36534346468693435,0.0734640087631128,0.5772654378352275,0,-1,0.0874267965555191,-1.6122201124774378,-0.7316606680499476,-1.4134419600116175,0.5970353484153748,0.1893956959247589
3900,1734173000,949374675,-0.5545265500749209,0.19224245796941752,1.2115489748488497,-0.7268160390701724,-0.36749026610169117,0.07373760454712355,0.5755450593537451,0,-1,0.08801289647817612,-1.6125195662127894,-0.7366159597979944,-1.412398640309469,0.6011107563972473,0.19066490232944489
3916,1734173000,965774059,-0.5574586389366865,0.1914245557950362,1.2088126547265428,-0.7270604695422429,-0.3696448996766459,0.07406524919515728,0.5738118686762368,0,-1,0.08865967392921448,-1.612795654927389,-0.7415464560138147,-1.4112961927997034,0.6052337288856506,0.1919824182987213
3932,1734173000,981467723,-0.5603760794092975,0.19063130659008642,1.2060173590470071,-0.7273156033520355,-0.371799308629934,0.07430930682585084,0.5720624215433394,0,-1,0.08921019732952118,-1.6130712668048304,-0.7465975920306605,-1.41026479402651,0.609381377696991,0.19327597320079803
3948,1734173000,997609376,-0.5633049173148795,0.18981376035536485,1.2031784129836607,-0.7275608158010942,-0.37396770174834637,0.07454360637040118,0.5703040137586273,0,-1,0.08983225375413895,-1.6133230368243616,-0.7517440954791468,-1.4091981093036097,0.6133605241775513,0.1945335566997528
3964,1734173001,13394355,-0.5662710919312735,0.18900742554154487,1.2002707376124433,-0.7278108537316561,-0.37616249638576577,0.07470661543513855,0.5685174219964175,0,-1,0.09045468270778656,-1.6135991255389612,-0.756866757069723,-1.4081676642047327,0.617472231388092,0.19576719403266907
3980,1734173001,29701948,-0.5691439930831068,0.18817712076820467,1.1974052152720263,-0.7280566506883609,-0.37833430068623064,0.07493366655075667,0.5667288733865312,0,-1,0.09108872711658478,-1.6138747374164026,-0.761965576802389,-1.4071124235736292,0.6216315031051636,0.19704875349998474
3996,1734173001,45405149,-0.5719750329166743,0.1873645562389694,1.1945796270598392,-0.728316391282066,-0.38044893131031265,0.07520436951868921,0.5649408355394446,0,-1,0.09169917553663254,-1.6141627470599573,-0.7669566313373011,-1.4060457388507288,0.6257907748222351,0.19833031296730042
4012,1734173001,61692237,-0.5748619804536282,0.1865499549145265,1.1916784804391376,-0.7285781444760953,-0.38258000966281247,0.07541484266819301,0.5631332214525299,0,-1,0.0922980085015297,-1.614462677632467,-0.7718632856952112,-1.404942814503805,0.6298781633377075,0.199635848402977
4028,1734173001,77414035,-0.5776325286033046,0.1857220094634768,1.1888647007733448,-0.7288383240878569,-0.3846388816869039,0.07571927903611404,0.5613503530039889,0,-1,0.09289609640836716,-1.6147025267230433,-0.7769020239459437,-1.403827969227926,0.6339654922485352,0.20097732543945312
4044,1734173001,93146562,-0.5803815533209105,0.18489877692978265,1.186008816525274,-0.729102330493345,-0.3866965089046939,0.07599320082358203,0.5595539608462099,0,-1,0.09347058832645416,-1.6149662176715296,-0.7819531599627894,-1.4027612845050257,0.6381251811981201,0.20227088034152985
4060,1734173001,109396934,-0.5832170004403503,0.18407451261084057,1.1830502933184686,-0.7293749153951063,-0.388836602391863,0.0762270928801023,0.5576806969438534,0,-1,0.09406867623329163,-1.615241829548971,-0.787027661000387,-1.4016221205340784,0.6422604918479919,0.20365992188453674
4076,1734173001,125691413,-0.5859851470430514,0.1832629143518309,1.1801212047176648,-0.7296577999269354,-0.3908551714952754,0.07646034223728977,0.5558646831614147,0,-1,0.09465515613555908,-1.615445915852682,-0.7920907179461878,-1.4005072752581995,0.6463238596916199,0.20506133139133453
4092,1734173001,141411781,-0.5886999129038472,0.18241462596293995,1.17722579550141,-0.7299307239871777,-0.39289500126977767,0.07673032119470835,0.5540280804852159,0,-1,0.09526597708463669,-1.615781609212057,-0.7971652189837855,-1.3994410673724573,0.6504711508750916,0.2063428908586502
4108,1734173001,157595872,-0.5914757720073021,0.1816090409679661,1.1742262805231662,-0.730202529093653,-0.39498628901076677,0.07689130015161948,0.5521574286014173,0,-1,0.095876045525074,-1.6160572210894983,-0.8021562735186976,-1.3983500639544886,0.6545828580856323,0.2077079713344574
4124,1734173001,173825502,-0.594208499483987,0.18077645343642207,1.1712660072363146,-0.7304838477684931,-0.39698415451127517,0.07709230592030869,0.5503214565907772,0,-1,0.0964265763759613,-1.616333309804098,-0.8072188536273401,-1.3972471396075647,0.658622682094574,0.20900151133537292
4140,1734173001,189581871,-0.5969542786114886,0.17993450269816225,1.168263580201937,-0.7307537311956241,-0.3990308737723377,0.07726930513233743,0.5484549212146097,0,-1,0.0969894602894783,-1.6166570822345179,-0.8122337500201624,-1.3961203734027308,0.6626864671707153,0.2102830857038498
4156,1734173001,205313682,-0.599653300811428,0.17908874289056476,1.1652495195591241,-0.7310287234706463,-0.40108843043672204,0.07746230997542744,0.5465571031136225,0,-1,0.09761151671409607,-1.6168974081622522,-0.8173440138446253,-1.3950656096087855,0.6667378544807434,0.21160022914409637
4172,1734173001,221556186,-0.6023211589891433,0.1782557973750603,1.1622344834853717,-0.7312922448265955,-0.40315379529021794,0.0776220223768911,0.5446590600014779,0,-1,0.09822195768356323,-1.6171610991107386,-0.8224309126483362,-1.3940108458148401,0.6708851456642151,0.21285781264305115
4188,1734173001,237863540,-0.6050070243006946,0.17740924147876624,1.159161603205705,-0.731562766245011,-0.4052249206995103,0.07776642928195313,0.5427348018735834,0,-1,0.09879607707262039,-1.6174605528460901,-0.8274696508990687,-1.39296800294985,0.6749968528747559,0.21415136754512787
4204,1734173001,253566741,-0.6076025526168325,0.17655252577231395,1.1561859276436601,-0.7318354627150636,-0.4072109754215424,0.07795217070207412,0.5408507521411977,0,-1,0.099370576441288,-1.6178205649005335,-0.8323648611651819,-1.3918889204608362,0.6791206002235413,0.215492844581604
4220,1734173001,269314050,-0.6102491506647637,0.17569330370473207,1.1531723422994802,-0.7321062710601394,-0.4092237783626801,0.07816075465628591,0.5389315388141146,0,-1,0.10005292296409607,-1.618096176777975,-0.8373435179339808,-1.3907745520221155,0.683232307434082,0.21672646701335907
4236,1734173001,285612344,-0.6128376150789353,0.17484259052575957,1.1501417775776295,-0.7323855607505889,-0.41121923403871224,0.07836291407625677,0.5370003590856689,0,-1,0.10065139085054398,-1.6183603445636194,-0.8423345724688929,-1.3896716276751917,0.6873559951782227,0.21803200244903564
4252,1734173001,301324844,-0.6154354501490209,0.17396943081683813,1.1470611374405908,-0.7326476610681409,-0.41322722649037696,0.07852057040076478,0.5350749331097393,0,-1,0.10126183182001114,-1.618659798298971,-0.8474448362933558,-1.388604466115133,0.6914557218551636,0.21933753788471222
4268,1734173001,317754268,-0.6180710978614096,0.1730843824387221,1.1439179912795865,-0.7329257313055494,-0.41525383672777844,0.07866194447949414,0.5331007615486875,0,-1,0.101811982691288,-1.6189478079425257,-0.8524959723102015,-1.387465778981344,0.6955314874649048,0.2206190973520279
4284,1734173001,333329916,-0.6206037252957782,0.1722416824496664,1.1408257633093797,-0.7332041288909906,-0.41721625600790596,0.0787654618920893,0.5311669258461738,0,-1,0.1024104505777359,-1.6192591826068323,-0.8575347105609339,-1.3863871733294886,0.6996791362762451,0.22188830375671387
4300,1734173001,349716663,-0.6231877200874916,0.17133794232027055,1.137715142616606,-0.7334732387259434,-0.41922178431684387,0.0789364496514421,0.5291872452577653,0,-1,0.10304524004459381,-1.6196077505694788,-0.8625138441668909,-1.385308567677633,0.7037069797515869,0.2231818586587906
4316,1734173001,365423202,-0.6257051932272932,0.17046507491606921,1.1346325611416026,-0.7337475557518168,-0.4211512790102047,0.07909675077143634,0.5272474074224589,0,-1,0.10366729646921158,-1.6199072043048304,-0.8674925009356897,-1.384193245564596,0.7077591419219971,0.22447539865970612
4332,1734173001,381694555,-0.6282280627107185,0.16960014615757418,1.131497604503072,-0.734021760811068,-0.42310948497822554,0.0792063033212236,0.5252778121065712,0,-1,0.10425376892089844,-1.6202190558062952,-0.8725193182574671,-1.3830907980548304,0.7118344902992249,0.2257809340953827
4348,1734173001,397436380,-0.6307797575870687,0.16868128157577655,1.1282887264122208,-0.7342990583099177,-0.42509712591414905,0.07932641696163117,0.523263457616455,0,-1,0.10491178184747696,-1.6205428282367151,-0.8776181379901331,-1.382036034260885,0.71598219871521,0.22699059545993805
4364,1734173001,413686752,-0.6332799572897789,0.16781515862565538,1.1250732578776632,-0.73457214723526,-0.4270853382725188,0.0793905043606078,0.5212475632136766,0,-1,0.10548627376556396,-1.6207945982562464,-0.8827522436725062,-1.3809807936297815,0.7200942635536194,0.22830811142921448
4380,1734173001,429417371,-0.6357728229175054,0.16693733952586798,1.121849478324769,-0.7348597565225624,-0.429058757739121,0.07945675881361144,0.5192074191783067,0,-1,0.1060132086277008,-1.6210945288287562,-0.887827221547262,-1.3799498716937464,0.7241460680961609,0.22955408692359924
4396,1734173001,445614337,-0.6381173597675295,0.16604542699928262,1.1187722703989722,-0.7351306209814638,-0.4309511408397042,0.07962492231943996,0.5172271803086028,0,-1,0.10669481009244919,-1.6214059034930628,-0.8926985899554651,-1.3788955847369593,0.72828209400177,0.23083564639091492
4412,1734173001,461577415,-0.6405500323686131,0.16517081863451039,1.11558218877036,-0.7354114638531333,-0.4328990808774643,0.07972250878835692,0.5151821873874608,0,-1,0.10726967453956604,-1.6217544714557093,-0.8976057211505335,-1.3778169790851038,0.7324293851852417,0.23212920129299164
4428,1734173001,477540254,-0.6429013981453948,0.16431167299974508,1.1124437970613636,-0.7357038454562721,-0.4347726827559874,0.07985602338781815,0.5131623345869214,0,-1,0.10789173096418381,-1.6219819227801722,-0.9026444594012659,-1.3767498175250452,0.7365175485610962,0.23347030580043793
4444,1734173001,493904113,-0.6452772918363114,0.16342669505940444,1.109201989566257,-0.7360032453184753,-0.43665347527627135,0.07993847157565846,0.5111191702254716,0,-1,0.1084422618150711,-1.6222699324237269,-0.9076712767230433,-1.3756707350360315,0.7406172752380371,0.23478782176971436
4460,1734173001,509590864,-0.6476105591152256,0.16256454039109514,1.1059770024491309,-0.7363132461612866,-0.4385316243832677,0.08005553244300906,0.5090421688509387,0,-1,0.10905308276414871,-1.622521702443258,-0.9127581755267542,-1.374568287526266,0.7448132038116455,0.2361772507429123
4476,1734173001,525296449,-0.649900557561015,0.16164747102177077,1.1027719593648464,-0.7366166705965876,-0.44037298037244593,0.08021586284569553,0.5069841556745224,0,-1,0.10960323363542557,-1.6227858702289026,-0.917856518422262,-1.3734296003924769,0.7488774061203003,0.23745881021022797
4492,1734173001,541655540,-0.6522475812092483,0.16076814392061545,1.09948830359692,-0.7369092951113775,-0.4422612848713564,0.08024212289274635,0.504906771984745,0,-1,0.11023764312267303,-1.6230734030352991,-0.9228470961200159,-1.3724349180804651,0.7530134320259094,0.2387763261795044
4508,1734173001,557679891,-0.6545684885833101,0.15985633124975127,1.0962414566986576,-0.7371940804652888,-0.44413881507490116,0.08031017344951723,0.5028278798071052,0,-1,0.11083610355854034,-1.623397175465719,-0.9277547041522425,-1.3713200728045862,0.7570292949676514,0.24011780321598053
4524,1734173001,573415279,-0.6567941104262518,0.15899418236743007,1.0930472809280476,-0.7374816543867744,-0.44586275881357856,0.08034654923458294,0.5008708833344035,0,-1,0.11147052049636841,-1.623720947896139,-0.9327576796161097,-1.3702409903155726,0.7609975337982178,0.24139900505542755
4540,1734173001,589685916,-0.6591091347722817,0.15804823394428247,1.0897361048182268,-0.737761615050095,-0.44779860470404,0.08043988548453004,0.4987119747981055,0,-1,0.11205700039863586,-1.6239965597735804,-0.9378560225116175,-1.369138542805807,0.765109658241272,0.24266858398914337
4556,1734173001,605513572,-0.6613244955663131,0.15714992027754146,1.0864198543668189,-0.7380545374075183,-0.44964794173908923,0.08049281739802161,0.4966015854276985,0,-1,0.11263111978769302,-1.6242130438434046,-0.9430025259601038,-1.3680599371539515,0.7691857814788818,0.24395014345645905
4572,1734173001,621677875,-0.6635130266301997,0.15625906063282727,1.0831356746998781,-0.7383481225880877,-0.45148194460339336,0.0805438529544639,0.4944884137358877,0,-1,0.11327751725912094,-1.624488655720846,-0.9480655829059046,-1.366981331502096,0.7732978463172913,0.24526765942573547
4588,1734173001,637968778,-0.6657129814953366,0.15535671559448605,1.079817180066754,-0.7386473979826593,-0.453295440206601,0.08058950130716944,0.4923703866200854,0,-1,0.11385200917720795,-1.6247404257403772,-0.9530323187457483,-1.3659017721759241,0.7773979902267456,0.2466091364622116
4604,1734173001,653656721,-0.6678287123471991,0.1544550345814716,1.0765700983890034,-0.7389400136558049,-0.4550703308385405,0.08066541535480325,0.49027720829597754,0,-1,0.11445009708404541,-1.625028435383932,-0.9580114523517054,-1.364847485219137,0.7814980745315552,0.24789069592952728
4620,1734173001,669934511,-0.6700176790791638,0.15353836872457038,1.0732484163235922,-0.7392352632633528,-0.45687219154856046,0.08070489589310652,0.48814520986737114,0,-1,0.11506091803312302,-1.6253159681903284,-0.9629061857806605,-1.363720719014303,0.7855502367019653,0.24919623136520386
4636,1734173001,685665845,-0.6720896933133156,0.15262566485029533,1.0699739842748286,-0.739534841050063,-0.45861787958540273,0.08079468219358439,0.4860350591540542,0,-1,0.11568297445774078,-1.6255677382098597,-0.9680412451373499,-1.3626778761493128,0.7896267175674438,0.25051337480545044
4652,1734173001,701940298,-0.6741865153976567,0.15170607642735073,1.0666295152292267,-0.7398229060413203,-0.4604461491000114,0.08083522392168316,0.48385646430431944,0,-1,0.1163293793797493,-1.6257956663714808,-0.9731639067279261,-1.3615992704974573,0.7938586473464966,0.25178295373916626
4668,1734173001,717652320,-0.6762669811292297,0.15077991571940408,1.0632590022058814,-0.7401300601462067,-0.46222554353574474,0.08087722925901657,0.4816782274075113,0,-1,0.11690349876880646,-1.6260111967669886,-0.978274170552389,-1.3605082670794886,0.7979351878166199,0.25306451320648193
4685,1734173001,733934402,-0.6783544773588392,0.14989303247808786,1.0598491053419745,-0.7404153000841083,-0.4640311472976312,0.08081982185704759,0.47950853395325405,0,-1,0.11752592772245407,-1.6263111273394983,-0.9832056204425257,-1.3594415823565882,0.8020828366279602,0.2543940246105194
4700,1734173001,749669075,-0.6803936601156129,0.1489363227360555,1.0565586254548442,-0.7407146128791614,-0.46577979278630516,0.08094311949071827,0.4773251075591269,0,-1,0.11813674867153168,-1.626599136983053,-0.9881728331195276,-1.3583267370807093,0.8061953186988831,0.25566360354423523
4717,1734173001,765954017,-0.6823932511765902,0.1480224994678737,1.0532610858763594,-0.7410028508855432,-0.4674861581264568,0.08100506400923094,0.4751943250340046,0,-1,0.11875880509614944,-1.6268871466266077,-0.9931157271014612,-1.3571761290179651,0.8102474808692932,0.2569212019443512
4732,1734173001,781658649,-0.6844316975023033,0.1471065080416377,1.0498742412923272,-0.7413104693013833,-0.46923094415992866,0.08105037709363239,0.4729819716648032,0,-1,0.1193452849984169,-1.6271627585040491,-0.9981544653521937,-1.356109921132223,0.8143954873085022,0.2582147419452667
4749,1734173001,797929525,-0.6864498694216122,0.14619995178951428,1.0464151092133125,-0.7415946665035525,-0.47099885963359606,0.08096437245006072,0.47078890729402767,0,-1,0.11999130249023438,-1.6274026075946253,-1.00330096880068,-1.3550427595721644,0.8184723854064941,0.2594723403453827
4764,1734173001,813675880,-0.6884195170627833,0.14529918321966595,1.042959373587861,-0.7419062089585733,-0.47272896694021344,0.08092326268080596,0.4685658187292898,0,-1,0.12050625681877136,-1.62769061723818,-1.0083754698382776,-1.3539517561541956,0.8226324319839478,0.26072993874549866
4780,1734173001,830183029,-0.6903939053746383,0.1443730583568905,1.0395132634610766,-0.7422053096868898,-0.47444505721300423,0.08088677409308812,0.466358762902072,0,-1,0.12108074873685837,-1.6279900709735315,-1.0134261290179651,-1.35284930864443,0.8266729712486267,0.26203545928001404
4796,1734173001,845660209,-0.6923143543454743,0.1434666622690322,1.0361362011576902,-0.7425040594644436,-0.47612928756861145,0.08087129593312949,0.4641642561554311,0,-1,0.12165486812591553,-1.6282904783831995,-1.018369499837057,-1.3518064657794397,0.8307490944862366,0.2633409798145294
4812,1734173001,861941099,-0.6942315829946151,0.1425562467337321,1.032774693970793,-0.7428176451600205,-0.4777821688506645,0.08087300055253896,0.4619585511156884,0,-1,0.12225332856178284,-1.628566090260641,-1.0232885519610804,-1.3506916205035608,0.8348016738891602,0.2646465301513672
4828,1734173001,877654314,-0.6961004953772268,0.1416693052990685,1.0293599255663397,-0.7431355364638976,-0.4794273082959208,0.0808783988688656,0.4597365714200384,0,-1,0.12285178899765015,-1.6288297812091272,-1.028315846120016,-1.3496125380145472,0.8389500975608826,0.2659760117530823
4844,1734173001,893810033,-0.6979980152528379,0.14072551755379195,1.0258763323046212,-0.7434568364678505,-0.48110741894368086,0.08085172449348152,0.4574610173479216,0,-1,0.1234382688999176,-1.6291058699237269,-1.0334504286395472,-1.3485820929156702,0.8430262207984924,0.2673291265964508
4860,1734173001,909568786,-0.6998401683665214,0.1398398343841118,1.0223925996553676,-0.7437737484248031,-0.48275748625685255,0.08076816215274091,0.4552167885739178,0,-1,0.12407268583774567,-1.6293695608722132,-1.0385730902301233,-1.3474796454059046,0.8471270799636841,0.268682599067688
4876,1734173001,925804853,-0.7017379503031368,0.13888691402713935,1.0188302554815611,-0.7440816002683747,-0.4844487382566732,0.08064892948057707,0.4529323816169573,0,-1,0.12461084872484207,-1.6296218077289026,-1.0436361471759241,-1.3464487234698694,0.8512391448020935,0.26994016766548157
4892,1734173001,941508293,-0.7035483819771993,0.1379753873263372,1.0153651367183762,-0.744401207615077,-0.4860937745929598,0.0806072509643695,0.4506463752158127,0,-1,0.12522166967391968,-1.6299689451800745,-1.048614803944723,-1.3454178015338343,0.8553280234336853,0.27129364013671875
4908,1734173001,957951068,-0.7053645033719332,0.13707432399516759,1.0119097631592613,-0.7447136940640651,-0.4877132232195887,0.08053439640564167,0.44838770808954237,0,-1,0.12579579651355743,-1.6302931944476526,-1.0535700956927698,-1.3443153540240687,0.8594281077384949,0.2725512385368347
4924,1734173001,973600864,-0.7071585244999244,0.13611368593799314,1.0084485891533128,-0.7450094852090968,-0.48935008149630466,0.08049298977420306,0.44611460779181694,0,-1,0.12639425694942474,-1.6305926481830042,-1.0584772268878382,-1.3432725111590784,0.8635289669036865,0.2738567888736725
4940,1734173001,989946365,-0.708906274351005,0.13521667685934,1.0049686877014308,-0.7453160805256718,-0.49094339175016005,0.0804154029990513,0.4438602135438581,0,-1,0.12704028189182281,-1.6308329741107386,-1.0635164419757288,-1.3421338240252894,0.8676414489746094,0.2751263380050659
4956,1734173002,5589723,-0.7106588072464192,0.13427623131633482,1.0014188274844127,-0.7456207305608776,-0.4925820424764886,0.08033252020254218,0.44154200681867417,0,-1,0.12761513888835907,-1.63110858598818,-1.0687225500689905,-1.3410432974444788,0.8718022108078003,0.27641990780830383
4972,1734173002,21864652,-0.712432367361418,0.13328853913671168,0.9978264500976396,-0.7459173404285689,-0.49423755512983625,0.08023039574756514,0.4392034197788555,0,-1,0.12823757529258728,-1.6314199606524866,-1.0737374464618128,-1.3399880568133753,0.8758783340454102,0.27773740887641907
4988,1734173002,37575721,-0.7141610150082943,0.13237394803393052,0.9942695011787929,-0.7462398218793195,-0.49582435177487844,0.08010377307921934,0.436884110453809,0,-1,0.12885963916778564,-1.6316965262042444,-1.0787885824786585,-1.338921848927633,0.8799428343772888,0.2790069878101349
5004,1734173002,53196191,-0.7158958994121526,0.1314241452395954,0.9907508523947242,-0.7465477374183231,-0.4974080278886336,0.08006029466268214,0.4345596377553341,0,-1,0.12945809960365295,-1.6320560614215296,-1.0836361090289515,-1.3378070036517542,0.8841036558151245,0.2803005278110504
5020,1734173002,69551706,-0.7174991266934163,0.13050356071446753,0.9873191020595801,-0.7468592723577107,-0.49893611624612366,0.0800128144385766,0.4322752927523888,0,-1,0.1300445795059204,-1.6323559919940394,-1.0885432402240198,-1.3367040793048304,0.8882280588150024,0.2816300392150879
5036,1734173002,85425615,-0.719174102856561,0.12955234047726233,0.9837600481182055,-0.7471679436905453,-0.5005053119458829,0.07990390511745624,0.4299416967243085,0,-1,0.13065502047538757,-1.6326435248004358,-1.0935466925250452,-1.335625473652975,0.8923049569129944,0.2829352021217346
5052,1734173002,101546287,-0.7207814172076565,0.12865697273346835,0.980221254205691,-0.747494233979713,-0.5020276693375633,0.07979331708828447,0.4276138631225896,0,-1,0.1313014179468155,-1.6329196135150355,-1.0987175146686,-1.3345463911639612,0.8963454961776733,0.2841928005218506
5068,1734173002,117372989,-0.7224305139067897,0.12768375428916653,0.9765579918588345,-0.7477824364947459,-0.5036219900506631,0.07958779411145092,0.42526709470151175,0,-1,0.1319114863872528,-1.6331952253924769,-1.1038640181170862,-1.3334563414203089,0.9004822969436646,0.2855222821235657
5084,1734173002,133492469,-0.7240242774265762,0.12673031365675652,0.9729490365540849,-0.7481090179932264,-0.5051651773640725,0.07945864214108446,0.4228798469601392,0,-1,0.13252194225788116,-1.6335433165179651,-1.1088789145099085,-1.3324373404132288,0.9045711755752563,0.28684017062187195
5100,1734173002,149495840,-0.725589025961005,0.12581778552210765,0.9694031684849089,-0.7484237473272557,-0.5066658996283788,0.07932426073745713,0.4205463378140983,0,-1,0.13309642672538757,-1.6338666121112269,-1.1137984434710901,-1.3313587347613733,0.908695638179779,0.28813374042510986
5116,1734173002,165627241,-0.7271694514415246,0.12485190410065426,0.9658368881236369,-0.748728311699367,-0.5081870184664413,0.07923320249562595,0.4181793504518023,0,-1,0.13370688259601593,-1.6341541449176233,-1.1187055746661585,-1.3302558104144495,0.9128324389457703,0.2893793284893036
5132,1734173002,181507349,-0.7287012198513159,0.12394461579686569,0.9622530600527475,-0.7490324219980324,-0.5096988081128377,0.07906448695066674,0.4158201085894499,0,-1,0.13424503803253174,-1.6344907919513147,-1.1238282362567347,-1.3291528860675257,0.9168973565101624,0.29067251086235046
5148,1734173002,197736263,-0.7301718055386476,0.12304157103666549,0.9586566119198552,-0.7493621915064383,-0.5111720882990314,0.0789121599603068,0.41343956401761356,0,-1,0.13484351336956024,-1.634754482899801,-1.1289275328265589,-1.3280862013446253,0.9210457801818848,0.2919181287288666
5164,1734173002,213634252,-0.731693734388908,0.12207456652588358,0.9549435754903047,-0.7496521799121615,-0.5127429990858946,0.07868635831882116,0.41100448057882366,0,-1,0.1354183703660965,-1.6350181738482874,-1.134050194417135,-1.3270319143878382,0.9251589775085449,0.29322364926338196
5180,1734173002,229727506,-0.7331641538085525,0.12119100574638222,0.9512843867115086,-0.7499932519972732,-0.5141681756636237,0.0784669384553257,0.40863693991456984,0,-1,0.1359805166721344,-1.6352341810809534,-1.1391013304339808,-1.325881306325094,0.9291755557060242,0.2945411801338196
5196,1734173002,245505571,-0.7345894416702596,0.12025553689828339,0.9477227005653794,-0.7503025906019251,-0.5156352429316694,0.07835012779711796,0.40623586283957447,0,-1,0.13659095764160156,-1.6355698744403284,-1.1440804640399378,-1.3248265425311487,0.9333246946334839,0.29587066173553467
5212,1734173002,261753320,-0.7360083429190147,0.11934765256411364,0.9441433834037001,-0.7506577537819941,-0.5170149637327565,0.07823545183188595,0.4038411544655254,0,-1,0.13717706501483917,-1.6358817259417933,-1.1489995161639612,-1.3236883322345179,0.9374611377716064,0.29722413420677185
5228,1734173002,277351856,-0.7373687626501743,0.11841339927235167,0.9405851918465602,-0.7509844298041294,-0.5184128096415084,0.07811213020636239,0.40145864059201436,0,-1,0.13781185448169708,-1.6361454168902796,-1.153954807912008,-1.3226211706744593,0.941573977470398,0.29860156774520874
5244,1734173002,293608665,-0.7387108239907588,0.11748589085117277,0.9370041463739511,-0.7513127805385975,-0.519820169017024,0.07795552451763803,0.39904765865702513,0,-1,0.1383863389492035,-1.636421028767721,-1.159041706715719,-1.3215425650226038,0.9456751942634583,0.2999670207500458
5260,1734173002,309341430,-0.7400544433264187,0.11653573078675566,0.933365891686577,-0.7516421267881497,-0.5212225143449033,0.07781685245431046,0.3966178781288966,0,-1,0.13903236389160156,-1.636648956929342,-1.1641047636615198,-1.3203919569598597,0.9497756958007812,0.3012365996837616
5276,1734173002,325587272,-0.741379253983167,0.11559942822822655,0.9296960083265853,-0.7519527794868494,-0.5226511724537801,0.07758411708024907,0.394187105486175,0,-1,0.13963082432746887,-1.6369012037860315,-1.1691439787494105,-1.319397274647848,0.9538529515266418,0.3025541305541992
5292,1734173002,341659069,-0.7426915808134191,0.11465202314282782,0.9260693910186206,-0.7522606950112707,-0.5240691817033549,0.07737349838418095,0.3917507897601855,0,-1,0.14022891223430634,-1.637176815663473,-1.174051586781637,-1.3183544317828577,0.9579657912254333,0.3038356900215149
5308,1734173002,357578992,-0.743972239540786,0.11369813736368767,0.922460471361771,-0.752570714896755,-0.5254583546325482,0.07718545534768212,0.3893240836493592,0,-1,0.1408756971359253,-1.6374648253070276,-1.1790784041034144,-1.3172395865069788,0.9620906114578247,0.3051168620586395
5324,1734173002,373429298,-0.7452352555700774,0.11276190809996858,0.918862093046862,-0.7528865690003955,-0.5268141363442169,0.077015891945101,0.38690726583331286,0,-1,0.1414857655763626,-1.637740437184469,-1.183997933064596,-1.3161967436419886,0.966191828250885,0.30643439292907715
5340,1734173002,389618635,-0.7464391608114507,0.11185906304969398,0.9152456932939111,-0.7532000824098699,-0.5281759704895455,0.0767914041229831,0.38447738595138825,0,-1,0.14213216304779053,-1.6380041281329554,-1.1891568342791956,-1.3151066938983362,0.9701848030090332,0.30771633982658386
5356,1734173002,405428647,-0.7477048123902388,0.11090271835703121,0.9114639220670997,-0.7535253194262538,-0.5295588513312749,0.07648067634040387,0.3819917827738933,0,-1,0.14271827042102814,-1.6382325331317347,-1.19427997270693,-1.314075771962301,0.974273681640625,0.30902186036109924
5372,1734173002,421613454,-0.7489005487082218,0.10995927288695098,0.9077542869426249,-0.7538250814322938,-0.5309503652444518,0.07620845807654851,0.3795151211321807,0,-1,0.14330512285232544,-1.6384838263141077,-1.1994145552264612,-1.313033405934469,0.9783629179000854,0.3103034198284149
5388,1734173002,437411308,-0.7500839124362417,0.10901369268142033,0.9040641396561192,-0.7541499874223884,-0.5322886629917917,0.07597110117441244,0.3770344380922909,0,-1,0.14392754435539246,-1.638747517262594,-1.2044184843646448,-1.3119424025165003,0.9824997186660767,0.3116445243358612
5404,1734173002,453645706,-0.7512574417162539,0.10808803241918567,0.9004087676656837,-0.7544672157069499,-0.533600068700876,0.07574357814952665,0.3745838991133091,0,-1,0.14453762769699097,-1.6390717665301722,-1.2093499342547815,-1.3108275572406214,0.9865646362304688,0.31300997734069824
