yildirimyigit/pemp/data/ur10/raw/11_2024-12-14_13-44-41.csv
Time,ROS secs,ROS nsecs,________p_x________,________p_y________,________p_z________,________q_x________,________q_y________,________q_z________,________q_w________,gripper_position,gripper_force,shoulder_pan_joint,shoulder_lift_joint,elbow_joint,wrist_1_joint,wrist_2_joint,wrist_3_joint
0,1734173081,697643041,-0.00022310267532291495,0.256141028708931,1.4272999740369128,-0.7071067805359362,4.657137539161743e-05,-2.0987608142366076e-05,0.7071067799920536,0,-1,-0.00013143221010381012,-1.570916000996725,-4.7985707418263246e-05,-1.5706761519061487,4.793690095539205e-05,0.00014381069922819734
16,1734173081,713666200,-0.000141552405238207,0.2561410253034855,1.4272999865428937,-0.707106777261315,7.655754950469846e-05,-2.4763669863255244e-05,0.7071067805337602,0,-1,-0.000119511281148732,-1.5709403196917933,-4.7985707418263246e-05,-1.5706761519061487,1.1984225238848012e-05,0.00011984225420746952
31,1734173081,729866743,-0.00017698783594842168,0.2561410181454259,1.4272999836930735,-0.7071067814400853,3.400639057270213e-05,5.915750730337685e-07,0.7071067801150395,0,-1,-0.000119511281148732,-1.5709646383868616,-2.366701234990387e-05,-1.5706880728351038,2.3968450477696024e-05,8.388957940042019e-05
47,1734173081,746300697,-0.00018401104780425885,0.25614102658063864,1.4272999814653728,-0.7071067803511997,5.0741301728373265e-05,-1.6772925212267177e-05,0.7071067800023907,0,-1,-0.00013143221010381012,-1.5709646383868616,-5.990663637334137e-05,-1.570711914693014,1.1984225238848012e-05,9.58738019107841e-05
63,1734173081,761718750,-0.00013269050671976194,0.2561410198884342,1.427299988712294,-0.7071067776738112,7.217427727581409e-05,-1.228820271207323e-05,0.7071067809091022,0,-1,-0.000119511281148732,-1.5709403196917933,-2.366701234990387e-05,-1.5706880728351038,1.1984225238848012e-05,8.388957940042019e-05
79,1734173081,778319120,-0.00015030712904748778,0.2561410244217675,1.4272999858128756,-0.7071067791068735,5.5169329149013275e-05,-4.61966474960057e-05,0.7071067796049746,0,-1,-0.00014335313905888825,-1.5709527174579065,-1.1746083394825746e-05,-1.570711914693014,3.5952674807049334e-05,9.58738019107841e-05
96,1734173081,793982982,-0.00014628986697229468,0.25614102598612276,1.4272999863745655,-0.7071067786152042,6.776862843668216e-05,-1.6604337812883805e-05,0.7071067803154891,0,-1,-0.00013143221010381012,-1.57092792192568,-1.1746083394825746e-05,-1.5706880728351038,7.190534961409867e-05,0.00011984225420746952
112,1734173081,810245990,-0.00016076631348481313,0.2561410259211244,1.4272999842407792,-0.7071067766957567,8.033361119427514e-05,-2.10323653688285e-05,0.7071067808012365,0,-1,-0.00010711351503545075,-1.5709403196917933,-3.5587941304981996e-05,-1.5706999937640589,1.1984225238848012e-05,0.00011984225420746952
128,1734173081,826022386,-0.00018976680237045755,0.25614102197929667,1.4272999813807428,-0.7071067811557413,3.790627956505658e-05,-1.2412033197659303e-05,0.7071067800923859,0,-1,-0.00013143221010381012,-1.57092792192568,-1.1746083394825746e-05,-1.5706761519061487,4.793690095539205e-05,0.00013182648399379104
143,1734173081,841690063,-0.00021146645837602588,0.2561410241976878,1.4272999775806001,-0.7071067834922942,2.087895555799777e-05,-1.2491102301132102e-05,0.7071067784622231,0,-1,-0.00014335313905888825,-1.5709646383868616,-2.366701234990387e-05,-1.570711914693014,2.3968450477696024e-05,8.388957940042019e-05
159,1734173081,857411623,-0.00018517843596520782,0.2561410291823243,1.4272999809564368,-0.7071067829342529,2.531892173321445e-05,-2.5202294851824292e-05,0.7071067785364299,0,-1,-0.00013143221010381012,-1.5709765593158167,1.1920928955078125e-05,-1.5706880728351038,3.5952674807049334e-05,0.000107858024421148
175,1734173081,873776912,-0.00017613390384192226,0.2561410204726823,1.4272999837651812,-0.7071067820130353,2.5363678195165833e-05,-1.6480507003910367e-05,0.7071067797131112,0,-1,-0.00013143221010381012,-1.5709765593158167,-7.18275653284195e-05,-1.5706880728351038,4.793690095539205e-05,0.00013182648399379104
191,1734173081,890092372,-0.00016985855210040855,0.2561410222662061,1.4272999841434995,-0.7071067800323416,5.086512991515562e-05,2.544002948180338e-07,0.7071067805112374,0,-1,-0.000119511281148732,-1.5709403196917933,-2.366701234990387e-05,-1.5706880728351038,4.793690095539205e-05,0.00013182648399379104
208,1734173081,906020879,-0.0002179437311239948,0.25614103411106576,1.427299974532401,-0.707106780689739,3.807486852033013e-05,-5.481698124215919e-05,0.7071067785334803,0,-1,-0.00014335313905888825,-1.57092792192568,-4.7985707418263246e-05,-1.570711914693014,4.793690095539205e-05,8.388957940042019e-05
223,1734173081,922334909,-0.00022276692808597816,0.25614103474951855,1.4272999736603194,-0.7071067821317601,3.371397506494225e-05,-4.222962167228826e-05,0.7071067781766022,0,-1,-9.519258608037262e-05,-1.570916000996725,1.1920928955078125e-05,-1.5706637541400355,1.1984225238848012e-05,0.00011984225420746952
240,1734173081,938102006,-0.00020272915564741086,0.25614102064215544,1.4272999796577688,-0.7071067820356343,2.50936376552627e-05,-1.67953054487987e-05,0.7071067796927399,0,-1,-0.000119511281148732,-1.5709527174579065,-5.990663637334137e-05,-1.5706637541400355,5.992112710373476e-05,0.00011984225420746952
255,1734173081,953866481,-0.00019452304374971427,0.2561410225218592,1.4272999803971342,-0.7071067799402964,5.0763679964957625e-05,-8.028759026975233e-06,0.7071067805650382,0,-1,-0.00013143221010381012,-1.5709527174579065,-1.1746083394825746e-05,-1.5706999937640589,2.3968450477696024e-05,9.58738019107841e-05
271,1734173081,970023632,-0.0001869104560222279,0.25614102696171426,1.4272999806802609,-0.7071067816000658,3.809724725603758e-05,-2.94169797546919e-05,0.7071067791348332,0,-1,-0.00014335313905888825,-1.5709765593158167,-1.1746083394825746e-05,-1.5706637541400355,1.1984225238848012e-05,0.000107858024421148
287,1734173081,985809564,-0.000191737973896515,0.2561410275498589,1.4272999798952866,-0.7071067809467898,4.650423798780257e-05,-1.2535861423471764e-05,0.7071067797859646,0,-1,-0.000119511281148732,-1.57092792192568,-3.5587941304981996e-05,-1.5706880728351038,3.5952674807049334e-05,0.000107858024421148
304,1734173082,2059936,-0.0002492207774808088,0.2561410250678131,1.4272999707042797,-0.7071067827385905,1.6686648235650954e-05,-2.520229493576934e-05,0.7071067789884918,0,-1,-9.519258608037262e-05,-1.57092792192568,-2.366701234990387e-05,-1.5706999937640589,2.3968450477696024e-05,0.00013182648399379104
319,1734173082,17946481,-0.0001829071326724695,0.25614103434457736,1.4272999798216406,-0.7071067795015091,6.323914911698982e-05,-2.9563186914075825e-05,0.7071067794257329,0,-1,-0.00014335313905888825,-1.5709527174579065,-4.7985707418263246e-05,-1.5706761519061487,0.0,0.00014381069922819734
336,1734173082,34472227,-0.00018900355156515705,0.25614103267167865,1.4272999791463057,-0.7071067780739542,6.334591649383654e-05,-5.4755164990235877e-05,0.7071067793417332,0,-1,-0.000119511281148732,-1.5709403196917933,1.1920928955078125e-05,-1.5706761519061487,2.3968450477696024e-05,0.00013182648399379104
351,1734173082,49640893,-0.00014795522070454108,0.256141026244709,1.4272999861251858,-0.7071067792863834,6.374491126639178e-05,-2.0628055044738464e-05,0.7071067799125584,0,-1,-0.000119511281148732,-1.570916000996725,-1.1746083394825746e-05,-1.5706999937640589,3.5952674807049334e-05,8.388957940042019e-05
368,1734173082,65632343,-0.00017737227895353423,0.2561410206516757,1.427299983075391,-0.7071067790838953,5.9170671325341946e-05,8.852358670722503e-06,0.7071067807580879,0,-1,-0.00014335313905888825,-1.5709527174579065,-5.990663637334137e-05,-1.5706999937640589,2.3968450477696024e-05,9.58738019107841e-05
383,1734173082,81645965,-0.00019347140585499582,0.25614102519414383,1.4272999796050885,-0.70710677999045,4.235668723102911e-05,-4.215055004727552e-05,0.7071067798577378,0,-1,-5.990663637334137e-05,-1.5709403196917933,-3.5587941304981996e-05,-1.570711914693014,3.5952674807049334e-05,0.000107858024421148
399,1734173082,97826242,-0.0002062607565083797,0.2561410295579347,1.427299976764908,-0.7071067804596499,4.216572127634014e-05,-4.229675881990869e-05,0.7071067793912208,0,-1,-0.00014335313905888825,-1.570916000996725,-3.5587941304981996e-05,-1.5706761519061487,3.5952674807049334e-05,0.00011984225420746952
415,1734173082,113838195,-0.00015710374125153448,0.2561410208213138,1.4272999862104743,-0.7071067800291928,5.093226737379289e-05,-1.6626716117852368e-05,0.7071067803141214,0,-1,-0.00013143221010381012,-1.5709527174579065,-2.366701234990387e-05,-1.5706880728351038,5.992112710373476e-05,0.00013182648399379104
431,1734173082,129340171,-0.00014909370465279888,0.25614102204434275,1.4272999864706568,-0.7071067781903106,6.79819726816825e-05,-1.6480507338348417e-05,0.7071067807228006,0,-1,-0.00010711351503545075,-1.57092792192568,-1.1746083394825746e-05,-1.570711914693014,1.1984225238848012e-05,8.388957940042019e-05
447,1734173082,145266294,-0.0002337476601796005,0.25614103307128483,1.4272999719169448,-0.7071067832949952,1.6788098891591113e-05,-4.2252000589506316e-05,0.7071067776164593,0,-1,-0.00014335313905888825,-1.5709527174579065,-3.5587941304981996e-05,-1.5706637541400355,2.3968450477696024e-05,0.00011984225420746952
463,1734173082,161380052,-0.00016588093482173738,0.2561410340040568,1.4272999825030508,-0.7071067794823571,6.338535628600899e-05,-3.7846349422804727e-05,0.707106779036971,0,-1,-0.00014335313905888825,-1.5709403196917933,-5.990663637334137e-05,-1.5706880728351038,4.793690095539205e-05,0.000107858024421148
479,1734173082,177484512,-0.00016851384050173388,0.2561410245438064,1.4272999839679053,-0.7071067802012762,5.0718921481316285e-05,-1.6795305432089056e-05,0.7071067801533887,0,-1,-0.000119511281148732,-1.5709646383868616,-1.1746083394825746e-05,-1.5706880728351038,1.1984225238848012e-05,0.00014381069922819734
495,1734173082,193469524,-0.00018137282009833813,0.256141028848648,1.4272999809656004,-0.7071067808049811,4.228955244553914e-05,-4.2128170447672666e-05,0.7071067790485588,0,-1,-0.00014335313905888825,-1.5709527174579065,-5.990663637334137e-05,-1.5706761519061487,3.5952674807049334e-05,8.388957940042019e-05
511,1734173082,209520339,-0.00016725918498485632,0.25614102684527695,1.427299983073637,-0.7071067772993681,7.624275494246636e-05,-1.6649094731711265e-05,0.7071067807673406,0,-1,-0.00014335313905888825,-1.5709403196917933,-1.1746083394825746e-05,-1.570711914693014,3.5952674807049334e-05,0.00011984225420746952
527,1734173082,225700378,-0.00022675151282471615,0.2561410259739638,1.4272999743631407,-0.7071067816191129,2.5239847994623082e-05,-3.355259102556523e-05,0.7071067795074757,0,-1,-0.00013143221010381012,-1.5709646383868616,-2.366701234990387e-05,-1.5706637541400355,1.1984225238848012e-05,0.00011984225420746952
543,1734173082,241685390,-0.00018880111716378285,0.2561410244704677,1.4272999812220644,-0.7071067817563621,3.80524893917773e-05,-4.084112792803839e-06,0.7071067795810535,0,-1,-0.00015527406801396637,-1.5709646383868616,-4.7985707418263246e-05,-1.5706761519061487,4.793690095539205e-05,0.00013182648399379104
559,1734173082,257789850,-0.0001565344992644204,0.25614102296933516,1.4272999859855475,-0.7071067801650522,5.516932929464137e-05,-1.2344897678224562e-05,0.7071067799480931,0,-1,-0.000119511281148732,-1.5709765593158167,-3.5587941304981996e-05,-1.5706637541400355,4.793690095539205e-05,9.58738019107841e-05
575,1734173082,273214817,-0.00021842080488242865,0.2561410250485276,1.4272999762216003,-0.7071067806335467,4.654899710394096e-05,-3.7693156667790534e-06,0.7071067801973365,0,-1,-0.00013143221010381012,-1.57092792192568,1.1920928955078125e-05,-1.5706637541400355,2.3968450477696024e-05,0.00011984225420746952
591,1734173082,289279222,-0.00021703033703053746,0.25614103702325114,1.4272999736255434,-0.7071067805606694,4.216572129508812e-05,-5.9155498170905995e-05,0.7071067780807961,0,-1,-0.00013143221010381012,-1.5709646383868616,-2.366701234990387e-05,-1.5706637541400355,2.3968450477696024e-05,9.58738019107841e-05
607,1734173082,305514574,-0.0001283907085909588,0.2561410154050875,1.4272999904352504,-0.7071067792133574,5.9361638961427676e-05,9.04332628464638e-06,0.7071067806102034,0,-1,-0.00014335313905888825,-1.5709527174579065,-1.1746083394825746e-05,-1.5706761519061487,1.1984225238848012e-05,9.58738019107841e-05
623,1734173082,321411848,-0.0001542620843970713,0.25614102944933326,1.4272999847318717,-0.7071067802821952,5.9316881259632575e-05,-1.6537199698778968e-05,0.7071067794095711,0,-1,-0.000119511281148732,-1.5709646383868616,0.0,-1.5706518332110804,3.5952674807049334e-05,0.00014381069922819734
639,1734173082,337531566,-0.00017341098720013033,0.25614102522055404,1.4272999827211545,-0.7071067789023742,6.35987021040941e-05,-1.238965104458142e-05,0.7071067805020756,0,-1,-8.32716571252945e-05,-1.5709403196917933,-3.5587941304981996e-05,-1.5706761519061487,3.5952674807049334e-05,0.00011984225420746952
655,1734173082,353691339,-0.000177920890853289,0.2561410207634071,1.4272999830031923,-0.7071067786132929,6.345249328413739e-05,-3.8140725679795667e-06,0.7071067809025491,0,-1,-0.00013143221010381012,-1.5709403196917933,0.0,-1.5706880728351038,3.5952674807049334e-05,0.00013182648399379104
671,1734173082,369980096,-0.00017374046316509888,0.2561410252837207,1.4272999826789912,-0.7071067797427261,5.074130068361543e-05,-3.3721179388068146e-05,0.7071067800057318,0,-1,-0.00014335313905888825,-1.5709527174579065,2.384185791015625e-05,-1.570711914693014,4.793690095539205e-05,9.58738019107841e-05
687,1734173082,385607719,-0.00015766007509012504,0.2561410207487618,1.4272999862696285,-0.7071067804339672,5.088751148273091e-05,8.75090937051638e-06,0.7071067800538982,0,-1,-9.519258608037262e-05,-1.5709403196917933,-3.5587941304981996e-05,-1.5706761519061487,2.3968450477696024e-05,0.00011984225420746952
703,1734173082,401971817,-0.00015835391282653815,0.25614102097072344,1.4272999854770005,-0.7071067785841268,6.372252900667557e-05,-3.836454395635158e-06,0.7071067809073106,0,-1,-9.519258608037262e-05,-1.5709403196917933,-3.5587941304981996e-05,-1.5706880728351038,4.793690095539205e-05,0.000107858024421148
719,1734173082,418240785,-0.00020151919127804407,0.256141028835426,1.4272999784302138,-0.7071067818549984,3.80748683506516e-05,-2.0965231120029477e-05,0.7071067791822047,0,-1,-0.000119511281148732,-1.5709527174579065,-3.5587941304981996e-05,-1.5706637541400355,2.3968450477696024e-05,0.00013182648399379104
736,1734173082,433902502,-0.00015925395729310827,0.2561410210984123,1.427299985419422,-0.7071067773455946,7.201101166196347e-05,-2.080196073273282e-05,0.7071067810547572,0,-1,-0.00013143221010381012,-1.5709403196917933,-7.18275653284195e-05,-1.5706880728351038,5.992112710373476e-05,0.00011984225420746952
751,1734173082,449562311,-0.000153464983050199,0.2561410248744557,1.4272999852160901,-0.7071067775882823,7.205044870990997e-05,-2.931552789433111e-05,0.7071067805063448,0,-1,-9.519258608037262e-05,-1.5709403196917933,-5.990663637334137e-05,-1.5706761519061487,0.0,0.00011984225420746952
768,1734173082,465937137,-0.00017474531437225484,0.2561410229495437,1.4272999830031923,-0.7071067786001578,6.359870045413406e-05,-1.2434409883756252e-05,0.7071067808035064,0,-1,-0.000119511281148732,-1.5709527174579065,1.1920928955078125e-05,-1.5706999937640589,5.992112710373476e-05,0.00011984225420746952
783,1734173082,481565952,-0.00012509996235108377,0.25614102080162005,1.427299989505743,-0.7071067768565472,8.067078247170569e-05,-1.2221067187631273e-05,0.7071067808092463,0,-1,-0.000119511281148732,-1.5709403196917933,0.0,-1.5706880728351038,3.5952674807049334e-05,0.000107858024421148
800,1734173082,497867584,-0.00011743406696512633,0.2561410215055653,1.4272999903391193,-0.7071067796999777,5.5226025786534206e-05,-2.91469404791217e-05,0.7071067799157841,0,-1,-0.00013143221010381012,-1.5709403196917933,-3.5587941304981996e-05,-1.5706880728351038,7.190534961409867e-05,0.000107858024421148
815,1734173082,514163732,-0.0001679445986364365,0.2561410268442188,1.4272999837582356,-0.7071067803404341,5.495598790710599e-05,-1.2513481200002601e-05,0.707106779786361,0,-1,-0.000119511281148732,-1.57092792192568,2.384185791015625e-05,-1.5706761519061487,1.1984225238848012e-05,9.58738019107841e-05
832,1734173082,529973745,-0.00017977926292079261,0.25614102339225436,1.4272999825242336,-0.7071067812442428,4.243576159882048e-05,2.9915945190040334e-07,0.7071067798554354,0,-1,-0.00015527406801396637,-1.5709403196917933,-2.366701234990387e-05,-1.5706637541400355,4.793690095539205e-05,0.00014381069922819734
847,1734173082,545627355,-0.0001674206913127925,0.2561410244001314,1.4272999839736664,-0.7071067791540812,6.359869892620152e-05,-3.9155279756416e-06,0.7071067803480713,0,-1,-9.519258608037262e-05,-1.5709403196917933,-1.1746083394825746e-05,-1.5707357565509241,2.3968450477696024e-05,0.00011984225420746952
864,1734173082,561988115,-0.00017373162933580091,0.2561410277731222,1.4272999820255001,-0.7071067798768933,5.09546459768512e-05,-4.1937203809044716e-05,0.7071067794166775,0,-1,-0.00013143221010381012,-1.5709765593158167,-2.366701234990387e-05,-1.5706999937640589,3.5952674807049334e-05,0.00011984225420746952
879,1734173082,577714920,-0.00014261716198291424,0.2561410169620377,1.4272999884586894,-0.7071067797473822,5.065710482358759e-05,-8.135334137296305e-06,0.7071067807643773,0,-1,-0.000119511281148732,-1.5709765593158167,-4.7985707418263246e-05,-1.5706637541400355,2.3968450477696024e-05,0.000107858024421148
896,1734173082,594146728,-0.00018515680435016816,0.2561410241408666,1.4272999815159444,-0.7071067807408292,4.243576152952404e-05,-1.6649095689222895e-05,0.7071067801629076,0,-1,-0.00013143221010381012,-1.5709403196917933,-3.5587941304981996e-05,-1.5706761519061487,3.5952674807049334e-05,0.00013182648399379104
911,1734173082,609862327,-0.00016142898366100156,0.2561410235066927,1.4272999851664587,-0.7071067797752206,5.9339256250712715e-05,8.773284449115033e-06,0.7071067800536208,0,-1,-0.00013143221010381012,-1.5709527174579065,0.0,-1.5706999937640589,1.1984225238848012e-05,0.00014381069922819734
928,1734173082,626119613,-0.000153112214441811,0.25614102704545644,1.4272999852713957,-0.7071067790085872,6.35315633762958e-05,-2.0841402881943755e-05,0.7071067802032995,0,-1,-0.00013143221010381012,-1.5709527174579065,-5.990663637334137e-05,-1.5706279913531702,4.793690095539205e-05,0.000107858024421148
944,1734173082,641882419,-0.00014319653669810195,0.2561410190797945,1.427299988307592,-0.7071067804129588,5.107847781268163e-05,4.677481262047965e-07,0.7071067801151322,0,-1,-0.00013143221010381012,-1.57092792192568,-5.990663637334137e-05,-1.5706637541400355,2.3968450477696024e-05,8.388957940042019e-05
960,1734173082,658176183,-0.00019911877896491265,0.25614103422218776,1.4272999775202013,-0.707106779490983,5.919304968294248e-05,-3.365404289066472e-05,0.7071067796036739,0,-1,-0.00013143221010381012,-1.5709527174579065,-3.5587941304981996e-05,-1.5706999937640589,2.3968450477696024e-05,0.00011984225420746952
976,1734173082,673919677,-0.0001817622960760764,0.25614102373518455,1.4272999822103263,-0.7071067816641252,3.386018215292198e-05,-2.5224675131520894e-05,0.7071067794483425,0,-1,-0.00010711351503545075,-1.5709527174579065,-1.1746083394825746e-05,-1.570711914693014,3.5952674807049334e-05,9.58738019107841e-05
991,1734173082,690286397,-0.00015130359568773206,0.2561410222818259,1.427299986366774,-0.7071067796964807,5.5270781088587985e-05,-1.2243445796275728e-05,0.7071067804105058,0,-1,-0.00015527406801396637,-1.5709527174579065,-3.5587941304981996e-05,-1.5706761519061487,4.793690095539205e-05,0.000107858024421148
1008,1734173082,705899953,-0.00019087174801613336,0.25614102205130457,1.4272999813014036,-0.7071067809549229,4.638040589594826e-05,4.536220645257404e-06,0.7071067798825346,0,-1,-0.000119511281148732,-1.5709403196917933,-3.5587941304981996e-05,-1.5706999937640589,0.0,0.000107858024421148
1023,1734173082,722204685,-0.0001981654938926333,0.2561410256955517,1.4272999790524248,-0.7071067821555067,2.9667877572706194e-05,-2.941697976286668e-05,0.707106778983304,0,-1,-0.00014335313905888825,-1.5709403196917933,-3.5587941304981996e-05,-1.5706761519061487,3.5952674807049334e-05,0.00013182648399379104
1040,1734173082,737951278,-0.00020247010602303487,0.25614103173397007,1.42729997703642,-0.7071067834215456,2.9645500122921333e-05,-2.9349841648534544e-05,0.7071067777209935,0,-1,-0.00014335313905888825,-1.5709403196917933,-1.1746083394825746e-05,-1.5706880728351038,4.793690095539205e-05,0.000107858024421148
1056,1734173082,754257202,-0.00020613023550626673,0.2561410294878124,1.4272999772084118,-0.7071067807926099,4.652661690586442e-05,-2.0987610060537597e-05,0.7071067797383264,0,-1,-0.00014335313905888825,-1.5709646383868616,-3.5587941304981996e-05,-1.5706761519061487,4.793690095539205e-05,0.000107858024421148
1072,1734173082,770016670,-0.00018267014906663283,0.25614102117280246,1.4272999827139863,-0.7071067807543514,4.635803078592991e-05,4.513845576414219e-06,0.7071067800847166,0,-1,-0.00015527406801396637,-1.5709527174579065,-1.1746083394825746e-05,-1.5706880728351038,5.992112710373476e-05,0.000107858024421148
1087,1734173082,786278963,-0.00015073651486648202,0.2561410267295396,1.4272999853487451,-0.7071067773293402,7.598997008604904e-05,-2.5331249285467833e-05,0.7071067805068533,0,-1,-0.00013143221010381012,-1.5709527174579065,-1.1746083394825746e-05,-1.5706999937640589,3.5952674807049334e-05,0.00011984225420746952
1104,1734173082,801992177,-0.00014613480564654212,0.2561410216355852,1.427299987303388,-0.7071067789821514,6.378966459237989e-05,-1.2198688575568538e-05,0.7071067804084171,0,-1,-9.519258608037262e-05,-1.5709403196917933,-3.5587941304981996e-05,-1.5706880728351038,2.3968450477696024e-05,0.00013182648399379104
1119,1734173082,817825078,-0.0001898229896956151,0.25614102469852834,1.4272999811553864,-0.7071067812075591,4.233431230521678e-05,-1.675054500153765e-05,0.7071067796998628,0,-1,-0.00010711351503545075,-1.570916000996725,-5.990663637334137e-05,-1.5706761519061487,1.1984225238848012e-05,0.00013182648399379104
1136,1734173082,834009170,-0.000190393262222463,0.2561410301086519,1.4272999796577688,-0.7071067806707959,5.059509461164447e-05,-2.5348502078487684e-05,0.7071067794378532,0,-1,-0.00015527406801396637,-1.5709527174579065,-8.374849428349762e-05,-1.5706637541400355,2.3968450477696024e-05,0.00011984225420746952
1151,1734173082,849837064,-0.00016629104136107843,0.2561410265475875,1.427299983975803,-0.7071067804593908,5.067416364339383e-05,-8.321177848518053e-06,0.7071067800489839,0,-1,-0.000119511281148732,-1.5709527174579065,-3.5587941304981996e-05,-1.5706637541400355,2.3968450477696024e-05,0.00011984225420746952
1167,1734173082,866051673,-0.00010937339189003417,0.2561410184478524,1.4272999914689413,-0.7071067775803187,7.204532417578769e-05,4.575855295155924e-06,0.7071067811077125,0,-1,-0.000119511281148732,-1.5709765593158167,-3.5587941304981996e-05,-1.5706999937640589,1.1984225238848012e-05,0.00011984225420746952
1184,1734173082,881785392,-0.0001655053445103063,0.2561410264349554,1.4272999840042289,-0.7071067795595155,5.906409627732213e-05,6.875482645058165e-08,0.7071067803467864,0,-1,-0.00014335313905888825,-1.57092792192568,-1.1746083394825746e-05,-1.5706880728351038,5.992112710373476e-05,0.00011984225420746952
1199,1734173082,898078680,-0.00014990371419701702,0.25614102433745284,1.4272999862034712,-0.7071067796975936,5.529315938662682e-05,-2.912456348185056e-05,0.7071067799138439,0,-1,-0.00014335313905888825,-1.5709765593158167,-4.7985707418263246e-05,-1.5706761519061487,5.992112710373476e-05,0.00014381069922819734
1215,1734173082,913862228,-0.00018073456384988035,0.25614102106478953,1.4272999828085016,-0.7071067790942122,5.9091596147703767e-05,-8.17496973696346e-06,0.7071067807625395,0,-1,-0.00014335313905888825,-1.5709403196917933,-1.1746083394825746e-05,-1.5706880728351038,7.190534961409867e-05,0.000107858024421148
1231,1734173082,929577112,-0.00017268402154732064,0.25614102254429294,1.4272999838423857,-0.7071067818928322,2.9724571512681735e-05,-1.2412030602464492e-05,0.7071067797465628,0,-1,-0.000119511281148732,-1.5709527174579065,-2.366701234990387e-05,-1.5706880728351038,3.5952674807049334e-05,0.00013182648399379104
1248,1734173082,945886373,-0.00014317595409041046,0.25614101912368137,1.4272999876714987,-0.7071067783910442,6.361595579817806e-05,4.531098706869092e-06,0.7071067811058793,0,-1,-0.00013143221010381012,-1.5709527174579065,-4.7985707418263246e-05,-1.5706880728351038,3.5952674807049334e-05,0.000107858024421148
1263,1734173082,961730241,-0.00018488004002648956,0.2561410212770925,1.427299982581652,-0.7071067819809029,3.364683949149188e-05,8.750906794582452e-06,0.7071067795375204,0,-1,-0.00015527406801396637,-1.57092792192568,0.0,-1.5706761519061487,5.992112710373476e-05,0.00014381069922819734
1279,1734173082,978013515,-0.00017705529984037485,0.2561410256200826,1.4272999824409736,-0.7071067806554366,5.074130306010856e-05,-8.29879635706162e-06,0.7071067798483864,0,-1,-0.00013143221010381012,-1.5709646383868616,-3.5587941304981996e-05,-1.5706880728351038,0.0,0.00011984225420746952
1295,1734173082,993741989,-0.00015614156330132233,0.25614101841068393,1.4272999865106506,-0.7071067790828642,5.9193049619545235e-05,4.006106754524334e-07,0.7071067808125444,0,-1,-0.00014335313905888825,-1.57092792192568,-3.5587941304981996e-05,-1.5706637541400355,3.5952674807049334e-05,0.000107858024421148
1311,1734173083,10058164,-0.00021331403601514083,0.25614103048496284,1.4272999745403991,-0.7071067804845866,4.252527629591426e-05,-4.193720381145652e-05,0.7071067793661678,0,-1,-0.000119511281148732,-1.57092792192568,-1.1746083394825746e-05,-1.5706999937640589,3.5952674807049334e-05,0.00013182648399379104
1327,1734173083,25772094,-0.00016485445206811832,0.25614103138584815,1.427299982651074,-0.7071067776054403,7.188186131672223e-05,-4.634285466620781e-05,0.7071067795954075,0,-1,-0.000119511281148732,-1.5709403196917933,-4.7985707418263246e-05,-1.5706761519061487,4.793690095539205e-05,0.00013182648399379104
1343,1734173083,41665792,-0.00022138767663596715,0.25614103455179854,1.4272999738735173,-0.7071067819812975,3.3691594812373685e-05,-4.225200188840351e-05,0.7071067783267945,0,-1,-0.00013143221010381012,-1.5709527174579065,-5.990663637334137e-05,-1.5706761519061487,5.992112710373476e-05,9.58738019107841e-05
1360,1734173083,57961940,-0.00019565659251505744,0.25614102800530303,1.4272999794453487,-0.7071067824938586,3.366921722563388e-05,-1.6896754725163817e-05,0.7071067788757694,0,-1,-0.0001671949969690445,-1.5709765593158167,-3.5587941304981996e-05,-1.5706999937640589,3.5952674807049334e-05,0.00014381069922819734
1375,1734173083,73695898,-0.00017917554628374586,0.25614101840002645,1.4272999838375748,-0.7071067813691198,3.3691594713502396e-05,-8.19734835289608e-06,0.7071067801538067,0,-1,-0.000119511281148732,-1.5709765593158167,3.5762786865234375e-05,-1.5706761519061487,5.992112710373476e-05,0.00011984225420746952
1391,1734173083,89895009,-0.0002159114528721554,0.2561410307733794,1.427299975653082,-0.7071067816000658,3.809724725603758e-05,-2.9416979754691874e-05,0.7071067791348332,0,-1,-0.000119511281148732,-1.5709403196917933,-3.5587941304981996e-05,-1.5706880728351038,3.5952674807049334e-05,0.000107858024421148
1407,1734173083,105729103,-0.00020926836348057707,0.25614102402183075,1.4272999774073312,-0.7071067831723788,1.2573413992479315e-05,-2.92707712946256e-05,0.7071067784830956,0,-1,-0.000119511281148732,-1.570916000996725,-2.366701234990387e-05,-1.5706637541400355,1.1984225238848012e-05,0.00011984225420746952
1423,1734173083,122108221,-0.00011940319037172858,0.2561410180890851,1.4272999905781867,-0.7071067785347868,6.367777305552258e-05,-3.8364537511277504e-06,0.7071067809606827,0,-1,-0.000119511281148732,-1.5709527174579065,-1.1746083394825746e-05,-1.5706999937640589,3.5952674807049334e-05,5.992112710373476e-05
1439,1734173083,137631893,-0.00016964349068546654,0.2561410223398182,1.4272999840016183,-0.7071067794090898,5.516933079295625e-05,-2.0863779582700864e-05,0.7071067805040143,0,-1,-9.519258608037262e-05,-1.5709646383868616,-2.366701234990387e-05,-1.5706761519061487,3.5952674807049334e-05,8.388957940042019e-05
1455,1734173083,154003143,-0.00019562798922763568,0.256141022607109,1.427299980331494,-0.707106780192003,5.076368192737516e-05,4.453691857326171e-07,0.707106780358772,0,-1,-0.00013143221010381012,-1.5709403196917933,-2.366701234990387e-05,-1.5706761519061487,3.5952674807049334e-05,0.000107858024421148
1471,1734173083,169739007,-0.00017400186085896876,0.2561410277125463,1.4272999824409736,-0.7071067803404341,5.495598790710599e-05,-1.2513481200002588e-05,0.707106779786361,0,-1,-0.00015527406801396637,-1.5709646383868616,-2.366701234990387e-05,-1.5706880728351038,4.793690095539205e-05,0.000107858024421148
1487,1734173083,185498714,-0.00016227253129961371,0.25614102140593775,1.4272999852713957,-0.7071067797139552,5.5124573919232664e-05,-3.9602832732105705e-06,0.7071067804993512,0,-1,-0.000119511281148732,-1.5709765593158167,-2.366701234990387e-05,-1.5706637541400355,4.793690095539205e-05,0.00013182648399379104
1503,1734173083,201827526,-0.00022761915055295346,0.25614103236511565,1.427299972717863,-0.7071067801811899,4.657137373924773e-05,-3.7891106361558165e-05,0.7071067796430477,0,-1,-0.00014335313905888825,-1.5709646383868616,-4.7985707418263246e-05,-1.5706761519061487,3.5952674807049334e-05,7.190534961409867e-05
1519,1734173083,217520713,-0.00014962940820984535,0.25614102426502544,1.4272999862542008,-0.7071067791348543,6.374491124017497e-05,-1.219868535198612e-05,0.7071067802597502,0,-1,-0.000119511281148732,-1.5709403196917933,-3.5587941304981996e-05,-1.5706761519061487,3.5952674807049334e-05,0.000107858024421148
1535,1734173083,233767747,-0.00022405060920170937,0.2561410288420827,1.427299974532401,-0.7071067809030503,3.388256132261561e-05,-4.2150549077224146e-05,0.7071067794019718,0,-1,-0.000119511281148732,-1.5709403196917933,-2.366701234990387e-05,-1.5706637541400355,2.3968450477696024e-05,0.000107858024421148
1551,1734173083,249511480,-0.00019650014021258298,0.2561410254965232,1.4272999796577688,-0.7071067818674284,2.9454532254053338e-05,-2.963032501659806e-05,0.7071067792713935,0,-1,-0.00015527406801396637,-1.5709403196917933,-5.990663637334137e-05,-1.5706999937640589,3.5952674807049334e-05,0.00014381069922819734
1567,1734173083,265784740,-0.0001891332554263631,0.25614102466906497,1.427299980748217,-0.707106780495385,4.2379069125902514e-05,-3.365404129857681e-05,0.7071067798068914,0,-1,-0.00014335313905888825,-1.5709527174579065,-2.366701234990387e-05,-1.5706880728351038,1.1984225238848012e-05,0.00013182648399379104
1583,1734173083,281742572,-0.00019206744977225566,0.25614102763950936,1.4272999798216406,-0.707106781074832,4.212096443977674e-05,-2.53932625199073e-05,0.7071067795877763,0,-1,-9.519258608037262e-05,-1.5709403196917933,-3.5587941304981996e-05,-1.5706761519061487,5.992112710373476e-05,7.190534961409867e-05
1600,1734173083,298039436,-0.0001699177965945067,0.2561410223792218,1.427299983973832,-0.7071067791051269,5.519170937246089e-05,-2.9315527894331106e-05,0.7071067805063449,0,-1,-0.00013143221010381012,-1.5709646383868616,-4.7985707418263246e-05,-1.5706761519061487,0.0,0.000107858024421148
1615,1734173083,313791990,-0.00012126082659277608,0.2561410221527295,1.4272999895821439,-0.7071067763234842,8.480127496849599e-05,-1.6519944354880172e-05,0.7071067807716492,0,-1,-8.32716571252945e-05,-1.5709527174579065,-4.7985707418263246e-05,-1.5706880728351038,2.3968450477696024e-05,0.000107858024421148
1632,1734173083,330049753,-0.00017092779153803447,0.2561410323416915,1.42729998203067,-0.7071067808057873,5.074130180993557e-05,-4.206103426589582e-05,0.70710677849577,0,-1,-0.00013143221010381012,-1.5709403196917933,-4.7985707418263246e-05,-1.5706637541400355,2.3968450477696024e-05,0.000107858024421148
1647,1734173083,345851659,-0.00016669741860987806,0.2561410291085397,1.427299982587097,-0.7071067826138926,2.5509885456331123e-05,-5.0388953323931663e-05,0.7071067775036726,0,-1,-0.00013143221010381012,-1.57092792192568,-4.7985707418263246e-05,-1.570711914693014,3.5952674807049334e-05,0.000107858024421148
1664,1734173083,362169265,-0.00017650274962043225,0.2561410180992493,1.4272999844224943,-0.7071067829592405,1.2742001354369146e-05,-2.0672814216698504e-05,0.7071067789968568,0,-1,-0.000119511281148732,-1.570916000996725,-2.366701234990387e-05,-1.5706999937640589,2.3968450477696024e-05,0.00013182648399379104
1680,1734173083,377906322,-0.00014906900011648713,0.2561410241383425,1.4272999864320577,-0.7071067793757391,5.929449959976139e-05,-8.174969399128861e-06,0.7071067804640272,0,-1,-0.000119511281148732,-1.5709527174579065,-2.366701234990387e-05,-1.5706880728351038,2.3968450477696024e-05,9.58738019107841e-05
1695,1734173083,394318103,-0.00017432578237340965,0.25614102284643725,1.4272999836908025,-0.7071067815136672,3.383780447826775e-05,-2.524705277708422e-05,0.7071067795990731,0,-1,-0.000119511281148732,-1.5709403196917933,0.0,-1.5706999937640589,-1.1746083394825746e-05,9.58738019107841e-05
1712,1734173083,410074472,-0.00012463513548956385,0.25614102463489574,1.4272999886866964,-0.7071067768638916,8.05812683292784e-05,-2.0695193790647687e-05,0.7071067806148706,0,-1,-0.00013143221010381012,-1.57092792192568,-4.7985707418263246e-05,-1.5706999937640589,3.5952674807049334e-05,9.58738019107841e-05
1727,1734173083,425666809,-0.00014933347057180334,0.2561410199125417,1.4272999865955809,-0.707106777652273,7.236524489215461e-05,-3.667865394996331e-06,0.7071067810083828,0,-1,-9.519258608037262e-05,-1.5709527174579065,-1.1746083394825746e-05,-1.5706880728351038,4.793690095539205e-05,0.00011984225420746952
1743,1734173083,442074298,-0.0001615503890925789,0.25614102137922223,1.4272999852559762,-0.7071067784176405,6.339067441191061e-05,-2.111656283295335e-05,0.707106780798727,0,-1,-0.000119511281148732,-1.5709646383868616,0.0,-1.5706637541400355,2.3968450477696024e-05,8.388957940042019e-05
1759,1734173083,457339286,-0.000179257487549841,0.2561410234689364,1.4272999827137898,-0.7071067800512735,5.070186274032418e-05,-1.685712075246608e-05,0.7071067803031438,0,-1,-0.00013143221010381012,-1.5709527174579065,-5.990663637334137e-05,-1.5706999937640589,8.388957940042019e-05,0.00011984225420746952
1775,1734173083,473449468,-0.00020393304469961928,0.25614102071041,1.4272999778490438,-0.7071067829571267,2.123850920857651e-05,-1.2176306455960767e-05,0.7071067789921733,0,-1,-0.00013143221010381012,-1.57092792192568,-0.00014382997621709137,-1.5706761519061487,0.00014381069922819734,9.58738019107841e-05
1791,1734173083,489411592,-0.0003453193466477313,0.2561410367872081,1.42729993812227,-0.7071067954756486,-8.916236068739464e-05,-2.0842895037410375e-05,0.7071067609688132,0,-1,-0.000119511281148732,-1.570916000996725,-0.0004194418536584976,-1.5706160704242151,0.0003115898580290377,0.00015579492901451886
1807,1734173083,505918979,-0.0006594758387411462,0.2561410132975056,1.427299760862493,-0.7071068150807823,-0.00030912450225225837,4.411261576784167e-06,0.7071066797088649,0,-1,-4.7985707418263246e-05,-1.5708921591388147,-0.0009220282184045914,-1.570484463368551,0.0007430219557136297,0.000215716048842296
1823,1734173083,522204399,-0.0010613138466737308,0.25614093039303965,1.4272993143564394,-0.7071068794032538,-0.0005752590773635167,0.00013630256770748406,0.7071064358349429,0,-1,8.388957940042019e-05,-1.5708921591388147,-0.001759831105367482,-1.5702326933490198,0.0013298745034262538,0.00044341632747091353
1840,1734173083,537966012,-0.001854581454628753,0.2561405853434601,1.4272978587319964,-0.707107040982234,-0.0010963113967190007,0.00028444052955855294,0.70710561430967,0,-1,0.0002512942301109433,-1.5708921591388147,-0.0030053297625940445,-1.5699446837054651,0.002312206430360675,0.0007786001078784466
1855,1734173083,554035663,-0.0029980993729849677,0.2561395723948763,1.4272943902842616,-0.7071073527503082,-0.00184500720159392,0.0004922579739954214,0.7071036312429488,0,-1,0.00045465154107660055,-1.5709646383868616,-0.0047295729266565445,-1.5695965925799769,0.0036533160600811243,0.0011980480048805475
1872,1734173083,569899320,-0.004606976224199691,0.2561375141882831,1.4272866994858986,-0.7071081628549847,-0.002874315978782452,0.0007081024019139367,0.7070992030277583,0,-1,0.000741898431442678,-1.571024243031637,-0.006992642079488576,-1.5691054503070276,0.0054022641852498055,0.0017365891253575683
1887,1734173083,586127042,-0.006682953608981879,0.2561331898164148,1.4272724376500154,-0.7071093224192428,-0.004220245948813335,0.0009711597521443205,0.7070909789557964,0,-1,0.0010291453218087554,-1.5712040106402796,-0.009734932576314748,-1.5685656706439417,0.007654174696654081,0.0024672523140907288
1904,1734173083,601922750,-0.00921631213474746,0.2561260742903708,1.4272480265952427,-0.7071116889197714,-0.0058415956975071594,0.0013316029687877988,0.7070764894877136,0,-1,0.001460202969610691,-1.571359936391012,-0.01291972795595342,-1.5679543654071253,0.010265237651765347,0.0033057737164199352
1920,1734173083,618275403,-0.012143762092204025,0.2561149927744605,1.42721011750643,-0.7071153216618512,-0.007699868152745898,0.0017341391253287942,0.7070541893398136,0,-1,0.0018792763585224748,-1.571587864552633,-0.016667668019429982,-1.5672228972064417,0.013319717720150948,0.004275746643543243
1935,1734173083,634347438,-0.01556068956316621,0.25609865020144673,1.4271534160740373,-0.7071207511924652,-0.009871278664496469,0.002188005558456035,0.707020518600562,0,-1,0.0023455375339835882,-1.5718758741961878,-0.02082235017885381,-1.5663836638080042,0.016721364110708237,0.005353203509002924
1952,1734173083,649831533,-0.01928920904259833,0.2560757343253517,1.4270756180373172,-0.7071280717158971,-0.012237282068983587,0.0027007016008574985,0.7069744304639202,0,-1,0.002920031314715743,-1.5721996466266077,-0.025312725697652638,-1.5654719511615198,0.02039864845573902,0.006527283228933811
1968,1734173083,665823221,-0.023297974372491415,0.2560446638814708,1.4269744586965123,-0.7071368770003886,-0.014768360139300747,0.003267745436500644,0.7069148849505825,0,-1,0.003470931202173233,-1.5725353399859827,-0.03020936647524053,-1.5644410292254847,0.024303633719682693,0.007736940868198872
1983,1734173083,682130336,-0.02760882374057142,0.25600532589556285,1.426843730115681,-0.707148359981789,-0.017527669581600843,0.0038355951652581086,0.7068375103118344,0,-1,0.0041173305362463,-1.5728829542743128,-0.035334412251607716,-1.5633977095233362,0.028531819581985474,0.009018129669129848
1999,1734173083,698274135,-0.03201782832384445,0.2559584542799249,1.4266863975074746,-0.7071621764853798,-0.020362483475672464,0.004428190087934053,0.7067442370106095,0,-1,0.004751370754092932,-1.573219124470846,-0.040602986012594044,-1.562247101460592,0.0327480174601078,0.010323661379516125
2016,1734173083,713910341,-0.036609663136942014,0.2559013593894008,1.4264994624879628,-0.7071785695245764,-0.023256328966974847,0.005054422818292665,0.7066343232380717,0,-1,0.005421738605946302,-1.573566738759176,-0.04601461092104131,-1.5610721747027796,0.03712038695812225,0.01177300326526165
2031,1734173083,730047225,-0.04126883989983613,0.2558351810167085,1.426283730003948,-0.7071982341413942,-0.026170542522976327,0.005760765673542655,0.7065073063388669,0,-1,0.006104090251028538,-1.5738666693316858,-0.051474873219625294,-1.5598128477679651,0.04168413206934929,0.013186017982661724
2047,1734173083,746228694,-0.04589887954938615,0.2557608443976027,1.4260429219031463,-0.7072192945439091,-0.029118106487736817,0.006483609248052341,0.706364614140957,0,-1,0.00683363014832139,-1.5741904417621058,-0.0570295492755335,-1.5586016813861292,0.046235889196395874,0.014635360799729824
2063,1734173083,761785507,-0.050567596094399224,0.25567712557345096,1.4257734852409076,-0.7072447637455431,-0.03210312524359956,0.007244199623713401,0.7062023471186685,0,-1,0.007456060498952866,-1.5744784514056605,-0.06254941621889287,-1.5574029127704065,0.050823602825403214,0.01615585945546627
2079,1734173083,777862071,-0.05516008568639389,0.25558783164087256,1.4254820754621247,-0.7072726578472311,-0.0350535814599165,0.007978837960434366,0.7060261836740529,0,-1,0.008114444091916084,-1.5748141447650355,-0.06799775758852178,-1.556239430104391,0.05536337569355965,0.017629168927669525
2095,1734173083,794148206,-0.059615953490111236,0.2554969771666348,1.4251744225767828,-0.7073040510277958,-0.03788005957385765,0.00873492831797766,0.7058397704250094,0,-1,0.008712906390428543,-1.5750778357135218,-0.07330161729921514,-1.555124584828512,0.05979566648602486,0.019030200317502022
2111,1734173083,810253620,-0.06398299075630037,0.2553971431106249,1.4248516242883413,-0.7073349978791131,-0.04067684050843318,0.009459959717544465,0.7056437518916674,0,-1,0.009335337206721306,-1.5753658453570765,-0.07831842104067022,-1.5539377371417444,0.0640598013997078,0.020443590357899666
2127,1734173083,826193571,-0.06819781689100522,0.25529590945862235,1.4245169777852302,-0.7073669793245326,-0.04336280482943329,0.010125635969182459,0.7054424818614417,0,-1,0.009885862469673157,-1.5756171385394495,-0.08335906664003545,-1.5528462568866175,0.0681801289319992,0.02177271619439125
2144,1734173083,841955900,-0.0723785883547268,0.2551876679941416,1.424164922194196,-0.7073999003161292,-0.046014471025693206,0.010756824769543236,0.7052321179653077,0,-1,0.010447997599840164,-1.5758932272540491,-0.08820802370180303,-1.551767651234762,0.07213342934846878,0.023078247904777527
2159,1734173083,858102321,-0.0763249919787887,0.255082306549136,1.4238088829528215,-0.7074344714691894,-0.048563589486262465,0.011361748123347233,0.7050169905987373,0,-1,0.01099889725446701,-1.5761449972735804,-0.09293729463686162,-1.5507362524615687,0.0760268047451973,0.024275921285152435
2175,1734173083,874279975,-0.08013464593112986,0.25497529279467995,1.423447451934547,-0.7074685422089524,-0.05100651579636892,0.011920645702439264,0.7048010324461021,0,-1,0.011525453999638557,-1.5763610045062464,-0.09746247926820928,-1.5497410933123987,0.07974004000425339,0.02538970485329628
2191,1734173083,890249967,-0.08377532441670275,0.25486693120317033,1.4230872128574348,-0.7075022554940572,-0.05335137176581733,0.012491637919051361,0.7045836703924003,0,-1,0.012040026485919952,-1.5765770117389124,-0.10183269182314092,-1.548781696950094,0.08330946415662766,0.026551051065325737
2208,1734173083,905921459,-0.08746071315404715,0.254752909595246,1.4227077780599529,-0.7075380177174284,-0.05568331860636183,0.013015666451845586,0.7043578024983387,0,-1,0.0125665832310915,-1.5768407026873987,-0.10608321825136358,-1.5478585402118128,0.08684369176626205,0.02767719328403473
2224,1734173083,922214746,-0.09096727091084245,0.25463866133934265,1.4223278597072528,-0.7075751732942709,-0.057933573357901114,0.013585547555545014,0.7041281901139758,0,-1,0.013033219613134861,-1.5770085493670862,-0.11048919359316045,-1.5469477812396448,0.09036517888307571,0.028790976852178574
2240,1734173083,937926292,-0.09451436184397233,0.25451584152963863,1.421929705274789,-0.7076114559290598,-0.06023013026948676,0.01415059437168191,0.7038878600491735,0,-1,0.0135361822322011,-1.5772488752948206,-0.1147993246661585,-1.5459159056292933,0.09393535554409027,0.02986880950629711
2255,1734173083,954220533,-0.09817579579237412,0.2543849224705171,1.4215007677043514,-0.7076514288412676,-0.06256777374930317,0.014723657498929716,0.7036319654882249,0,-1,0.014074723236262798,-1.5774524847613733,-0.11933690706361944,-1.5449212233172815,0.09757668524980545,0.03106648288667202
2272,1734173083,969940185,-0.1020121817625885,0.25424658016218027,1.4210378145706715,-0.7076941453975286,-0.06499256942171203,0.015282810382302446,0.7033572336990955,0,-1,0.014624874107539654,-1.5776680151568812,-0.1239703337298792,-1.543877903615133,0.10127831250429153,0.032240185886621475
2287,1734173083,985796451,-0.10586741701794004,0.2540973213003572,1.4205526433836795,-0.707738095203733,-0.06747992259186164,0.015845698189886508,0.7030662575413951,0,-1,0.015247679315507412,-1.5779202620135706,-0.1287472883807581,-1.542846981679098,0.10518329590559006,0.03344947099685669
2304,1734173084,1975774,-0.10989591119539828,0.2539380347921512,1.4200262693136196,-0.7077875991778965,-0.0700501161351194,0.01644105707533126,0.7027512983422309,0,-1,0.015798205509781837,-1.5782559553729456,-0.133643929158346,-1.5418275038348597,0.10918453335762024,0.034695081412792206
2319,1734173084,18201351,-0.11406902904552851,0.2537680636046195,1.4194621156744553,-0.7078387036873987,-0.07274521342308941,0.01699313119459992,0.7024127967074456,0,-1,0.01644423045217991,-1.5785558859454554,-0.1385887304889124,-1.540832821522848,0.11328163743019104,0.03603656589984894
2336,1734173084,33990144,-0.11842961535381855,0.25357997889668804,1.418853415605796,-0.7078945139990795,-0.07548512807101958,0.017581065895859522,0.7020528887570182,0,-1,0.01705467514693737,-1.5789397398578089,-0.1437132994281214,-1.5398133436786097,0.117378368973732,0.037342097610235214
2351,1734173084,49794912,-0.12273090058763728,0.25339355906326816,1.4182273489087058,-0.7079519590277342,-0.07822765696390918,0.018156242127704024,0.7016799899288354,0,-1,0.017689090222120285,-1.5792515913592737,-0.14889699617494756,-1.5387104193316858,0.12160730361938477,0.038635268807411194
2368,1734173084,66008090,-0.1271523601966711,0.25318761497726006,1.4175615790186795,-0.7080072027741093,-0.08107822096083286,0.018712853851132402,0.7012859274265767,0,-1,0.018323130905628204,-1.5795872847186487,-0.15417653719057256,-1.5376070181476038,0.12582388520240784,0.03995278477668762
2383,1734173084,81833362,-0.13152524935614515,0.2529831756573498,1.4168750625455178,-0.7080714724083895,-0.0838841980935457,0.019327770979682454,0.7008742173461476,0,-1,0.01895754598081112,-1.5799229780780237,-0.15948039690126592,-1.5365760962115687,0.13011273741722107,0.04122236371040344
2400,1734173084,98072767,-0.1360023106208119,0.25275728245778833,1.4161551576203382,-0.708130856012703,-0.08676903268501648,0.01992835681823299,0.7004460623946345,0,-1,0.019579976797103882,-1.5802224318133753,-0.16475993791689092,-1.5354130903827112,0.1343776136636734,0.04262339323759079
2415,1734173084,113855838,-0.14037414474030177,0.2525317345273467,1.4154203861611863,-0.7081994602214621,-0.08958409912701257,0.020587126200346646,0.700003131393312,0,-1,0.020237985998392105,-1.5805709997760218,-0.17000371614565069,-1.5342381636248987,0.13882189989089966,0.04400083050131798
2432,1734173084,130364179,-0.1447417396042806,0.2523036126379477,1.4146648601138854,-0.7082720243234245,-0.09238877523451845,0.021252539917895278,0.6995451260058225,0,-1,0.02087240107357502,-1.5809186140643519,-0.17517596880067998,-1.53314716020693,0.14313434064388275,0.045413848012685776
2447,1734173084,146044731,-0.1491219216038666,0.25206521402585413,1.4138838549314863,-0.7083444514823124,-0.09520028298281162,0.021899983902547597,0.6990746990696219,0,-1,0.021518800407648087,-1.581170384083883,-0.1805031935321253,-1.5320442358600062,0.14748312532901764,0.04681525379419327
2463,1734173084,161712646,-0.15352862398495304,0.25181728981577556,1.4130711634770678,-0.7084214699919361,-0.09800096375229612,0.022562550739712223,0.6985884076208274,0,-1,0.022152841091156006,-1.581482235585348,-0.1857832113849085,-1.5308569113360804,0.15177197754383087,0.04827657714486122
2480,1734173084,177967786,-0.1578560514400744,0.25157237057073806,1.4122475733599245,-0.7085019454593631,-0.10073620860260436,0.02319490409167099,0.6980968457032651,0,-1,0.02277527190744877,-1.581829849873678,-0.19105035463442022,-1.5297659079181116,0.15612074732780457,0.04964165762066841
2495,1734173084,193779468,-0.1622218624521008,0.25131671531648825,1.4113976577175102,-0.7085776163394214,-0.10349544544849024,0.02378389895813222,0.6975964310004115,0,-1,0.023374108597636223,-1.5821178595172327,-0.19627029100526983,-1.5285432974444788,0.1602298468351364,0.0510190948843956
2512,1734173084,210039854,-0.16647514568955016,0.2510529242149415,1.4105499029876019,-0.7086573558156916,-0.10619811727394131,0.024443057711287842,0.6970862564026815,0,-1,0.023960212245583534,-1.5824292341815394,-0.20135862032045537,-1.5274279753314417,0.16439884901046753,0.052324626594781876
2527,1734173084,225799083,-0.17062954740005865,0.25080158914220174,1.4096882258932666,-0.7087404520106535,-0.10883975043934183,0.025034259590803538,0.6965731592982726,0,-1,0.024570656940340996,-1.5827415625201624,-0.2063506285296839,-1.5263250509845179,0.16853190958499908,0.05365375056862831
2544,1734173084,242183208,-0.174784401627011,0.25053334333052935,1.4088092660600307,-0.7088225855546101,-0.111513365451922,0.025665615158779694,0.696043524308491,0,-1,0.02519308775663376,-1.5830534140216272,-0.21141416231264287,-1.5252817312823694,0.1727009266614914,0.05495928227901459
2559,1734173084,257761001,-0.17890884711580884,0.2502565108884091,1.407918016724699,-0.7089025819410273,-0.11416431645160269,0.026274939532342098,0.6955093570319922,0,-1,0.025803159922361374,-1.5833051840411585,-0.21643096605409795,-1.5241425673114222,0.17676207423210144,0.056216876953840256
2575,1734173084,273849248,-0.18307096103564288,0.24997904689575207,1.406994482539978,-0.7089844922697416,-0.11682522327308818,0.026819414722450568,0.6949630032758254,0,-1,0.026401622220873833,-1.5835807959186,-0.22149497667421514,-1.5230758825885218,0.18082360923290253,0.057534392923116684
2591,1734173084,289791822,-0.18712085984405924,0.24970084524950653,1.4060638578500526,-0.709071944518248,-0.11946260737474623,0.02743457027399549,0.6944011861238568,0,-1,0.027012068778276443,-1.5838568846331995,-0.22643882433046514,-1.5219724814044397,0.18495666980743408,0.05880359560251236
2607,1734173084,305931091,-0.1911532738216435,0.2494159322655401,1.4051236465754897,-0.7091599010714431,-0.12206051567697757,0.02804455897070552,0.6938349716879006,0,-1,0.027550984174013138,-1.584132496510641,-0.2314069906817835,-1.5208457151996058,0.18907812237739563,0.060049206018447876
2623,1734173084,321656942,-0.19524886014769358,0.24911035642075385,1.4041512919319956,-0.7092461782381575,-0.1247313626073264,0.02868520529346013,0.6932453424538527,0,-1,0.028185024857521057,-1.5844319502459925,-0.2364590803729456,-1.5198028723346155,0.19316324591636658,0.06141465902328491
2639,1734173084,337982177,-0.1993755236182371,0.24881560631539917,1.4031468013417567,-0.7093421738088878,-0.12734920815541553,0.029215155359129524,0.6926487813716359,0,-1,0.028819439932703972,-1.584708038960592,-0.24145108858217412,-1.5187237898456019,0.19728468358516693,0.06264790892601013
2655,1734173084,353753566,-0.20345019399400435,0.2485015773094756,1.4021323620306378,-0.709430727285761,-0.13003652242801558,0.02983207143389492,0.6920322200097243,0,-1,0.029381949454545975,-1.5849960486041468,-0.24650317827333623,-1.5176804701434534,0.20140576362609863,0.06397741287946701
2671,1734173084,370054006,-0.20752339683425114,0.24818745990894403,1.4010894056634846,-0.7095270803996861,-0.13268241834670338,0.03040910069178733,0.6914058031549087,0,-1,0.030027974396944046,-1.5852840582477015,-0.25160295168031865,-1.51664907137026,0.20552721619606018,0.06521103531122208
2687,1734173084,385815382,-0.21168397868534028,0.2478511483130847,1.4000108344769258,-0.7096220769680268,-0.1353974107925007,0.030987445765379294,0.6907559824100029,0,-1,0.030626436695456505,-1.5855596701251429,-0.2567022482501429,-1.5155466238604944,0.20962469279766083,0.06654053926467896
2703,1734173084,402150630,-0.21579484123664855,0.2475269574511087,1.3989208439244305,-0.7097214168630146,-0.13800108872289776,0.03153209363422351,0.6901137131142177,0,-1,0.03123725764453411,-1.5858715216266077,-0.26171857515443975,-1.5144556204425257,0.21369746327400208,0.06785768270492554
2719,1734173084,417772293,-0.21987413534750866,0.24719137449885648,1.3978147599012571,-0.7098216134254756,-0.14064372748431447,0.03209079754098368,0.6894510858259317,0,-1,0.03182298690080643,-1.5861833731280726,-0.2667344252215784,-1.513376537953512,0.21775898337364197,0.06915123015642166
2735,1734173084,433676958,-0.22389392110718856,0.24685986593831521,1.3967023001284387,-0.7099251652767932,-0.14321331278613653,0.03266183291186531,0.6887883647524656,0,-1,0.03242182359099388,-1.5864351431476038,-0.2718098799334925,-1.5122373739825647,0.2218085378408432,0.07039684057235718
2752,1734173084,449730634,-0.22799302736094776,0.24650995759038347,1.3955495455557674,-0.710030316069895,-0.14586723243888902,0.03323356488160789,0.6880953647043149,0,-1,0.03300829976797104,-1.5866988340960901,-0.2768142859088343,-1.5111821333514612,0.22591838240623474,0.07171397656202316
2767,1734173084,465654850,-0.2319145163164932,0.246176249349216,1.3944058656110534,-0.7101308460963396,-0.14843170895469449,0.033743293007472364,0.6874180673915239,0,-1,0.033570434898138046,-1.5869506041156214,-0.28178197542299444,-1.5100911299334925,0.22997990250587463,0.07291127741336823
2783,1734173084,481747627,-0.2358935208768145,0.2458166257879591,1.3932358323678569,-0.7102378631396443,-0.1510802140978399,0.03435383835303582,0.686699905680346,0,-1,0.03414493054151535,-1.5871909300433558,-0.2867501417743128,-1.5090363661395472,0.23418524861335754,0.0742051973938942
2799,1734173084,497688293,-0.23987422897173918,0.24546045927792898,1.3920427911993645,-0.710348646335283,-0.1536758576764544,0.03493796608636755,0.6859794967364438,0,-1,0.034743767231702805,-1.587442700062887,-0.2918022314654749,-1.5079811255084437,0.23824676871299744,0.07551035284996033
2815,1734173084,513856172,-0.24379262412725386,0.2451030042128372,1.390842895294025,-0.7104657660912198,-0.156234830761001,0.03555389557840176,0.685248125410568,0,-1,0.03534185513854027,-1.5876825491534632,-0.2967341581927698,-1.5068662802325647,0.24240417778491974,0.07682786881923676
2831,1734173084,529709339,-0.24771432219067913,0.24471718151716867,1.3896272057037748,-0.7105781946930103,-0.15882029768869796,0.03618815276269919,0.6845035864540955,0,-1,0.03597626835107803,-1.5879705587970179,-0.30170184770693,-1.5058110396014612,0.246549591422081,0.07815737277269363
2847,1734173084,545871257,-0.2517125853577447,0.24435318722715024,1.3883664854233637,-0.7107096690726851,-0.16137187619708024,0.03678174431538091,0.6837382446114497,0,-1,0.036538779735565186,-1.5882099310504358,-0.30682498613466436,-1.5047319571124476,0.25064706802368164,0.07958237081766129
2863,1734173084,561575651,-0.2558324059673701,0.24395970809684775,1.3870345524159293,-0.7108307939434995,-0.16404926111885795,0.03725823959131053,0.6829489335891574,0,-1,0.0371248833835125,-1.5885222593890589,-0.3119848410235804,-1.5036891142474573,0.25475654006004333,0.08091187477111816
2880,1734173084,577963113,-0.2598726041826617,0.2435527128301456,1.3857122389742131,-0.7109490986063304,-0.1666911941778826,0.03782606553688157,0.6821543914249892,0,-1,0.03775929659605026,-1.5887859503375452,-0.31704789796938115,-1.5026457945453089,0.2588420510292053,0.082229383289814
2895,1734173084,593722581,-0.2639252772000864,0.2431484985652131,1.384362741615937,-0.7110732114928613,-0.16931711069954336,0.038353792522321954,0.6813483620885439,0,-1,0.038393713533878326,-1.5890854040728968,-0.32221967378725225,-1.5015910307513636,0.2629399001598358,0.08354652673006058
2911,1734173084,609584808,-0.2679240023224219,0.24274466444068543,1.3830163412190926,-0.7111970808226552,-0.17193626738233697,0.038909606376733,0.6805311710124459,0,-1,0.03894423693418503,-1.5893738905536097,-0.32715160051454717,-1.5005596319781702,0.2670733332633972,0.0848400741815567
2927,1734173084,625931978,-0.2718205993653955,0.24233494082098667,1.3816742366047963,-0.7113203567428311,-0.1744943517090606,0.03947250661938708,0.6797183185158897,0,-1,0.039590638130903244,-1.5896614233600062,-0.33210736909975225,-1.4994452635394495,0.27113524079322815,0.08615759015083313
2943,1734173084,642028331,-0.27568973410846204,0.24191626969559077,1.3803178891293375,-0.7114470183078938,-0.1770167205787815,0.040092170389939494,0.6788967805563412,0,-1,0.0401771143078804,-1.5899255911456507,-0.3370750586139124,-1.498282257710592,0.27524468302726746,0.0874151885509491
2959,1734173084,658230781,-0.27959634568445546,0.24149936595615806,1.378929153709667,-0.7115717053838829,-0.17957306220220734,0.04065540638773674,0.6780607357455839,0,-1,0.040775202214717865,-1.5901649633990687,-0.34210282961000615,-1.4971311728106897,0.27936652302742004,0.08869674801826477
2975,1734173084,673768043,-0.2835191180051286,0.24106943271568243,1.3775096098628372,-0.7117050257232519,-0.18212445801927027,0.0412236211950128,0.6772054719263737,0,-1,0.04142160341143608,-1.5904524962054651,-0.34710675874818975,-1.496040169392721,0.283428430557251,0.09003785997629166
2991,1734173084,689642906,-0.28736828776408807,0.24064562738620882,1.3760881574180264,-0.7118378067875509,-0.18466915094637681,0.04178639328374834,0.6763417323017776,0,-1,0.04199609532952309,-1.5906809012042444,-0.35217029253114873,-1.4949010054217737,0.2875142991542816,0.09128347039222717
3007,1734173084,705771207,-0.2912564624812021,0.24021272615645545,1.374634320816628,-0.7119675882797593,-0.187219064458296,0.0423050638600615,0.6754712848924518,0,-1,0.04257059097290039,-1.5910161177264612,-0.35716182390321904,-1.493810002003805,0.29161179065704346,0.09261296689510345
3023,1734173084,722028017,-0.2952605672818586,0.23975694831463568,1.373131831243063,-0.7121040557364443,-0.18982167428886795,0.042827058696216724,0.6745675568964971,0,-1,0.0431690514087677,-1.5913165251361292,-0.36227304140199834,-1.4927309195147913,0.2957935333251953,0.09389453381299973
3039,1734173084,737703084,-0.29930472403679165,0.2392955335014429,1.371575389202031,-0.7122409571242991,-0.19246925218026428,0.04331231199411681,0.6736411875691363,0,-1,0.043803468346595764,-1.5916045347796839,-0.3673966566668909,-1.4916766325580042,0.29989099502563477,0.0951637402176857
3055,1734173084,753519058,-0.30317529860198145,0.23884316576955128,1.3700583960362926,-0.7123838047673272,-0.19501502856308467,0.04386390428638751,0.6727216446945352,0,-1,0.044377587735652924,-1.5918920675860804,-0.3724601904498499,-1.4905851523028772,0.3040248155593872,0.09644529968500137
3071,1734173084,769759893,-0.3071610274298892,0.23837634763249485,1.3684822847259481,-0.7125259933405247,-0.19762212122395534,0.04434480139542695,0.6717780471303324,0,-1,0.04496406391263008,-1.592180077229635,-0.3775833288775843,-1.4895299116717737,0.30814701318740845,0.0977388471364975
3087,1734173084,785658121,-0.31103981355810706,0.23790639426788096,1.3669159524550527,-0.7126658043374927,-0.20020624574220655,0.044887410782798745,0.6708278697602106,0,-1,0.04558686912059784,-1.5924795309649866,-0.3826230208026331,-1.4884150663958948,0.31224486231803894,0.09905636310577393
3103,1734173084,801957130,-0.3149462687888129,0.23743190128173713,1.3653234302923274,-0.7128118960872315,-0.20276890709780365,0.04537636855476608,0.6698693576270452,0,-1,0.04614900425076485,-1.5927794615374964,-0.3875544706927698,-1.4873841444598597,0.3163307309150696,0.1003618910908699
3119,1734173084,817600011,-0.31883949340732437,0.23694537371072333,1.363719864212711,-0.7129503265997976,-0.20532149192186883,0.04587250894840551,0.668910031079665,0,-1,0.04678341746330261,-1.5930913130389612,-0.3925698439227503,-1.4863408247577112,0.3203926384449005,0.10164308547973633
3135,1734173084,833899259,-0.32264385788470024,0.23646616322902134,1.3621168775395778,-0.7131007096884296,-0.20784807150312912,0.046403277204223284,0.6679321019976477,0,-1,0.04736989736557007,-1.5933669249164026,-0.3975256125079554,-1.4852617422686976,0.32450249791145325,0.10288869589567184
3151,1734173084,849605798,-0.3264601887398289,0.2359908876030934,1.3604914881160688,-0.7132507153763015,-0.2103869212663137,0.046916104653333394,0.6669405067166287,0,-1,0.047932032495737076,-1.5936911741839808,-0.4025772253619593,-1.4841950575457972,0.3285883665084839,0.10413430631160736
3167,1734173084,865896701,-0.3302959433382827,0.23548741018013658,1.3588318389895173,-0.7133955063725399,-0.21292736234932733,0.047437710934775744,0.6659417793108451,0,-1,0.04854285344481468,-1.593954865132467,-0.40764028230776006,-1.4830082098590296,0.3327105641365051,0.10542785376310349
3183,1734173084,881546974,-0.33416036954193273,0.234980465036556,1.3571380221597071,-0.7135475519427087,-0.21547485091288407,0.0479257887858057,0.6649237539070898,0,-1,0.0491892509162426,-1.594266716633932,-0.41269189516176397,-1.481941048298971,0.3367844521999359,0.106673464179039
3199,1734173084,897844076,-0.3379763585336396,0.23446686262243766,1.3554349051961818,-0.7136994641509407,-0.21799812993498338,0.0484242386161988,0.6639013355386112,0,-1,0.04978733882308006,-1.5945542494403284,-0.41769534746278936,-1.4808381239520472,0.34089428186416626,0.10799060016870499
3215,1734173084,913563966,-0.3418076979921882,0.2339620693985281,1.3537225145057847,-0.7138606355203371,-0.22047998152360423,0.04892482987507269,0.6628709767545617,0,-1,0.050349850207567215,-1.5948780218707483,-0.4226625601397913,-1.4797714392291468,0.3450041115283966,0.10931973159313202
3231,1734173084,929922580,-0.3456147998831357,0.23342647760375848,1.3519916783269628,-0.7140182486140967,-0.22302218232482934,0.04945361731398158,0.6618106878645061,0,-1,0.05098426342010498,-1.5952017943011683,-0.4276540915118616,-1.4787042776690882,0.34907838702201843,0.11069716513156891
3247,1734173084,945539236,-0.34938493230179213,0.2329038912702932,1.3502399897022281,-0.7141890024196778,-0.22549791491807802,0.04998361087520411,0.6607468485238963,0,-1,0.05163028836250305,-1.595501724873678,-0.43270570436586553,-1.4776251951800745,0.3531886041164398,0.1120745986700058
3263,1734173084,961519241,-0.3532692697101546,0.23236855446899796,1.3484218913619384,-0.7143534913789978,-0.22805095501483885,0.05044360088439474,0.6596569520601384,0,-1,0.052252721041440964,-1.5958011786090296,-0.4378169218646448,-1.4765823523150843,0.35731041431427,0.11335616558790207
3279,1734173084,977613210,-0.35703603170006354,0.2318201576777723,1.3466200105892017,-0.7145191365958704,-0.23057159321245,0.05097171006209611,0.6585598139995409,0,-1,0.05285118147730827,-1.5960777441607874,-0.4429400602923792,-1.4754555861102503,0.3614206314086914,0.11470925807952881
3295,1734173084,993435859,-0.3607694385526988,0.23127388371355997,1.3448131237358527,-0.7146825390317237,-0.2330606619587151,0.051469260379537064,0.6574667379316748,0,-1,0.05346162989735603,-1.5963414351092737,-0.44785911241640264,-1.4744122664081019,0.36550650000572205,0.11595486849546432
3311,1734173085,9590864,-0.36453891532979277,0.2307272793350581,1.3429881571182185,-0.714851064987325,-0.23556069258674892,0.05194661908350828,0.6563540688990444,0,-1,0.05408405885100365,-1.5966294447528284,-0.4527786413775843,-1.473321262990133,0.3696051239967346,0.11730834096670151
3327,1734173085,25460243,-0.3681794189373282,0.23017672359208036,1.3411754392711013,-0.715020386102648,-0.23801653178476376,0.05248944767607065,0.6552395256220688,0,-1,0.054718099534511566,-1.596940819417135,-0.45774633089174444,-1.472290341054098,0.3737389147281647,0.11856593191623688
3343,1734173085,41690826,-0.3718764125007932,0.2296067018550415,1.3393244416008852,-0.7151772995104075,-0.24056987653870232,0.05298282163006406,0.6540950889429388,0,-1,0.055316563695669174,-1.5971925894366663,-0.4627140204059046,-1.4712474981891077,0.37787312269210815,0.11982353031635284
3359,1734173085,57537555,-0.37552211831257576,0.2290543536998922,1.3374559583848542,-0.7153528027247827,-0.2430157517655909,0.05346926994303476,0.6529584590150904,0,-1,0.05589105561375618,-1.5974567572223108,-0.4678252379046839,-1.4701688925372522,0.38195934891700745,0.12120059132575989
3375,1734173085,73603868,-0.3792770718679171,0.22848268719160275,1.3355302977192662,-0.7155306043898755,-0.24548424517456946,0.053912294148583534,0.6518028107427644,0,-1,0.05648914352059364,-1.5977681318866175,-0.47284061113466436,-1.4690893332110804,0.38606956601142883,0.12245818227529526
3391,1734173085,89361429,-0.38291913386693294,0.22791701763133868,1.333614742412358,-0.7157046156297328,-0.24796538693368342,0.054388357026350725,0.6506319825132324,0,-1,0.05709996446967125,-1.598020378743307,-0.47789174715151006,-1.4679864088641565,0.39011985063552856,0.12375172972679138
3407,1734173085,105847835,-0.38663328820166015,0.227340418273979,1.3316583928875607,-0.7158821030562674,-0.2504059133685802,0.05484003853187859,0.6494630576465491,0,-1,0.057686444371938705,-1.5983203093158167,-0.482978645955221,-1.4668954054461878,0.3941941261291504,0.1250452846288681
3423,1734173085,121743917,-0.3902811944205128,0.2267685056473684,1.3297031333941025,-0.7160639108251761,-0.25286838945677137,0.05529221376547804,0.6482690986960626,0,-1,0.05827254801988602,-1.5986197630511683,-0.4879344145404261,-1.4657929579364222,0.3983043432235718,0.12633845210075378
3439,1734173085,138003826,-0.3939638697617478,0.22616903568103658,1.3277135375225886,-0.7162388624086496,-0.2553280616964334,0.05572346688144875,0.6470736960537169,0,-1,0.058859024196863174,-1.5988839308368128,-0.493021313344137,-1.4646418730365198,0.40237897634506226,0.12764398753643036
3455,1734173085,153768777,-0.3975644042988173,0.22558754296217726,1.3257219559863687,-0.7164204491463044,-0.2577696694932235,0.05620057999683551,0.6458622394461383,0,-1,0.05945786088705063,-1.599123779927389,-0.4980729261981409,-1.4636109511004847,0.40648919343948364,0.12890157103538513
3471,1734173085,169570207,-0.401207753800149,0.22499910438961063,1.32368434648411,-0.7166122101190784,-0.26021989888662883,0.05662938088508119,0.6446283097663761,0,-1,0.060019996017217636,-1.5993998686419886,-0.5031235853778284,-1.4625557104693812,0.4105514585971832,0.130194753408432
3487,1734173085,185910463,-0.4047975972301131,0.2244095197770648,1.3216586567219368,-0.7167985696968391,-0.2626514242806471,0.057056536776063684,0.6433961387940053,0,-1,0.0606304407119751,-1.5996392408954065,-0.5081751982318323,-1.461405102406637,0.41464969515800476,0.13148829340934753
3503,1734173085,201639652,-0.408348786914434,0.22380540563033655,1.3196290985615564,-0.7169799297796429,-0.2650794436988506,0.05753211437107168,0.6421547513158181,0,-1,0.06124088913202286,-1.5999391714679163,-0.5131424109088343,-1.4603140989886683,0.4187602996826172,0.13275787234306335
3519,1734173085,217400312,-0.41185541985070534,0.22319467898532527,1.3176046843608322,-0.7171620573306955,-0.2674789290636227,0.05802163344425212,0.6409111452335987,0,-1,0.06181500852108002,-1.6002028624164026,-0.5181334654437464,-1.4592230955706995,0.42293041944503784,0.13402745127677917
3535,1734173085,233837842,-0.41537120271814476,0.2225936221353308,1.315551165147968,-0.7173553894488888,-0.26989852701123973,0.05850273372146699,0.6396354121629848,0,-1,0.062401484698057175,-1.6004789511310022,-0.5230649153338831,-1.4581683317767542,0.42704102396965027,0.13530902564525604
3551,1734173085,249643087,-0.4188999476687468,0.22198643641571542,1.3134595636826143,-0.7175522276976003,-0.2722775285586725,0.05893357324406792,0.638365555080221,0,-1,0.06300032138824463,-1.6006949583636683,-0.5281403700457972,-1.4570649305926722,0.4311276376247406,0.13661454617977142
3567,1734173085,266024351,-0.42245225401438535,0.2213444640252611,1.31133104639681,-0.7177428526927996,-0.2747269900120768,0.05938625241075799,0.6370585148884773,0,-1,0.06358642876148224,-1.6009705702411097,-0.5332511107074183,-1.456022087727682,0.43522587418556213,0.1379680186510086
3583,1734173085,281942129,-0.42597931114687104,0.22071120716297601,1.3091935728487503,-0.7179368819389753,-0.2771276124069453,0.05980898677460388,0.6357592351624654,0,-1,0.0641968697309494,-1.601234261189596,-0.5383017698871058,-1.4549673239337366,0.4393121004104614,0.13923722505569458
3599,1734173085,297741413,-0.4294899193304594,0.22008689565480205,1.3070252410496785,-0.7181369074820703,-0.2795449196772613,0.060202667459499905,0.634436489197684,0,-1,0.06478334963321686,-1.6015222708331507,-0.5433052221881312,-1.4538887182818812,0.44336315989494324,0.140554741024971
3616,1734173085,313895702,-0.4330248302683125,0.21945072144796451,1.30485099710601,-0.7183497405773863,-0.2819036839723133,0.06065339143784651,0.6331075179480394,0,-1,0.06538181006908417,-1.6018222014056605,-0.5482962767230433,-1.4527853170977991,0.4474853575229645,0.14196813106536865
3631,1734173085,329569578,-0.4365033363804959,0.21878272282417668,1.302689912230861,-0.7185518211657099,-0.28427224092955883,0.061128462520875705,0.6317720193283034,0,-1,0.06604019552469254,-1.6020978132831019,-0.5532873312579554,-1.4517424742328089,0.45163190364837646,0.1433096081018448
3647,1734173085,345921039,-0.43999924255696105,0.21812180954792026,1.3004781876009595,-0.7187540102933525,-0.28664363553024325,0.061585784196256314,0.6304246902542449,0,-1,0.06662630289793015,-1.602349583302633,-0.5583503882037562,-1.450615708027975,0.45568257570266724,0.14462675154209137
3663,1734173085,361704587,-0.44345871312148766,0.21747998985277683,1.2982458549320377,-0.7189596374848668,-0.28901215249829576,0.06197880661194501,0.6290688697645829,0,-1,0.06726071238517761,-1.6026251951800745,-0.5634372870074671,-1.4495003859149378,0.4597811698913574,0.14595624804496765
3679,1734173085,377975702,-0.4469122739143241,0.21678693415647282,1.2960068738709032,-0.719154521064607,-0.29140576406119384,0.06240135948593,0.6276985947399877,0,-1,0.06782322376966476,-1.6028536001788538,-0.5685003439532679,-1.4484341780291956,0.46386778354644775,0.14722545444965363
3695,1734173085,393770217,-0.45036538034431906,0.21614233197036897,1.2937323465473098,-0.7193676886300377,-0.29377729937005304,0.06279533967825823,0.6263080490019327,0,-1,0.06844528019428253,-1.6031411329852503,-0.5735395590411585,-1.447367016469137,0.46801432967185974,0.1485309898853302
3711,1734173085,410314083,-0.45376951990109493,0.21547503656110994,1.2914837065795102,-0.7195767401367911,-0.2961409031891714,0.06322181993411846,0.6249102991603107,0,-1,0.06906770914793015,-1.603429142628805,-0.5785186926471155,-1.4462998549090784,0.4721009433269501,0.14984850585460663
3727,1734173085,425798177,-0.4571873153922317,0.2147840254218474,1.2892027461350961,-0.7197763205900184,-0.29847565230680745,0.06364134883979919,0.6235255504113459,0,-1,0.06967853009700775,-1.603752915059225,-0.5834620634662073,-1.4451969305621546,0.47617557644844055,0.15109410881996155
3743,1734173085,441577196,-0.46054003911483,0.21409811801455675,1.2869351382267151,-0.7199823905833248,-0.3008221540837397,0.06409437261982467,0.6221119676238439,0,-1,0.07028860598802567,-1.6040404478656214,-0.5885008017169397,-1.4440820852862757,0.4802745580673218,0.15242362022399902
3759,1734173085,457661867,-0.46398068634597067,0.2134198413559904,1.284568550457328,-0.7201945047591315,-0.3032030267542386,0.06441251369693508,0.6206761055180552,0,-1,0.07087508589029312,-1.604316536580221,-0.5935996214496058,-1.4430392424212855,0.4843851625919342,0.15371716022491455
3775,1734173085,473932743,-0.467424443460262,0.21276658238458263,1.282170323615437,-0.7204184908971251,-0.305582330880568,0.06470345008673788,0.6192173290323689,0,-1,0.07146118581295013,-1.6045921484576624,-0.598602596913473,-1.441995922719137,0.4884953796863556,0.15498673915863037
3791,1734173085,489778757,-0.47075545707924243,0.2120805673884455,1.279814785783881,-0.7206324456518673,-0.30790980852661665,0.06506988310565161,0.6177753138476219,0,-1,0.07205964624881744,-1.6048443953143519,-0.6037018934832972,-1.440953556691305,0.49249884486198425,0.1563042551279068
3807,1734173085,506084918,-0.4741261983077263,0.21137257631113218,1.2774323843198063,-0.7208527184985214,-0.31024892377841107,0.0654655590132256,0.6163044897700447,0,-1,0.07262253016233444,-1.6051681677447718,-0.6086929480182093,-1.4398863951312464,0.49669334292411804,0.15760941803455353
3824,1734173085,521850347,-0.477451614026254,0.21068113098746477,1.2750518555553134,-0.7210732241855051,-0.31259384600718326,0.06586593369252736,0.6148171854949804,0,-1,0.07320863753557205,-1.605504337941305,-0.6136120001422327,-1.4388435522662562,0.5008282661437988,0.1588786244392395
3840,1734173085,538153648,-0.4807320345740353,0.20998736203078588,1.2726815041143746,-0.7212854253651315,-0.3148979004642239,0.06624104800344821,0.6133504471331783,0,-1,0.07380709797143936,-1.605767552052633,-0.6186507383929651,-1.4377644697772425,0.5049388408660889,0.16013620793819427
3856,1734173085,553910732,-0.48409339361745746,0.20926937371498472,1.2702205911183433,-0.7215049412476753,-0.3172464543247361,0.0665886956084121,0.6118425063615164,0,-1,0.07438158988952637,-1.6060555616961878,-0.6237376371966761,-1.436685864125387,0.5090734362602234,0.16146571934223175
3871,1734173085,569893360,-0.4874221444046433,0.20854855695967087,1.267747943687087,-0.7217349902831378,-0.3195521651762866,0.06696829050581782,0.6103279983737226,0,-1,0.07496806979179382,-1.6063674131976526,-0.6288607756244105,-1.435582462941305,0.5131963491439819,0.16277123987674713
3887,1734173085,585596561,-0.4907325136014832,0.20783493974000875,1.2652565024251166,-0.7219513453030272,-0.32189368241182054,0.06729089078355746,0.6088042774620286,0,-1,0.07559049874544144,-1.6066072622882288,-0.6339715162860315,-1.434443775807516,0.5173193216323853,0.1640048772096634
3904,1734173085,601791143,-0.494040721941829,0.20714064292644618,1.2627520295186514,-0.7221762552046957,-0.3242043071127939,0.06757901774501024,0.607277613640298,0,-1,0.07621292769908905,-1.6069548765765589,-0.638890568410055,-1.4333770910846155,0.5213460326194763,0.16526246070861816
3919,1734173085,617645025,-0.49730923495034757,0.20641189285164657,1.2602653548053206,-0.7223954637899124,-0.3264885584820979,0.06791045157429765,0.6057542287454657,0,-1,0.07678704708814621,-1.6072424093829554,-0.6437976996051233,-1.4322617689715784,0.5254449844360352,0.16650807857513428
3935,1734173085,633814573,-0.5005227110490121,0.20565702152301357,1.257809974010472,-0.7226030883360781,-0.3287602891215339,0.0683102365896282,0.6042310490209492,0,-1,0.07740948349237442,-1.607602898274557,-0.6487649122821253,-1.4311955610858362,0.5294840335845947,0.16776567697525024
3951,1734173085,649630308,-0.503734919564229,0.20491009030271706,1.2553144750608614,-0.7228241674067577,-0.33101777871999666,0.06866592678916912,0.6026918314380834,0,-1,0.07804389297962189,-1.6078785101519983,-0.653839413319723,-1.430068318043844,0.5335234999656677,0.16908319294452667
3968,1734173085,665971517,-0.5069063838299722,0.20419382484628057,1.2527771555053737,-0.7230578812929499,-0.3332356292754793,0.06896144575760203,0.6011535865987551,0,-1,0.07864198088645935,-1.608154598866598,-0.658914868031637,-1.4289653936969202,0.5375621318817139,0.1704007089138031
3983,1734173085,681793689,-0.5101684338296912,0.2034236867317452,1.2501814947856134,-0.7232901489057184,-0.33552557877006484,0.0692970976423144,0.599559720749575,0,-1,0.07926478981971741,-1.6084421316729944,-0.664001766835348,-1.4278987089740198,0.5416731238365173,0.17169424891471863
3999,1734173085,697830200,-0.5133363557180446,0.20269013723384394,1.2476020496443414,-0.7235438874394092,-0.337757874892171,0.0696472560662327,0.5979574571989522,0,-1,0.07991081476211548,-1.608729664479391,-0.6690047422992151,-1.4268320242511194,0.5458440184593201,0.1731308549642563
4015,1734173085,713851928,-0.5165327225360868,0.2019172269934772,1.2450132112823662,-0.7237832026893796,-0.34001495593815245,0.07003747739638028,0.5963408899304424,0,-1,0.08049729466438293,-1.6090896765338343,-0.6739471594439905,-1.4257290999041956,0.5500149130821228,0.17447234690189362
4031,1734173085,730063676,-0.5196904965317879,0.20114299800716712,1.2424284441518165,-0.7240213891628311,-0.3422623784315949,0.07041228896116629,0.5947197675446153,0,-1,0.0811317041516304,-1.6093652884112757,-0.678962532673971,-1.4246495405780237,0.5541502237319946,0.17578986287117004
4047,1734173085,745812177,-0.5228736646447302,0.2003881622107315,1.2397730421914017,-0.7242594471153576,-0.34452873351722246,0.0706899896125575,0.593086107082059,0,-1,0.08172979205846786,-1.6096656958209437,-0.6840370337115687,-1.4236071745501917,0.558057427406311,0.17711935937404633
4063,1734173085,761842012,-0.5259899721694636,0.19961995166639265,1.2371360976129,-0.7245006032818851,-0.3467334438553658,0.07098323558044384,0.5914695047277702,0,-1,0.08231627196073532,-1.60992938676943,-0.6891239325152796,-1.4224923292743128,0.5623365640640259,0.178400918841362
4079,1734173085,777982711,-0.5290911561660281,0.1988546613634824,1.2344617556877944,-0.7247385791495699,-0.3489765555595001,0.07128215170113421,0.5898204899890698,0,-1,0.08295031636953354,-1.6101811567889612,-0.6942346731769007,-1.4214137236224573,0.5663512945175171,0.17971843481063843
4095,1734173085,793771266,-0.5321891187616676,0.19809589476686185,1.231789320965988,-0.7249782948363683,-0.3511769368079556,0.07154624645416857,0.5881856557998097,0,-1,0.08353716880083084,-1.6105168501483362,-0.6992014090167444,-1.4203103224383753,0.5704742074012756,0.18098801374435425
4112,1734173085,809762954,-0.5352191368840634,0.1973267682688578,1.2291432307820604,-0.725215908278661,-0.3533856498011679,0.07186471929748327,0.5865287128644745,0,-1,0.0840996727347374,-1.6107447783099573,-0.7041805426227015,-1.4191954771624964,0.5745136737823486,0.18223363161087036
4127,1734173085,825799942,-0.5382198957518127,0.1965575992274614,1.226527927482924,-0.7254670664100031,-0.3554974109664675,0.07224612377455594,0.5848928311666627,0,-1,0.08470974862575531,-1.6110566298114222,-0.7090399901019495,-1.4181645552264612,0.5786369442939758,0.1835751086473465
4143,1734173085,841767311,-0.5412105116660284,0.1957876381268313,1.2238581116740774,-0.7257079544290782,-0.3576677062545279,0.07251019211662668,0.5832358432231319,0,-1,0.08528461307287216,-1.6113680044757288,-0.7140663305865687,-1.4170263449298304,0.5825921297073364,0.18486829102039337
4159,1734173085,857856273,-0.5441896579510344,0.19499613173888414,1.221158711416908,-0.7259510033273023,-0.35984127481263506,0.07283797472798315,0.5815531163589673,0,-1,0.08590704947710037,-1.6115720907794397,-0.719057861958639,-1.4159711042987269,0.5867154598236084,0.1862097680568695
4175,1734173085,873864173,-0.5471577924716341,0.19422412917626541,1.218435147081636,-0.7262076128658695,-0.36201798240869554,0.07313519904927795,0.5798419837235099,0,-1,0.08649314939975739,-1.611811939870016,-0.7241085211383265,-1.414880100880758,0.5909103155136108,0.1875392645597458
4191,1734173085,889798402,-0.5501303960775132,0.19341692619862383,1.2156824744645118,-0.7264602927278321,-0.36417879110091783,0.07345285226749851,0.5781296824206795,0,-1,0.087115578353405,-1.612039868031637,-0.729159180318014,-1.4137776533709925,0.5949737429618835,0.18882082402706146
4207,1734173085,905642032,-0.5530330186500979,0.1926576332965682,1.2129529728739612,-0.7267133456134183,-0.36631529918689854,0.07371494887595799,0.5764259893526492,0,-1,0.08770168572664261,-1.6123641172992151,-0.7341139952289026,-1.4127705732928675,0.5990970134735107,0.19010202586650848
4224,1734173085,921888828,-0.5559885648119204,0.19185145293413336,1.2101928316378976,-0.7269547293848245,-0.3685203350088828,0.07399946431592712,0.5746770078843708,0,-1,0.08830051869153976,-1.6126635710345667,-0.7390573660479944,-1.4116795698748987,0.6032323241233826,0.19135960936546326
4239,1734173085,937810182,-0.5588789726915663,0.19104555986149696,1.2074593900192385,-0.7272027237884041,-0.3706383233495219,0.07429807592575613,0.5729600576768958,0,-1,0.08891096711158752,-1.6129277388202112,-0.7440722624408167,-1.4106128851519983,0.6073915958404541,0.19267712533473969
4255,1734173085,953789472,-0.5618411950870635,0.19023589098296761,1.2046188378041554,-0.7274582921164512,-0.37282808944235324,0.07454811184195977,0.5711796809888977,0,-1,0.08950905501842499,-1.6132391134845179,-0.7491233984576624,-1.409581486378805,0.6114310622215271,0.1939946413040161
4271,1734173085,970060586,-0.5648018337946467,0.18943661466234346,1.2017230168662614,-0.7277093028583805,-0.37501158063614565,0.0746798702211812,0.5694105741079076,0,-1,0.09014347195625305,-1.6134551207171839,-0.7543533484088343,-1.4085271994220179,0.6155304312705994,0.19521628320217133
4287,1734173085,985838413,-0.5677609617406881,0.18860888276926374,1.1987985050938241,-0.7279532686197939,-0.3772158262509438,0.07485054792481964,0.5676175249293579,0,-1,0.09074193239212036,-1.6137550512896937,-0.7594760099994105,-1.4074719587909144,0.6196293830871582,0.1964738816022873
4303,1734173086,1619338,-0.5706503918556581,0.18777422119406217,1.1959287906914091,-0.7282000082557536,-0.37938725960514497,0.07507902344749198,0.5658208156861935,0,-1,0.09135200083255768,-1.6140902678119105,-0.7644789854632776,-1.406405274068014,0.6237770318984985,0.1977071315050125
4319,1734173086,17898082,-0.573485759993921,0.18695808261178387,1.1930904303562613,-0.7284491987008808,-0.3815229926327247,0.07533469343430346,0.5640271757369267,0,-1,0.09198641777038574,-1.614331070576803,-0.7694338003741663,-1.4053624312030237,0.6278284788131714,0.1990366280078888
4335,1734173086,33637523,-0.5762427124070847,0.18614821932531725,1.1902942216539,-0.7287105843051268,-0.38357477942453755,0.07562352715069069,0.5622564851136773,0,-1,0.09258487820625305,-1.6145947615252894,-0.7743766943560999,-1.4042356649981897,0.6319278478622437,0.20036613941192627
4352,1734173086,49924850,-0.5790182784444352,0.18534054839711006,1.1874335264035638,-0.7289806260282671,-0.38561933117694497,0.07587609503111278,0.5604710487624771,0,-1,0.09315937757492065,-1.6148584524737757,-0.7793915907489222,-1.4031208197223108,0.6359912157058716,0.2016596794128418
4367,1734173086,65732240,-0.5818099698895957,0.18451459149983207,1.1845256847317207,-0.729247131818338,-0.38770728754269007,0.0761373046284054,0.5586454965046607,0,-1,0.09373386949300766,-1.6150983015643519,-0.7844427267657679,-1.4020422140704554,0.6401748657226562,0.20295323431491852
4383,1734173086,81869363,-0.5845328821830115,0.18369797689679462,1.181645234024156,-0.7295210879545393,-0.3897609389940271,0.07640693102334935,0.5568189773667136,0,-1,0.09434393793344498,-1.6153257528888147,-0.7895053068744105,-1.4009149710284632,0.6442861557006836,0.20435462892055511
4399,1734173086,97826957,-0.5873238223092823,0.18284600629877398,1.1787005249333724,-0.7297990223254278,-0.391815844022386,0.07664977881408777,0.5549761641670987,0,-1,0.09494277834892273,-1.6155899206744593,-0.7945440451251429,-1.3998482863055628,0.6483739018440247,0.20574405789375305
4416,1734173086,114061594,-0.5900664695436085,0.18202707782711122,1.1757668008239945,-0.730070710863189,-0.393869896638852,0.0768621708894362,0.5531324148407694,0,-1,0.09555322676897049,-1.6159256140338343,-0.7994988600360315,-1.3987458387957972,0.6524852514266968,0.20706120133399963
4431,1734173086,129988670,-0.5927552005902534,0.18118865785524257,1.1728761349242425,-0.7303469732907404,-0.3958706585876677,0.07714647635130123,0.5512967816530394,0,-1,0.0961632952094078,-1.6161654631244105,-0.8045018354998987,-1.3976548353778284,0.6564887166023254,0.20837871730327606
4447,1734173086,146138668,-0.595539345560004,0.18035351193563284,1.169858178119068,-0.730623728735545,-0.39791852977526687,0.07729853640849993,0.5494312941025137,0,-1,0.09667786955833435,-1.6165011564837855,-0.8095405737506312,-1.396600071583883,0.6605644822120667,0.20963630080223083
4463,1734173086,161776065,-0.5982421603699561,0.17952251398137048,1.1668625347239296,-0.7308815156492614,-0.39997349627963474,0.07743864337605058,0.5475734369636284,0,-1,0.09731190651655197,-1.6167648474322718,-0.8146269957171839,-1.3955329100238245,0.6646997928619385,0.21097779273986816
4479,1734173086,177963256,-0.60089898988424,0.17870011960915952,1.1638516830846302,-0.7311611927783445,-0.4020091805953834,0.07762168247167454,0.5456801291070101,0,-1,0.09785082191228867,-1.6170533339129847,-0.8197615782367151,-1.3944066206561487,0.6688358783721924,0.2122713327407837
4496,1734173086,194253683,-0.60357855201729,0.17785791209402307,1.1608066799462589,-0.7314351754204197,-0.4040595491486213,0.07778111231237787,0.543772529158068,0,-1,0.09850920736789703,-1.617317024861471,-0.824836556111471,-1.3933513800250452,0.6729112267494202,0.21348099410533905
4511,1734173086,209652185,-0.6062368499256158,0.17701153931915525,1.1577787519368377,-0.731708444929172,-0.40611281946401045,0.07794815669082579,0.5418479623979657,0,-1,0.09905935823917389,-1.617640797291891,-0.8297556082354944,-1.3922846953021448,0.6770589351654053,0.21483446657657623
4528,1734173086,226077795,-0.608864422258421,0.1761664201450252,1.1547682713378213,-0.7319902427453191,-0.4080984534279067,0.07814921063636528,0.5399431800776008,0,-1,0.09968216717243195,-1.6179402510272425,-0.8346627394305628,-1.3912060896502894,0.6811582446098328,0.21615161001682281
4544,1734173086,241963863,-0.61146713794388,0.1752746767365039,1.1517824924092386,-0.7322461136305698,-0.41011794885083935,0.07838283837373844,0.5380288354277895,0,-1,0.10029223561286926,-1.6182401815997522,-0.8396537939654749,-1.3901026884662073,0.6853302717208862,0.2174091935157776
4559,1734173086,257449626,-0.6140204139214376,0.17442543498366375,1.1487553883389794,-0.7325158456668877,-0.4121204671789462,0.07857903840469112,0.5360994227776461,0,-1,0.10085474699735641,-1.6185038725482386,-0.8447163740741175,-1.3890002409564417,0.6893697381019592,0.21871472895145416
4575,1734173086,273758649,-0.6166624547025351,0.17355494857513312,1.1456209264606132,-0.7328036890432073,-0.41409732372684505,0.07871166384680023,0.5341597455643763,0,-1,0.10152511298656464,-1.61877948442568,-0.8498147169696253,-1.3878973166095179,0.6934454441070557,0.22002026438713074
4591,1734173086,289494276,-0.6192115945685491,0.17267971367206003,1.1425329232940813,-0.7330675663085198,-0.4160968405743749,0.07886552783861014,0.5322176162147065,0,-1,0.1020992323756218,-1.6190794149981897,-0.8549016157733362,-1.3868182341205042,0.697509229183197,0.22126586735248566
4607,1734173086,305690050,-0.6218182235189335,0.17181783027600506,1.1393796621892105,-0.733346010941534,-0.418101971506874,0.0789351073259434,0.5302486383666125,0,-1,0.10272166132926941,-1.6194279829608362,-0.8597729841815394,-1.3857877890216272,0.7016209363937378,0.22259537875652313
4623,1734173086,321413993,-0.6243529228603125,0.17094292922371257,1.1363230603649401,-0.7336203461220604,-0.4200427767784447,0.07911345128759921,0.5283051346119652,0,-1,0.10333210974931717,-1.6197875181781214,-0.8647759596454065,-1.3846734205829065,0.7056131958961487,0.22386495769023895
4639,1734173086,337817907,-0.6268773922933589,0.1700667009339219,1.1331921781490517,-0.7338913991473144,-0.42200305013120964,0.07923603938144254,0.5263444594566334,0,-1,0.10396652668714523,-1.6200874487506312,-0.8697665373431605,-1.3835938612567347,0.7097249031066895,0.22514651715755463
4655,1734173086,353554725,-0.6294313156179205,0.16914044145760943,1.1300256085733573,-0.7341506538329386,-0.4240229015596091,0.07937284467836202,0.5243351485045641,0,-1,0.10458895564079285,-1.6203630606280726,-0.8748648802386683,-1.3824675718890589,0.7138126492500305,0.2264280766248703
4671,1734173086,369994163,-0.6319199880717606,0.16829606859008922,1.1268514005225119,-0.7344395851661873,-0.4259592849008417,0.07944484619218133,0.5223463408134329,0,-1,0.10515108704566956,-1.620650593434469,-0.8799999395953577,-1.3813884894000452,0.7179243564605713,0.22767332196235657
4687,1734173086,385796785,-0.6344118043778378,0.16739992012896085,1.1236317648188265,-0.7347128931837714,-0.4279403757625068,0.07952849667185474,0.5203260685367311,0,-1,0.105725958943367,-1.6209147612201136,-0.8850382010089319,-1.3803699652301233,0.7220364809036255,0.2289429008960724
4703,1734173086,402081489,-0.6368516249423318,0.1665339736434726,1.1204457917390758,-0.7349922233556057,-0.4299010727170491,0.0796007863930108,0.5183003126461802,0,-1,0.10633602738380432,-1.6212623755084437,-0.890017334614889,-1.3793147245990198,0.7261122465133667,0.2302124798297882
4719,1734173086,417981147,-0.6392425315757501,0.16565434087318892,1.1173039924857175,-0.7352733277501975,-0.4318144582175471,0.07973486256932076,0.5162865085051986,0,-1,0.10698243230581284,-1.6215384642230433,-0.8949006239520472,-1.3782485167132776,0.7302479147911072,0.23147006332874298
4735,1734173086,434176921,-0.6416108320930916,0.16476267488998309,1.1141963810876714,-0.7355552667836832,-0.4337103349510794,0.07991649631040201,0.5142636954723486,0,-1,0.10753295570611954,-1.6218622366534632,-0.8999393622027796,-1.377181355153219,0.7344554662704468,0.23279957473278046
4752,1734173086,450010538,-0.6439985841879349,0.16387770796447448,1.110981924281052,-0.735851183117648,-0.43559144505972214,0.08002060614877891,0.5122302528030951,0,-1,0.1081070750951767,-1.6221140066729944,-0.9049661795245569,-1.3761027495013636,0.738447368144989,0.2341410517692566
4767,1734173086,465757131,-0.6463396866116025,0.16300489764905912,1.1077462936135511,-0.7361527736959378,-0.4374933443785371,0.08010094458412224,0.5101592948099559,0,-1,0.108705535531044,-1.6223776976214808,-0.9100530783282679,-1.375035587941305,0.742595374584198,0.23551848530769348
4784,1734173086,482046365,-0.6487263666593781,0.16212899828278632,1.1044667653469495,-0.7364790238682575,-0.43934384233689405,0.08021884957561687,0.5080753603310022,0,-1,0.10934032499790192,-1.622629467641012,-0.9151633421527308,-1.3738849798785608,0.7467913627624512,0.23688356578350067
4799,1734173086,497783660,-0.6510246592364626,0.16122598990786408,1.10123246115562,-0.736762265579272,-0.44122557630426634,0.08030894154986251,0.5060156408062968,0,-1,0.10991444438695908,-1.6229293982135218,-0.9201548735248011,-1.3728659788714808,0.750867486000061,0.2382010817527771
4815,1734173086,513647794,-0.65331893539569,0.16031154141318266,1.098029252598433,-0.7370463687688821,-0.4431018187204492,0.08039529163853013,0.5039444667952918,0,-1,0.11053687334060669,-1.6232293287860315,-0.9250734488116663,-1.3717635313617151,0.7548953294754028,0.23950661718845367
4831,1734173086,529750108,-0.6556372177542907,0.15942476496279662,1.0947417393528307,-0.7373483859842983,-0.4449170944114385,0.08046426359626063,0.5018880742463854,0,-1,0.11115892976522446,-1.6235173384295862,-0.9300645033465784,-1.370624844227926,0.7589714527130127,0.2408001571893692
4847,1734173086,545690536,-0.6578449661167918,0.158516537155988,1.0915480231491965,-0.7376197625647639,-0.4467712979384488,0.08059418805133974,0.4998170365890307,0,-1,0.1117338016629219,-1.6238167921649378,-0.9350913206683558,-1.3695815245257776,0.7630835771560669,0.24208173155784607
4863,1734173086,561489343,-0.6600787501904498,0.157633060795647,1.0882490247844037,-0.7379211371160925,-0.44862378095498023,0.080636572755616,0.4977015588615119,0,-1,0.11233226209878922,-1.6240804831134241,-0.9402621428119105,-1.3684914747821253,0.767219603061676,0.2433752715587616
4879,1734173086,577730417,-0.6622890367976763,0.15671318891594194,1.0849421651937028,-0.7382057067985844,-0.4504698723742919,0.0806895051783117,0.4955990640499341,0,-1,0.11291836947202682,-1.6243208090411585,-0.9453485647784632,-1.3674243132220667,0.7713077068328857,0.24460889399051666
4895,1734173086,594163894,-0.6644606432493729,0.15583769344030435,1.0816624377527724,-0.7385237383349584,-0.45225417826321435,0.08076214143680525,0.493483862623454,0,-1,0.11354079842567444,-1.6245487372027796,-0.9503634611712855,-1.366298023854391,0.7754318118095398,0.2460099309682846
4911,1734173086,609825134,-0.6666684792802149,0.15491479256187365,1.0783296772225233,-0.7388245363995336,-0.45407558449668156,0.08082274378871068,0.49134646845629787,0,-1,0.1141512468457222,-1.6248367468463343,-0.9553301970111292,-1.3652427832232874,0.7795917987823486,0.2473394274711609
4927,1734173086,625685930,-0.6688154754216316,0.15397960405310288,1.0750947229413121,-0.7391050513551204,-0.4558772248161903,0.08093496409051167,0.48923328846563685,0,-1,0.11476168781518936,-1.625160042439596,-0.9602134863482874,-1.364164177571432,0.7836323976516724,0.24862098693847656
4943,1734173086,641773462,-0.6708887039309895,0.1530814073287033,1.0718481407402516,-0.7394019195052501,-0.4576382817788563,0.08102848955941502,0.4871205070228182,0,-1,0.11543168127536774,-1.625387970601217,-0.9652403036700647,-1.363061253224508,0.7877441048622131,0.2499624788761139
4959,1734173086,658046245,-0.6730254844195098,0.15218368194533655,1.068483193903473,-0.7397069733853566,-0.4594228201195105,0.08101704641020001,0.4849747458058808,0,-1,0.1160421296954155,-1.6256516615497034,-0.9703987280475062,-1.3620064894305628,0.7918441891670227,0.25129199028015137
4975,1734173086,673650026,-0.6751749001762408,0.151254560426146,1.065056733351498,-0.7399975080616655,-0.4612847928776466,0.08101018802350494,0.48276016546391676,0,-1,0.11662860959768295,-1.6258795897113245,-0.9754613081561487,-1.3609994093524378,0.7960764765739441,0.25254955887794495
4991,1734173086,690398216,-0.6772589657742053,0.15033349409812066,1.0616702588040383,-0.7402942395810612,-0.4630774298520105,0.08104001327842128,0.48057907679443135,0,-1,0.11723867803812027,-1.6261556784259241,-0.9805482069598597,-1.3598969618426722,0.8001526594161987,0.25378358364105225
5007,1734173086,705875396,-0.6792658228542721,0.14941291521996702,1.0583675853731758,-0.7405898280501007,-0.46483470632236173,0.0810791291962231,0.47841569497217395,0,-1,0.11787346750497818,-1.6264432112323206,-0.9854195753680628,-1.3588665167437952,0.8042770624160767,0.25510072708129883
5024,1734173086,721976280,-0.6813073059162688,0.14846839003576762,1.055079143511422,-0.7408729190599269,-0.4665632652892128,0.08117494024504865,0.47627373049802296,0,-1,0.1184835433959961,-1.6267073790179651,-0.9903748671161097,-1.3576677481280726,0.8083292245864868,0.2564062476158142
5039,1734173086,737741708,-0.6833124098856946,0.14754808650627044,1.051737162312038,-0.7411579137698964,-0.46830354580835765,0.08122199879541701,0.4741093995601137,0,-1,0.11909398436546326,-1.6269953886615198,-0.9953540007220667,-1.356577221547262,0.8125376105308533,0.2576638460159302
5056,1734173086,753998994,-0.6852973352025732,0.1466415196966345,1.0483588554753918,-0.7414675644408146,-0.47003112041075595,0.08123168274464544,0.47190890057943297,0,-1,0.11964451521635056,-1.6272347609149378,-1.0004285017596644,-1.35547382036318,0.8165658116340637,0.2589094638824463
5071,1734173086,769584894,-0.6873211029792613,0.14572477473057627,1.044873516998141,-0.7417605229593057,-0.4717781399851263,0.08116196390470069,0.4697120914203126,0,-1,0.12024260312318802,-1.6274388472186487,-1.005610767995016,-1.3544309774981897,0.8206662535667419,0.2601790428161621
5088,1734173086,785844326,-0.6892567528947849,0.14482263796714667,1.0414607039208807,-0.7420647502964853,-0.4735258385911594,0.08112847829524486,0.46747337524553423,0,-1,0.12082945555448532,-1.6277268568622034,-1.0107811133014124,-1.3532927672015589,0.8247543573379517,0.2615085244178772
5103,1734173086,801568746,-0.6912303626588013,0.14390794121487074,1.0380198862779706,-0.7423732818218013,-0.475224154950838,0.08111948109559838,0.46525642690367114,0,-1,0.12142754346132278,-1.6280143896686,-1.0157244841205042,-1.3522380034076136,0.8288911581039429,0.2628017067909241
5120,1734173086,817829608,-0.6931690878807306,0.14300574440877895,1.034640595358639,-0.7426835410954856,-0.47688053263634866,0.08111605772002989,0.4630618755180599,0,-1,0.12200203537940979,-1.62836200395693,-1.020560089741842,-1.3511713186847132,0.8329553604125977,0.26410722732543945
5135,1734173086,833525419,-0.6950810044238298,0.14207968932525478,1.03121778442949,-0.7429948624235777,-0.4785389898342597,0.08109725408393365,0.46084954703310815,0,-1,0.12261248379945755,-1.6286738554583948,-1.0256112257586878,-1.3500683943377894,0.8371037244796753,0.2654247581958771
5151,1734173086,849742174,-0.6969589183675424,0.14118066916173622,1.0277896600060163,-0.7433174496348312,-0.4801942908256228,0.08109131896954112,0.4586031073974832,0,-1,0.12319895625114441,-1.628925625477926,-1.0306380430804651,-1.3489535490619105,0.8411802649497986,0.2667902112007141
5167,1734173086,865457296,-0.6988923300623842,0.14024498409720604,1.024241864491468,-0.7436410677790937,-0.48186867077995915,0.08098710790194813,0.45633500280693234,0,-1,0.12374948710203171,-1.6292255560504358,-1.0357840696917933,-1.3479231039630335,0.845208466053009,0.2681196928024292
5183,1734173086,881702661,-0.7006977534913045,0.13934247860943008,1.0207752185179813,-0.74395914200162,-0.4835195045281184,0.08093553657530538,0.45407391765258176,0,-1,0.12437154352664948,-1.6294415632831019,-1.0409310499774378,-1.346832577382223,0.8492849469184875,0.26946118474006653
5199,1734173086,897424936,-0.702536871883271,0.13844526254520984,1.0172707993452963,-0.7442771005356238,-0.48515533166820135,0.08084028292812634,0.4518193781018064,0,-1,0.12494640797376633,-1.6297057310687464,-1.0459578672992151,-1.3458378950702112,0.8534693121910095,0.27075472474098206
5215,1734173086,913707494,-0.704401212119906,0.13749816086769118,1.0137654371894376,-0.7445841517722374,-0.486839832370224,0.08078521069092333,0.4495054708020505,0,-1,0.12552089989185333,-1.6300652662860315,-1.0508888403521937,-1.3447588125811976,0.8575941324234009,0.2720602750778198
5231,1734173086,929550409,-0.7061620247769268,0.13658707261430603,1.0103411012882606,-0.7448844373190058,-0.48845618109620137,0.08072932481592023,0.4472588851030562,0,-1,0.12615494430065155,-1.630340878163473,-1.055784050618307,-1.3436439673053187,0.8616703152656555,0.27332985401153564
5247,1734173086,945797920,-0.7079485767536964,0.13564195291307896,1.0068683203562814,-0.7451888757872422,-0.49006976538834957,0.08069245067003185,0.4449875198924331,0,-1,0.126741424202919,-1.6306527296649378,-1.060763184224264,-1.342553440724508,0.8657591342926025,0.2746114134788513
5263,1734173086,961568832,-0.7097156539161589,0.13471288110490695,1.003357652045452,-0.7454891205851347,-0.49170166484296957,0.08059978647766561,0.44269528831873617,0,-1,0.12732753157615662,-1.6309168974505823,-1.0659335295306605,-1.3414867560016077,0.8698835968971252,0.27590495347976685
5279,1734173086,977821111,-0.7114286565968339,0.13381859619569494,0.9998253435388017,-0.7458135982889217,-0.49328830907165855,0.0805184557799569,0.44039243751382234,0,-1,0.12792636454105377,-1.6312163511859339,-1.0709965864764612,-1.3404081503497522,0.874008059501648,0.2772104740142822
5295,1734173086,993689775,-0.7132056003345364,0.13281906317181746,0.9962169596834634,-0.7461175376500827,-0.4949432753782634,0.08041623259261498,0.43803310800032513,0,-1,0.12857238948345184,-1.6315282026873987,-1.076071564351217,-1.3393052260028284,0.8781448602676392,0.27856358885765076
5311,1734173087,9466409,-0.7149433575898224,0.1318942399739695,0.9926543461788379,-0.7464248884937396,-0.4965371880954832,0.08028933512427538,0.4357227666081279,0,-1,0.12917084991931915,-1.6318400541888636,-1.0809667746173304,-1.3382743040667933,0.8822569251060486,0.2798091769218445
5327,1734173087,25677204,-0.7166079377277321,0.1309412582750923,0.9892189612367243,-0.7467214662015866,-0.4980922876415245,0.08025550062982763,0.433439937620475,0,-1,0.12978129088878632,-1.6321643034564417,-1.0858147780047815,-1.3371236960040491,0.8863577842712402,0.2811267077922821
5343,1734173087,41417837,-0.7182847083473832,0.1299970911820228,0.9857220500354154,-0.7470386589923811,-0.49964291479814793,0.08019572812820884,0.43111349416697925,0,-1,0.13041533529758453,-1.6324875990497034,-1.0908773581134241,-1.3360331694232386,0.8904223442077637,0.2824082672595978
5359,1734173087,57687997,-0.7198971811013493,0.12905649689607612,0.9821741284098957,-0.747342373059273,-0.5011862938107913,0.08008804269717376,0.42880949353212,0,-1,0.1310257762670517,-1.6327512899981897,-1.095940415059225,-1.3349784056292933,0.8944991827011108,0.2836902141571045
5375,1734173087,73405981,-0.7215644194157734,0.12813743489543888,0.9785225467174586,-0.7476585395886458,-0.5027584739099912,0.07988169256134814,0.4264499270552221,0,-1,0.13161225616931915,-1.6330512205706995,-1.1011226812945765,-1.3338640371905726,0.8985641002655029,0.28497177362442017
