yildirimyigit/pemp/data/ur10/raw/12_2024-12-14_13-46-10.csv
Time,ROS secs,ROS nsecs,________p_x________,________p_y________,________p_z________,________q_x________,________q_y________,________q_z________,________q_w________,gripper_position,gripper_force,shoulder_pan_joint,shoulder_lift_joint,elbow_joint,wrist_1_joint,wrist_2_joint,wrist_3_joint
0,1734173170,462017297,5.237624401770771e-05,0.2561410011541152,1.427299996733526,-0.7071067806402338,8.476845225397408e-05,3.4405383001969177e-05,0.7071067758147869,0,-1,4.793690095539205e-05,-1.570808235798971,3.5762786865234375e-05,-1.570711914693014,-0.00013143221010381012,2.3968450477696024e-05
10,1734173170,477709054,5.355739413321909e-05,0.2561409997139847,1.4272999971979758,-0.7071067795640441,9.745726399803558e-05,2.171657127211734e-05,0.7071067757595302,0,-1,2.3968450477696024e-05,-1.5707839171039026,4.8160552978515625e-05,-1.5707600752459925,-0.00010711351503545075,1.1984225238848012e-05
26,1734173170,493965387,2.3694238514214036e-05,0.2561410007313992,1.427299997118783,-0.7071067811386131,8.879217136020322e-05,3.847385868496356e-05,0.7071067746129306,0,-1,2.3968450477696024e-05,-1.570796314870016,9.584426879882812e-05,-1.5707357565509241,-0.00010711351503545075,3.5952674807049334e-05
43,1734173170,509604454,3.398558859406622e-05,0.2561410006021414,1.42729999833516,-0.7071067807950863,7.195581037662088e-05,1.3163371405374016e-05,0.7071067777943418,0,-1,2.3968450477696024e-05,-1.5707839171039026,0.0,-1.570711914693014,-0.00010711351503545075,-1.1746083394825746e-05
58,1734173170,525421380,3.591584984010348e-05,0.25614099971398463,1.4272999977700118,-0.707106781694844,7.216383667273543e-05,-3.576855998954524e-06,0.7071067769868613,0,-1,2.3968450477696024e-05,-1.5707724730121058,1.1920928955078125e-05,-1.570711914693014,-9.519258608037262e-05,0.0
74,1734173170,541930437,4.922208750848313e-06,0.25614099978906285,1.4272999982975765,-0.7071067823213891,6.360551419651589e-05,-3.90871259670679e-06,0.707106777180188,0,-1,2.3968450477696024e-05,-1.570820156727926,0.0,-1.570711914693014,-0.00010711351503545075,1.1984225238848012e-05
90,1734173170,557265043,2.5869783194186722e-05,0.2561410017239737,1.4272999984754846,-0.7071067826394941,5.093908041827475e-05,1.7569022888049438e-05,0.7071067776805443,0,-1,2.3968450477696024e-05,-1.5707839171039026,0.0,-1.570723835621969,-8.32716571252945e-05,2.3968450477696024e-05
106,1734173170,573601245,5.288098846178172e-05,0.2561410002365917,1.4272999978937202,-0.7071067797398657,8.481320984407686e-05,8.78009947169313e-06,0.7071067774923009,0,-1,2.3968450477696024e-05,-1.5707839171039026,3.5762786865234375e-05,-1.5707357565509241,-0.000119511281148732,1.1984225238848012e-05
122,1734173170,590039730,6.401343024290386e-05,0.25614100328614353,1.42729999545164,-0.7071067829570356,6.802822464849962e-05,4.304277907452357e-05,0.7071067748336398,0,-1,2.3968450477696024e-05,-1.570808235798971,3.5762786865234375e-05,-1.570711914693014,-9.519258608037262e-05,1.1984225238848012e-05
138,1734173170,605492591,6.73703639287659e-05,0.25614100323781036,1.4272999962554196,-0.7071067825762429,6.782019869665429e-05,2.5976013626726507e-05,0.7071067760673356,0,-1,1.1984225238848012e-05,-1.5707724730121058,4.8160552978515625e-05,-1.5707357565509241,-8.32716571252945e-05,2.3968450477696024e-05
154,1734173170,621659040,3.2444069362038245e-05,0.25614100043566906,1.4272999976246774,-0.7071067822238604,7.627194699280277e-05,8.712963670504884e-06,0.7071067759820241,0,-1,5.992112710373476e-05,-1.5707724730121058,7.200241088867188e-05,-1.5706999937640589,-0.000119511281148732,1.1984225238848012e-05
170,1734173170,637544870,6.457114044213865e-05,0.2561409999232389,1.4272999974005836,-0.7071067811354813,7.210201945657925e-05,1.322006613805178e-05,0.7071067774379957,0,-1,2.3968450477696024e-05,-1.5707724730121058,3.5762786865234375e-05,-1.5707476774798792,-8.32716571252945e-05,1.1984225238848012e-05
186,1734173170,653863430,3.6196765784125236e-05,0.25614100105137405,1.4272999974212743,-0.7071067822238603,7.62719473143577e-05,1.718709021940564e-05,0.7071067758268281,0,-1,3.5952674807049334e-05,-1.570808235798971,2.384185791015625e-05,-1.570723835621969,-0.00010711351503545075,1.1984225238848012e-05
202,1734173170,669586420,8.405370385872413e-05,0.25614100414873625,1.4272999943556248,-0.7071067828567829,7.201250486789452e-05,3.859768956035851e-05,0.7071067747959626,0,-1,2.3968450477696024e-05,-1.5707839171039026,3.5762786865234375e-05,-1.570711914693014,-7.135072817021637e-05,2.3968450477696024e-05
218,1734173170,686115026,3.94966339788922e-05,0.2561410008454109,1.4272999975503573,-0.70710678160534,7.629432564253531e-05,2.5931256451976266e-05,0.7071067761763309,0,-1,0.0,-1.5707481543170374,3.5762786865234375e-05,-1.570723835621969,-0.00010711351503545075,0.0
234,1734173170,701624393,-4.176881229897587e-06,0.25614099989670025,1.4272999990027304,-0.7071067818580625,4.6600565787538214e-05,4.666866249339351e-06,0.7071067789640699,0,-1,2.3968450477696024e-05,-1.570808235798971,3.5762786865234375e-05,-1.5707357565509241,-0.00010711351503545075,0.0
250,1734173170,717879056,3.5188636654078024e-05,0.25614100125583183,1.4272999970594415,-0.7071067824688905,6.782019902013904e-05,2.5931256130421346e-05,0.7071067761763309,0,-1,4.793690095539205e-05,-1.570808235798971,2.384185791015625e-05,-1.5706999937640589,-9.519258608037262e-05,2.3968450477696024e-05
266,1734173170,733825445,6.866856557521219e-05,0.2561410026425742,1.4272999959618031,-0.7071067817377904,6.379648023583807e-05,3.876627667830913e-05,0.7071067766947292,0,-1,8.388957940042019e-05,-1.570808235798971,2.384185791015625e-05,-1.570711914693014,-0.000119511281148732,-1.1746083394825746e-05
282,1734173170,749587059,4.006405824015786e-05,0.256141001319938,1.427299998122056,-0.7071067820601014,6.345930544558236e-05,1.3140992797978621e-05,0.7071067773433084,0,-1,1.1984225238848012e-05,-1.5707839171039026,2.384185791015625e-05,-1.5707357565509241,-9.519258608037262e-05,2.3968450477696024e-05
298,1734173170,765881061,4.0793844929441734e-05,0.2561410020749927,1.427299996807124,-0.7071067828722434,6.779782004659148e-05,3.4383004724935916e-05,0.7071067754146687,0,-1,1.1984225238848012e-05,-1.570808235798971,3.5762786865234375e-05,-1.5707357565509241,-0.00010711351503545075,0.0
314,1734173170,781663179,4.616008201917311e-06,0.2561410000819253,1.4272999991230022,-0.7071067812589452,5.0860007886002e-05,8.881551103458999e-06,0.7071067792292702,0,-1,2.3968450477696024e-05,-1.5707839171039026,4.8160552978515625e-05,-1.570711914693014,-7.135072817021637e-05,0.0
330,1734173170,797425985,5.824344982704149e-05,0.2561410036638403,1.4272999968473532,-0.7071067829699348,6.358313489875175e-05,3.0213077383943044e-05,0.70710677589899,0,-1,3.5952674807049334e-05,-1.570796314870016,4.8160552978515625e-05,-1.5707357565509241,-8.32716571252945e-05,3.5952674807049334e-05
346,1734173170,813490390,6.195113410610767e-05,0.25614100148168634,1.4272999962216903,-0.7071067817467135,7.64405343913808e-05,3.450683494855138e-05,0.7071067756526794,0,-1,2.3968450477696024e-05,-1.570808235798971,3.5762786865234375e-05,-1.570711914693014,-0.00010711351503545075,0.0
362,1734173170,830191373,4.420447168247112e-05,0.2561409999232389,1.427299996422871,-0.7071067809276429,8.053138911047792e-05,2.1649435836753937e-05,0.7071067765282296,0,-1,2.3968450477696024e-05,-1.5707839171039026,8.392333984375e-05,-1.570711914693014,-0.00010711351503545075,-1.1746083394825746e-05
378,1734173170,845735073,7.542632608614183e-05,0.25614100093053216,1.4272999966228388,-0.7071067795172623,8.481320984007526e-05,4.283475304570013e-05,0.7071067764720043,0,-1,2.3968450477696024e-05,-1.5707600752459925,2.384185791015625e-05,-1.5707357565509241,-8.32716571252945e-05,-1.1746083394825746e-05
394,1734173170,861418008,2.4260727799605256e-06,0.2561410006617837,1.4272999982350085,-0.7071067836341204,4.235818423840359e-05,2.5891621473338747e-05,0.707106776996245,0,-1,3.5952674807049334e-05,-1.570808235798971,9.584426879882812e-05,-1.570723835621969,-9.519258608037262e-05,2.3968450477696024e-05
410,1734173170,877572774,5.4349760198388455e-06,0.25614099990869066,1.4272999991600306,-0.707106781470503,5.083762925810125e-05,-7.999566904800607e-06,0.7071067790298496,0,-1,-1.1746083394825746e-05,-1.570808235798971,2.384185791015625e-05,-1.5707357565509241,-8.32716571252945e-05,1.1984225238848012e-05
426,1734173170,893526077,6.652279832410146e-05,0.2561410022712005,1.4272999957488046,-0.7071067826202783,7.641815605398546e-05,2.609984350584826e-05,0.7071067751418184,0,-1,2.3968450477696024e-05,-1.5707839171039026,2.384185791015625e-05,-1.5707357565509241,-8.32716571252945e-05,-1.1746083394825746e-05
442,1734173170,909550666,2.7298185861884214e-05,0.256141000553033,1.4272999981359216,-0.7071067816529221,6.365027115725797e-05,1.3287201926671786e-05,0.7071067777305915,0,-1,4.793690095539205e-05,-1.5707481543170374,8.392333984375e-05,-1.570723835621969,-9.519258608037262e-05,2.3968450477696024e-05
458,1734173170,925494432,3.067498214356935e-05,0.25614099948252206,1.4272999981129342,-0.707106781660152,6.771874721070836e-05,-7.898310962505445e-06,0.7071067774261608,0,-1,2.3968450477696024e-05,-1.570820156727926,3.5762786865234375e-05,-1.570723835621969,-8.32716571252945e-05,-1.1746083394825746e-05
474,1734173170,941077947,8.526843383651941e-05,0.2561410053943861,1.4272999927085843,-0.7071067821345406,8.906220986084721e-05,6.412152201258204e-05,0.70710677172241,0,-1,1.1984225238848012e-05,-1.5707839171039026,1.1920928955078125e-05,-1.570723835621969,-9.519258608037262e-05,0.0
490,1734173170,957122087,3.95775655238566e-05,0.25614100007716045,1.4272999979826382,-0.7071067820673619,6.792677320215134e-05,-8.106337046436122e-06,0.7071067769966436,0,-1,4.793690095539205e-05,-1.570820156727926,4.8160552978515625e-05,-1.5707476774798792,-5.990663637334137e-05,1.1984225238848012e-05
506,1734173170,973107337,8.727464477254776e-05,0.2561409992955434,1.4272999943634028,-0.7071067805940368,0.00011039373624828563,9.027759856004783e-06,0.7071067731040761,0,-1,2.3968450477696024e-05,-1.5707839171039026,1.1920928955078125e-05,-1.570711914693014,-8.32716571252945e-05,3.5952674807049334e-05
522,1734173170,989233493,2.06995581797948e-05,0.25614100049420796,1.4272999978701821,-0.707106782581294,6.782019901811843e-05,8.735341943309568e-06,0.7071067764854505,0,-1,3.5952674807049334e-05,-1.570808235798971,2.384185791015625e-05,-1.5707476774798792,-8.32716571252945e-05,-1.1746083394825746e-05
538,1734173171,5229234,4.271764453875897e-05,0.2561410021672137,1.4272999980245464,-0.707106782019724,5.924462029324274e-05,2.5829804868863374e-05,0.7071067773997126,0,-1,1.1984225238848012e-05,-1.570796314870016,3.5762786865234375e-05,-1.570711914693014,-0.000119511281148732,1.1984225238848012e-05
554,1734173171,21276235,6.014494898852589e-05,0.25614099913636534,1.4272999970127995,-0.7071067797261688,8.894369881640445e-05,1.332664058533948e-05,0.7071067769274358,0,-1,1.1984225238848012e-05,-1.570796314870016,3.5762786865234375e-05,-1.570723835621969,-0.000119511281148732,2.3968450477696024e-05
570,1734173171,37244558,1.978890577641176e-05,0.25614100209331364,1.4272999984104486,-0.7071067826628264,3.8104060848437135e-05,3.8496237394824046e-05,0.7071067776357024,0,-1,0.0,-1.5707839171039026,7.200241088867188e-05,-1.570711914693014,-0.00010711351503545075,1.1984225238848012e-05
586,1734173171,53470373,3.643294321354178e-05,0.25614100118938965,1.4272999972669385,-0.707106782166663,7.610335992217855e-05,2.5785047312530363e-05,0.7071067756409334,0,-1,-1.1746083394825746e-05,-1.570820156727926,4.8160552978515625e-05,-1.5707357565509241,-0.000119511281148732,0.0
602,1734173171,69358587,2.1010706466868746e-05,0.2561410001616291,1.427299998398662,-0.7071067811502462,7.210201945657926e-05,4.54303602686902e-06,0.7071067775322177,0,-1,3.5952674807049334e-05,-1.570808235798971,8.392333984375e-05,-1.570723835621969,-8.32716571252945e-05,2.3968450477696024e-05
618,1734173171,85412263,3.062458988538604e-05,0.2561410008510394,1.427299998487475,-0.7071067824737135,5.0854689528428676e-05,-8.23016756688616e-06,0.707106778022766,0,-1,5.992112710373476e-05,-1.5707839171039026,4.8160552978515625e-05,-1.570711914693014,-0.000119511281148732,1.1984225238848012e-05
634,1734173171,101527214,9.075569911819116e-05,0.2561409997139847,1.4272999942711095,-0.7071067804679237,9.758109442633695e-05,2.1840401810821416e-05,0.7071067748347589,0,-1,3.5952674807049334e-05,-1.5707600752459925,3.5762786865234375e-05,-1.570711914693014,-8.32716571252945e-05,2.3968450477696024e-05
650,1734173171,117200851,4.586504491953236e-05,0.25614100039321375,1.427299997644945,-0.7071067820485616,6.371208837377274e-05,4.87489229342076e-06,0.7071067774374201,0,-1,4.793690095539205e-05,-1.570808235798971,3.5762786865234375e-05,-1.570711914693014,-0.00013143221010381012,1.1984225238848012e-05
666,1734173171,133664608,8.362220294654976e-05,0.2561410007345258,1.4272999941865014,-0.7071067795094017,0.00011024752718456974,4.298096143831123e-05,0.7071067729628688,0,-1,3.5952674807049334e-05,-1.570796314870016,2.384185791015625e-05,-1.5707357565509241,-9.519258608037262e-05,2.3968450477696024e-05
682,1734173171,149541378,3.299139532269711e-05,0.25614100012775476,1.4272999980373362,-0.7071067812589452,7.614811689180311e-05,8.881551076241831e-06,0.7071067769581879,0,-1,1.1984225238848012e-05,-1.570820156727926,2.384185791015625e-05,-1.5707357565509241,-0.00013143221010381012,2.3968450477696024e-05
698,1734173171,165443897,-3.468265801085324e-05,0.2561409989268213,1.4272999992109663,-0.7071067815672019,2.1351895669620803e-05,-3.67830790284513e-06,0.7071067804739537,0,-1,2.3968450477696024e-05,-1.5707839171039026,-2.366701234990387e-05,-1.570711914693014,-8.32716571252945e-05,2.3968450477696024e-05
714,1734173171,181749582,4.595679928767084e-05,0.25614100221131036,1.427299996880177,-0.7071067842919502,4.661762560310103e-05,4.77344074715363e-06,0.7071067765283463,0,-1,2.3968450477696024e-05,-1.5707839171039026,2.384185791015625e-05,-1.570711914693014,-9.519258608037262e-05,1.1984225238848012e-05
730,1734173171,197427034,3.80961755114097e-05,0.2561410003001099,1.4272999971018645,-0.7071067803279691,8.057614606397471e-05,2.173894989038297e-05,0.7071067771200583,0,-1,5.992112710373476e-05,-1.5707724730121058,2.384185791015625e-05,-1.5707476774798792,-0.00010711351503545075,2.3968450477696024e-05
746,1734173171,213733434,6.564520381044839e-05,0.2561410006302636,1.427299996346735,-0.7071067792223762,0.00010150336174109497,4.266616559493796e-05,0.7071067745782271,0,-1,1.1984225238848012e-05,-1.570808235798971,7.200241088867188e-05,-1.570723835621969,-8.32716571252945e-05,1.1984225238848012e-05
762,1734173171,229870080,2.60246246544559e-05,0.2561410009883921,1.4272999977945842,-0.70710678170674,8.050901014318109e-05,2.146891082636449e-05,0.707106775757185,0,-1,2.3968450477696024e-05,-1.5707839171039026,1.1920928955078125e-05,-1.5707600752459925,-9.519258608037262e-05,2.3968450477696024e-05
778,1734173171,245422601,4.201098428062355e-05,0.2561410015011135,1.4272999966901279,-0.7071067811354815,8.053138911047793e-05,3.864244611441124e-05,0.7071067755959315,0,-1,3.5952674807049334e-05,-1.5707724730121058,4.8160552978515625e-05,-1.570723835621969,-9.519258608037262e-05,0.0
794,1734173171,261524438,2.9872975692116386e-05,0.2561410004538583,1.427299998019263,-0.7071067813026339,5.960417371938145e-05,2.571791189151974e-05,0.7071067780906647,0,-1,3.5952674807049334e-05,-1.570796314870016,2.384185791015625e-05,-1.570711914693014,-0.00010711351503545075,-1.1746083394825746e-05
810,1734173171,277712821,-1.5387298338469225e-05,0.25614099992323885,1.4272999990051882,-0.7071067814149388,4.249245543348754e-05,-1.6389497959272116e-05,0.7071067794914582,0,-1,4.793690095539205e-05,-1.570796314870016,2.384185791015625e-05,-1.570711914693014,-9.519258608037262e-05,2.3968450477696024e-05
826,1734173171,293437719,6.719118097122622e-05,0.2561410021657062,1.4272999959692354,-0.7071067817515554,8.893838042245693e-05,2.9853523319324873e-05,0.7071067743981031,0,-1,3.5952674807049334e-05,-1.5707724730121058,3.5762786865234375e-05,-1.5707357565509241,-0.000119511281148732,-2.366701234990387e-05
842,1734173171,309720516,5.4938076172116013e-05,0.2561410000082124,1.4272999972780447,-0.7071067806246399,7.212439809044334e-05,2.1671814434240588e-05,0.7071067777380309,0,-1,4.793690095539205e-05,-1.570796314870016,3.5762786865234375e-05,-1.5707357565509241,-8.32716571252945e-05,2.3968450477696024e-05
858,1734173171,325495481,3.989953688993626e-05,0.256141001920944,1.4272999974903517,-0.7071067829699348,6.358313522030668e-05,2.173895019013221e-05,0.7071067762102923,0,-1,2.3968450477696024e-05,-1.570796314870016,0.0,-1.570723835621969,-8.32716571252945e-05,1.1984225238848012e-05
874,1734173171,341794967,-1.4101293014629524e-05,0.2561409999268608,1.4272999994612168,-0.7071067807513217,4.270579975487254e-05,8.819537863185448e-06,0.7071067802771606,0,-1,3.5952674807049334e-05,-1.5707724730121058,2.384185791015625e-05,-1.570723835621969,-0.000119511281148732,-1.1746083394825746e-05
890,1734173171,357352972,8.395344958758114e-05,0.2561410015323619,1.4272999951337937,-0.7071067812589451,9.334403096208831e-05,1.735567790898707e-05,0.7071067747400577,0,-1,1.1984225238848012e-05,-1.5707839171039026,6.008148193359375e-05,-1.570723835621969,-0.00014335313905888825,2.3968450477696024e-05
906,1734173171,373485565,4.572912206054591e-05,0.2561410018178399,1.4272999972780447,-0.7071067814382169,6.365027148009943e-05,3.862006788949501e-05,0.7071067770154794,0,-1,2.3968450477696024e-05,-1.5707600752459925,3.5762786865234375e-05,-1.5706999937640589,-9.519258608037262e-05,1.1984225238848012e-05
922,1734173171,389724493,3.1292507696191035e-05,0.25614100096036063,1.4272999984241537,-0.7071067815491558,4.676915318480025e-05,2.9786387954049524e-05,0.707106778649881,0,-1,2.3968450477696024e-05,-1.5707839171039026,6.008148193359375e-05,-1.570723835621969,-0.00010711351503545075,4.793690095539205e-05
938,1734173171,405577659,2.4867102511330395e-05,0.25614100162310394,1.4272999987602666,-0.7071067818543472,3.848599226765951e-05,3.8451480859256705e-05,0.7071067784259325,0,-1,2.3968450477696024e-05,-1.570808235798971,4.8160552978515625e-05,-1.570723835621969,-0.0001671949969690445,-3.5587941304981996e-05
954,1734173171,421831607,4.462008163790997e-05,0.256141001728791,1.4272999967549718,-0.7071067818207013,9.332165198472157e-05,2.585218299774862e-05,0.7071067739216653,0,-1,1.1984225238848012e-05,-1.5707839171039026,6.008148193359375e-05,-1.5706999937640589,-0.000119511281148732,2.3968450477696024e-05
970,1734173171,437489509,5.389714069630475e-05,0.2561409999232389,1.4272999981304402,-0.7071067799881352,7.621525246807153e-05,1.733329906838182e-05,0.7071067780650975,0,-1,4.793690095539205e-05,-1.5707724730121058,7.200241088867188e-05,-1.570711914693014,-0.000119511281148732,4.793690095539205e-05
986,1734173171,453264713,5.984091577007495e-05,0.2561410000082124,1.4272999967917024,-0.7071067810800878,7.637852150201229e-05,2.5925937948811176e-05,0.7071067766926887,0,-1,2.3968450477696024e-05,-1.570808235798971,6.008148193359375e-05,-1.5707357565509241,-0.000119511281148732,2.3968450477696024e-05
1002,1734173171,469573974,4.7313175112901826e-05,0.2561410016917415,1.427299997597821,-0.7071067824247138,5.939082936567254e-05,1.7501886447556713e-05,0.707106777237626,0,-1,2.3968450477696024e-05,-1.570808235798971,7.200241088867188e-05,-1.5707357565509241,-9.519258608037262e-05,1.1984225238848012e-05
1018,1734173171,485283851,-4.650142108231344e-06,0.256140999885357,1.4272999989129445,-0.7071067812488128,5.5074692725692904e-05,1.3140993155823096e-05,0.7071067788573633,0,-1,1.1984225238848012e-05,-1.5707839171039026,3.5762786865234375e-05,-1.570723835621969,-8.32716571252945e-05,0.0
1034,1734173171,501724958,5.843779800522794e-05,0.2561410012994012,1.4272999972319085,-0.7071067807348628,8.038518003578759e-05,3.0022110774342557e-05,0.7071067764317313,0,-1,-1.1746083394825746e-05,-1.5707600752459925,3.5762786865234375e-05,-1.570711914693014,-0.000119511281148732,2.3968450477696024e-05
1050,1734173171,517446756,6.0663636720366046e-05,0.25614100392003897,1.427299995595341,-0.7071067819398295,8.065521856585753e-05,5.5714530654524454e-05,0.7071067736384126,0,-1,1.1984225238848012e-05,-1.5707839171039026,6.008148193359375e-05,-1.5706999937640589,-9.519258608037262e-05,1.1984225238848012e-05
1066,1734173171,533636569,8.79661894911818e-05,0.25614100089776337,1.4272999941143063,-0.707106780779855,9.334403096208833e-05,3.4506834935818066e-05,0.7071067745901749,0,-1,3.5952674807049334e-05,-1.5707724730121058,4.8160552978515625e-05,-1.5707357565509241,-0.00010711351503545075,0.0
1082,1734173171,549444437,6.994968385506954e-05,0.25614100226488173,1.427299995276336,-0.707106781052356,0.00010160481319253589,4.251995607603691e-05,0.7071067727424838,0,-1,3.5952674807049334e-05,-1.570796314870016,7.200241088867188e-05,-1.570711914693014,-7.135072817021637e-05,-1.1746083394825746e-05
1098,1734173171,565759181,3.144392688498045e-05,0.2561410013042489,1.427299998337739,-0.7071067815056689,5.93288164933743e-05,3.429861290045179e-05,0.7071067775466382,0,-1,1.1984225238848012e-05,-1.570796314870016,2.384185791015625e-05,-1.570711914693014,-8.32716571252945e-05,-1.1746083394825746e-05
1114,1734173171,581488370,2.149246729893787e-05,0.25614100028417663,1.427299998735926,-0.7071067804425303,6.776350417127551e-05,2.578504737419017e-05,0.7071067782134733,0,-1,1.1984225238848012e-05,-1.5707839171039026,2.384185791015625e-05,-1.570711914693014,-7.135072817021637e-05,1.1984225238848012e-05
1130,1734173171,597808599,1.889226203274571e-05,0.256141000322263,1.4272999991865607,-0.7071067815127495,4.2807251604425105e-05,8.920989741005013e-06,0.7071067795083256,0,-1,2.3968450477696024e-05,-1.5707839171039026,1.1920928955078125e-05,-1.5707357565509241,-0.00010711351503545075,1.1984225238848012e-05
1146,1734173171,613757848,7.021233794246665e-05,0.2561410017646681,1.4272999966532873,-0.7071067814382169,6.36502711585445e-05,3.0145941324810075e-05,0.7071067774275331,0,-1,5.992112710373476e-05,-1.5707839171039026,0.0,-1.5707357565509241,-0.000119511281148732,2.3968450477696024e-05
1162,1734173171,629902362,3.019338597177646e-05,0.25614100054661965,1.4272999976755882,-0.7071067811502464,8.896075875293241e-05,1.301716220406237e-05,0.7071067755069771,0,-1,3.5952674807049334e-05,-1.5707839171039026,3.5762786865234375e-05,-1.570711914693014,-7.135072817021637e-05,2.3968450477696024e-05
1178,1734173171,645593404,4.641682859444992e-05,0.2561410007705745,1.4272999971115632,-0.707106782662547,7.228766676780921e-05,4.728683484412392e-06,0.7071067759997454,0,-1,2.3968450477696024e-05,-1.5707839171039026,3.5762786865234375e-05,-1.5707357565509241,-8.32716571252945e-05,1.1984225238848012e-05
1194,1734173171,661828279,5.630882766764661e-05,0.2561410002776716,1.4272999967422495,-0.7071067812589451,8.491466132605823e-05,8.881551064276657e-06,0.7071067759597787,0,-1,1.1984225238848012e-05,-1.5707839171039026,3.5762786865234375e-05,-1.570711914693014,-0.000119511281148732,4.793690095539205e-05
1210,1734173171,677489995,2.2946643921577677e-05,0.2561409995732997,1.4272999985648842,-0.7071067816500197,6.350406237972796e-05,-1.2112995819838425e-05,0.7071067777677292,0,-1,3.5952674807049334e-05,-1.570808235798971,3.5762786865234375e-05,-1.5707476774798792,-9.519258608037262e-05,0.0
1226,1734173171,693799495,5.317233595829488e-05,0.2561410003696077,1.4272999977377927,-0.7071067808049627,7.63390829224661e-05,9.072517069211967e-06,0.7071067773891553,0,-1,2.3968450477696024e-05,-1.5707724730121058,1.1920928955078125e-05,-1.5707600752459925,-8.32716571252945e-05,1.1984225238848012e-05
1242,1734173171,709458112,5.5383512905411795e-05,0.256141000985492,1.4272999967584366,-0.7071067822613244,8.065521920511454e-05,1.309623590838218e-05,0.7071067753905773,0,-1,3.5952674807049334e-05,-1.5707724730121058,2.384185791015625e-05,-1.5707357565509241,-9.519258608037262e-05,1.1984225238848012e-05
1258,1734173171,725742816,-1.1423793907871466e-05,0.2561409993597761,1.4272999989836113,-0.7071067819824723,5.0961459065005595e-05,8.824857024222613e-06,0.7071067784991485,0,-1,-1.1746083394825746e-05,-1.570808235798971,4.8160552978515625e-05,-1.5706880728351038,-0.00013143221010381012,1.1984225238848012e-05
1274,1734173171,741864442,8.376760161747663e-05,0.2561410041350214,1.4272999950179184,-0.7071067820068045,7.644053438826379e-05,4.302571897988734e-05,0.7071067749255509,0,-1,2.3968450477696024e-05,-1.5707724730121058,7.200241088867188e-05,-1.5707476774798792,-0.00010711351503545075,1.1984225238848012e-05
1290,1734173171,758154392,0.00010058686470015008,0.2561410021984708,1.4272999935737367,-0.7071067814943496,9.332165230823202e-05,3.452921350469048e-05,0.7071067738775416,0,-1,2.3968450477696024e-05,-1.5707839171039026,1.1920928955078125e-05,-1.570711914693014,-0.000119511281148732,3.5952674807049334e-05
1306,1734173171,773762226,4.7336050740215864e-05,0.2561410022774274,1.427299996587801,-0.7071067826108921,7.203488351944505e-05,3.0190698460527744e-05,0.7071067754484961,0,-1,3.5952674807049334e-05,-1.570796314870016,1.1920928955078125e-05,-1.5706999937640589,-0.000119511281148732,0.0
1322,1734173171,789712190,7.265969252579449e-05,0.2561410027860659,1.4272999955423606,-0.7071067809225878,8.05090107909897e-05,5.547880721836606e-05,0.70710677469085,0,-1,1.1984225238848012e-05,-1.570796314870016,3.5762786865234375e-05,-1.570723835621969,-0.000119511281148732,0.0
1338,1734173171,805982112,-1.4228728146450392e-05,0.2561409994791454,1.4272999989971498,-0.7071067817642412,4.666238335069799e-05,4.773440376476083e-06,0.707106779053103,0,-1,3.5952674807049334e-05,-1.5707724730121058,4.8160552978515625e-05,-1.5707476774798792,-0.00010711351503545075,1.1984225238848012e-05
1354,1734173171,822127580,5.91926312022909e-05,0.2561410014155693,1.427299996804674,-0.7071067822930225,6.385829712496676e-05,2.1924597678833392e-05,0.7071067768566767,0,-1,3.5952674807049334e-05,-1.570796314870016,3.5762786865234375e-05,-1.5707357565509241,-0.00010711351503545075,0.0
1370,1734173171,837673425,2.262613536372672e-05,0.25614100032987286,1.427299997993938,-0.7071067812589451,7.614811689180311e-05,1.735567795838398e-05,0.7071067768009716,0,-1,1.1984225238848012e-05,-1.570796314870016,3.5762786865234375e-05,-1.570711914693014,-0.000119511281148732,2.3968450477696024e-05
1386,1734173171,853686809,6.0651383614336876e-05,0.256141000040797,1.4272999964669866,-0.7071067812488129,9.755871577520388e-05,4.666866194389028e-06,0.7071067743788493,0,-1,3.5952674807049334e-05,-1.570796314870016,3.5762786865234375e-05,-1.570711914693014,-8.32716571252945e-05,0.0
1402,1734173171,869912385,-1.7502263100982545e-05,0.25614099903975507,1.4272999988831794,-0.7071067817699632,4.674677455415917e-05,-3.86395503475993e-06,0.7071067790473617,0,-1,2.3968450477696024e-05,-1.5707839171039026,2.384185791015625e-05,-1.5707476774798792,-9.519258608037262e-05,1.1984225238848012e-05
1418,1734173171,885421752,6.563057895362727e-05,0.25614099869332074,1.4272999966127116,-0.7071067788316494,0.00011020808862503122,8.965746585635727e-06,0.7071067748962115,0,-1,4.793690095539205e-05,-1.5707724730121058,3.5762786865234375e-05,-1.5707476774798792,-8.32716571252945e-05,1.1984225238848012e-05
1434,1734173171,901662349,7.057431560961707e-05,0.2561410048254879,1.4272999959537154,-0.7071067814045799,5.955941613411055e-05,6.799903221892791e-05,0.7071067751906096,0,-1,3.5952674807049334e-05,-1.5707724730121058,3.5762786865234375e-05,-1.5706999937640589,-9.519258608037262e-05,0.0
1451,1734173171,918052673,7.470973508887449e-05,0.2561410004981923,1.4272999956310068,-0.7071067811417049,9.739012838274483e-05,2.135701820134033e-05,0.7071067742020705,0,-1,2.3968450477696024e-05,-1.570796314870016,2.384185791015625e-05,-1.5707357565509241,-0.00014335313905888825,4.793690095539205e-05
1466,1734173171,933794736,3.67381310648757e-05,0.25614100077929386,1.4272999980924626,-0.7071067812428339,7.210201945657926e-05,2.1738950211937902e-05,0.7071067771200583,0,-1,5.992112710373476e-05,-1.5707839171039026,4.8160552978515625e-05,-1.5707476774798792,-0.00013143221010381012,0.0
1482,1734173171,949427366,5.007167802592788e-05,0.25614100179091703,1.4272999970557156,-0.7071067811354815,8.053138911047795e-05,3.864244611441124e-05,0.7071067755959315,0,-1,3.5952674807049334e-05,-1.570820156727926,1.1920928955078125e-05,-1.5707476774798792,-9.519258608037262e-05,2.3968450477696024e-05
1498,1734173171,965557575,1.4559481170477839e-05,0.25614100024770603,1.4272999979658194,-0.7071067820561427,6.362789251727345e-05,1.3264823325656975e-05,0.7071067773298049,0,-1,3.5952674807049334e-05,-1.5707839171039026,0.0,-1.570723835621969,-0.00013143221010381012,4.793690095539205e-05
1514,1734173171,981121540,3.757601723578389e-05,0.25614100110096183,1.4272999971159295,-0.7071067817654063,8.472369560573692e-05,2.5638838487009812e-05,0.7071067750671857,0,-1,4.793690095539205e-05,-1.5707724730121058,0.00011968612670898438,-1.5707476774798792,-0.00021535554994756012,3.5952674807049334e-05
1530,1734173171,997273445,0.00026360724445418027,0.25614100078279645,1.427299956456848,-0.7071067893431726,0.0001650331095269063,4.369131092907208e-06,0.7071067537577149,0,-1,-3.5587941304981996e-05,-1.5707600752459925,0.0004906654357910156,-1.5708802382098597,-0.00044280687441045075,-0.00010759035219365387
1546,1734173172,13639926,0.0006315242853856363,0.2561409772636393,1.427299724271739,-0.7071068268323913,0.00044457334331091943,-5.465881865627715e-05,0.7071065936716914,0,-1,-4.7985707418263246e-05,-1.570796314870016,0.0011491775512695312,-1.5709522406207483,-0.0009344259845178726,-0.00022727647890263825
1562,1734173172,29551267,0.0010736065163202018,0.2561408742043419,1.427299198364867,-0.7071068861303905,0.0007538692316611442,-0.00010972499953229346,0.7071062658671531,0,-1,-7.135072817021637e-05,-1.5707600752459925,0.0015802383422851562,-1.5710118452655237,-0.001401249562398732,-0.00037080446352177887
1578,1734173172,45732259,0.0013086756226098613,0.2561408138961341,1.4272988579604313,-0.7071069288803256,0.0009398209444927471,-0.00011832288284980412,0.7071059990310661,0,-1,-5.990663637334137e-05,-1.5706761519061487,0.0014247894287109375,-1.5708921591388147,-0.0012095610248010757,-0.00031119981874638825
1594,1734173172,61460494,0.0010002711441968344,0.25614095032689593,1.4272993971849786,-0.7071068294400792,0.0006945265365264201,4.267794198264257e-05,0.7071063905599227,0,-1,-1.1746083394825746e-05,-1.5706165472613733,0.0004429817199707031,-1.570592228566305,-0.0004189650165002945,0.0
1610,1734173172,77311515,2.4989806197607405e-05,0.25614100554975877,1.4272999802758084,-0.7071067617784582,3.0395097262661815e-05,0.00027614477487369215,0.7071067460202767,0,-1,0.000215716048842296,-1.5705683867083948,-0.0013049284564417007,-1.5701726118670862,0.00097034772625193,0.0003954794374294579
1626,1734173172,93510150,-0.0014287764616022333,0.25614042523562397,1.4272984042526835,-0.7071069393220899,-0.0009645676722122224,0.0005599798012835372,0.7071057434318958,0,-1,0.0004906042013317347,-1.5705683867083948,-0.00357991853822881,-1.5696809927569788,0.0027912009973078966,0.000946379266679287
1642,1734173172,109524488,-0.003450838352643799,0.25613828224984536,1.4272918486525163,-0.7071075695250604,-0.002315097820679496,0.0008608359720313083,0.7071016789711871,0,-1,0.0008138038101606071,-1.570688549672262,-0.006286446248189748,-1.5691292921649378,0.004994800314307213,0.001676668063737452
1659,1734173172,125744581,-0.006035595347205909,0.25613356991795655,1.427276672707636,-0.7071090141837189,-0.003911006347507365,0.0011450874037991403,0.7070928049869527,0,-1,0.0011489875614643097,-1.570916000996725,-0.009567085896627248,-1.5685656706439417,0.007510364055633545,0.0024552680552005768
1674,1734173172,141480445,-0.00904237953360654,0.2561253546557559,1.4272492950627,-0.7071113773883213,-0.005824617268027967,0.001424585036446133,0.7070767598776996,0,-1,0.0015440925490111113,-1.5712879339801233,-0.013075176869527638,-1.5680144468890589,0.010337143205106258,0.0033297420013695955
1690,1734173172,157898187,-0.012355647778220109,0.25611324049450923,1.4272070553835012,-0.7071150821165225,-0.00788602096542732,0.001700501531706037,0.7070524588820953,0,-1,0.00199874397367239,-1.571683708821432,-0.01690704027284795,-1.567366902028219,0.013343686237931252,0.004239794332534075
1706,1734173172,173504352,-0.015891264877545032,0.2560956903079398,1.4271486686507935,-0.7071194040098197,-0.010125608109256815,0.0019839677558746325,0.7070188713218047,0,-1,0.0024653798900544643,-1.5720556418048304,-0.02082235017885381,-1.5666354338275355,0.01647007092833519,0.005210142116993666
1722,1734173172,189909219,-0.019416278924209805,0.2560734436264266,1.4270761374977203,-0.7071254733495993,-0.012314082687176651,0.0024205490025492682,0.7069767105430028,0,-1,0.0030159051530063152,-1.5723918120013636,-0.02473766008485967,-1.5658801237689417,0.01969195529818535,0.006204083561897278
1738,1734173172,205597162,-0.0227969681346877,0.25604745546681784,1.4269914718871535,-0.7071326301428077,-0.014472375143552232,0.002895016138498087,0.7069268792644521,0,-1,0.003506883978843689,-1.5726311842547815,-0.028808418904439748,-1.5649803320514124,0.022986117750406265,0.0072336033917963505
1754,1734173172,221359014,-0.02619169492337967,0.25601710717131343,1.4268916911847305,-0.7071417038100841,-0.01665611047579961,0.003454144106309215,0.706867210729768,0,-1,0.003973519895225763,-1.572799030934469,-0.03282004991640264,-1.564045254384176,0.02642371878027916,0.008311434648931026
1770,1734173172,237684249,-0.029551809785075746,0.2559818685500162,1.426779344768636,-0.7071518919002705,-0.01883516381866152,0.0040599728348534704,0.7067990909773247,0,-1,0.00450007664039731,-1.5729668776141565,-0.036903206502096,-1.5630620161639612,0.02989727072417736,0.009365297853946686
1786,1734173172,253355264,-0.032880834550849614,0.25594287561999407,1.4266528966609056,-0.7071639230918605,-0.021000989627760768,0.004728939844495197,0.7067218557819838,0,-1,0.004990680608898401,-1.5730631987201136,-0.04114133516420537,-1.5620067755328577,0.033454712480306625,0.010479455813765526
1802,1734173172,269660234,-0.03635436838802325,0.25589666681820267,1.4265066921952658,-0.7071771028055533,-0.023260574264580607,0.00536345457420262,0.706633373332633,0,-1,0.0055412063375115395,-1.573219124470846,-0.0456317106830042,-1.5609520117389124,0.03703650087118149,0.01165316067636013
1818,1734173172,286008119,-0.04001568757317783,0.2558441968101791,1.4263375418198323,-0.7071931613293617,-0.02558272180906786,0.006002262096578202,0.7065319028632374,0,-1,0.006068137474358082,-1.5734227339373987,-0.050121609364644826,-1.5598843733416956,0.04082126542925835,0.012838850729167461
1834,1734173172,301663637,-0.04381651158108313,0.25578421518557637,1.4261447521384347,-0.7072113943983637,-0.028005735280783345,0.006649827428733122,0.7064159555245569,0,-1,0.006690193898975849,-1.573662583027975,-0.054802719746724904,-1.5588057676898401,0.044678688049316406,0.014084085822105408
1850,1734173172,317339181,-0.0478514087251191,0.25571422748460537,1.425923289111933,-0.7072304858801831,-0.030619012046839932,0.007249654028730287,0.7062824919672152,0,-1,0.0072407191619277,-1.5739143530475062,-0.05967599550356084,-1.5578339735614222,0.04861925169825554,0.015341680496931076
1866,1734173172,333578824,-0.05196048741125317,0.25564030174435426,1.4256779931997419,-0.7072539270377939,-0.033223097811000114,0.007832493330575504,0.706135086587323,0,-1,0.00785116571933031,-1.5742982069598597,-0.06447726884950811,-1.5568392912494105,0.05257217586040497,0.016671180725097656
1882,1734173172,349294900,-0.05617253871655988,0.25555794719703145,1.4254064181876338,-0.7072792702916665,-0.03586071906200537,0.00837220188385507,0.7059744675833961,0,-1,0.008413675241172314,-1.5746343771563929,-0.06930286089052373,-1.5558679739581507,0.05650150403380394,0.017904432490468025
1898,1734173172,365636587,-0.0602701670057778,0.2554705776624696,1.4251223319336825,-0.7073042223151242,-0.0384635643012892,0.008911922981179975,0.7058058294922304,0,-1,0.008904279209673405,-1.574993912373678,-0.07405597368349248,-1.5549209753619593,0.060394126921892166,0.019162027165293694
1914,1734173172,381314039,-0.06436340780407201,0.25537862389034527,1.424819499584992,-0.7073317774725653,-0.041078588793325224,0.009506053659239209,0.7056230871110142,0,-1,0.009466788731515408,-1.5752700010882776,-0.07878524461855108,-1.5539258162127894,0.06426353752613068,0.020395653322339058
1930,1734173172,397760629,-0.06826374739166163,0.2552838972873651,1.4245083485052112,-0.7073622381256056,-0.0435365352805727,0.010112308440003007,0.705436726707443,0,-1,0.00996975228190422,-1.5754974524127405,-0.08341914812196904,-1.552894417439596,0.06801272183656693,0.021581342443823814
1946,1734173172,413538455,-0.07212435461560528,0.2551854099198565,1.424183406464162,-0.7073923730121392,-0.045972321153157,0.010672003412877553,0.7052437058458595,0,-1,0.01056783925741911,-1.5757373015033167,-0.08795673051942998,-1.5519111792193812,0.07176228612661362,0.022778641432523727
1962,1734173172,429415702,-0.07583812807029643,0.2550883340330928,1.4238480776304654,-0.7074254263255398,-0.048344136994184335,0.011252571994070362,0.7050428995670647,0,-1,0.011058444157242775,-1.5759175459491175,-0.09254199663271123,-1.550892178212301,0.07545156031847,0.02400028333067894
1978,1734173172,445666074,-0.07952544516063567,0.25498242005010385,1.4235004682555352,-0.7074576954375216,-0.0507282319505451,0.01184511796676043,0.7048332773285866,0,-1,0.011585375294089317,-1.57609731355776,-0.09694797197450811,-1.5499089399920862,0.07915318757295609,0.02511444129049778
1994,1734173172,461311817,-0.08312998732054705,0.25487165634993875,1.423144816709078,-0.7074928110095711,-0.05304356828959482,0.012496762097523668,0.7046163020892721,0,-1,0.012111932039260864,-1.576301399861471,-0.10136634508241826,-1.548878018056051,0.08280650526285172,0.026348067447543144
2010,1734173172,477462053,-0.08680147339272154,0.2547594257711169,1.4227667710559229,-0.7075284021339666,-0.055400930582333696,0.01303706229726815,0.704389332735118,0,-1,0.012614520266652107,-1.5765531698810022,-0.10580760637392217,-1.5479424635516565,0.08649614453315735,0.02749742940068245
2026,1734173172,493792057,-0.09054440243402477,0.25463813060358487,1.4223654199033093,-0.7075657670852519,-0.057790849220405234,0.013586025604270607,0.7041493612180043,0,-1,0.01317702978849411,-1.5768287817584437,-0.11039334932436162,-1.5469477812396448,0.09018541127443314,0.0286471676081419
2042,1734173172,509554862,-0.09443335286021379,0.2545043356832922,1.4219355058171732,-0.7076043156207121,-0.06027667589326181,0.014163549929487724,0.7038907931714955,0,-1,0.013715571723878384,-1.5770567099200647,-0.11497861543764287,-1.5459640661822718,0.09391138702630997,0.02985682524740696
2058,1734173172,525976657,-0.0982784354737098,0.25436495009467375,1.421485337982775,-0.7076434301332396,-0.06274486039099525,0.014715133250773222,0.7036244190881875,0,-1,0.014313658699393272,-1.5773447195636194,-0.11976844469179326,-1.5448973814593714,0.09769652783870697,0.03100656159222126
2074,1734173172,541730403,-0.10227502249748849,0.25421896099565217,1.4210001808192947,-0.707687542689596,-0.06527965861019247,0.015265128420980125,0.7033376741992348,0,-1,0.014804637990891933,-1.5776203314410608,-0.12454492250551397,-1.5439136664019983,0.10156593471765518,0.03222820162773132
2090,1734173172,557500123,-0.1063156556331621,0.25406655428857494,1.420492907071077,-0.7077334595254506,-0.06786775299995834,0.015836128372063888,0.7030338081550968,0,-1,0.015463021583855152,-1.5779560248004358,-0.12938243547548467,-1.5428584257708948,0.10554282367229462,0.03346145525574684
2106,1734173172,573836326,-0.11050879159889374,0.25389888629638746,1.4199461666576365,-0.7077836657258717,-0.07053885280611502,0.01641407060272882,0.7027070022866525,0,-1,0.01602553017437458,-1.5782316366778772,-0.13438636461366826,-1.5418155829059046,0.10963955521583557,0.034755002707242966
2122,1734173172,589607238,-0.11464783532540394,0.2537294854615902,1.4193828820301309,-0.7078369974190927,-0.07317838245842585,0.017004058829773655,0.7023692557400312,0,-1,0.0166595708578825,-1.5785320440875452,-0.13933116594423467,-1.5407965818988245,0.11372467875480652,0.036072518676519394
2138,1734173172,605881452,-0.118836685816804,0.2535429120390029,1.4187922687522676,-0.7078888729699312,-0.07586818446470937,0.017634859427423558,0.7020159356057128,0,-1,0.01731795445084572,-1.5788558165179651,-0.14439517656435186,-1.5397174994098108,0.11776186525821686,0.03742561116814613
2154,1734173172,621453046,-0.12310882101836824,0.2533530947017008,1.4181709412453618,-0.707945359713004,-0.07858534775096912,0.018235100468440776,0.7016446336220284,0,-1,0.01794038526713848,-1.5791438261615198,-0.14947158495058233,-1.538614575062887,0.12194249033927917,0.03867122158408165
2170,1734173172,637777566,-0.12739163144649088,0.25315134300211034,1.4175201362005505,-0.708003208777079,-0.08134269984898787,0.01885955146843475,0.701255402019155,0,-1,0.01851450465619564,-1.5794432798968714,-0.1546552816974085,-1.537499729787008,0.1261834055185318,0.039964769035577774
2186,1734173172,653454542,-0.13165098859439145,0.25294570037152353,1.416847199895961,-0.7080614977516357,-0.08411591385842196,0.019466101628365637,0.7008526944550237,0,-1,0.01917288824915886,-1.5797188917743128,-0.15985137621034795,-1.5364201704608362,0.13036403059959412,0.04127030074596405
2202,1734173172,669785737,-0.13599267077113245,0.2527361063383483,1.4161428798517564,-0.7081225900650432,-0.08684939908944131,0.019931941014457773,0.700444356851259,0,-1,0.019819287583231926,-1.5800426642047327,-0.16508323351015264,-1.5353291670428675,0.13447311520576477,0.04258744418621063
2218,1734173172,685511112,-0.14033666422498084,0.25251033835429537,1.4154158858125097,-0.7081891163355294,-0.08965187836662303,0.020611969510774625,0.700004187788991,0,-1,0.02042935974895954,-1.5803425947772425,-0.17023164430727178,-1.5342257658587855,0.1388099044561386,0.043928924947977066
2234,1734173172,701775789,-0.14471207947962147,0.2522808690744188,1.4146603964981777,-0.7082575570910163,-0.09249047748183832,0.021269425905823015,0.6995458211727693,0,-1,0.021040180698037148,-1.5806906859027308,-0.17535525957216436,-1.5331347624408167,0.1430744230747223,0.0452943779528141
2250,1734173172,717560529,-0.14902726777530392,0.2520457982987622,1.4138901462416344,-0.7083306395861573,-0.09523911645793261,0.021921435851891043,0.6990827321354527,0,-1,0.02168620377779007,-1.5810025374041956,-0.18063527742494756,-1.5320561567889612,0.14737525582313538,0.046671442687511444
2266,1734173172,733839988,-0.15339525740947663,0.2518027358318599,1.4130864889329768,-0.7084086331336534,-0.09800194591878676,0.022554588683943954,0.6986015442490363,0,-1,0.02229665033519268,-1.5813382307635706,-0.18586665788759404,-1.5309165159808558,0.15165212750434875,0.048132769763469696
2282,1734173172,749566793,-0.1577254661786148,0.2515625852202691,1.4122622293780522,-0.7084900899743211,-0.10074161201775783,0.023165629810394845,0.6981090699967518,0,-1,0.02290709689259529,-1.581625763569967,-0.19105035463442022,-1.5297778288470667,0.15590503811836243,0.04950983077287674
2298,1734173172,765727996,-0.16203999994373988,0.25129983523290306,1.411425001567744,-0.708564837350154,-0.10350105852322411,0.023813490196809027,0.697607568651723,0,-1,0.023529527708888054,-1.5819256941424769,-0.19624644914735967,-1.5285909811602991,0.16003809869289398,0.05085131525993347
2314,1734173172,781446456,-0.16620396622243605,0.25105140242962176,1.4105890057565353,-0.7086456282308073,-0.1061072231290927,0.02441874924413611,0.6971128714021492,0,-1,0.024103647097945213,-1.5822613875018519,-0.20123845735658819,-1.527475659047262,0.1641591638326645,0.052204784005880356
2330,1734173172,797708272,-0.17038493788078468,0.25078601154834684,1.4097317469318367,-0.7087243503648697,-0.10876194710363296,0.02503923196157848,0.6966015151612105,0,-1,0.024762030690908432,-1.5825613180743616,-0.20626718202699834,-1.526360813771383,0.16829222440719604,0.053557876497507095
2346,1734173172,813493251,-0.17453647861154362,0.2505176625101354,1.4088581362352242,-0.7088051995803036,-0.11142314420656599,0.025675137973228256,0.6960753258614362,0,-1,0.025324540212750435,-1.5828855673419397,-0.21124679247011358,-1.5253055731402796,0.1724492609500885,0.054827455431222916
2362,1734173172,829718112,-0.178586540078372,0.25024838528092336,1.4079771521516244,-0.708886075981223,-0.11405734355504915,0.026284642429765324,0.6955433640208556,0,-1,0.02591101825237274,-1.583137337361471,-0.21631080309023076,-1.5241907278644007,0.1765223890542984,0.05610901862382889
2378,1734173172,845469474,-0.1827046976241953,0.2499708304903994,1.407061621807768,-0.7089662588856338,-0.1167231261624908,0.026867576739502776,0.6949968984827993,0,-1,0.026545433327555656,-1.5834372679339808,-0.22137481371034795,-1.5230396429644983,0.1805955320596695,0.05737859755754471
2394,1734173172,861176729,-0.18686130090613332,0.24969254927189793,1.4061166752124987,-0.7090547878920787,-0.11936451594729641,0.02743629752561094,0.6944355043328884,0,-1,0.02711992710828781,-1.5836766401873987,-0.22630721727480108,-1.5219605604754847,0.18471698462963104,0.05869574099779129
2410,1734173172,877455711,-0.19089581612741208,0.24940424744461065,1.4051745764685974,-0.7091413788263946,-0.1219959198191734,0.02806267319264811,0.6938645305511417,0,-1,0.027670077979564667,-1.5840008894549769,-0.23135930696596319,-1.5209177176104944,0.188802108168602,0.059929367154836655
2426,1734173172,893218517,-0.1949808848329289,0.24910195943183197,1.4042045892368655,-0.709227003186567,-0.12465895750172372,0.028661442103763368,0.6932789654981011,0,-1,0.028340445831418037,-1.5842884222613733,-0.23631507555116826,-1.5198028723346155,0.19298310577869415,0.06123489513993263
2442,1734173172,909514665,-0.19912658854419868,0.24880109659527175,1.403200216734634,-0.709317426643159,-0.12731016668803397,0.029208790310417676,0.6926815691837006,0,-1,0.028903329744935036,-1.584564510975973,-0.24137956300844365,-1.518759552632467,0.19704462587833405,0.06248050555586815
2458,1734173172,925259351,-0.2032370846737147,0.24848823006228177,1.4021759198465398,-0.7094134334629293,-0.1299717539723557,0.029833658578652205,0.6920620466457468,0,-1,0.02953699603676796,-1.5848882834063929,-0.2464073340045374,-1.5176685492144983,0.20122599601745605,0.06382161378860474
2474,1734173172,941664218,-0.20736751678000784,0.24816277984909713,1.4011309780650962,-0.7095054424801489,-0.13263951872231636,0.030414221270471803,0.6914360131701786,0,-1,0.03011186420917511,-1.5851400534259241,-0.2514713446246546,-1.5166609922992151,0.205311119556427,0.06509119272232056
2490,1734173172,957376003,-0.21143674336635582,0.24784388820779185,1.4000686646795193,-0.7096026540408172,-0.13530018332874696,0.030981220728727926,0.6907952646997471,0,-1,0.030758263543248177,-1.5854399839984339,-0.25654679933656865,-1.5155342260943812,0.2093726545572281,0.06643267720937729
2506,1734173172,973569869,-0.2154829276460092,0.24751611631030496,1.398994657972891,-0.7097015572918137,-0.1378958420560664,0.03156788634831617,0.6901535371732311,0,-1,0.03134436532855034,-1.5857513586627405,-0.26155120531191045,-1.514479939137594,0.21339823305606842,0.06770225614309311
2522,1734173172,989279031,-0.21958913479654002,0.24719216514475661,1.397879939216343,-0.7098048082588725,-0.14052573515946945,0.03209792263582263,0.6894921140179493,0,-1,0.03194282948970795,-1.585991684590475,-0.2666266600238245,-1.5133402983294886,0.21751968562602997,0.06903138756752014
2538,1734173173,5604505,-0.223598845445082,0.24685097911596376,1.39677104943522,-0.7099062718777451,-0.14309974696384872,0.032689511051166444,0.6888301266892723,0,-1,0.03255327418446541,-1.5862672964679163,-0.27166635194887334,-1.5122373739825647,0.2215452492237091,0.07031294703483582
2554,1734173173,21339893,-0.2276701753622793,0.24648751700647803,1.395629399749563,-0.7100015248667914,-0.14575509536804077,0.03326138740734008,0.6881474892556269,0,-1,0.033104173839092255,-1.586555306111471,-0.27661067644228154,-1.511158291493551,0.2256423681974411,0.07158252596855164
2570,1734173173,37640333,-0.23175225610746297,0.24615324968520347,1.3944528361034048,-0.7101097663406896,-0.1483973627326826,0.03375719022951759,0.6874465758074324,0,-1,0.033690277487039566,-1.5867708365069788,-0.28167421022524053,-1.5101149717914026,0.2297758013010025,0.07276821881532669
2586,1734173173,53398132,-0.23561013279954954,0.24580655154887265,1.3933055967442325,-0.7102169136533965,-0.15096348516756397,0.03439443522579159,0.6867452107821396,0,-1,0.03431271016597748,-1.5870588461505335,-0.28666621843446904,-1.509012524281637,0.2339092344045639,0.07410932332277298
2602,1734173173,69144487,-0.2395666077085304,0.2454488026408071,1.3921196831400324,-0.7103272667995245,-0.15355880856460033,0.034970513163680966,0.6860261872278683,0,-1,0.034899186342954636,-1.587323013936178,-0.2916219870196741,-1.5079215208636683,0.23798274993896484,0.07539089024066925
2618,1734173173,85461616,-0.24357382936667332,0.24508328173824012,1.3909017730999238,-0.7104396595111743,-0.15615988987446153,0.035535270206127796,0.6852932391023716,0,-1,0.03546132147312164,-1.5875867048846644,-0.29661447206606084,-1.5068424383746546,0.24208059906959534,0.07673199474811554
2634,1734173173,101246833,-0.2475227202102788,0.2447133604068625,1.38967895480707,-0.7105584325312979,-0.15872438548559853,0.03614010263504722,0.6845488853196768,0,-1,0.0360841266810894,-1.5878384749041956,-0.3015702406512659,-1.5057991186725062,0.24619007110595703,0.07806149870157242
2650,1734173173,117515563,-0.251474052084238,0.2443430026857244,1.388428816535841,-0.7106832195408898,-0.16127696703070643,0.036734563416814255,0.6837906647644056,0,-1,0.03664663806557655,-1.5880902449237269,-0.30660993257631475,-1.5047319571124476,0.2503238618373871,0.07945054769515991
2666,1734173173,133279323,-0.2556023133949393,0.2439426679001415,1.3871047677383892,-0.7108049883814346,-0.16395036009905456,0.03724851459989757,0.6830000703334959,0,-1,0.03726869449019432,-1.5883658568011683,-0.31184083620180303,-1.5037367979632776,0.25444531440734863,0.08075607568025589
2682,1734173173,149582386,-0.25965350664136,0.24354204655500752,1.3857799912611066,-0.7109244218530028,-0.16656780301970023,0.037791432866594026,0.6822121671533378,0,-1,0.03785517066717148,-1.588653866444723,-0.31695253053774053,-1.5026338736163538,0.25851884484291077,0.08208557963371277
2698,1734173173,165317296,-0.2635957166722098,0.24314190085585058,1.3844599177411894,-0.7110475582488098,-0.16916130862139994,0.03835334409370304,0.6814138555758392,0,-1,0.038513556122779846,-1.5889175573932093,-0.3220160643206995,-1.5015671888934534,0.2626163065433502,0.0834270641207695
2714,1734173173,181580305,-0.26759609999576417,0.24272513703842497,1.3831131057126886,-0.711171535827403,-0.17180032667504738,0.038937971023457224,0.6805905735431664,0,-1,0.039087675511837006,-1.5892418066607874,-0.3270075956927698,-1.5005114714251917,0.26676174998283386,0.08473221957683563
2730,1734173173,197319269,-0.27151400865178593,0.24232165105128867,1.3817647333148073,-0.7112930781135157,-0.1743556556893963,0.03945497809710854,0.679783470717167,0,-1,0.03971010446548462,-1.5894816557513636,-0.3319757620440882,-1.4994452635394495,0.2707996666431427,0.08603774756193161
2746,1734173173,213721513,-0.2754345894381617,0.24190444639466158,1.3803986051014379,-0.7114259408788772,-0.1768689202261618,0.04005698893200477,0.6789594636945104,0,-1,0.040320925414562225,-1.5898049513446253,-0.33689576784242803,-1.4983180204974573,0.2749570608139038,0.08729534596204758
2762,1734173173,229501485,-0.2793044449411983,0.24148442759815889,1.379018906786917,-0.7115441829006348,-0.17945909686315348,0.04062971680175699,0.6781213272312987,0,-1,0.04091901332139969,-1.5900214354144495,-0.34193545976747686,-1.49717885652651,0.2790309488773346,0.088612861931324
2778,1734173173,245227813,-0.28322993322943885,0.2410482598233316,1.377602015957067,-0.7116778541167231,-0.18199432531317258,0.04121405563006552,0.6772695911763212,0,-1,0.04152946174144745,-1.590308968220846,-0.3469751516925257,-1.4960883299456995,0.28310447931289673,0.0899539664387703
2794,1734173173,261539936,-0.28714027710474915,0.24062502900756677,1.376164550364295,-0.7118083232554344,-0.18455978337537576,0.04174802715481127,0.6764049818957593,0,-1,0.042115937918424606,-1.590524975453512,-0.35199100175966436,-1.4949973265277308,0.2871427834033966,0.09121156483888626
2810,1734173173,277153730,-0.29101718304274027,0.24019476275589624,1.3747155184422357,-0.7119448290315306,-0.18709675018321203,0.042294901410228396,0.675529797863014,0,-1,0.04271402582526207,-1.590848747883932,-0.35699445406068975,-1.4938815275775355,0.29122865200042725,0.09248114377260208
2826,1734173173,293456554,-0.2949467217559404,0.2397388755741472,1.3732385776873919,-0.7120756151726986,-0.18968009897282134,0.042839156241681615,0.6746366318416044,0,-1,0.04328889399766922,-1.5911362806903284,-0.361974064503805,-1.4928272406207483,0.2953980565071106,0.09381064027547836
2842,1734173173,309177875,-0.2988499496354589,0.2392868173398186,1.3717371197215333,-0.7122110483516589,-0.1922754932266534,0.04337269984363635,0.6737242508760924,0,-1,0.043923307210206985,-1.5914481321917933,-0.36704951921571904,-1.4917243162738245,0.29953184723854065,0.09506786614656448
2858,1734173173,325435400,-0.30286305596760127,0.23882826356486814,1.3701823512716995,-0.7123527661748845,-0.19485031486476612,0.04388618501340426,0.6728007833564561,0,-1,0.04454536363482475,-1.5917719046222132,-0.3721368948565882,-1.4906447569476526,0.3036177158355713,0.09636141359806061
2874,1734173173,341168880,-0.30680864557922294,0.2383701519995764,1.3686199940110382,-0.7124991146812204,-0.197432819086574,0.04437563634257759,0.6718601762459184,0,-1,0.045107875019311905,-1.5920842329608362,-0.377176586781637,-1.4895179907428187,0.3077511489391327,0.09764297306537628
2890,1734173173,357479572,-0.3107071362807957,0.23788597923478316,1.3670449331501848,-0.7126398762809052,-0.20002099625037942,0.04492070645148436,0.6709084422819864,0,-1,0.04573030397295952,-1.5923236052142542,-0.38227588335146123,-1.488438908253805,0.3118729889392853,0.0989365205168724
2906,1734173173,373243570,-0.31460573012833537,0.23741069001990373,1.3654587922071237,-0.7127808574882434,-0.20259687152614891,0.045423332435132815,0.6699512502537994,0,-1,0.04631640762090683,-1.5926478544818323,-0.38725549379457647,-1.4874079863177698,0.31600716710090637,0.10021807998418808
2922,1734173173,389511585,-0.3184913006557731,0.23693384056053987,1.3638566997002473,-0.7129232571777085,-0.2051612377749656,0.0459152968592919,0.6689851129913834,0,-1,0.046927228569984436,-1.5929234663592737,-0.3922351042376917,-1.4863408247577112,0.3200211226940155,0.1015116274356842
2938,1734173173,405305147,-0.32229064894951853,0.2364456717184656,1.362261746161269,-0.7130661156353756,-0.2076771863572454,0.04643409799386375,0.6680200412733971,0,-1,0.04750172421336174,-1.5932467619525355,-0.39726239839662725,-1.4852617422686976,0.32417890429496765,0.10275686532258987
2954,1734173173,421503067,-0.32610754033760303,0.23597198670797875,1.3606378845084912,-0.7132161576082623,-0.2102288771731129,0.04696867214373687,0.6670235944598156,0,-1,0.04812378063797951,-1.5935710112201136,-0.4022181669818323,-1.484159294758932,0.3282887637615204,0.10399049520492554
2970,1734173173,437223196,-0.3299890977440554,0.23546955206104775,1.3589595272928463,-0.7133638706006152,-0.21279332091491165,0.04746403728262325,0.66601663332123,0,-1,0.04868628829717636,-1.593846623097555,-0.4073289076434534,-1.483056370412008,0.3324105739593506,0.10526007413864136
2986,1734173173,453680038,-0.3338327256285149,0.23495401080227435,1.3572817470240708,-0.7135118406707718,-0.21534981550120333,0.0480027234622714,0.6649970291109649,0,-1,0.04928475245833397,-1.5941227118121546,-0.41230899492372686,-1.4820130507098597,0.33649682998657227,0.10656560212373734
3002,1734173173,469341993,-0.337616552053487,0.23445846564472989,1.3555901482124937,-0.7136668471585819,-0.21784853034779125,0.04846894107370351,0.6639822368431483,0,-1,0.04994276165962219,-1.594398323689596,-0.41737205186952764,-1.4808381239520472,0.3406066596508026,0.10789472609758377
3018,1734173173,485590219,-0.34145839542231704,0.23395071282900898,1.3538648543945173,-0.7138312495419143,-0.22035353751891246,0.048994178229777266,0.6629395418738567,0,-1,0.0505412220954895,-1.5947464148150843,-0.42231589952577764,-1.4798195997821253,0.34475281834602356,0.10918790102005005
3034,1734173173,501358509,-0.34525399247213306,0.23340798632627044,1.3521493242928284,-0.7139905076399327,-0.22286025586735408,0.049568484731117565,0.6618865663210499,0,-1,0.05115204304456711,-1.5950821081744593,-0.4273431936847132,-1.4787519613849085,0.34880274534225464,0.11058931052684784
3050,1734173173,517084360,-0.3490612178057828,0.23287963503113585,1.3503839093668362,-0.7141575715329209,-0.22537696439947927,0.05005604758839492,0.6608166001547667,0,-1,0.05175013095140457,-1.5953581968890589,-0.43237048784364873,-1.4776971975909632,0.3529249429702759,0.11194277554750443
3066,1734173173,533440589,-0.35288272003034954,0.2323436233617142,1.3485953142273788,-0.7143235776662495,-0.22789007301132347,0.05055803057319702,0.6597361795123432,0,-1,0.05236057937145233,-1.5956814924823206,-0.4374335447894495,-1.4766061941729944,0.3571070730686188,0.11323632299900055
3082,1734173173,549178838,-0.35675240270673514,0.2318045371462122,1.346761038291441,-0.714495774091173,-0.23044116917898,0.05105211581144286,0.6586245803372777,0,-1,0.05297065153717995,-1.5959456602679651,-0.4425571600543421,-1.4755390326129358,0.3611929416656494,0.11456581950187683
3098,1734173173,565463781,-0.3604861338679458,0.2312597821288596,1.3449468836495615,-0.7146561053755519,-0.2329433972592979,0.05150366154531362,0.6575343318566496,0,-1,0.053557127714157104,-1.596269432698385,-0.44757205644716436,-1.4744723478900355,0.3652907907962799,0.11589495092630386
3114,1734173173,581158638,-0.3642041819262533,0.23071161505653356,1.3431351100484166,-0.7148210216228623,-0.2354320899153304,0.05200316536703947,0.6564284491671241,0,-1,0.05421551316976547,-1.5965092817889612,-0.4525397459613245,-1.4734414259540003,0.3694373369216919,0.11718849837779999
3130,1734173173,597414731,-0.36793872051261567,0.23014900005335825,1.3412924484346072,-0.7149848092158061,-0.23797295780278724,0.052515264534538544,0.6552921035203291,0,-1,0.054766036570072174,-1.5968449751483362,-0.4574831167804163,-1.4723380247699183,0.37357115745544434,0.11847005784511566
3146,1734173173,613149642,-0.37162031266450574,0.22958981429081593,1.339449545813987,-0.715147305758759,-0.24046595876462373,0.05302208233033008,0.6541629097761155,0,-1,0.05542442202568054,-1.5970848242389124,-0.46246272722353154,-1.471295181904928,0.3776693642139435,0.11975162476301193
3162,1734173173,629394292,-0.37528632217531377,0.22902748058372435,1.3375865841891277,-0.71532667372096,-0.2428916093650966,0.05354485005348249,0.65302707830234,0,-1,0.056046850979328156,-1.597348992024557,-0.4674900213824671,-1.4702046553241175,0.38173165917396545,0.12108112126588821
3178,1734173173,645667791,-0.37896091198910054,0.22846760805835054,1.3356816566940963,-0.7155014242167003,-0.2453688665866562,0.0539902372136389,0.6518718321414633,0,-1,0.05660898610949516,-1.5976365248309534,-0.4725411573993128,-1.4691851774798792,0.38585346937179565,0.12233833968639374
3194,1734173173,661400556,-0.38262375438791846,0.22787988601146952,1.3337673388872173,-0.7156703781617788,-0.2478552689974797,0.05447672505591664,0.6507042045961786,0,-1,0.057219430804252625,-1.5978882948504847,-0.47761613527406865,-1.4680464903460901,0.38997605443000793,0.12361990660429001
3210,1734173173,677618741,-0.38631525204078393,0.22731598180081175,1.331812895848269,-0.7158513594992918,-0.25031068143517576,0.054920569018494514,0.6495268469902982,0,-1,0.05780591070652008,-1.5981643835650843,-0.48267966905702764,-1.4669435659991663,0.3940143585205078,0.12496139109134674
3226,1734173173,693331956,-0.39002481866042116,0.22674224414334976,1.329840038587403,-0.7160350735397876,-0.252745824804362,0.05536034349126113,0.6483429292229254,0,-1,0.05840437114238739,-1.5985000769244593,-0.4877074400531214,-1.4658525625811976,0.39816051721572876,0.12626653909683228
3242,1734173173,709579944,-0.3936337005502119,0.22617035624537596,1.3278717850745818,-0.7162151336378861,-0.25520444118259106,0.05581981453580229,0.6471404205069676,0,-1,0.05894291400909424,-1.5987642447101038,-0.4927461783038538,-1.4647496382342737,0.4021872282028198,0.12754811346530914
3258,1734173173,725273370,-0.39729285542424325,0.2255821201311603,1.3258671844909073,-0.7163984240747806,-0.2576616452275333,0.056261321723891485,0.6459244833877195,0,-1,0.05956534296274185,-1.599016014729635,-0.4977615515338343,-1.463658634816305,0.4062974452972412,0.12886562943458557
3274,1734173173,741491317,-0.40088537433637644,0.22498394055217102,1.323855347936439,-0.7165797510699057,-0.2601066623932159,0.0567078893764355,0.6447031873798388,0,-1,0.060103509575128555,-1.5993154684649866,-0.5028365294085901,-1.462543789540426,0.41037169098854065,0.13017114996910095
3290,1734173173,757868289,-0.4044995018813058,0.2243814590588446,1.32182203310798,-0.7167645228440187,-0.26254686570730407,0.057176463555025356,0.6434660939900392,0,-1,0.06073792651295662,-1.5995433966266077,-0.5079954306231897,-1.4614766279803675,0.4144699275493622,0.13144035637378693
3306,1734173173,773518800,-0.4081143588650482,0.2237858196281584,1.3197471338420856,-0.7169555866126123,-0.26498007365859033,0.05756606608422315,0.6422198964719481,0,-1,0.061336763203144073,-1.5998428503619593,-0.5129149595843714,-1.4603856245623987,0.4186404347419739,0.13268597424030304
3322,1734173173,789378404,-0.41160816978826725,0.22318627681858283,1.317732665469403,-0.7171401655857461,-0.2673990056531633,0.058077515907176795,0.6409639278659913,0,-1,0.061922866851091385,-1.6000712553607386,-0.5178940931903284,-1.4592950979815882,0.42277464270591736,0.13399150967597961
3338,1734173173,805525302,-0.41511331172601384,0.2225597091323201,1.3156930856546534,-0.7173158530118997,-0.2698272958140515,0.05855515456430385,0.6397050033612661,0,-1,0.0625692680478096,-1.6003473440753382,-0.5228136221515101,-1.4581921736346644,0.4268488883972168,0.13521315157413483
3354,1734173173,821266889,-0.4186241038483335,0.2219410534832474,1.313620522187423,-0.7175045258855893,-0.27222821089054894,0.05903279861947026,0.6384310340327918,0,-1,0.06308383494615555,-1.6005986372577112,-0.527900520955221,-1.4571250120746058,0.4309239089488983,0.13653066754341125
3370,1734173173,837524652,-0.4221397838574473,0.22132341335920247,1.3115057420020337,-0.7177033993237529,-0.27462089984841426,0.05946301898447748,0.6371415394861871,0,-1,0.06370589137077332,-1.6008270422564905,-0.5330236593829554,-1.4560821692096155,0.43509402871131897,0.13782420754432678
3386,1734173173,853269577,-0.4256974030684538,0.2206914228414634,1.3093473611883526,-0.7178998620279126,-0.2770527973096767,0.05986723235136017,0.6358281608215979,0,-1,0.06430473178625107,-1.6010907332049769,-0.5380385557757776,-1.4549792448626917,0.43918028473854065,0.13910576701164246
3402,1734173173,869566202,-0.4292112769306922,0.2200482594441697,1.3071953738543212,-0.7181003851831868,-0.2794431144839973,0.06029680426339644,0.6345137334706508,0,-1,0.06490281969308853,-1.6013787428485315,-0.5430415312396448,-1.4539125601397913,0.4431953728199005,0.14049482345581055
3418,1734173173,885303258,-0.4327195251228268,0.2193989772508845,1.3050320784514151,-0.7183024888331836,-0.28182052856608947,0.06074767977305808,0.6331891057314348,0,-1,0.06552524864673615,-1.6016901175128382,-0.5479853788958948,-1.452893082295553,0.44731757044792175,0.1418842375278473
3434,1734173173,901578903,-0.4362168498785931,0.21875728429838492,1.3028662361257208,-0.7185148521562637,-0.28416725322301606,0.06123807387577645,0.631850676769863,0,-1,0.0661356970667839,-1.6019657293902796,-0.5530121962176722,-1.4517787138568323,0.45144015550613403,0.14320175349712372
3450,1734173173,917375087,-0.43968413283534036,0.21810893974276835,1.3006613793980208,-0.7187186330759009,-0.2865422558640961,0.061666777377975275,0.6305031884468458,0,-1,0.06673378497362137,-1.6022298971759241,-0.5580633322345179,-1.45062762895693,0.4554544985294342,0.14454285800457
3466,1734173173,933527708,-0.4431423550388066,0.21744289117592688,1.2984462343684056,-0.7189161666644235,-0.28890571455827063,0.06208402283218949,0.6291570610849712,0,-1,0.06735621392726898,-1.6025293509112757,-0.5631144682513636,-1.4495843092547815,0.4595654606819153,0.14583641290664673
3482,1734173173,949297189,-0.4466731224615526,0.21678416381995685,1.2961585162841656,-0.7191262136701267,-0.29131048553624744,0.06244877781562471,0.6277705313077683,0,-1,0.06799100339412689,-1.6027820746051233,-0.5682371298419397,-1.4484580198871058,0.4636760354042053,0.14708201587200165
3498,1734173173,965530395,-0.45011574656254616,0.21612476332460442,1.293883288176065,-0.719334186898873,-0.2937030868746777,0.062845050158469,0.6263763437338628,0,-1,0.0685531422495842,-1.6030696074115198,-0.5732401053058069,-1.4474027792560022,0.46783456206321716,0.14843511581420898
3514,1734173173,981519460,-0.4534980789037972,0.21545394298981363,1.2916508063783285,-0.719542012480619,-0.29604078394468464,0.06330183423837889,0.6249896193528449,0,-1,0.06921152025461197,-1.6033209005938929,-0.5782316366778772,-1.446359936391012,0.47190919518470764,0.14971667528152466
3530,1734173173,997572898,-0.4569468160844234,0.21475384059954777,1.2893598489942324,-0.7197335973447889,-0.29842726793461205,0.06370037656492071,0.623591995323625,0,-1,0.06983357667922974,-1.6036689917193812,-0.5831506888019007,-1.4452326933490198,0.4760078191757202,0.15096229314804077
3546,1734173174,13450384,-0.46032119208271643,0.214067748394562,1.2870771214349994,-0.7199372266829706,-0.3007744821086023,0.06412920377934034,0.6221836913412011,0,-1,0.07042005658149719,-1.6038969198810022,-0.5881899038897913,-1.4441302458392542,0.48015472292900085,0.15231575071811676
3562,1734173174,29757022,-0.4636823802565576,0.21341919950311303,1.284754333306031,-0.7201652859593626,-0.3031056560787652,0.06449916572359748,0.620748564052379,0,-1,0.0709945484995842,-1.604196850453512,-0.5933125654803675,-1.4431231657611292,0.48422935605049133,0.15358532965183258
3578,1734173174,45478582,-0.4670431763088178,0.21273704648838848,1.282410033763297,-0.7203700625505052,-0.30546129846394443,0.06483315638563536,0.619319812338325,0,-1,0.07155705988407135,-1.6044486204730433,-0.598363224660055,-1.4420560042010706,0.48824408650398254,0.154902845621109
3594,1734173174,61132192,-0.47043255298956244,0.21206197853820255,1.280026247878641,-0.7205885869156304,-0.3078138469434164,0.06516218663430476,0.617864559163144,0,-1,0.07215552031993866,-1.6047118345843714,-0.6034024397479456,-1.4409773985492151,0.49234306812286377,0.15619640052318573
3610,1734173174,77270507,-0.47379729324089226,0.21135981821416183,1.2776388197434128,-0.7208102721626737,-0.3101454065851552,0.06555879074351341,0.6163963199721015,0,-1,0.07274200022220612,-1.6050604025470179,-0.6084178129779261,-1.4399459997760218,0.49646562337875366,0.1574779599905014
3626,1734173174,93561887,-0.4771998242565179,0.21066442999806184,1.2752243774807888,-0.7210310933019948,-0.31251328949003454,0.06590682358414136,0.6149031606593812,0,-1,0.07334008812904358,-1.6053960959063929,-0.6133845488177698,-1.4388793150531214,0.5006721019744873,0.15877151489257812
3642,1734173174,109702587,-0.4804560831735951,0.20995996744645123,1.2728641308385427,-0.7212503554386483,-0.31479297335262346,0.06633763089025171,0.6134351045019404,0,-1,0.07393892109394073,-1.6056597868548792,-0.6183279196368616,-1.4377763907061976,0.504699170589447,0.16006430983543396
3658,1734173174,125269174,-0.4837632226326355,0.2092755017744377,1.2704385224478894,-0.7214762716256561,-0.31710257697210614,0.06666508912097181,0.6119425716938516,0,-1,0.07451342046260834,-1.605971638356344,-0.6234267393695276,-1.4367454687701624,0.5088337063789368,0.16136984527111053
3674,1734173174,141329765,-0.48712395882080756,0.2085574914204657,1.2679514445517142,-0.7216989144150525,-0.3194370802445684,0.0670177445511407,0.610425466877192,0,-1,0.0751115083694458,-1.6062353293048304,-0.6285017172442835,-1.4356425444232386,0.5130046010017395,0.16263942420482635
3690,1734173174,157486438,-0.49044731183868406,0.2078305119667836,1.2654562284128683,-0.7219173356534339,-0.3217819139442174,0.06736690916381664,0.608895278263149,0,-1,0.0756860002875328,-1.6065109411822718,-0.6336839834796351,-1.4345162550555628,0.517115592956543,0.16390900313854218
3706,1734173174,173035144,-0.4937983063884899,0.2070919190762746,1.2629327366669783,-0.7221349630140681,-0.32412488635836895,0.06769034599028503,0.6073567076237493,0,-1,0.07628483325242996,-1.6068113485919397,-0.638651196156637,-1.4334128538714808,0.5211782455444336,0.16516658663749695
3722,1734173174,189182043,-0.4969972433052708,0.20637490549847193,1.2604822267460292,-0.7223565796931891,-0.3263717957024752,0.06804091449385415,0.6058488728212171,0,-1,0.07690688967704773,-1.6071227232562464,-0.6435344854937952,-1.432321850453512,0.525229275226593,0.16643616557121277
3738,1734173174,205334424,-0.5002064266841477,0.2056323633080097,1.2580277695169142,-0.7225678737246314,-0.3286349286167029,0.06842536111856232,0.6043283226111069,0,-1,0.07749336957931519,-1.6074708143817347,-0.6484773794757288,-1.4312194029437464,0.5293521881103516,0.16771773993968964
3754,1734173174,221463918,-0.5034166586443507,0.20487961814078842,1.2555322035618988,-0.7227848479401802,-0.33090585478186985,0.0687761994498629,0.6027878675358384,0,-1,0.0781274139881134,-1.6077826658831995,-0.653480354939596,-1.4301522413836878,0.5333433151245117,0.1689753234386444
3770,1734173174,237030506,-0.506689072220466,0.20417838830480833,1.252947490403802,-0.7230217432787343,-0.3331559137339502,0.06901020685614435,0.6012356337077412,0,-1,0.07872587442398071,-1.6080463568316858,-0.6586034933673304,-1.4290373961078089,0.5373944044113159,0.17028085887432098
3786,1734173174,253165483,-0.5098660328597541,0.20342154527711043,1.250410205146364,-0.7232482727216595,-0.3353375027053733,0.06930284826172367,0.5997147742946412,0,-1,0.07936029136180878,-1.6083343664752405,-0.6636546293841761,-1.4279583136187952,0.5413855314254761,0.17161035537719727
3802,1734173174,269264698,-0.5130412175143461,0.2026889851923539,1.2478281448284838,-0.7234867350021766,-0.337619733103644,0.06966648830365607,0.5981023662403877,0,-1,0.07997073233127594,-1.608633820210592,-0.6686690489398401,-1.426880184804098,0.5455204248428345,0.17296382784843445
3818,1734173174,285367250,-0.5162776620889491,0.20189397955919847,1.2452079283955604,-0.7237334368578978,-0.3399111394306718,0.07003971195092827,0.5964601985167397,0,-1,0.08059316873550415,-1.6089218298541468,-0.6736238638507288,-1.4258130232440394,0.5497032999992371,0.1743524968624115
3834,1734173174,301467895,-0.5194140988306486,0.2011394572438403,1.2426258589076176,-0.7239711869232055,-0.3421557777762469,0.07039775427133194,0.5948439294746897,0,-1,0.08123956620693207,-1.6092575232135218,-0.6786387602435511,-1.4247096220599573,0.5538142919540405,0.17567001283168793
3850,1734173174,317692041,-0.5225573248068098,0.20038788702902,1.240012740510387,-0.7242095247565775,-0.3443787850033978,0.07072901130809381,0.5932294864981132,0,-1,0.08178971707820892,-1.6095812956439417,-0.6836779753314417,-1.4236910978900355,0.5579496026039124,0.1769515722990036
3866,1734173174,333506822,-0.5257412438177148,0.19961143568056045,1.237339584515853,-0.724458730510453,-0.3466578574467067,0.07104463916291606,0.5915577206865387,0,-1,0.08243611454963684,-1.6098335425006312,-0.688824478779928,-1.4225886503802698,0.5620365738868713,0.17826908826828003
3882,1734173174,349268913,-0.5288768748660189,0.19881511454032896,1.2346510272711868,-0.7246815120751053,-0.34892789415377734,0.07132563468825488,0.5899141332213247,0,-1,0.0830342024564743,-1.610145394002096,-0.6939352194415491,-1.421521011983053,0.5661599040031433,0.17953866720199585
3898,1734173174,365539550,-0.5319481484107659,0.19806877510902499,1.231996246577886,-0.7249336414868018,-0.3511023311993202,0.07162230852983668,0.5882759670324332,0,-1,0.083573117852211,-1.6103971640216272,-0.6989024321185511,-1.420394245778219,0.570270836353302,0.18079626560211182
3914,1734173174,381412267,-0.534994171869099,0.19731299058394086,1.2293311070977517,-0.7251684470384469,-0.353312512371961,0.07189431725067151,0.5866278199747433,0,-1,0.08415959775447845,-1.6106608549701136,-0.7038815657245081,-1.4192794005023401,0.574333906173706,0.1821018010377884
3930,1734173174,397457361,-0.5379648159263692,0.1965676919689377,1.2266811948754088,-0.7254239523955187,-0.35547340998762683,0.07223400730368644,0.5849623853475399,0,-1,0.08478165417909622,-1.6109488646136683,-0.708872143422262,-1.4182489554034632,0.5784692168235779,0.18341931700706482
3946,1734173174,413719892,-0.5409955341149257,0.19577049079692815,1.2240115987433817,-0.7256658126513656,-0.3576218359961549,0.07253588383571805,0.5833132060256682,0,-1,0.08538011461496353,-1.6112244764911097,-0.7138631979571741,-1.4171341101275843,0.5824962854385376,0.18473683297634125
3962,1734173174,429558277,-0.5439739361000897,0.19501873339142883,1.2213057223401,-0.7259170125778674,-0.35977846300521465,0.07281066660746227,0.5816378213594837,0,-1,0.08600292354822159,-1.611476246510641,-0.71893817583193,-1.4160669485675257,0.5865356922149658,0.18606595695018768
3978,1734173174,445695638,-0.54699517522189,0.19421874512525963,1.2185593942896507,-0.7261668211668693,-0.3619720566234604,0.07309562222941926,0.5799267264673017,0,-1,0.086541086435318,-1.6117399374591272,-0.7239049116717737,-1.4149764219867151,0.5907065868377686,0.1873595118522644
3994,1734173174,461503505,-0.5499500738219946,0.19340420720566723,1.215822360396246,-0.7264067686694353,-0.3641664395411606,0.07342420794960428,0.5782083503635319,0,-1,0.08712756633758545,-1.6119802633868616,-0.7290275732623499,-1.4138854185687464,0.5947703719139099,0.18872496485710144
4010,1734173174,477666378,-0.5529004606312677,0.1926381846252205,1.2130663687833363,-0.7266740981250915,-0.3663047853838493,0.07370489096860032,0.5764834328636718,0,-1,0.08776160329580307,-1.6122921148883265,-0.7341020742999476,-1.412842098866598,0.5989412665367126,0.19004246592521667
4026,1734173174,493532419,-0.5558930125159559,0.19185179998041962,1.2102517092240512,-0.7269305178879379,-0.36848653188278513,0.07393357271998947,0.5747377878728955,0,-1,0.08834808319807053,-1.6125558058368128,-0.739021126423971,-1.4117515722857874,0.6030645370483398,0.1913120448589325
4042,1734173174,509174823,-0.5587577816762886,0.19104757642363723,1.2075234713086533,-0.7271808300377551,-0.3706041213518715,0.07423924045363096,0.5730175920855108,0,-1,0.08893493562936783,-1.6128438154803675,-0.7439764181720179,-1.4106605688678187,0.6071878671646118,0.19259324669837952
4058,1734173174,525463342,-0.5617538481608221,0.19023364670705883,1.2046617535370432,-0.727437268171865,-0.37281472229823237,0.07447901449046132,0.5712241942642797,0,-1,0.08956897258758545,-1.613131348286764,-0.7491472403155726,-1.4096296469317835,0.6112629175186157,0.1938987672328949
4074,1734173174,541740894,-0.5646825600942742,0.18942411880693003,1.2017949390516776,-0.7276912501489349,-0.3749551709278304,0.07467690947013159,0.5694711787642563,0,-1,0.09016744047403336,-1.613359276448385,-0.7543533484088343,-1.4085753599749964,0.6153626441955566,0.19518034160137177
4090,1734173174,557442903,-0.5675893289332089,0.18860175537160825,1.1989055591359536,-0.7279231797135691,-0.3771678738948499,0.07484008057623856,0.5676893531471835,0,-1,0.09080147743225098,-1.6136348883258265,-0.7594760099994105,-1.4074962774859827,0.6194735765457153,0.19644992053508759
4106,1734173174,573711156,-0.5704617319223632,0.18778658737885423,1.1960510734650776,-0.7281811070109289,-0.3793111383789458,0.07509955540917011,0.5658934462169987,0,-1,0.09135200083255768,-1.6139348188983362,-0.7645147482501429,-1.4064891974078577,0.6236212849617004,0.19774308800697327
4122,1734173174,589450120,-0.573342222490817,0.18696039774455075,1.1931635290610314,-0.7284402391734356,-0.38145347872187507,0.07533528213952721,0.5640856821342707,0,-1,0.0920223742723465,-1.614234749470846,-0.7694581190692347,-1.405398193989889,0.6276726722717285,0.19898869097232819
4138,1734173174,605152845,-0.5761601603677402,0.1861189832419128,1.1903386794672548,-0.7286953894877987,-0.38353558710104885,0.07560981314849735,0.5623047562682789,0,-1,0.09263244271278381,-1.6144984404193323,-0.774388615285055,-1.4042838255511683,0.6317840218544006,0.20034216344356537
4154,1734173174,621446847,-0.5789020753719503,0.18529933558217587,1.1875160069379855,-0.7289440862290766,-0.38560608172732663,0.07588093603175788,0.5605270309570262,0,-1,0.09324326366186142,-1.6147263685809534,-0.7794154326068323,-1.4031804243670862,0.6358473896980286,0.20159976184368134
4170,1734173174,637175559,-0.581690839564541,0.18448023960889798,1.184600934497319,-0.7292176500057611,-0.3876878899105631,0.0761364441294537,0.5586975575497827,0,-1,0.09380577504634857,-1.6149662176715296,-0.7844427267657679,-1.4021137396441858,0.6400187015533447,0.20292925834655762
4186,1734173174,653465509,-0.584465696224545,0.18365332755684366,1.1816936226127661,-0.7294894484645293,-0.38975602479346744,0.07637899079346248,0.556867700159996,0,-1,0.09439187496900558,-1.6152542273150843,-0.7895172278033655,-1.4009512106524866,0.6440944075584412,0.2043066918849945
4202,1734173174,669137239,-0.587202816988257,0.18282238861023142,1.1787660262956294,-0.7297589090453973,-0.39180432222186495,0.07659258000614118,0.5550449391221755,0,-1,0.09500269591808319,-1.6155179182635706,-0.7945440451251429,-1.399872128163473,0.6481817960739136,0.2056601643562317
4218,1734173174,685475587,-0.5899639600495918,0.18202703983804883,1.1758447893931623,-0.7300471071711523,-0.39382459701081707,0.07683149425761661,0.5532000809747244,0,-1,0.0955888032913208,-1.6158297697650355,-0.7994511763202112,-1.3987935225116175,0.6522815227508545,0.20696532726287842
4234,1734173174,701714754,-0.5926505934282136,0.18120819586750558,1.1729140196096317,-0.7303176053966878,-0.39586878308715767,0.07706139952130392,0.5513489299241987,0,-1,0.09619925171136856,-1.616117302571432,-0.8044779936419886,-1.3976786772357386,0.6563209891319275,0.2082948237657547
4250,1734173174,717418670,-0.5953841430797476,0.1803378381197739,1.1699600808609993,-0.730580168648103,-0.397895592065589,0.07727987838860162,0.5495084488787471,0,-1,0.09678572416305542,-1.6164172331439417,-0.8095048109637659,-1.3966119925128382,0.6603966951370239,0.20958836376667023
4266,1734173174,733699083,-0.5981293907975552,0.1795347286694355,1.1669229950223117,-0.7308615348143936,-0.399954600106117,0.07739053584114043,0.5476207079219392,0,-1,0.09738381206989288,-1.616692845021383,-0.8146150747882288,-1.3955448309527796,0.6644601225852966,0.21085794270038605
4282,1734173174,749396800,-0.600815715145811,0.17867032399186572,1.1639090140204913,-0.7311281366373198,-0.4019990634693938,0.07758167226008124,0.5457375604778365,0,-1,0.09795868396759033,-1.6169450918780726,-0.8197496573077601,-1.394454304371969,0.6686081886291504,0.21216347813606262
4298,1734173174,765651226,-0.6035181177429663,0.177816873328025,1.1608459521526364,-0.7313936254594445,-0.4040901208431846,0.07772739217092216,0.5438133791849348,0,-1,0.09854516386985779,-1.6172331015216272,-0.8247526327716272,-1.393411938344137,0.6727554798126221,0.2134210765361786
4314,1734173174,781412839,-0.6061467201022603,0.17697583162439112,1.1578414755641901,-0.7316719706434367,-0.40609450040869616,0.07792151468510969,0.5419147734300473,0,-1,0.09914325177669525,-1.617521111165182,-0.8297799269305628,-1.39232045808901,0.67681884765625,0.21473859250545502
4330,1734173174,797714710,-0.60880531490376,0.17612469002954959,1.1548182166663226,-0.731947640619979,-0.4081165007191395,0.0781140743203715,0.5399923745986438,0,-1,0.09976568073034286,-1.6178563276873987,-0.8347104231463831,-1.3912299315081995,0.680978536605835,0.2160680890083313
4346,1734173174,813419103,-0.6114224026268105,0.17525269345645542,1.1517959123905792,-0.7322112512590188,-0.4101358494089526,0.07831992570776404,0.5380717961354501,0,-1,0.10038773715496063,-1.6181805769549769,-0.8396776358233851,-1.390174690877096,0.6850902438163757,0.21732531487941742
4362,1734173174,829699754,-0.6140120058434311,0.17438493195453858,1.1487342541873211,-0.7324892718849242,-0.412144718705945,0.07851922266088258,0.5361258519126099,0,-1,0.10099855810403824,-1.6184199492083948,-0.8448002974139612,-1.3890717665301722,0.6892498731613159,0.21864283084869385
4378,1734173174,845433950,-0.6166298884177615,0.17350720166226818,1.1456161792168373,-0.732757614132347,-0.414163256441181,0.07864875359824412,0.5341811017834212,0,-1,0.1016089990735054,-1.6187079588519495,-0.8499706427203577,-1.3879693190204065,0.6933495998382568,0.21994835138320923
4394,1734173174,861727476,-0.6192426620517415,0.17264832225149246,1.142437252694067,-0.7330504075741245,-0.4161565462143618,0.07874159589684902,0.5322129179886195,0,-1,0.10220708698034286,-1.6189716498004358,-0.8550809065448206,-1.3868425528155726,0.6974014043807983,0.22126586735248566
4410,1734173174,877444267,-0.6217861652327981,0.17177330713572841,1.1393520140861833,-0.7333137303863335,-0.4181718096978698,0.07888644106864802,0.5302454524240742,0,-1,0.10281753540039062,-1.6193435827838343,-0.8599761168109339,-1.3857997099505823,0.7015490531921387,0.22252346575260162
4426,1734173174,893697738,-0.6243532868143393,0.17088271404803496,1.1362435954175096,-0.7335882151642545,-0.42012541273703125,0.07903360675084119,0.5282959938790144,0,-1,0.10340364277362823,-1.6196797529803675,-0.8649314085589808,-1.3846972624408167,0.7055173516273499,0.2238050252199173
4442,1734173174,909467935,-0.6268987125991304,0.17002717876199097,1.1331213678921248,-0.7338662771239843,-0.4220692292605566,0.07913485904260041,0.5263416448428633,0,-1,0.1040380522608757,-1.6200030485736292,-0.8699577490435999,-1.383630100880758,0.7095690965652466,0.22508659958839417
4458,1734173174,925850391,-0.6294102474520937,0.1691088216358359,1.1299956452704232,-0.7341333579079039,-0.42403347776315037,0.07929791048804136,0.5243621496019558,0,-1,0.10464887320995331,-1.6203392187701624,-0.8749969641314905,-1.3825390974627894,0.713692843914032,0.22635617852210999
4474,1734173174,941723346,-0.6319139127122003,0.16826573310579823,1.1267890569572891,-0.7344161445299721,-0.4260053575707066,0.07937171695596028,0.522352842934973,0,-1,0.10524696111679077,-1.6205785910235804,-0.8801553885089319,-1.3814604918109339,0.7177925705909729,0.2276017814874649
4490,1734173174,957337141,-0.6343920686846958,0.16736279436875892,1.123589280906224,-0.7346846723604232,-0.42800138813674793,0.07945453385757895,0.5203270327410919,0,-1,0.10583344101905823,-1.62085467973818,-0.8853138128863733,-1.3804176489459437,0.7219042778015137,0.22889496386051178
4506,1734173174,973530054,-0.6368683527468396,0.16648166735914688,1.1203750576947318,-0.7349628576937602,-0.4299526352699537,0.07951153736501054,0.518312882977933,0,-1,0.10643152892589569,-1.6211422125445765,-0.8901851812945765,-1.3793628851519983,0.7260043621063232,0.2301405668258667
4522,1734173174,989287614,-0.6392617179698158,0.1656234139714829,1.117230002835744,-0.7352546664817894,-0.4318547423005218,0.07963797708066847,0.5162943439316392,0,-1,0.1070423498749733,-1.6214540640460413,-0.8951037565814417,-1.378308121358053,0.7301516532897949,0.2313861846923828
4538,1734173175,5686521,-0.6416305935808773,0.16472911133546814,1.114097430609758,-0.7355326974815266,-0.4337842421412115,0.07980158482126563,0.514251484456329,0,-1,0.10760486125946045,-1.6217902342425745,-0.9000709692584437,-1.3772290388690394,0.7343236804008484,0.2327156811952591
4554,1734173175,21247386,-0.6440147823435548,0.16385567897785394,1.1108935733397227,-0.7358294350798404,-0.43567443266522216,0.07992127935683664,0.5122064235226714,0,-1,0.10823889821767807,-1.6220420042621058,-0.9051573912249964,-1.3761504332171839,0.7384353876113892,0.23406915366649628
4570,1734173175,37503242,-0.6463660103578184,0.16296736544396367,1.1076578137985351,-0.7361254327901784,-0.4375819167064115,0.08000403447678277,0.5101379890171419,0,-1,0.10876546055078506,-1.6223061720477503,-0.9102323690997522,-1.3750956694232386,0.7425594329833984,0.23543459177017212
4586,1734173175,53237438,-0.6487038799877448,0.1620906081194176,1.1044208454758497,-0.7364351366850574,-0.43944980067377587,0.08010665223075256,0.5080650415171476,0,-1,0.10937590152025223,-1.6225574652301233,-0.915318791066305,-1.373993221913473,0.7467074990272522,0.23678769171237946
4602,1734173175,69495201,-0.6510076627959202,0.1612020427513999,1.1011837350330085,-0.7367443248232043,-0.4412809518848654,0.08022464181905002,0.5060068459906379,0,-1,0.10996238142251968,-1.6228817144977015,-0.9203222433673304,-1.3729499022113245,0.7507596611976624,0.23812918365001678
4618,1734173175,85209131,-0.6533094080975111,0.1603087810305252,1.09793928791774,-0.7370234273939381,-0.4431720244649551,0.08028580165118071,0.5039337399473793,0,-1,0.110560841858387,-1.623169247304098,-0.9252765814410608,-1.3718474547015589,0.7548593878746033,0.23938676714897156
4634,1734173175,101499080,-0.6556100872110939,0.15940484897254645,1.0946852504933042,-0.7373316369652569,-0.4449878466279488,0.0803999143971329,0.5018602666564567,0,-1,0.11119488626718521,-1.6234572569476526,-0.9302919546710413,-1.3707087675677698,0.7589834332466125,0.24071627855300903
4650,1734173175,117210865,-0.6578623536686913,0.1584948841690295,1.0914603087265675,-0.7376055784432058,-0.4468432170441642,0.0804902864960779,0.49979041988704137,0,-1,0.11174578219652176,-1.6237810293780726,-0.9352949301349085,-1.3696416060077112,0.7631075382232666,0.2419978380203247
4666,1734173175,133509874,-0.6601104092311536,0.15760024539332923,1.0881682652606781,-0.7379064188622823,-0.4486835490732229,0.08057416883958832,0.49767960889382284,0,-1,0.11239218711853027,-1.6240204016314905,-0.9404414335833948,-1.3685391584979456,0.7671836614608765,0.24330337345600128
4682,1734173175,149213790,-0.6623347889944065,0.15670260449789408,1.0848351842968813,-0.7381888432490982,-0.4505490017113763,0.08057437148006014,0.4955709832304892,0,-1,0.11297828704118729,-1.6242850462542933,-0.9455998579608362,-1.3674724737750452,0.7712957262992859,0.24458493292331696
4698,1734173175,165584802,-0.6645471272647582,0.15578290177434329,1.081511534494585,-0.7384888105749152,-0.4523820806572931,0.08063593201775235,0.4934395365426789,0,-1,0.1136007159948349,-1.6245363394366663,-0.9505785147296351,-1.366429630910055,0.7753958702087402,0.2459380179643631
4714,1734173175,181270122,-0.6667143446683886,0.15488335810183432,1.0782265336444272,-0.7387908095555311,-0.45417753251854376,0.08068764353065652,0.49132516000416654,0,-1,0.11421079188585281,-1.6247766653644007,-0.9555338064776819,-1.365314785634176,0.7794719934463501,0.24723157286643982
4730,1734173175,197605133,-0.6688268286363587,0.1539673952875898,1.0750097859094883,-0.7390759971133783,-0.4559587037485133,0.08081245485608954,0.4892215020897727,0,-1,0.11482161283493042,-1.625052277241842,-0.9604170958148401,-1.3642123381244105,0.7835724353790283,0.2485371083021164
4746,1734173175,213352441,-0.6709391572638664,0.15306256250233286,1.0717308440164832,-0.7393662642469848,-0.45771923562332845,0.08086214060309627,0.4871262083392136,0,-1,0.11543168127536774,-1.6253278891192835,-0.9654915968524378,-1.3631213347064417,0.7876242399215698,0.24986660480499268
4762,1734173175,229626655,-0.6730543844293337,0.15216228703687973,1.0683567756440608,-0.7396803132503397,-0.45949940737664385,0.0808954428813786,0.4849631492509695,0,-1,0.1160660982131958,-1.625592056904928,-0.9705188910113733,-1.3620665709124964,0.7917842864990234,0.25122007727622986
4778,1734173175,245260953,-0.6751365157564709,0.1512441319330635,1.0650305036319478,-0.739978752150377,-0.461291015626253,0.08095153855443074,0.48279280615409076,0,-1,0.11667654663324356,-1.6258075873004358,-0.9757011572467249,-1.3610237280475062,0.7959446907043457,0.2524780333042145
4794,1734173175,261535167,-0.6772308287597631,0.15032344368216968,1.0616360032822412,-0.7402696505200057,-0.4630924892749859,0.08095923358025488,0.480616056113592,0,-1,0.11727463454008102,-1.626059357319967,-0.9807637373553675,-1.3599088827716272,0.8000567555427551,0.2537236511707306
4810,1734173175,277257204,-0.6792900796186857,0.14936334767238083,1.0582859971137042,-0.7405609492892095,-0.46488199859238394,0.08099436288485518,0.47842880447720976,0,-1,0.11788545548915863,-1.6263473669635218,-0.9856589476214808,-1.3588421980487269,0.8041572570800781,0.2550407946109772
4826,1734173175,293635368,-0.6813208220559863,0.14845674854404714,1.054974447071907,-0.7408537244280929,-0.4666146198626728,0.0810746149440014,0.47627036685386864,0,-1,0.1184835433959961,-1.6266234556781214,-0.990542236958639,-1.3577035109149378,0.8082693219184875,0.25632235407829285
4842,1734173175,309370279,-0.6832987814647762,0.14754980189280414,1.0516812269225895,-0.7411479950947999,-0.46830807547432146,0.08115049941194794,0.4741326736871096,0,-1,0.11907001584768295,-1.626899544392721,-0.9955690542804163,-1.3566010634051722,0.8123698234558105,0.2576039135456085
4858,1734173175,325625181,-0.685343640890094,0.14661290953397804,1.0482631303396335,-0.7414412728835512,-0.4700737847592936,0.0811323498534433,0.47192480074070187,0,-1,0.11969245225191116,-1.6271870771991175,-1.0006917158709925,-1.3555100599872034,0.8164459466934204,0.2588375508785248
4874,1734173175,341379404,-0.6873417703614709,0.14570552103629564,1.0447775166300848,-0.7417323976880927,-0.47184245720475876,0.08104266069518591,0.46971250030874556,0,-1,0.12027855217456818,-1.6274145285235804,-1.0058019796954554,-1.3544428984271448,0.8205584287643433,0.26015505194664
4890,1734173175,357722520,-0.6893192336007272,0.14479290797773098,1.0413434636769776,-0.7420382978056179,-0.47357150439280843,0.08101620689027815,0.4674885763716425,0,-1,0.12084143608808517,-1.627678696309225,-1.0109131971942347,-1.3533404509173792,0.8247064352035522,0.261412650346756
4906,1734173175,373430252,-0.6912596919621418,0.14388997968211759,1.0379173933067534,-0.7423442195488443,-0.4752826030605096,0.08098513126092304,0.46526649937975806,0,-1,0.12146349251270294,-1.6279543081866663,-1.0158799330340784,-1.3522499243365687,0.8287354111671448,0.2627178132534027
4922,1734173175,389888763,-0.6932024633110165,0.14299450696410704,1.0345105201205507,-0.7426606394958696,-0.4769384429639449,0.08097585541128585,0.4630635021324014,0,-1,0.12206195294857025,-1.6282904783831995,-1.0208352247821253,-1.3512194792376917,0.832859456539154,0.2640233337879181
4938,1734173175,405431270,-0.6951010512142225,0.14205946349526966,1.031131729371737,-0.7429550032500066,-0.4786237570024827,0.08097050922534975,0.4608480650001674,0,-1,0.12264843285083771,-1.6286137739764612,-1.0257542769061487,-1.3501165548907679,0.8369595408439636,0.2653648257255554
4954,1734173175,421766042,-0.6969625342284057,0.14114862037701587,1.0277302934051045,-0.7432732243598915,-0.48026378732332003,0.08098165284660845,0.45862139116894945,0,-1,0.12319895625114441,-1.6288660208331507,-1.0309127012835901,-1.3489654699908655,0.8410484194755554,0.26665836572647095
4970,1734173175,437398672,-0.6988755415431542,0.1402275569104685,1.0241899102988574,-0.743603434228384,-0.48193748247231905,0.080899433839769,0.45633921286297685,0,-1,0.12382139265537262,-1.6291421095477503,-1.035987679158346,-1.3479588667498987,0.8451125621795654,0.26805979013442993
4986,1734173175,453532695,-0.7006981333314672,0.13933439991928048,1.0206787975700224,-0.743921222857115,-0.4835939631274806,0.08079946093896519,0.4540809841001979,0,-1,0.12443146109580994,-1.629357639943258,-1.0411103407489222,-1.3469165007220667,0.849165141582489,0.2693776786327362
5002,1734173175,469662666,-0.702560889057938,0.1383971738854078,1.0171650013565787,-0.7442349486545717,-0.48526086883485225,0.08072331208552903,0.4517963891674141,0,-1,0.12497037649154663,-1.629693333302633,-1.0461257139789026,-1.3458617369281214,0.853349506855011,0.27063488960266113
5018,1734173175,485731601,-0.70436093287819,0.1374798016469288,1.01374961747187,-0.7445446502223498,-0.48688957282576417,0.08069465880636813,0.449533291024088,0,-1,0.12554487586021423,-1.6300409475909632,-1.0510805288897913,-1.3448308149920862,0.8574383854866028,0.2719404101371765
5034,1734173175,501316070,-0.7062021240254986,0.1365517162174285,1.0102567093282562,-0.7448452015033735,-0.4885197756797114,0.08060341749273302,0.447277479486432,0,-1,0.12617890536785126,-1.6303289572345179,-1.0559518972979944,-1.3437636534320276,0.8615504503250122,0.2731980085372925
5050,1734173175,517721414,-0.7079608750302232,0.13562657275310758,1.0067876848767856,-0.74514402062662,-0.49014761003545815,0.08054123397686276,0.4450042904629212,0,-1,0.12681332230567932,-1.6306045691119593,-1.0609429518329065,-1.342649284993307,0.8653513193130493,0.2744915783405304
5066,1734173175,533295154,-0.7097253857733138,0.13467224790058402,1.0032829043515772,-0.7454441715066369,-0.491739921021409,0.08046057983805485,0.44275380555424493,0,-1,0.12739942967891693,-1.6308448950396937,-1.066125218068258,-1.3415706793414515,0.8696199655532837,0.27576112747192383
5082,1734173175,549589157,-0.7114488814784667,0.13373435215717244,0.9997549897271543,-0.7457486292492608,-0.4933713612830704,0.08037113990182387,0.44043633105072083,0,-1,0.128022238612175,-1.6311562697040003,-1.0712125937091272,-1.3404796759234827,0.873780369758606,0.2770666778087616
5098,1734173175,565549373,-0.7131860626594958,0.1328113499341014,0.9961574930483206,-0.7460596036169046,-0.49499722329988427,0.08021397435494976,0.4381079034833487,0,-1,0.12857238948345184,-1.6314318815814417,-1.0762150923358362,-1.3394129912005823,0.8778688311576843,0.27838417887687683
5114,1734173175,581690311,-0.7148987253359208,0.13187973501400252,0.9926495924470183,-0.7463746492603964,-0.49655387892765607,0.08016030873679317,0.43581355321575393,0,-1,0.12921878695487976,-1.6317561308490198,-1.0811227003680628,-1.3382862249957483,0.8819693326950073,0.27966538071632385
5130,1734173175,597265243,-0.7165458952500282,0.13094314755834702,0.9892312132507524,-0.746680842948347,-0.49810398116141397,0.08013451241503906,0.4335188607720541,0,-1,0.12982922792434692,-1.632104221974508,-1.085994068776266,-1.337231461201803,0.8860817551612854,0.2809589207172394
5146,1734173175,613371133,-0.7182267605130567,0.12999008169015416,0.9856946049179758,-0.7469862321633751,-0.4996779850246826,0.08006018190581775,0.4311888768431355,0,-1,0.1304512917995453,-1.6323917547809046,-1.0910328070269983,-1.336104694996969,0.8901466727256775,0.28222888708114624
5162,1734173175,629408359,-0.7198874144359368,0.12904812378029779,0.9821006909237806,-0.7472952193386254,-0.5012535816042245,0.07991572926444136,0.4288451682119146,0,-1,0.13106173276901245,-1.632667366658346,-1.0961673895465296,-1.3350618521319788,0.8942471742630005,0.2835463881492615
5178,1734173175,645583868,-0.7215333232050971,0.12812517454867328,0.9784947735984344,-0.7476126038703478,-0.502795379022954,0.0797489663271338,0.4265117861643639,0,-1,0.1316482126712799,-1.6329434553729456,-1.101290527974264,-1.333947483693258,0.8982760906219482,0.28482794761657715
5194,1734173175,661174774,-0.7230989899488123,0.12719090843530806,0.9748800701506399,-0.7479101063750169,-0.5043634542831864,0.07958388176813873,0.42416315791020565,0,-1,0.13224667310714722,-1.6332553068744105,-1.10638934770693,-1.3328688780414026,0.9024009108543396,0.2861334979534149
5210,1734173175,677246570,-0.7247544282277387,0.12623204816304248,0.971219870577585,-0.7482279006217467,-0.505925931984456,0.07938317635947231,0.4217727722220982,0,-1,0.13286873698234558,-1.6335910002337855,-1.1112611929522913,-1.3318503538714808,0.9064894318580627,0.2874266505241394
5226,1734173175,693446159,-0.7263191881188231,0.12529371214531376,0.9677010818950079,-0.7485233579908142,-0.5074281938019636,0.07927647700000971,0.4194575674266699,0,-1,0.13345520198345184,-1.6339147726642054,-1.1162517706500452,-1.3307479063617151,0.9105542898178101,0.2886962294578552
5242,1734173175,709019660,-0.7278702023457703,0.12435991224128658,0.9641268112887929,-0.7488181060540515,-0.5089585778034795,0.07911846703030634,0.4171005613765786,0,-1,0.1340540498495102,-1.6342266241656702,-1.1212309042560022,-1.3296569029437464,0.9147027134895325,0.28988194465637207
5258,1734173175,725280761,-0.7293462872447182,0.12345273343419313,0.9605956078357617,-0.7491383201580945,-0.5104407336116947,0.07902268469888289,0.41472575280978646,0,-1,0.13460420072078705,-1.634514633809225,-1.126305882130758,-1.328613583241598,0.9188039302825928,0.291223406791687
5274,1734173175,741604566,-0.7308392791371633,0.12253560241206132,0.9569270347212544,-0.7494630314356242,-0.5119385415658634,0.07883692544763238,0.4123212744410672,0,-1,0.1352386176586151,-1.6347907225238245,-1.1314767042743128,-1.3274992148028772,0.9228804707527161,0.2924574017524719
5290,1734173175,757301330,-0.7323512351304347,0.12160219124799906,0.9532417852193951,-0.7497775968151614,-0.5134296188732747,0.07860914700098351,0.40993192579439697,0,-1,0.13580074906349182,-1.6350420157061976,-1.1365755240069788,-1.326348606740133,0.9269334077835083,0.29377493262290955
5306,1734173175,773443937,-0.7337863766174496,0.12068419960179942,0.9496161199881884,-0.7500942225193453,-0.5148787498006299,0.07843468054348955,0.4075616900971925,0,-1,0.13638760149478912,-1.6353419462787073,-1.1416266600238245,-1.325282398854391,0.9310222268104553,0.2950681149959564
5322,1734173175,789728879,-0.7352241823232244,0.11980088885988513,0.9460154181235803,-0.7504499816537643,-0.516281156802435,0.07827459866766949,0.4051563640991211,0,-1,0.13696208596229553,-1.6356061140643519,-1.1464985052691858,-1.3242037932025355,0.9351950287818909,0.296469509601593
5338,1734173175,805305242,-0.7365930576704387,0.11885305220307715,0.9424965862470918,-0.7507619559472175,-0.5177091713952924,0.07819202324062932,0.4027650765111653,0,-1,0.1375362128019333,-1.6359055677997034,-1.1514533201800745,-1.3231003920184534,0.9393078684806824,0.2977990210056305
5354,1734173175,821514129,-0.7379652663497164,0.11793285198535582,0.9389296234722468,-0.7511070067890683,-0.5190734674652563,0.07807554892882708,0.40038132871729204,0,-1,0.13818298280239105,-1.6361573378192347,-1.1564086119281214,-1.3219860235797327,0.9433727264404297,0.2992004156112671
5370,1734173175,837565183,-0.7393186561797038,0.11696536900203156,0.935295334997315,-0.751424655729789,-0.5205162405672218,0.07790593588697517,0.3979378032063665,0,-1,0.13876909017562866,-1.636409107838766,-1.161459747944967,-1.320895020161764,0.9475215077400208,0.3005654811859131
5386,1734173175,853558063,-0.7406749550913094,0.11604328772826594,0.9316070208292239,-0.7517596676286903,-0.5219070698315191,0.07770091977132174,0.39551609278684174,0,-1,0.13936755061149597,-1.6366608778582972,-1.166654411946432,-1.3198044935809534,0.9516467452049255,0.3019069731235504
5402,1734173175,869482040,-0.7419942257122926,0.11511150995447905,0.9279117982978544,-0.7520907438098335,-0.5233234749262982,0.07746792707981084,0.3930531439138895,0,-1,0.1400255560874939,-1.6369612852679651,-1.1716693083392542,-1.3187978903399866,0.9557711482048035,0.3032248616218567
5418,1734173175,885687112,-0.7433004314251838,0.11413840232447604,0.9243092720805437,-0.752397834250295,-0.5247247681124103,0.07728512680344689,0.39062568517676594,0,-1,0.1406240165233612,-1.6372607390033167,-1.1766250769244593,-1.317707363759176,0.9598604440689087,0.3044944405555725
