yildirimyigit/pemp/data/ur10/raw/13_2024-12-14_13-47-36.csv
Time,ROS secs,ROS nsecs,________p_x________,________p_y________,________p_z________,________q_x________,________q_y________,________q_z________,________q_w________,gripper_position,gripper_force,shoulder_pan_joint,shoulder_lift_joint,elbow_joint,wrist_1_joint,wrist_2_joint,wrist_3_joint
0,1734173256,905596494,-8.143686027383533e-05,0.256141007746905,1.427299995559165,-0.7071067784597288,-3.8092318800782004e-05,-0.00013933466044742992,0.7071067691594612,0,-1,-9.519258608037262e-05,-1.570820156727926,-1.1746083394825746e-05,-1.5707476774798792,-5.990663637334137e-05,-0.00015527406801396637
12,1734173256,921355962,-0.00011975489067329956,0.2561410061781748,1.4272999927821712,-0.7071067783384557,-4.618451370835561e-05,-0.00011404655166376263,0.7071067733293076,0,-1,-5.990663637334137e-05,-1.5708683172809046,-1.1746083394825746e-05,-1.5707600752459925,-5.990663637334137e-05,-0.00015527406801396637
28,1734173256,937610387,-8.074503370354946e-05,0.2561410041777187,1.4272999960710995,-0.7071067776275013,-5.0736373275089925e-05,-0.0001351199756705461,0.707106770015437,0,-1,-5.990663637334137e-05,-1.5708320776568812,-3.5587941304981996e-05,-1.5707476774798792,-8.32716571252945e-05,-0.00017911592592412262
44,1734173256,953565359,-9.471325096869812e-05,0.25614100614178476,1.4272999951520506,-0.7071067773390116,-4.635310104061478e-05,-0.0001391660731072035,0.7071067698201111,0,-1,-8.32716571252945e-05,-1.5708444754229944,-3.5587941304981996e-05,-1.5707839171039026,-4.7985707418263246e-05,-0.00014335313905888825
60,1734173256,969249248,-6.173701280110867e-05,0.2561410049802172,1.427299997143101,-0.7071067778138946,-2.983153647440976e-05,-0.00013916607313688812,0.7071067702352559,0,-1,-5.990663637334137e-05,-1.5708444754229944,-2.366701234990387e-05,-1.5707839171039026,-4.7985707418263246e-05,-0.00015527406801396637
76,1734173256,985611438,-0.0001100652615688557,0.2561410070614721,1.4272999934217447,-0.7071067764103656,-5.4951058082655774e-05,-0.00014776403007721285,0.7071067683884195,0,-1,-8.32716571252945e-05,-1.570820156727926,-2.366701234990387e-05,-1.5707476774798792,-8.32716571252945e-05,-0.00013143221010381012
93,1734173257,1978397,-5.813626484766714e-05,0.25614100365635284,1.4272999977060083,-0.7071067790089032,-2.5279676821702233e-05,-0.00014338075782676198,0.7071067683755758,0,-1,-8.32716571252945e-05,-1.5708444754229944,-4.7985707418263246e-05,-1.5707719961749476,-5.990663637334137e-05,-0.0001671949969690445
108,1734173257,17830610,-5.51181792602505e-05,0.25614100476923807,1.427299997540695,-0.7071067792459647,-4.230700368407737e-05,-0.00011792406162823358,0.7071067720284057,0,-1,-7.135072817021637e-05,-1.5708444754229944,-4.7985707418263246e-05,-1.5707719961749476,-7.135072817021637e-05,-0.00014335313905888825
124,1734173257,34080028,-3.1951808971875266e-05,0.2561410030092425,1.427299998539669,-0.7071067809796668,-2.0727817303840125e-05,-0.0001135407893499129,0.7071067719739503,0,-1,-2.366701234990387e-05,-1.570808235798971,-7.18275653284195e-05,-1.5707600752459925,-5.990663637334137e-05,-0.000119511281148732
140,1734173257,49596786,-7.711239288719016e-05,0.2561410038203545,1.4272999962142325,-0.7071067788078309,-2.527967683235297e-05,-0.00012652201870912264,0.7071067717941399,0,-1,-3.5587941304981996e-05,-1.570820156727926,-7.18275653284195e-05,-1.5707600752459925,-5.990663637334137e-05,-0.0001671949969690445
156,1734173257,65179347,-6.033448411801326e-05,0.256141003997295,1.4272999976016258,-0.7071067792459328,-2.9494361704632834e-05,-0.0001307367034539235,0.7071067704261081,0,-1,-5.990663637334137e-05,-1.5708320776568812,-4.7985707418263246e-05,-1.5707600752459925,-8.32716571252945e-05,-0.000119511281148732
172,1734173257,81536769,-2.792892462554807e-05,0.25614100256798544,1.427299998662383,-0.7071067796562488,-1.7018894575703226e-05,-0.00012635343127300947,0.707106771222944,0,-1,-8.32716571252945e-05,-1.5708444754229944,-1.1746083394825746e-05,-1.5707839171039026,-5.990663637334137e-05,-0.0001671949969690445
188,1734173257,97876787,-5.532722908999663e-05,0.25614100287305386,1.42729999778406,-0.7071067790575719,-3.37090465436064e-05,-0.0001265220186646739,0.7071067711927989,0,-1,-5.990663637334137e-05,-1.5708563963519495,1.1920928955078125e-05,-1.5707719961749476,-7.135072817021637e-05,-0.0001671949969690445
204,1734173257,113621950,-7.998424005392316e-05,0.25614100414121144,1.4272999965417972,-0.7071067785048993,-4.213841622788157e-05,-0.0001265220186760956,0.7071067712933853,0,-1,-7.135072817021637e-05,-1.570808235798971,-7.18275653284195e-05,-1.5707476774798792,-0.000119511281148732,-0.00019103685487920075
220,1734173257,129421710,-4.501546613998141e-05,0.2561410047140351,1.4272999978170504,-0.7071067809727279,-8.252350136081917e-06,-0.00010949469197521609,0.7071067728746471,0,-1,-3.5587941304981996e-05,-1.5708563963519495,-5.990663637334137e-05,-1.5707719961749476,-9.519258608037262e-05,-0.00017911592592412262
237,1734173257,145890712,-6.729177663886214e-05,0.25614100431600706,1.4272999969116533,-0.7071067786214912,-2.9662949061746927e-05,-0.00013933466046621556,0.7071067694015518,0,-1,-5.990663637334137e-05,-1.5708563963519495,-3.5587941304981996e-05,-1.5707839171039026,-4.7985707418263246e-05,-0.00017911592592412262
252,1734173257,161839008,-4.932187760845418e-05,0.2561410040943882,1.4272999980112802,-0.7071067798862046,-2.1295396668280567e-05,-0.00013062993326706346,0.7071067701000247,0,-1,-2.366701234990387e-05,-1.5708683172809046,-4.7985707418263246e-05,-1.570808235798971,-4.7985707418263246e-05,-0.00015527406801396637
268,1734173257,177243471,-0.00010500412402634915,0.2561410051587589,1.4272999940879736,-0.7071067754174143,-5.073637316495136e-05,-0.00015197871494156853,0.7071067688030409,0,-1,-7.135072817021637e-05,-1.570808235798971,-7.18275653284195e-05,-1.5707719961749476,-4.7985707418263246e-05,-0.00015527406801396637
284,1734173257,193201303,-7.607826416041102e-05,0.25614100509467314,1.4272999963567439,-0.7071067790278616,-4.180124147332971e-05,-0.0001265220186308543,0.7071067707904359,0,-1,-3.5587941304981996e-05,-1.5708444754229944,-2.366701234990387e-05,-1.5707839171039026,-4.7985707418263246e-05,-0.0001671949969690445
300,1734173257,209203720,-3.437063685927084e-05,0.2561410044405694,1.4272999982195589,-0.707106780638536,-8.252350124050619e-06,-0.00012601625640700588,0.7071067704574798,0,-1,-8.32716571252945e-05,-1.5708444754229944,-3.5587941304981996e-05,-1.5707839171039026,-0.00010711351503545075,-0.00013143221010381012
316,1734173257,225400209,-8.883728958577371e-05,0.25614100712735577,1.427299995254648,-0.7071067796660762,-3.354045920317776e-05,-0.00011792406163420413,0.7071067720784637,0,-1,-7.135072817021637e-05,-1.5708683172809046,-4.7985707418263246e-05,-1.5707600752459925,-7.135072817021637e-05,-0.00017911592592412262
332,1734173257,241370916,-5.549550052482032e-05,0.25614100453488076,1.427299997429805,-0.7071067801131635,-1.2635622346407485e-05,-0.00012197015905454689,0.707106771627606,0,-1,-3.5587941304981996e-05,-1.5708444754229944,-4.7985707418263246e-05,-1.5707476774798792,-5.990663637334137e-05,-0.00017911592592412262
348,1734173257,257563591,-4.4530046129210304e-05,0.25614100167017306,1.427299998779188,-0.7071067790716105,-3.370904654419688e-05,-0.00011775547428771912,0.7071067726930079,0,-1,-7.135072817021637e-05,-1.5708320776568812,-1.1746083394825746e-05,-1.5707476774798792,-8.32716571252945e-05,-0.00017911592592412262
364,1734173257,273536920,-8.759931327690995e-05,0.25614100341643364,1.4272999961923345,-0.7071067766319759,-6.742652524825296e-05,-0.00012652201866596505,0.7071067712071349,0,-1,-7.135072817021637e-05,-1.5708320776568812,-5.990663637334137e-05,-1.5707357565509241,-9.519258608037262e-05,-0.00015527406801396637
380,1734173257,289002418,-6.475648086320329e-05,0.25614100347974444,1.42729999745256,-0.7071067794908555,-3.78169612785015e-05,-0.00011410836885444449,0.7071067726639508,0,-1,-3.5587941304981996e-05,-1.5708563963519495,0.0,-1.5707719961749476,-5.990663637334137e-05,-0.00017911592592412262
396,1734173257,305173397,-7.905391459629799e-05,0.2561410028007306,1.4272999965096786,-0.7071067784213997,-4.213841619373971e-05,-0.0001346142134698915,0.7071067698826515,0,-1,-3.5587941304981996e-05,-1.570820156727926,-2.366701234990387e-05,-1.5707719961749476,-5.990663637334137e-05,-0.00013143221010381012
412,1734173257,321123361,-6.970856156076351e-05,0.25614100787372573,1.427299995995336,-0.7071067792803136,-2.5448264287872238e-05,-0.0001351199756445273,0.7071067697249122,0,-1,-7.135072817021637e-05,-1.5708444754229944,0.0,-1.5707719961749476,-5.990663637334137e-05,-0.00015527406801396637
428,1734173257,337205171,-9.67883944445548e-05,0.25614100361491354,1.4272999954588843,-0.7071067753620028,-6.371760250550073e-05,-0.00013933466053218948,0.7071067704124107,0,-1,-7.135072817021637e-05,-1.5708320776568812,-4.7985707418263246e-05,-1.5707357565509241,-5.990663637334137e-05,-0.00019103685487920075
444,1734173257,353116750,-6.698403351351253e-05,0.25614100535459594,1.427299997090188,-0.7071067788403199,-2.1233579408739335e-05,-0.0001305681161211294,0.7071067711591857,0,-1,-1.1746083394825746e-05,-1.5708444754229944,-4.7985707418263246e-05,-1.5707719961749476,-2.366701234990387e-05,-0.00019103685487920075
460,1734173257,369225740,-0.00011277497998111175,0.2561410041838433,1.4272999940004756,-0.7071067779293816,-4.652168844469746e-05,-0.00012213874651144458,0.7071067723648157,0,-1,-5.990663637334137e-05,-1.5708320776568812,-7.18275653284195e-05,-1.570723835621969,-5.990663637334137e-05,-0.00014335313905888825
476,1734173257,385201930,-6.365045293670351e-05,0.2561410061965536,1.4272999970235265,-0.7071067789489285,-3.387763394838707e-05,-0.00014321217041610311,0.707106768110058,0,-1,-8.32716571252945e-05,-1.5708563963519495,-4.7985707418263246e-05,-1.5707839171039026,-4.7985707418263246e-05,-0.0001671949969690445
491,1734173257,401706933,-4.3485152664358465e-05,0.2561410046458962,1.4272999982911854,-0.7071067796499698,-3.370904659666033e-05,-0.00012652201861161998,0.7071067706004011,0,-1,-2.366701234990387e-05,-1.5708444754229944,-3.5587941304981996e-05,-1.5707719961749476,-8.32716571252945e-05,-0.00017911592592412262
508,1734173257,417501926,-4.3363527864158727e-05,0.2561410024531885,1.4272999984297197,-0.7071067792453746,-3.775514402760912e-05,-0.00011404655163685287,0.7071067729227081,0,-1,-5.990663637334137e-05,-1.5708683172809046,-4.7985707418263246e-05,-1.5707719961749476,-7.135072817021637e-05,-0.00017911592592412262
524,1734173257,433485984,-6.339472960079032e-05,0.2561410043348452,1.4272999973556033,-0.707106778755288,-4.1969828857377865e-05,-0.00012669060604762587,0.7071067710228377,0,-1,-5.990663637334137e-05,-1.570820156727926,-3.5587941304981996e-05,-1.570808235798971,-7.135072817021637e-05,-0.00017911592592412262
540,1734173257,449640035,-4.975599482873206e-05,0.25614100357708725,1.427299998159904,-0.7071067794718081,-3.337187180581101e-05,-0.00010966327944041544,0.7071067736101041,0,-1,-7.135072817021637e-05,-1.5708444754229944,-1.1746083394825746e-05,-1.5707839171039026,-7.135072817021637e-05,-0.00013143221010381012
556,1734173257,465620756,-3.9627540072778686e-05,0.25614100426537356,1.4272999983097923,-0.7071067804445285,-2.1064992066356186e-05,-0.00012230733378621494,0.7071067710371295,0,-1,-7.135072817021637e-05,-1.5708563963519495,-7.18275653284195e-05,-1.5707476774798792,-7.135072817021637e-05,-0.00014335313905888825
572,1734173257,481159925,-6.372875400165449e-05,0.2561410044141482,1.4272999969966562,-0.7071067790056653,-4.196982887830878e-05,-0.00011826123643687473,0.7071067722324872,0,-1,-4.7985707418263246e-05,-1.5708563963519495,-2.366701234990387e-05,-1.5707476774798792,-4.7985707418263246e-05,-0.00014335313905888825
588,1734173257,497464418,-6.0909561705061e-05,0.25614100304285015,1.4272999976064629,-0.7071067797483623,-2.1064992019011238e-05,-0.00012230733384929594,0.7071067717332957,0,-1,-5.990663637334137e-05,-1.5708683172809046,0.0,-1.5707719961749476,-0.00010711351503545075,-0.00017911592592412262
604,1734173257,513559103,-6.29537505873746e-05,0.25614100423917985,1.4272999971128972,-0.7071067779404532,-4.6353101051429155e-05,-0.00013916607306035882,0.7071067692186694,0,-1,-7.135072817021637e-05,-1.5708563963519495,-3.5587941304981996e-05,-1.5707719961749476,-5.990663637334137e-05,-0.00017911592592412262
620,1734173257,530021667,-4.252142912528461e-05,0.2561410033999172,1.4272999985954875,-0.7071067787823945,-1.7187481919700455e-05,-0.00014338075787161423,0.7071067688450835,0,-1,-4.7985707418263246e-05,-1.5708320776568812,-3.5587941304981996e-05,-1.5707357565509241,-7.135072817021637e-05,-0.0001671949969690445
636,1734173257,545797348,-6.119056882168428e-05,0.2561410069936282,1.4272999970651647,-0.7071067794353915,-2.129539667086536e-05,-0.00013905930288047152,0.7071067689433648,0,-1,-7.135072817021637e-05,-1.5708444754229944,-3.5587941304981996e-05,-1.5707476774798792,-7.135072817021637e-05,-0.00015527406801396637
652,1734173257,562103033,-7.364386742654826e-05,0.25614100487958885,1.4272999963845374,-0.7071067797658287,-2.9325774341288062e-05,-0.00012213874643479165,0.7071067714506243,0,-1,-5.990663637334137e-05,-1.5708563963519495,-3.5587941304981996e-05,-1.5707600752459925,-4.7985707418263246e-05,-0.00015527406801396637
668,1734173257,577719449,-5.682810534004096e-05,0.2561410056284454,1.427299997554142,-0.7071067793025384,-2.5448264270675277e-05,-0.00013478280085983202,0.7071067697670371,0,-1,-5.990663637334137e-05,-1.5708444754229944,0.0,-1.5707357565509241,-5.990663637334137e-05,-0.00017911592592412262
684,1734173257,593476057,-7.009220110522392e-05,0.25614100578988,1.427299996612942,-0.707106777905683,-5.495105816423223e-05,-0.00013933466039243262,0.7071067686043436,0,-1,-8.32716571252945e-05,-1.5708320776568812,-4.7985707418263246e-05,-1.5707839171039026,-8.32716571252945e-05,-0.00017911592592412262
700,1734173257,609744310,-3.772409362787998e-05,0.25614100285629654,1.427299998467647,-0.7071067808113912,-2.517290678630123e-05,-0.00010146431436353721,0.7071067738339585,0,-1,-5.990663637334137e-05,-1.5708444754229944,-4.7985707418263246e-05,-1.5707719961749476,-0.00010711351503545075,-0.00013143221010381012
716,1734173257,625467538,-6.375036233300024e-05,0.2561410052780924,1.4272999974244205,-0.7071067776655385,-5.073637329852719e-05,-0.00014354934522433228,0.7071067683164012,0,-1,-5.990663637334137e-05,-1.570820156727926,-5.990663637334137e-05,-1.5707839171039026,-8.32716571252945e-05,-0.0001671949969690445
733,1734173257,641776084,-9.028963260595592e-05,0.25614100608565044,1.42729999489632,-0.7071067773276511,-6.759511270538594e-05,-0.00012669060598515504,0.7071067704651786,0,-1,-5.990663637334137e-05,-1.5708683172809046,-4.7985707418263246e-05,-1.5707476774798792,-0.000119511281148732,-0.00020295778383427887
748,1734173257,657344818,-6.311480973613333e-05,0.25614100254508054,1.4272999978902359,-0.7071067789271369,-4.6414918356725e-05,-0.00010551041185886121,0.7071067740507776,0,-1,-4.7985707418263246e-05,-1.5708444754229944,-1.1746083394825746e-05,-1.5707600752459925,-9.519258608037262e-05,-0.00015527406801396637
764,1734173257,673356533,-2.9508543092532164e-05,0.25614100268069245,1.427299999015391,-0.7071067786985512,-3.387763392447143e-05,-0.00014321217044001874,0.7071067683604353,0,-1,-5.990663637334137e-05,-1.5708444754229944,-4.7985707418263246e-05,-1.5707719961749476,-5.990663637334137e-05,-0.00015527406801396637
780,1734173257,689452648,-0.00010153955628832823,0.2561410066199735,1.427299994299581,-0.7071067776776149,-5.0567785905321634e-05,-0.0001352885630569447,0.7071067699451646,0,-1,-5.990663637334137e-05,-1.570808235798971,0.0,-1.5707476774798792,-4.7985707418263246e-05,-0.00014335313905888825
796,1734173257,705641508,-3.949470958849594e-05,0.2561410021982927,1.4272999984192367,-0.707106780365897,-2.0896404665017666e-05,-0.00010528000720415324,0.7071067738609463,0,-1,-9.519258608037262e-05,-1.5708563963519495,0.0,-1.5707600752459925,-5.990663637334137e-05,-0.00017911592592412262
812,1734173257,721390962,-4.476913204413719e-05,0.25614100480058066,1.427299997758034,-0.7071067798894262,-2.9662949159419567e-05,-0.00011370937682966116,0.7071067727187271,0,-1,-4.7985707418263246e-05,-1.5708320776568812,-7.18275653284195e-05,-1.5707476774798792,-8.32716571252945e-05,-0.0001671949969690445
829,1734173257,738517045,-7.924703364511192e-05,0.2561410029056792,1.427299996553317,-0.707106779610935,-2.949436171998521e-05,-0.00011354078945785269,0.7071067730313607,0,-1,-4.7985707418263246e-05,-1.5708444754229944,-2.366701234990387e-05,-1.570796314870016,-8.32716571252945e-05,-0.00013143221010381012
844,1734173257,753715038,-0.0001293909112551271,0.2561410066405661,1.4272999916808073,-0.7071067762193968,-6.74265252383753e-05,-0.00013528856305223603,0.7071067699967809,0,-1,-5.990663637334137e-05,-1.5708444754229944,-3.5587941304981996e-05,-1.5707719961749476,-9.519258608037262e-05,-0.00015527406801396637
860,1734173257,769633531,-7.606464633603607e-05,0.2561410010478845,1.4272999969966562,-0.7071067781290986,-5.478247077851235e-05,-9.701922500620352e-05,0.7071067754660795,0,-1,-4.7985707418263246e-05,-1.5708444754229944,-1.1746083394825746e-05,-1.5707600752459925,-5.990663637334137e-05,-0.0001671949969690445
876,1734173257,785851478,-7.22730991702279e-05,0.2561410068296021,1.4272999956768289,-0.7071067776456598,-3.3877633911564375e-05,-0.00015164154007950599,0.7071067676558617,0,-1,-5.990663637334137e-05,-1.5708444754229944,-3.5587941304981996e-05,-1.5707719961749476,-7.135072817021637e-05,-0.00015527406801396637
892,1734173257,801591157,-9.133797112826335e-05,0.25614100486233427,1.4272999954395802,-0.7071067775151076,-6.338042785325895e-05,-0.000122475921219991,0.7071067714106337,0,-1,-7.135072817021637e-05,-1.5708563963519495,-4.7985707418263246e-05,-1.5707719961749476,-4.7985707418263246e-05,-0.00015527406801396637
908,1734173257,817773580,-2.19777505732529e-05,0.256141001357729,1.427299999096146,-0.7071067814764136,-1.2360264861733234e-05,-9.674386734221295e-05,0.7071067741705742,0,-1,-2.366701234990387e-05,-1.5708563963519495,-2.366701234990387e-05,-1.5707476774798792,-8.32716571252945e-05,-0.00013143221010381012
924,1734173257,834006786,-6.211121058530546e-05,0.256141006996293,1.427299996830814,-0.707106777758996,-3.826090613619086e-05,-0.00016445418172185433,0.7071067644551389,0,-1,-8.32716571252945e-05,-1.5708444754229944,-2.366701234990387e-05,-1.5707719961749476,-9.519258608037262e-05,-0.00014335313905888825
940,1734173257,849542379,-8.443076567872206e-05,0.25614100912094917,1.4272999949295009,-0.7071067779791437,-2.561685164291796e-05,-0.00015181012747140935,0.7071067676337259,0,-1,-5.990663637334137e-05,-1.5708444754229944,1.1920928955078125e-05,-1.5707719961749476,-9.519258608037262e-05,-0.00017911592592412262
956,1734173257,865669965,-5.358862878201462e-05,0.2561410040600454,1.4272999976244303,-0.7071067792401381,-4.206252603165965e-06,-0.00013916607306194747,0.7071067694257708,0,-1,-8.32716571252945e-05,-1.5708444754229944,-3.5587941304981996e-05,-1.5707719961749476,-7.135072817021637e-05,-0.00017911592592412262
972,1734173257,881607055,-7.405895417275847e-05,0.2561410047214059,1.4272999962142325,-0.7071067786445916,-2.949436166879011e-05,-0.00013916607307354038,0.7071067694187033,0,-1,-0.000119511281148732,-1.5708683172809046,-3.5587941304981996e-05,-1.5707600752459925,-5.990663637334137e-05,-0.00017911592592412262
988,1734173257,897623777,-0.00011339015921802345,0.25614100892698627,1.4272999931388461,-0.7071067774573371,-5.511964558827376e-05,-0.00013073670345448791,0.707106770681514,0,-1,-5.990663637334137e-05,-1.5708320776568812,-2.366701234990387e-05,-1.570796314870016,-5.990663637334137e-05,-0.00017911592592412262
1004,1734173257,913324356,-5.8029031699441e-05,0.2561410048006235,1.4272999974135776,-0.707106779439015,-2.966294911732942e-05,-0.00013056811604571092,0.7071067702571238,0,-1,-5.990663637334137e-05,-1.5708563963519495,-3.5587941304981996e-05,-1.5707839171039026,-7.135072817021637e-05,-0.0001671949969690445
1020,1734173257,929600238,-1.8218211415077123e-05,0.25614100168776477,1.427299999240058,-0.7071067802426978,-3.377086386209607e-05,-0.00011006227138903782,0.7071067727582803,0,-1,-5.990663637334137e-05,-1.5708563963519495,-7.18275653284195e-05,-1.5707719961749476,-9.519258608037262e-05,-0.00017911592592412262
1036,1734173257,945307970,-0.0001149422089579653,0.2561410075299395,1.427299993272755,-0.7071067765248022,-6.759511267066921e-05,-0.00013511997562478485,0.7071067697075147,0,-1,-3.5587941304981996e-05,-1.570820156727926,2.384185791015625e-05,-1.5707719961749476,-5.990663637334137e-05,-0.00017911592592412262
1052,1734173257,961585044,-4.194954648862481e-05,0.2561410012395597,1.42729999834807,-0.7071067781338216,-2.949436160782448e-05,-0.0001391660731040617,0.7071067699294732,0,-1,-7.135072817021637e-05,-1.5708444754229944,1.1920928955078125e-05,-1.5707839171039026,-4.7985707418263246e-05,-0.0001671949969690445
1068,1734173257,977290868,-5.497559297467955e-05,0.2561410054741836,1.4272999974135776,-0.7071067796032592,-2.5448264276154157e-05,-0.0001347828008293116,0.7071067694663163,0,-1,-4.7985707418263246e-05,-1.5708444754229944,1.1920928955078125e-05,-1.5707839171039026,-8.32716571252945e-05,-0.0001671949969690445
1084,1734173257,993502378,-4.51593399024779e-05,0.25614100401090223,1.4272999982957166,-0.7071067798522143,-3.3709046602756e-05,-0.00011809264900632159,0.7071067718561734,0,-1,-5.990663637334137e-05,-1.5708444754229944,-3.5587941304981996e-05,-1.5707719961749476,-5.990663637334137e-05,-0.00017911592592412262
1100,1734173258,9942054,-1.7619411584343876e-05,0.2561410016996581,1.4272999994411142,-0.7071067806716922,-2.511108953890556e-05,-9.263595273200003e-05,0.7071067751875446,0,-1,-7.135072817021637e-05,-1.570820156727926,-3.5587941304981996e-05,-1.570796314870016,-5.990663637334137e-05,-0.0001671949969690445
1116,1734173258,25491237,-3.663834304201937e-05,0.25614100318940886,1.427299998810219,-0.7071067796314796,-1.7249299209555092e-05,-0.00012658383590617562,0.7071067712009215,0,-1,-5.990663637334137e-05,-1.5708444754229944,-7.18275653284195e-05,-1.5707600752459925,-5.990663637334137e-05,-0.0001671949969690445
1132,1734173258,41752815,-3.614473346327735e-05,0.25614100330841066,1.4272999986686916,-0.7071067802071427,-2.089640466518333e-05,-0.00011370937682917337,0.7071067727144222,0,-1,-5.990663637334137e-05,-1.570820156727926,-1.1746083394825746e-05,-1.5707839171039026,-5.990663637334137e-05,-0.00015527406801396637
1148,1734173258,57652711,-4.1617000064157404e-05,0.25614100436179144,1.4272999982868524,-0.7071067793206145,-2.5279676877227634e-05,-0.00013461421346735812,0.707106769787123,0,-1,-7.135072817021637e-05,-1.5708563963519495,-3.5587941304981996e-05,-1.5707476774798792,-5.990663637334137e-05,-0.00017911592592412262
1164,1734173258,73780059,-9.562319927483691e-05,0.2561410062655445,1.427299994723456,-0.7071067771111591,-5.478247073009325e-05,-0.00013950324785820748,0.7071067693787088,0,-1,-4.7985707418263246e-05,-1.5708563963519495,-1.1746083394825746e-05,-1.570808235798971,-5.990663637334137e-05,-0.00013143221010381012
1180,1734173258,89689970,-0.00011638924066673418,0.25614099982516303,1.4272999945173834,-0.7071067751546115,-5.9272512954146415e-05,-0.00012658383602665358,0.7071067734039517,0,-1,-4.7985707418263246e-05,-1.5708563963519495,0.0,-1.5707839171039026,-7.135072817021637e-05,-0.0001671949969690445
1196,1734173258,105913162,-9.18542904173916e-05,0.256141004780052,1.4272999955013108,-0.7071067774251273,-5.0567785902346895e-05,-0.000126859193494451,0.7071067717601746,0,-1,-4.7985707418263246e-05,-1.5708320776568812,-4.7985707418263246e-05,-1.570808235798971,-3.5587941304981996e-05,-0.00015527406801396637
1212,1734173258,121570587,-9.776668969859449e-05,0.25614100499451486,1.4272999951520506,-0.7071067767361967,-5.478247069343414e-05,-0.0001391660731072035,0.7071067698201111,0,-1,-3.5587941304981996e-05,-1.5708320776568812,-4.7985707418263246e-05,-1.570796314870016,-8.32716571252945e-05,-0.0001671949969690445
1228,1734173258,137461900,-9.456805402431114e-05,0.2561410061330865,1.4272999948243759,-0.7071067770260596,-5.073637326083408e-05,-0.0001435493452800406,0.7071067689558801,0,-1,-4.7985707418263246e-05,-1.5708320776568812,-7.18275653284195e-05,-1.570808235798971,-8.32716571252945e-05,-0.00015527406801396637
1244,1734173258,153538465,-5.1496744116728626e-05,0.25614100440378784,1.427299997681765,-0.7071067798014353,-2.5279676897403685e-05,-0.00011809264904472346,0.7071067722585526,0,-1,-7.135072817021637e-05,-1.5708320776568812,-1.1746083394825746e-05,-1.5707719961749476,-8.32716571252945e-05,-0.00014335313905888825
1260,1734173258,169242382,-6.3787475674641e-05,0.25614100937578593,1.4272999959257502,-0.7071067805202501,8.544572032658668e-06,-0.00013484461800610038,0.7071067689438464,0,-1,-5.990663637334137e-05,-1.570808235798971,0.0,-1.5707719961749476,-8.32716571252945e-05,-0.00015527406801396637
1276,1734173258,185524463,-4.3925798066422826e-05,0.25614100180289034,1.4272999986430208,-0.7071067801602828,-2.9325774364682373e-05,-9.685063757642041e-05,0.7071067749720056,0,-1,-8.32716571252945e-05,-1.5708444754229944,1.1920928955078125e-05,-1.5707476774798792,-5.990663637334137e-05,-0.00013143221010381012
1292,1734173258,201756715,-5.788325059014826e-05,0.2561410057855569,1.4272999974914602,-0.7071067796870657,-2.1064992052555844e-05,-0.0001223073338630905,0.7071067717945924,0,-1,-4.7985707418263246e-05,-1.5708683172809046,-2.366701234990387e-05,-1.5707839171039026,-7.135072817021637e-05,-0.00014335313905888825
1308,1734173258,217350006,-4.212947331059378e-05,0.2561410023939715,1.4272999986686916,-0.7071067799147668,-2.9157186960262764e-05,-0.00010544859461244214,0.7071067739945799,0,-1,-7.135072817021637e-05,-1.570820156727926,-2.366701234990387e-05,-1.5707839171039026,-8.32716571252945e-05,-0.00015527406801396637
1324,1734173258,233665227,-4.621652800740507e-05,0.2561410031515357,1.4272999984456716,-0.7071067792459328,-2.949436170463284e-05,-0.0001307367034539235,0.7071067704261081,0,-1,-3.5587941304981996e-05,-1.5708320776568812,-3.5587941304981996e-05,-1.5707719961749476,-7.135072817021637e-05,-0.00017911592592412262
1340,1734173258,249521493,-4.5339572364536545e-05,0.2561410046717762,1.427299997883607,-0.7071067806621515,-4.206252669802616e-06,-0.00011354078941933478,0.7071067725827582,0,-1,-4.7985707418263246e-05,-1.5708444754229944,-4.7985707418263246e-05,-1.5707719961749476,-8.32716571252945e-05,-0.00017911592592412262
1356,1734173258,265434741,-6.20363117105543e-05,0.25614100244740623,1.4272999976738943,-0.7071067781926895,-5.056778592072324e-05,-0.00011809264906583383,0.7071067725110401,0,-1,-7.135072817021637e-05,-1.5708563963519495,-2.366701234990387e-05,-1.5707719961749476,-7.135072817021637e-05,-0.00015527406801396637
1372,1734173258,281731605,-7.673768228854803e-05,0.2561410049799554,1.4272999964782438,-0.7071067781421619,-3.792373135620975e-05,-0.00013916607308556156,0.7071067695192899,0,-1,-8.32716571252945e-05,-1.5708563963519495,1.1920928955078125e-05,-1.5707600752459925,-8.32716571252945e-05,-0.00017911592592412262
1388,1734173258,297934293,-5.258593557529582e-05,0.2561410044122547,1.427299997948901,-0.7071067789489285,-3.387763394838708e-05,-0.000134782800859832,0.7071067697670372,0,-1,-8.32716571252945e-05,-1.5708683172809046,-3.5587941304981996e-05,-1.570796314870016,-0.00010711351503545075,-0.00014335313905888825
1404,1734173258,313253402,-7.563857265391562e-05,0.2561410048160355,1.4272999965566397,-0.7071067784066243,-2.527967682513899e-05,-0.0001349513883213946,0.7071067706368438,0,-1,-5.990663637334137e-05,-1.5708320776568812,-5.990663637334137e-05,-1.570723835621969,-4.7985707418263246e-05,-0.00017911592592412262
1420,1734173258,329378843,-7.086924739144662e-05,0.25614100471337065,1.4272999967676256,-0.7071067784216917,-3.8092318778024885e-05,-0.00013090529088366645,0.7071067708082541,0,-1,-5.990663637334137e-05,-1.5708563963519495,-2.366701234990387e-05,-1.5707719961749476,-5.990663637334137e-05,-0.00017911592592412262
1436,1734173258,345466613,-5.7481483985448047e-05,0.2561410031306485,1.427299997681765,-0.7071067798074426,-2.511108950368962e-05,-0.00010140249721379458,0.7071067748489727,0,-1,-9.519258608037262e-05,-1.5708444754229944,2.384185791015625e-05,-1.5707600752459925,-5.990663637334137e-05,-0.0001671949969690445
1452,1734173258,361639261,-5.439987198481491e-05,0.25614100118438127,1.4272999984978627,-0.7071067793421132,-2.1233579398227535e-05,-0.00010528000726869583,0.7071067748746857,0,-1,-8.32716571252945e-05,-1.5708683172809046,-7.18275653284195e-05,-1.5707600752459925,-4.7985707418263246e-05,-0.00017911592592412262
1468,1734173258,377334356,-9.163086380418485e-05,0.2561410035006154,1.4272999959017902,-0.7071067771510826,-6.344224504486667e-05,-0.00013096710807591533,0.7071067702473987,0,-1,-3.5587941304981996e-05,-1.5708563963519495,-4.7985707418263246e-05,-1.5707719961749476,-9.519258608037262e-05,-0.00015527406801396637
1484,1734173258,393470048,-5.025328411138519e-05,0.25614100177577537,1.4272999983848214,-0.7071067786600035,-3.7923731358408306e-05,-0.0001303995286838123,0.707106770672454,0,-1,-9.519258608037262e-05,-1.5708444754229944,-4.7985707418263246e-05,-1.5707476774798792,-3.5587941304981996e-05,-0.0001671949969690445
1500,1734173258,409594058,-7.075294237136328e-05,0.2561410067030162,1.4272999964782438,-0.70710677884032,-2.1233579408739342e-05,-0.0001389974856942957,0.7071067695524494,0,-1,-4.7985707418263246e-05,-1.570820156727926,-3.5587941304981996e-05,-1.5707839171039026,-8.32716571252945e-05,-0.00015527406801396637
1516,1734173258,425667047,-5.588326449259019e-05,0.25614100482382746,1.4272999977530199,-0.7071067794855733,-3.8092318843828165e-05,-0.00011370937682966116,0.7071067727187271,0,-1,-3.5587941304981996e-05,-1.5708444754229944,-3.5587941304981996e-05,-1.5707839171039026,-7.135072817021637e-05,-0.00013143221010381012
1532,1734173258,441936969,-4.6289050512141145e-05,0.2561410046658673,1.42729999778406,-0.7071067792388807,-2.966294909821291e-05,-0.0001474268551722863,0.7071067671432998,0,-1,-5.990663637334137e-05,-1.5708563963519495,-2.366701234990387e-05,-1.5707719961749476,-5.990663637334137e-05,-0.0001671949969690445
1548,1734173258,457523822,-4.7456543002175546e-05,0.2561410033107943,1.4272999979539152,-0.7071067791453463,-2.9494361716502026e-05,-0.0001223073338817515,0.7071067720349545,0,-1,-5.990663637334137e-05,-1.5708802382098597,-3.5587941304981996e-05,-1.570808235798971,-3.5587941304981996e-05,-0.00015527406801396637
1564,1734173258,473469972,-4.527696804626268e-05,0.2561410033087638,1.4272999982539774,-0.7071067806283675,-2.4942502141462728e-05,-0.00010123390975293851,0.7071067740581707,0,-1,-8.32716571252945e-05,-1.5708444754229944,0.0,-1.5707600752459925,-8.32716571252945e-05,-0.0001671949969690445
1580,1734173258,489803075,-0.00010319366872477023,0.25614100525493233,1.427299994474068,-0.7071067743843902,-6.776369992838009e-05,-0.00015214730228933464,0.7071067683730531,0,-1,-4.7985707418263246e-05,-1.5708683172809046,1.1920928955078125e-05,-1.570796314870016,-7.135072817021637e-05,-0.000119511281148732
1596,1734173258,505886554,-5.519313051354749e-05,0.256141003843515,1.42729999789409,-0.7071067798074425,-2.5111089503689603e-05,-0.00010983186683301886,0.7071067735899178,0,-1,-8.32716571252945e-05,-1.5708444754229944,-3.5587941304981996e-05,-1.5707600752459925,-7.135072817021637e-05,-0.00017911592592412262
1612,1734173258,521352529,-4.013879701680069e-05,0.25614100268936335,1.4272999981755212,-0.7071067812270345,-8.314167386320569e-06,-0.00011798587877685902,0.707106771253783,0,-1,-9.519258608037262e-05,-1.5708563963519495,-5.990663637334137e-05,-1.5707839171039026,-9.519258608037262e-05,-0.0001671949969690445
1628,1734173258,537277698,-0.00010107721086216803,0.2561410036825702,1.427299994880885,-0.707106775602786,-5.933433024838933e-05,-0.00014338075794109826,0.7071067697441645,0,-1,-5.990663637334137e-05,-1.5708563963519495,-2.366701234990387e-05,-1.5707600752459925,-2.366701234990387e-05,-0.00017911592592412262
1644,1734173258,553411006,-8.887766568188548e-05,0.25614100836651316,1.427299995233404,-0.7071067782402866,-4.2138416241640373e-05,-0.00014338075783245093,0.7071067683405063,0,-1,-7.135072817021637e-05,-1.5708320776568812,-5.990663637334137e-05,-1.5707600752459925,-5.990663637334137e-05,-0.00017911592592412262
1660,1734173258,569659948,-3.444341860548777e-05,0.2561410023481724,1.4272999987183892,-0.7071067804312297,-8.252350107478734e-06,-0.00011792406162296776,0.7071067720606239,0,-1,-5.990663637334137e-05,-1.5708683172809046,-3.5587941304981996e-05,-1.5707839171039026,-5.990663637334137e-05,-0.0001671949969690445
1676,1734173258,585473775,-4.432386140181379e-05,0.25614100112896154,1.4272999985713808,-0.707106780465258,-3.377086387691713e-05,-0.00010095855218533168,0.7071067738941247,0,-1,-9.519258608037262e-05,-1.570820156727926,-2.366701234990387e-05,-1.5707719961749476,-9.519258608037262e-05,-0.00019103685487920075
1692,1734173258,601667404,-9.026230575979377e-05,0.2561410032976901,1.4272999959965145,-0.7071067783475873,-3.387763391598524e-05,-0.00011792406172696405,0.7071067733808789,0,-1,-9.519258608037262e-05,-1.5708563963519495,-3.5587941304981996e-05,-1.5707719961749476,-5.990663637334137e-05,-0.00015527406801396637
1709,1734173258,617267608,-7.75787711921255e-05,0.25614100284630914,1.427299997074169,-0.7071067777589958,-3.826090613619085e-05,-0.00012230733394105655,0.7071067730012981,0,-1,-5.990663637334137e-05,-1.5708320776568812,-3.5587941304981996e-05,-1.5707719961749476,-7.135072817021637e-05,-0.00017911592592412262
1724,1734173258,633905172,-4.4530046129210304e-05,0.25614100167017306,1.427299998779188,-0.7071067790716105,-3.370904654419688e-05,-0.00011775547428771912,0.7071067726930079,0,-1,-7.135072817021637e-05,-1.5708563963519495,-2.366701234990387e-05,-1.5707719961749476,-7.135072817021637e-05,-0.00017911592592412262
1741,1734173258,649877071,-1.5200066616786977e-05,0.2561410025306999,1.4272999993622864,-0.7071067797451286,-1.2804209733457736e-05,-0.00013899748562724035,0.7071067688505219,0,-1,-5.990663637334137e-05,-1.5708320776568812,-4.7985707418263246e-05,-1.5707357565509241,-5.990663637334137e-05,-0.00013143221010381012
1756,1734173258,665205955,-0.00011822442199913544,0.25614100767880044,1.4272999914134041,-0.7071067738622465,-8.023916708405491e-05,-0.00015653057436225935,0.7071067666328622,0,-1,-7.135072817021637e-05,-1.570820156727926,-0.00013143221010381012,-1.5707476774798792,1.1984225238848012e-05,-0.0001671949969690445
1772,1734173258,681514263,-0.00026016961041622775,0.2561410028928066,1.427299959843206,-0.7071067686974338,-0.0001774627167911256,-0.00011797543655221543,0.7071067615650795,0,-1,-3.5587941304981996e-05,-1.570808235798971,-0.00044328371156865387,-1.5707357565509241,0.0001917476038215682,-8.374849428349762e-05
1788,1734173258,697190761,-0.0005460549774567285,0.2561409869373907,1.4272998063617797,-0.7071067692885967,-0.0003595289760278858,-7.988279966651415e-05,0.7071066971708704,0,-1,2.3968450477696024e-05,-1.570820156727926,-0.0008857885943811539,-1.5706160704242151,0.000562884088139981,2.3968450477696024e-05
1804,1734173258,713570594,-0.0009427908129748374,0.2561408848420099,1.4272994044025495,-0.7071067847603809,-0.0006560781230750815,3.853536138935237e-05,0.7071064721966266,0,-1,0.00016777915880084038,-1.570808235798971,-0.0017002264605920914,-1.570388142262594,0.0012699533253908157,0.00025166873820126057
1820,1734173258,729344844,-0.0017667525464327475,0.2561404935710068,1.4272979824459813,-0.7071068808032364,-0.0011640735362339262,0.00018278205463546747,0.7071056997678922,0,-1,0.00029923112015239894,-1.5708444754229944,-0.003041092549459279,-1.5701125303851526,0.0022403011098504066,0.000550899829249829
1836,1734173258,745643377,-0.002953744212834078,0.25613933356024027,1.4272944332896238,-0.7071070958661544,-0.001967914484379595,0.00038656390390821995,0.7071036224321464,0,-1,0.0005265569197945297,-1.5708563963519495,-0.004765335713521779,-1.569716755543844,0.003593394998461008,0.001006300444714725
1852,1734173258,761436939,-0.004580176168455345,0.2561371216572383,1.4272868058863128,-0.7071077286426868,-0.0029967694708357413,0.0006277553251063313,0.7070992047724074,0,-1,0.0007778510916978121,-1.5709646383868616,-0.006992642079488576,-1.5692489782916468,0.005353952758014202,0.0015448415651917458
1868,1734173258,777739524,-0.006651733284123055,0.256133001341612,1.4272724341209069,-0.7071088448630061,-0.00433037639839814,0.0008695039965944407,0.7070909229508985,0,-1,0.0011010506423190236,-1.5710843245135706,-0.009710613881246388,-1.5687220732318323,0.007618222385644913,0.0022758792620152235
1884,1734173258,793588161,-0.009144432208656643,0.2561256681319749,1.4272485032049445,-0.7071109506070555,-0.00594301860344684,0.0012468653680686413,0.7070765371501301,0,-1,0.0014841713709756732,-1.5712879339801233,-0.0129321257220667,-1.5681098143206995,0.010253253392875195,0.003102041780948639
1900,1734173258,809393405,-0.01211583431522068,0.2561147328518745,1.4272100248812813,-0.7071143850356164,-0.007839633427020463,0.001628271681978162,0.7070538419065138,0,-1,0.001903244759887457,-1.5715158621417444,-0.016655747090474904,-1.567366902028219,0.013319717720150948,0.004060030914843082
1916,1734173258,825630187,-0.015483967779677572,0.2560981111817838,1.4271543000761924,-0.70711932842019,-0.009981544776633959,0.0021031707168119125,0.7070206509087181,0,-1,0.0024174428544938564,-1.5718396345721644,-0.02082235017885381,-1.5665276686297815,0.01668541133403778,0.005150220822542906
1932,1734173258,841352939,-0.01923279075129103,0.25607499884238316,1.4270765268784966,-0.7071262594650471,-0.012368531481822738,0.0026030940382181307,0.7069743252094676,0,-1,0.002979952609166503,-1.572127644215719,-0.025324646626607716,-1.565604035054342,0.020410632714629173,0.006311567034572363
1948,1734173258,857647895,-0.023211563741571253,0.25604381868225945,1.4269758671802493,-0.7071350549732274,-0.014882837008241502,0.0032041225327444573,0.7069145979461676,0,-1,0.0035308522637933493,-1.5724757353412073,-0.030185524617330373,-1.5645487944232386,0.02433958649635315,0.007533208932727575
1964,1734173258,873947381,-0.02757751869901883,0.25600377436944555,1.4268439722172013,-0.7071461443515313,-0.017675933000545773,0.003754855953797083,0.7068364683419284,0,-1,0.004153282847255468,-1.5728352705584925,-0.035262409840719044,-1.5635297934161585,0.028495866805315018,0.008814772590994835
1980,1734173258,889635324,-0.0319909475191008,0.25595810191618384,1.4266866250918375,-0.7071603139735719,-0.02047247495063488,0.004352101042098963,0.7067433956725129,0,-1,0.004811292048543692,-1.5731590429889124,-0.0406268278705042,-1.5624268690692347,0.03283190727233887,0.010119928978383541
1996,1734173258,905492067,-0.036532243893864925,0.255901216062691,1.4265012488115658,-0.7071756979090116,-0.023362267097823578,0.004982427563992446,0.706634213846543,0,-1,0.005433722399175167,-1.5735185782061976,-0.04605085054506475,-1.5611794630633753,0.03723985701799393,0.011509350501000881
2012,1734173258,921809434,-0.04122792220904102,0.2558322550832801,1.4262849963279545,-0.7071936685544346,-0.026339770972222273,0.005701730763150437,0.7065060664197839,0,-1,0.006175620947033167,-1.5738304297076624,-0.05148679414858037,-1.559908692036764,0.0417197085916996,0.012886786833405495
2028,1734173258,937543392,-0.045872863418501206,0.25575744505861137,1.4260433216281372,-0.7072148200430238,-0.02930010639984688,0.00642023218515502,0.7063621469863456,0,-1,0.006869582459330559,-1.5741546789752405,-0.05701762834657842,-1.5586736837970179,0.04627184197306633,0.014371708035469055
2044,1734173258,953732490,-0.05050626070506414,0.2556744337634315,1.4257756564549078,-0.7072394888166531,-0.03225134148863493,0.007172317702487841,0.7062016102284935,0,-1,0.0075399503111839294,-1.5744426886187952,-0.06252557436098272,-1.5574868361102503,0.050823602825403214,0.01588059589266777
2060,1734173258,969482421,-0.05508181321896161,0.2555869364537897,1.4254856916609606,-0.7072682972382583,-0.035146746004772,0.007936637147060204,0.7060263959355674,0,-1,0.008138412609696388,-1.5747183004962366,-0.06802159944643194,-1.5563114325152796,0.0553993284702301,0.01741345413029194
2076,1734173258,985746622,-0.059619332849574366,0.2554932507353944,1.425172927434904,-0.7072983868124323,-0.0380457119684002,0.008645557686761335,0.7058376372407703,0,-1,0.00878443755209446,-1.575005833302633,-0.07327777544130498,-1.555124584828512,0.05977169796824455,0.01879051700234413
2092,1734173259,1467704,-0.06399527380330632,0.25539181268526956,1.4248491815002569,-0.7073283647590344,-0.04083767297051541,0.009366696001763857,0.7056423555028951,0,-1,0.009371289983391762,-1.5752819220172327,-0.07847386995424444,-1.554009739552633,0.0640598013997078,0.02016795240342617
2108,1734173259,17174243,-0.06819162919394393,0.25529410121545815,1.42451404637247,-0.7073613019275284,-0.043519422371117285,0.010019896182189195,0.7054400400405227,0,-1,0.00996975228190422,-1.5755932966815394,-0.08349067369569951,-1.552906338368551,0.06824005395174026,0.021521421149373055
2124,1734173259,33447742,-0.07234082547207948,0.25518283415203363,1.4241653823217284,-0.7073937507401831,-0.04614519434712805,0.010702146804423086,0.7052305768372342,0,-1,0.010507918894290924,-1.5758455435382288,-0.08835155168642217,-1.5518634955035608,0.07219334691762924,0.02280260995030403
2140,1734173259,49724340,-0.07633495468310467,0.2550797991565042,1.4238048505945786,-0.7074284881857436,-0.04868182998206026,0.011243625212944156,0.7050167334360949,0,-1,0.011034850031137466,-1.5760610739337366,-0.093116585408346,-1.5508196989642542,0.0760268047451973,0.024024251848459244
2156,1734173259,65505266,-0.08019209412325257,0.25496760660455847,1.4234396084885896,-0.707459896969428,-0.05117531536288277,0.011785522087840346,0.7047997465568732,0,-1,0.011573391035199165,-1.576313320790426,-0.09754640260805303,-1.5498374144183558,0.07971607148647308,0.025150394067168236
2172,1734173259,81230878,-0.08385782834636256,0.2548599669723468,1.4230764951796977,-0.7074950583880668,-0.05353330251342163,0.012377348179096808,0.7045791148838617,0,-1,0.01208796352148056,-1.576517407094137,-0.10197669664491826,-1.5488656202899378,0.0832974836230278,0.02627616375684738
2188,1734173259,97514867,-0.08743932606499052,0.25474635123106576,1.422706555662491,-0.7075291516926092,-0.05582283990018604,0.012918140218038067,0.7043574601748191,0,-1,0.012602536007761955,-1.576756779347555,-0.10625106493105108,-1.5479424635516565,0.0868317037820816,0.027425900101661682
2204,1734173259,113768100,-0.09100717631594864,0.2546307909214567,1.4223198791820195,-0.7075655207081253,-0.058124025658015194,0.013454377379071927,0.7041247128710137,0,-1,0.013093140907585621,-1.5770085493670862,-0.11058503786195928,-1.5469954649554651,0.09034121036529541,0.028575262054800987
2220,1734173259,129507064,-0.09462073080540538,0.2545087572184926,1.4219157796174986,-0.7076045341811685,-0.06041606522982362,0.014023652697568549,0.703881424270747,0,-1,0.01363168191164732,-1.5771530310260218,-0.11494285265077764,-1.5459883848773401,0.09391138702630997,0.029653092846274376
2236,1734173259,145299196,-0.09829181831630554,0.254375719890264,1.4214876950434139,-0.7076420814490507,-0.062736789355188,0.014588222441233322,0.7036291378203883,0,-1,0.014170597307384014,-1.5773685614215296,-0.11948091188539678,-1.544992748891012,0.09754073619842529,0.030838781967759132
2252,1734173259,161612272,-0.1020331117668365,0.25423975105137875,1.4210310133302984,-0.7076842091100511,-0.06513642579866076,0.015147868177219557,0.703356842790445,0,-1,0.014732732437551022,-1.5776203314410608,-0.12412625948061162,-1.5439742247210901,0.10131426900625229,0.03196455165743828
2268,1734173259,177423000,-0.1059261729373837,0.2540903243021917,1.420540672387994,-0.7077281643108854,-0.0676701570979784,0.01569770049719897,0.7030612899872809,0,-1,0.015319210477173328,-1.5778840223895472,-0.12884313264955694,-1.5429547468768519,0.10519528388977051,0.033210162073373795
2284,1734173259,193854093,-0.1099209543906595,0.25393006595978207,1.420019501139535,-0.7077758159609936,-0.0702234191183494,0.01631847500735939,0.7027487268729219,0,-1,0.015881719067692757,-1.5781720320331019,-0.13376409212221319,-1.5419114271747034,0.10919651389122009,0.034455396234989166
2300,1734173259,209773778,-0.11413463995391741,0.25375769471120824,1.4194516436790383,-0.7078282902184735,-0.07290993519161706,0.016895827298141847,0.702408559128274,0,-1,0.016480181366205215,-1.5785201231585901,-0.13878041902651006,-1.5409286657916468,0.1133052334189415,0.03573695942759514
2316,1734173259,225833415,-0.11842140889307044,0.25357276679113616,1.4188497643295621,-0.7078810806803032,-0.07568384965205621,0.017458728283319586,0.7020480918879135,0,-1,0.01711459644138813,-1.5788915793048304,-0.1438687483416956,-1.5399335066424769,0.11741432547569275,0.03706645965576172
2332,1734173259,241586923,-0.12278498993064489,0.2533770604410695,1.4182160045507637,-0.7079366456601155,-0.07844722714431937,0.01802939823501236,0.7016741972483774,0,-1,0.01777298003435135,-1.5792396704303187,-0.14907628694643194,-1.5388544241534632,0.12134327739477158,0.038371991366147995
2348,1734173259,257603645,-0.12720523140682677,0.2531743897686449,1.4175523313986838,-0.7079923267343426,-0.08124738231873489,0.018560867547509713,0.7012854071970477,0,-1,0.01841900497674942,-1.5795629660235804,-0.15433246294130498,-1.537739102040426,0.12575234472751617,0.03970111533999443
2364,1734173259,273621082,-0.13166356612162533,0.25296846034745163,1.416853586958675,-0.7080562396524546,-0.08407853424970073,0.019116435156650045,0.700872116348303,0,-1,0.01902945153415203,-1.5798991362201136,-0.15961200395692998,-1.536635700856344,0.1300048828125,0.040994662791490555
2380,1734173259,289822101,-0.13605855806632042,0.25274993945082996,1.416140713623664,-0.7081169732231191,-0.0869256206661215,0.019721271060702504,0.7004465434084803,0,-1,0.01968783512711525,-1.5801985899554651,-0.16489154497255498,-1.5355332533465784,0.13430571556091309,0.04231217876076698
2396,1734173259,305696487,-0.14046406924520383,0.2525220082733398,1.415405235627917,-0.7081833418958291,-0.0897365206491809,0.020384531353490352,0.7000058442645554,0,-1,0.020309891551733017,-1.5805471579181116,-0.17014724413026983,-1.534370247517721,0.13867808878421783,0.04370122775435448
2412,1734173259,321827650,-0.14484009479679838,0.25229477467643857,1.4146456955505182,-0.7082550534547958,-0.09256233532866809,0.02103721704518701,0.6995458732872644,0,-1,0.02094430662691593,-1.5808466116534632,-0.17531949678529912,-1.533266846333639,0.14301450550556183,0.04510263353586197
2428,1734173259,337769985,-0.14920713034835303,0.2520512157988834,1.4138676588590378,-0.7083267377899753,-0.0953485203220742,0.021735542719255877,0.699077576801675,0,-1,0.02160269021987915,-1.5811227003680628,-0.18062287965883428,-1.532140080128805,0.14736327528953552,0.046503663063049316
2444,1734173259,353391170,-0.15362842838626484,0.25180272088437344,1.4130507755635444,-0.708402896623077,-0.09817829036301076,0.022360246390339997,0.6985888481351487,0,-1,0.022212762385606766,-1.5814221541034144,-0.18598634401430303,-1.5309765974627894,0.1516880840063095,0.047941021621227264
2460,1734173259,369782686,-0.15797999078587158,0.2515591442081807,1.412220717819471,-0.7084852024680943,-0.1009388546575302,0.023017471216673184,0.698090439357938,0,-1,0.022871144115924835,-1.5817578474627894,-0.19126636186708623,-1.5298498312579554,0.1560128927230835,0.04936639592051506
2476,1734173259,385585546,-0.16230516535690398,0.25130305709270895,1.4113761866812076,-0.7085624677622306,-0.10365183811301033,0.02361900373765357,0.6975942003750696,0,-1,0.023433653637766838,-1.5820696989642542,-0.1964495817767542,-1.528698746358053,0.1601579338312149,0.050695519894361496
2492,1734173259,401788234,-0.16653902396876966,0.25104742181547457,1.410529819359362,-0.7086415109364292,-0.10632919765023703,0.024253601062859353,0.6970889997269181,0,-1,0.02407967858016491,-1.5824173132525843,-0.20148975053896123,-1.5275118986712855,0.1642790138721466,0.052072957158088684
2508,1734173259,417480945,-0.1707521055171104,0.2507827482211715,1.4096627771204389,-0.7087204859121857,-0.10901309531288424,0.024852519805991118,0.6965728749800641,0,-1,0.024654172360897064,-1.5827177206622522,-0.20659047762026006,-1.5264447371112269,0.16841207444667816,0.05336650460958481
2524,1734173259,433774948,-0.17492214137421544,0.2505115726246521,1.4087799329821455,-0.7088009689063173,-0.11171205689763604,0.02546720829302999,0.6960409644000305,0,-1,0.025300946086645126,-1.5830290953265589,-0.21160585085024053,-1.525353733693258,0.17259307205677032,0.054695628583431244
2540,1734173259,449397087,-0.17901704092167234,0.25024268280951106,1.4078887733494967,-0.7088834823791275,-0.11436221464744471,0.026068424462457447,0.6955040830340381,0,-1,0.025863081216812134,-1.5832575003253382,-0.21667033830751592,-1.524250332509176,0.17667856812477112,0.05595322325825691
2556,1734173259,465596675,-0.18318272246240339,0.24996362352063148,1.4069608588987865,-0.7089660261434484,-0.1170398202768932,0.026646425527006922,0.6949523884774794,0,-1,0.026461543515324593,-1.5835688749896448,-0.22166234651674444,-1.5231359640704554,0.18079963326454163,0.057246770709753036
2572,1734173259,481414318,-0.18724481529758508,0.24968615488594814,1.4060314644649803,-0.7090531393512854,-0.11963560205619282,0.02724498802320323,0.6943980694992997,0,-1,0.0270480215549469,-1.5838449637042444,-0.22670203844179326,-1.5220206419574183,0.18489675223827362,0.05858788266777992
2588,1734173259,497615098,-0.1913274633501941,0.24938713315792738,1.4050855334648973,-0.7091405388423639,-0.12226691415451449,0.027921214906546046,0.6938233951313812,0,-1,0.027670077979564667,-1.5841086546527308,-0.2316826025592249,-1.520965878163473,0.18903018534183502,0.05984547734260559
2604,1734173259,513442516,-0.1953429742313962,0.24909953191095335,1.4041201439323105,-0.7092276526780616,-0.12491686308485254,0.028499804576183466,0.6932385412921921,0,-1,0.028244946151971817,-1.584372345601217,-0.23671037355531865,-1.5199101606952112,0.19311493635177612,0.06111505627632141
2620,1734173259,529171943,-0.19945551088986663,0.24879265343373752,1.403121390649084,-0.7093187716805114,-0.1275599549470999,0.029079947548181394,0.6926396571711293,0,-1,0.02886737696826458,-1.584684197102682,-0.24176246324648076,-1.518855396901266,0.19722439348697662,0.06242058798670769
2636,1734173259,545500755,-0.20361299149002013,0.2484808035875397,1.4020852895469798,-0.7094102134546071,-0.1302550821061505,0.029654641170267115,0.6920197720360826,0,-1,0.02951340191066265,-1.5849483648883265,-0.246742073689596,-1.517740551625387,0.20134547352790833,0.06372573971748352
2652,1734173259,561273336,-0.20767924702131768,0.24817127560121485,1.401044920105431,-0.7095110983161523,-0.13288776902099245,0.030227224892208457,0.6913907412499436,0,-1,0.030087895691394806,-1.5852602163897913,-0.25178224245180303,-1.516721550618307,0.20549088716506958,0.06500730663537979
2668,1734173259,577584981,-0.21177321842410976,0.24784650468320854,1.3999800791061872,-0.7096042925610402,-0.13551972402838108,0.030773223852826645,0.6907598432682092,0,-1,0.030698342248797417,-1.5855239073382776,-0.2568581740008753,-1.5156305472003382,0.20952844619750977,0.06630085408687592
2684,1734173259,593343257,-0.21585544663847692,0.2475135357944216,1.3988945564018718,-0.7097008127520611,-0.13818206094453417,0.03135934064164398,0.6901065614575088,0,-1,0.031320396810770035,-1.5858114401446741,-0.2618983427630823,-1.5145514647113245,0.2136019617319107,0.06758241355419159
2700,1734173259,609653472,-0.2199459954808269,0.2471856782838326,1.3977886525521477,-0.7098017793895359,-0.14078695458852564,0.03190636234366093,0.6894508332253518,0,-1,0.03190687671303749,-1.5860994497882288,-0.2669017950641077,-1.5134480635272425,0.21771104633808136,0.06889955699443817
2716,1734173259,625330924,-0.22397604357433748,0.24684313891493387,1.396671464263506,-0.7099027380500503,-0.14339034071844128,0.03248474514933393,0.6887830239126642,0,-1,0.03248174488544464,-1.5863750616656702,-0.2719057242022913,-1.5123932997332972,0.22177258133888245,0.07014516741037369
2733,1734173259,641578912,-0.2279148557327731,0.24650418762427379,1.3955565243611858,-0.7100043658562527,-0.14596989655328857,0.03309230833616305,0.6881071783481603,0,-1,0.03308020532131195,-1.5866392294513147,-0.2768977324115198,-1.5112898985492151,0.22579815983772278,0.07141474634408951
2748,1734173259,657289981,-0.23195434607603588,0.2461483588768631,1.3943899748324848,-0.7101030460896184,-0.14861329984644,0.033638227213041993,0.687412700430361,0,-1,0.03364234045147896,-1.5868428389178675,-0.281961743031637,-1.5101988951312464,0.22996792197227478,0.07268432527780533
2764,1734173259,673713207,-0.23593834845522252,0.2458044496665372,1.3932099270834548,-0.7102142928647707,-0.15125263164502248,0.034207388359020034,0.6866936392691461,0,-1,0.03426477313041687,-1.5871670881854456,-0.2869175116168421,-1.509144131337301,0.23411333560943604,0.0739535316824913
2780,1734173259,689425230,-0.23986748781178469,0.2454428320932656,1.3920364120758053,-0.7103227928408027,-0.1538029353483762,0.03482143468914115,0.68598371317055,0,-1,0.034827280789613724,-1.5873950163470667,-0.2918499151812952,-1.5080412069903772,0.23813891410827637,0.07524707913398743
2796,1734173259,705739974,-0.24375662511356277,0.2450825853781276,1.3908473030942752,-0.7104321005839126,-0.156355103494655,0.035395598396938004,0.6852637913134093,0,-1,0.03540177643299103,-1.5876343886004847,-0.29678184190859014,-1.5069621245013636,0.2422124296426773,0.07654062658548355
2812,1734173259,721397161,-0.24770005544209603,0.24470613675127217,1.3896301119132988,-0.710548190695017,-0.15894001263113014,0.036029969193669846,0.6845152901175817,0,-1,0.03601222112774849,-1.5879104773150843,-0.3017619291888636,-1.5059664885150355,0.24633388221263885,0.07789409160614014
2828,1734173259,737415790,-0.25170599635631447,0.24433767655337962,1.3883581225601571,-0.7106758765757898,-0.16149607012264505,0.03657753907442036,0.6837550010226131,0,-1,0.03657473251223564,-1.5881980101214808,-0.30688506761659795,-1.5048516432391565,0.25049129128456116,0.07927078008651733
2844,1734173259,753352642,-0.25577272973117365,0.2439451655187354,1.3870460578117512,-0.7107951509916246,-0.1641532333944806,0.03710085162679805,0.6829696157967037,0,-1,0.03722075745463371,-1.588461701069967,-0.31200868288149053,-1.5038207213031214,0.2545887529850006,0.08064822107553482
2860,1734173259,769848823,-0.2598110871090874,0.2435450520882469,1.3857244022947726,-0.7109224852141535,-0.1667403087755364,0.037672693051832185,0.6821786112482514,0,-1,0.03780723363161087,-1.5887377897845667,-0.31710797945131475,-1.5027058760272425,0.25865066051483154,0.0819297805428505
2876,1734173259,785711050,-0.26385605423927344,0.2431343422279352,1.3843780756469766,-0.7110381302074458,-0.1694006057136037,0.03820090329204672,0.6813728077657892,0,-1,0.03841768205165863,-1.589013401662008,-0.3222315947162073,-1.5016749540912073,0.2627481520175934,0.08328325301408768
2892,1734173259,801615476,-0.2678585923744175,0.2427340168954737,1.3830289130976088,-0.7111676324630152,-0.1719938157243845,0.03875620483041626,0.6805561567399556,0,-1,0.0390397384762764,-1.589313809071676,-0.3271992842303675,-1.5006440321551722,0.2669295072555542,0.08463634550571442
2908,1734173259,817724943,-0.2717638078668264,0.24231760601032337,1.3816825410293923,-0.7112895518010474,-0.1745687998840287,0.039310558877403326,0.6797408238192416,0,-1,0.03967415168881416,-1.5896132628070276,-0.33216745058168584,-1.4995530287372034,0.27095547318458557,0.08590592443943024
2924,1734173259,833424329,-0.27566161168723113,0.24191290023217954,1.3803199854201418,-0.7114238036613255,-0.1770856755422161,0.03990906506067697,0.6789139132672061,0,-1,0.040261004120111465,-1.589853588734762,-0.3371470610248011,-1.4984377066241663,0.275088906288147,0.0871635153889656
2940,1734173259,849669218,-0.2796514584926884,0.2414961122069192,1.378901504662169,-0.7115510931299467,-0.17967818319310394,0.04041675218868069,0.6780687859594497,0,-1,0.04085909202694893,-1.5901292006122034,-0.3421748320208948,-1.4972870985614222,0.2791508138179779,0.08846905082464218
2956,1734173259,865386247,-0.2835112267086979,0.24105796838748472,1.3775092678246443,-0.7116747187799696,-0.1822233059172069,0.041045053275814605,0.6772215775000386,0,-1,0.041445571929216385,-1.5904048124896448,-0.34715491930116826,-1.4961960951434534,0.28323668241500854,0.08981015533208847
2972,1734173259,881552934,-0.28743355484694627,0.2406156819363796,1.3760653855648632,-0.7118051450366478,-0.1847965536400103,0.04158507302311686,0.676353717343073,0,-1,0.042068000882864,-1.5906689802752894,-0.35217029253114873,-1.4950688521014612,0.28731057047843933,0.09104378521442413
2988,1734173259,897491455,-0.2912959153350477,0.24019378729425303,1.374618559741746,-0.7119419719167822,-0.1873004608243526,0.04211680427437518,0.6754874838188661,0,-1,0.04264212027192116,-1.5909326712237757,-0.3572457472430628,-1.4939902464496058,0.29144400358200073,0.09234931319952011
3004,1734173259,913787126,-0.2952099683115586,0.23974653805952123,1.3731376684303853,-0.7120781551322096,-0.18989917790927013,0.042677356282116524,0.6745825720204024,0,-1,0.04324095696210861,-1.5912202040301722,-0.3622372786151331,-1.492911163960592,0.2956257462501526,0.09367881715297699
3020,1734173259,929391145,-0.2991172214899443,0.2393013161609011,1.37163733787402,-0.7122144787935847,-0.19247397605808825,0.0432158902080476,0.6736740247112832,0,-1,0.04385140538215637,-1.5915325323687952,-0.36727697054018194,-1.4917839209186,0.2996996343135834,0.09497236460447311
3036,1734173259,945076704,-0.30304107789494794,0.2388403248284352,1.3701096103734127,-0.7123533513466676,-0.1950326227410605,0.04375484549799447,0.672755893610276,0,-1,0.04447345808148384,-1.5918439070331019,-0.37232810655702764,-1.4907286802874964,0.30380910634994507,0.09621760249137878
3052,1734173259,961416959,-0.3070095730533606,0.23835970440373766,1.3685413953623862,-0.7124926395881327,-0.1976405453909085,0.04427688788855561,0.6718124816860905,0,-1,0.04503596946597099,-1.5921438376056116,-0.3773921171771448,-1.489650074635641,0.3078949749469757,0.09757106751203537
3068,1734173259,977582693,-0.3108908280542533,0.23790235157964335,1.3669761010597052,-0.7126399034323669,-0.2001784765397305,0.04479054868222588,0.6708701456428691,0,-1,0.04562244564294815,-1.5923836866961878,-0.38249093690981084,-1.4885709921466272,0.31204113364219666,0.09887660294771194
3084,1734173259,993388175,-0.3148025789938775,0.2374193841639386,1.3653790216861392,-0.712784742714905,-0.20275351908665287,0.0453079786961584,0.6699075369909592,0,-1,0.046280454844236374,-1.5927074591266077,-0.3875067869769495,-1.4875038305865687,0.31611502170562744,0.10017014294862747
3100,1734173260,9600400,-0.3186560436498578,0.23694436501451768,1.36378772976876,-0.7129303568510827,-0.2052849857429714,0.045825154220805714,0.6689457647293503,0,-1,0.04684333875775337,-1.5930431524859827,-0.39242631593813115,-1.486424748097555,0.32023686170578003,0.10140377283096313
3116,1734173260,25346517,-0.32249048486327314,0.23646232051418065,1.3621791264347263,-0.7130771985959797,-0.20783653622907258,0.04636510207155527,0.6679634423834178,0,-1,0.04742981866002083,-1.5933430830584925,-0.39741832414735967,-1.4853580633746546,0.32432273030281067,0.10269694775342941
3132,1734173260,41520118,-0.326382598387997,0.23597347255700568,1.360527727493222,-0.7132209888159957,-0.21042119927054148,0.04682197559321649,0.6669680971466541,0,-1,0.04801592230796814,-1.5936430136310022,-0.40242129961122686,-1.484278980885641,0.3284565210342407,0.10395453870296478
3148,1734173260,57278633,-0.330205964735479,0.23547492370240192,1.3588683146386296,-0.7133643334834031,-0.2129780405552996,0.04730204590907451,0.6659686166838651,0,-1,0.04863835126161575,-1.5939067045794886,-0.4074967543231409,-1.4832237402545374,0.3325188159942627,0.1052241176366806
3164,1734173260,73468208,-0.3340229333050055,0.2349743896299062,1.3571950290247332,-0.7135201187362544,-0.21546448212185512,0.04783753653321297,0.6649629066353969,0,-1,0.04923718795180321,-1.5942309538470667,-0.41253644624818975,-1.4820845762835901,0.3365927040576935,0.10652965307235718
3180,1734173260,89247703,-0.3378207900043535,0.23447336578364877,1.355501569114934,-0.7136739532975556,-0.21796337431064333,0.048337322815882884,0.6639465031662943,0,-1,0.04984726011753082,-1.5945184866534632,-0.417551342641012,-1.480945889149801,0.34070253372192383,0.1078232005238533
3196,1734173260,105494499,-0.34170718142584755,0.23395105277798184,1.353763082834551,-0.7138366855393649,-0.220508767718723,0.04886041455851229,0.662891944155693,0,-1,0.05043374001979828,-1.594842259083883,-0.42253095308412725,-1.4798553625689905,0.3448127508163452,0.10911599546670914
3212,1734173260,121190309,-0.34549541775503945,0.23342618408231336,1.3520446367401358,-0.7139924809627726,-0.22299575222069148,0.04939157905446936,0.6618520254095009,0,-1,0.05105616897344589,-1.5951297918902796,-0.4274509588824671,-1.478788201008932,0.34887465834617615,0.11055335402488708
3228,1734173260,137523412,-0.34925626178719166,0.23289308231079053,1.3503024457342405,-0.7141596712433673,-0.2254602422436409,0.049934306942548225,0.6607951332502167,0,-1,0.051654256880283356,-1.5954297224627894,-0.43252593675722295,-1.4777091185199183,0.35298487544059753,0.11188285797834396
3244,1734173260,153111219,-0.3531289744702113,0.23236781449100485,1.3484869565204267,-0.7143345414035855,-0.22801899800739805,0.0504183508306429,0.6596904496845087,0,-1,0.05227668955922127,-1.5957415739642542,-0.43768531480898076,-1.4766300360309046,0.35711905360221863,0.1132243350148201
3260,1734173260,169332027,-0.3569572853735182,0.2318061351329812,1.3466639720947853,-0.7144913990309865,-0.2305653888019595,0.05089573308388428,0.6585979551677934,0,-1,0.05293469876050949,-1.5960419813739222,-0.44273645082582647,-1.475550953541891,0.36124086380004883,0.11454185098409653
3276,1734173260,185469150,-0.3607083715372676,0.23125471039011994,1.3448494332709426,-0.7146547564010611,-0.23306273661988627,0.05139257147096929,0.6575022004147139,0,-1,0.05350956693291664,-1.5963056723224085,-0.44775182405580694,-1.4744842688189905,0.36530277132987976,0.11584701389074326
3292,1734173260,201722860,-0.36443194915164145,0.23072634293134148,1.3430290397211881,-0.7148274057086551,-0.23555358752444006,0.05186332608538277,0.6563889722257382,0,-1,0.054167576134204865,-1.5966056028949183,-0.45269519487489873,-1.4734051863299769,0.3694852590560913,0.11715254187583923
3308,1734173260,217511415,-0.3681172923233647,0.23014657519117476,1.3412123098872915,-0.7149886788831963,-0.23805897387786906,0.052428918118640394,0.6552635519926211,0,-1,0.05479000508785248,-1.596916977559225,-0.4576509634601038,-1.4723504225360315,0.3736070990562439,0.1184341087937355
3324,1734173260,233667850,-0.37179380671541323,0.22959623990611516,1.3393599296769756,-0.7151529559711621,-0.24055928105749447,0.052910941041281405,0.6541314196558184,0,-1,0.05536450073122978,-1.5971806685077112,-0.4626544157611292,-1.4713318983661097,0.37772929668426514,0.11967971920967102
3340,1734173260,249286651,-0.3754747681281361,0.22902836863826423,1.3374918915684244,-0.7153271158559472,-0.24302143068140908,0.05341257340526411,0.6529891259071628,0,-1,0.055927008390426636,-1.5974329153644007,-0.46771747270693,-1.4702404181109827,0.381767600774765,0.12104517221450806
3356,1734173260,265422582,-0.3792192591488339,0.2284781437467642,1.3355521506583647,-0.7155084212855414,-0.24550907376729336,0.05381081134558175,0.6518261964279498,0,-1,0.05653708055615425,-1.5977204481707972,-0.47274476686586553,-1.4691851774798792,0.38587746024131775,0.12232673168182373
3372,1734173260,281517744,-0.3828811767575805,0.2278933082868694,1.3336400877497847,-0.7156763614500342,-0.2480072019425712,0.05431071944494582,0.6506536092266215,0,-1,0.057135917246341705,-1.5979841391192835,-0.4778559843646448,-1.4681184927569788,0.3899880349636078,0.12355998158454895
3388,1734173260,297629594,-0.3865910496024855,0.2273210746824531,1.3316753321866421,-0.7158556444985664,-0.25046699187343097,0.05473232621441497,0.6494777553454587,0,-1,0.057769957929849625,-1.5982845465289515,-0.48283511797060186,-1.467015568410055,0.3940503001213074,0.12492543458938599
3404,1734173260,313250303,-0.3902552203411832,0.22674307710549296,1.3297227935232967,-0.7160366679738921,-0.2529061016871522,0.055227253602531064,0.6482900155839019,0,-1,0.058320481330156326,-1.598595921193258,-0.4878504912005823,-1.4659126440631312,0.39813655614852905,0.12620699405670166
3420,1734173260,329265832,-0.39382856308113967,0.22616760348842174,1.3277770501332973,-0.71621347295481,-0.25532259647268585,0.055682743450236535,0.6471074601411352,0,-1,0.05890696123242378,-1.5988600889789026,-0.4928782621966761,-1.4647858778582972,0.4022471606731415,0.12747657299041748
3436,1734173260,345558643,-0.3974920531918076,0.2255786415660424,1.3257647275723197,-0.7163922633520274,-0.2577962181336105,0.05611684852817924,0.645890187444145,0,-1,0.059517405927181244,-1.599123779927389,-0.497965161000387,-1.4637306372271937,0.40630942583084106,0.1287221908569336
3452,1734173260,361669778,-0.401145932767007,0.22500055846919936,1.323721910906071,-0.7165831027947014,-0.26023109260610977,0.05651377691887611,0.6446662921609229,0,-1,0.0600915253162384,-1.59935170808901,-0.5030401388751429,-1.46265155473818,0.41037169098854065,0.13002733886241913
3468,1734173260,377255916,-0.40468031605717125,0.22438576171676688,1.3217207566730294,-0.7167608342991528,-0.2626646595813263,0.056998936681688935,0.6434378790831055,0,-1,0.06069036200642586,-1.5996392408954065,-0.5080912748919886,-1.4615491072284144,0.41445794701576233,0.13130854070186615
3485,1734173260,393629789,-0.4082725173120646,0.22379402823105282,1.3196730325804358,-0.7169468300475514,-0.2650914466776444,0.05743316829635256,0.6421956080218579,0,-1,0.061288826167583466,-1.599926773701803,-0.5130346457110804,-1.4604457060443323,0.4186524450778961,0.13256612420082092
3500,1734173260,409560680,-0.41178943482161345,0.22318940702334455,1.3176387467109094,-0.7171333160830989,-0.2675212606145299,0.05792161906347596,0.6409346831994166,0,-1,0.06182699277997017,-1.6002147833453577,-0.5180018583880823,-1.4593427816974085,0.4227626323699951,0.13388364017009735
3516,1734173260,425086498,-0.41531779363242116,0.22257446433943015,1.3155889778718552,-0.7173204257541751,-0.26991919496362915,0.05842852163207268,0.63967268414864,0,-1,0.062461405992507935,-1.6004188696490687,-0.5229695479022425,-1.458252255116598,0.4268728494644165,0.13510528206825256
3532,1734173260,441198825,-0.41874825348507483,0.2219811403676925,1.3135368516322592,-0.717507049521428,-0.272312416864908,0.05886862328639576,0.6384074456807441,0,-1,0.06302428990602493,-1.600682560597555,-0.5279963652240198,-1.4571850935565394,0.43093588948249817,0.13636288046836853
3548,1734173260,457479715,-0.42234219349711744,0.22133883730714815,1.3113934130416485,-0.7176987405868637,-0.2747613640038325,0.05927878803872475,0.6371033949834539,0,-1,0.06365833431482315,-1.6009109655963343,-0.5330951849566858,-1.4561060110675257,0.4350580871105194,0.13765643537044525
3564,1734173260,473499298,-0.4258702495209303,0.220697735476996,1.309253977666411,-0.7178917611491642,-0.2771897032474332,0.05972937282996096,0.6357906020924584,0,-1,0.06425679475069046,-1.6011865774737757,-0.5381701628314417,-1.4550631682025355,0.43918028473854065,0.13897395133972168
3580,1734173260,489679098,-0.4293946735565067,0.22006126648471608,1.307086604102898,-0.7180848798082601,-0.27958584869069286,0.06010690845066813,0.6344864207839003,0,-1,0.06485488265752792,-1.6014865080462855,-0.5432093779193323,-1.4539840857135218,0.4432193338871002,0.14031542837619781
3596,1734173260,505070447,-0.4329137757683223,0.2194245033186849,1.3049238919975006,-0.7182993114686708,-0.28194816597536326,0.06057782083564902,0.6331521605977244,0,-1,0.06542937457561493,-1.601774040852682,-0.5481532255755823,-1.4529288450824183,0.44734153151512146,0.14176440238952637
3612,1734173260,521193504,-0.43637438568714465,0.21878735067821042,1.3027615339196386,-0.7185128888036443,-0.2842827344389183,0.06104722217174739,0.6318194300495092,0,-1,0.06608813256025314,-1.6020501295672815,-0.5531438032733362,-1.4517906347857874,0.4514521360397339,0.1430819183588028
3628,1734173260,537288188,-0.4398929196076474,0.21812595707170573,1.3005380335070644,-0.7187115563929829,-0.28667435938923735,0.06146704824889463,0.630470706976553,0,-1,0.06670981645584106,-1.602337662373678,-0.5582664648639124,-1.4506877104388636,0.45550280809402466,0.14437545835971832
3644,1734173260,553407192,-0.4433702845908739,0.21747121858767926,1.2983015540848333,-0.7189194039427191,-0.28906163985235406,0.06187801425037651,0.6291020349299018,0,-1,0.06728468090295792,-1.6026132742511194,-0.5633652845965784,-1.4496567885028284,0.4596133828163147,0.1457165628671646
3660,1734173260,569574117,-0.446847972572528,0.2168060869155413,1.296040994663209,-0.7191303247653085,-0.2914315585745985,0.062296954555329485,0.6277247104606075,0,-1,0.06791909784078598,-1.6028898398028772,-0.5683687368976038,-1.4485657850848597,0.46377190947532654,0.14708201587200165
3676,1734173260,585177421,-0.45031861677028,0.21612978501628066,1.2937697015632939,-0.719336251656417,-0.29382041681001814,0.06271243563919977,0.6263322362250583,0,-1,0.0685531422495842,-1.6031292120562952,-0.5734437147723597,-1.4474628607379358,0.4679304361343384,0.14836321771144867
3692,1734173260,601324796,-0.4536961609130203,0.21544252864112412,1.2915405185789661,-0.7195319139151288,-0.2961918404390882,0.06317786259425615,0.6249422182833857,0,-1,0.06913961470127106,-1.60341722169985,-0.5783751646624964,-1.446371857319967,0.47198110818862915,0.1496807187795639
3708,1734173260,617423295,-0.45709041448138266,0.21476629188921775,1.2892654496099896,-0.7197379662412627,-0.2985474932092828,0.06358860186593894,0.6235408117854672,0,-1,0.06973808258771896,-1.6037052313434046,-0.5833542982684534,-1.4452570120440882,0.47607970237731934,0.15089038014411926
3724,1734173260,633522748,-0.46046687166202005,0.21409665106176073,1.286980339739672,-0.7199429988924625,-0.30087894207566,0.06400358685751249,0.6221394388965646,0,-1,0.07034815102815628,-1.6040404478656214,-0.5883696714984339,-1.444226090108053,0.48022663593292236,0.1522798091173172
3740,1734173260,649215698,-0.46392148889557505,0.21340559601007725,1.2846255902182897,-0.720161828879581,-0.30323154363588944,0.06438167796971346,0.6207032871757785,0,-1,0.07095897197723389,-1.6042807737933558,-0.5934441725360315,-1.4431470076190394,0.4843132495880127,0.15351343154907227
3756,1734173260,665341138,-0.4672680404190023,0.21273103656017142,1.282271354403073,-0.7203756172199303,-0.30560660878070794,0.06473902698227904,0.6192515072003844,0,-1,0.07155705988407135,-1.6045683065997522,-0.5985072294818323,-1.442092243825094,0.488399863243103,0.15481896698474884
3772,1734173260,681300640,-0.4706793055383987,0.21204394077502442,1.2798726166681267,-0.7205905453307588,-0.3079712916174711,0.06506239915229214,0.6177943296404832,0,-1,0.07210758328437805,-1.6048443953143519,-0.6036418120013636,-1.4410250822650355,0.49247488379478455,0.15612448751926422
3788,1734173260,697556972,-0.4740822698960682,0.21136686690578385,1.2774693150300325,-0.7208201061291452,-0.3103001386263141,0.06541048799601615,0.6163226968306305,0,-1,0.07271803170442581,-1.6051443258868616,-0.6085971037494105,-1.4400184790240687,0.4966094493865967,0.15741804242134094
3804,1734173260,713618278,-0.47740928831388457,0.21065865599275121,1.275100199144733,-0.7210362517600947,-0.3126428756052101,0.06583882772087368,0.6148385192433863,0,-1,0.07325657457113266,-1.6054919401751917,-0.6135042349444788,-1.4389274756061,0.5007803440093994,0.15874753892421722
3820,1734173260,729214191,-0.48070744904773555,0.20995228085284734,1.2727136209464778,-0.7212505737845992,-0.31495739959808555,0.06621473215021437,0.6133637220280259,0,-1,0.07387900352478027,-1.6057799498187464,-0.6185553709613245,-1.4378607908831995,0.5048310160636902,0.1599811613559723
3836,1734173260,745468378,-0.48404942754273317,0.20925956326905268,1.270264354564608,-0.7214790003194045,-0.3172805341080939,0.06653084510841818,0.6118617175664409,0,-1,0.07444151490926743,-1.6060436407672327,-0.6235941092120569,-1.436805550252096,0.5090134739875793,0.16127397119998932
3852,1734173260,761413812,-0.48736262460876567,0.20856516624120347,1.2677967437572637,-0.7217095548056031,-0.3195563284244108,0.06687402923993895,0.6103662307823264,0,-1,0.07505158334970474,-1.6063435713397425,-0.6287167708026331,-1.435690704976217,0.5130885243415833,0.1626034677028656
3868,1734173260,777515411,-0.4906832104349727,0.20783679269189745,1.2653083204356168,-0.7219227200180716,-0.32192127948566973,0.06722828918791196,0.6088305456109154,0,-1,0.0756504237651825,-1.6066072622882288,-0.633791748677389,-1.434552017842428,0.5172353982925415,0.16386106610298157
3884,1734173260,793618202,-0.4939610312514925,0.20711208170722653,1.2628133481629849,-0.7221388161242764,-0.3242312337806478,0.06754254237854934,0.6073118163322275,0,-1,0.0762488842010498,-1.6069071928607386,-0.6387470404254358,-1.4335086981402796,0.5212860703468323,0.1651306450366974
3900,1734173260,809368610,-0.49719372430373815,0.20638012822647334,1.2603614296088388,-0.7223568644636217,-0.3264899214741002,0.06791278138646138,0.6057992618536899,0,-1,0.07684697210788727,-1.6072185675250452,-0.6436660925494593,-1.4323695341693323,0.5253491401672363,0.16629235446453094
3916,1734173260,825523614,-0.5003657739012222,0.20565040537462853,1.2579162909394002,-0.7225665216405396,-0.3287609227453219,0.06829961947645763,0.6042756320250778,0,-1,0.07749336957931519,-1.6075308958636683,-0.6486213842975062,-1.4312551657306116,0.5294840335845947,0.16762186586856842
3932,1734173260,841691017,-0.5036126892398017,0.204907139896792,1.2554016436235171,-0.7227934370920384,-0.3310093392422704,0.06864629527798297,0.6027355562563745,0,-1,0.07806748896837234,-1.6078546682940882,-0.6536362806903284,-1.4301522413836878,0.5334635376930237,0.1689513623714447
3948,1734173260,857612609,-0.5068473397505742,0.20416561425546587,1.2528215689434044,-0.7230229392594788,-0.333287584734386,0.06893630431927297,0.6011696941074991,0,-1,0.07870190590620041,-1.6081307570086878,-0.6587589422809046,-1.4290736357318323,0.537550151348114,0.17023292183876038
3964,1734173260,873357295,-0.5100514532021511,0.2034211055972678,1.250265354243947,-0.7232586823828897,-0.33555434743742946,0.06930248968055266,0.5995809563334081,0,-1,0.07930073887109756,-1.6084182898150843,-0.6638458410846155,-1.4279945532428187,0.5416491627693176,0.1715744137763977
3980,1734173260,889458417,-0.5132652114807253,0.20267407315024977,1.2476624170952595,-0.7235039064507531,-0.3378004835349332,0.06963152302852689,0.5979835964930751,0,-1,0.07991081476211548,-1.608729664479391,-0.6688726584063929,-1.4269278685199183,0.5458200573921204,0.17291589081287384
3996,1734173260,905695915,-0.5164683869902807,0.20192356865922684,1.2450758078814503,-0.7237518249377922,-0.3400618490504949,0.06998948770799458,0.5963578676683542,0,-1,0.08053324371576309,-1.6090777556048792,-0.6738274733172815,-1.4258726278888147,0.5499909520149231,0.17429257929325104
4012,1734173260,921290397,-0.5196513693128265,0.20113817374745813,1.242464262543261,-0.7239834267477281,-0.34232608087457395,0.07032158441206916,0.5947400498650213,0,-1,0.08117964118719101,-1.6093652884112757,-0.6788066069232386,-1.4247339407550257,0.5541022419929504,0.17562207579612732
4028,1734173260,937427520,-0.5227784317749149,0.20038554903464265,1.2398516961764035,-0.7242269281689414,-0.34455806638924535,0.07067063602071333,0.593111082855068,0,-1,0.08174178004264832,-1.6096418539630335,-0.6838696638690394,-1.4237149397479456,0.5582252144813538,0.1769276112318039
4044,1734173260,953427791,-0.5259418573183068,0.19959594829926242,1.237188775171088,-0.7244622374043793,-0.3468337485206299,0.07097215274972227,0.5914590188645694,0,-1,0.08236420899629593,-1.6099055449115198,-0.6889327208148401,-1.4226000944720667,0.5623365640640259,0.17823314666748047
4060,1734173260,969679355,-0.5290526163160874,0.1988378386705307,1.234508957959029,-0.7246997353799784,-0.3490729852877226,0.07124343222605575,0.5898158338389687,0,-1,0.08296229690313339,-1.6101811567889612,-0.6940549055682581,-1.4215453306781214,0.5663992166519165,0.1795027256011963
4076,1734173260,984900951,-0.5320950412064065,0.19808044775190614,1.231866123904768,-0.7249372606660694,-0.3512739991190432,0.07155081607230213,0.5881777166471689,0,-1,0.08353716880083084,-1.6104448477374476,-0.6991055647479456,-1.4204304854022425,0.5704861879348755,0.18078428506851196
4092,1734173261,1116991,-0.5351476729123512,0.19731292885733082,1.2292060629485524,-0.7251732296344976,-0.3534582351890807,0.0718504827469694,0.5865394881229398,0,-1,0.08415959775447845,-1.610720459614889,-0.704012695943014,-1.4193156401263636,0.5745496153831482,0.18200592696666718
4108,1734173261,17261028,-0.53814897215863,0.19653497116611676,1.2265773350446771,-0.7254172695011167,-0.3556227634388122,0.07221349197918421,0.5848824213548045,0,-1,0.08475768566131592,-1.611032787953512,-0.7089322249041956,-1.4182727972613733,0.5786969065666199,0.18335939943790436
4124,1734173261,33515691,-0.5410952632697548,0.19579198566830813,1.2239172872166013,-0.7256707985367815,-0.35776319106439763,0.07250064649001262,0.5832246972899375,0,-1,0.08530858159065247,-1.6113322416888636,-0.7139352003680628,-1.4171574751483362,0.58268803358078,0.18466491997241974
4140,1734173261,49082279,-0.5441415598416184,0.19499903666276092,1.2211747913943891,-0.7259069581910614,-0.35996057342618787,0.07274558281656575,0.5815458312198348,0,-1,0.08593101799488068,-1.611596409474508,-0.7190340201007288,-1.4160669485675257,0.586751401424408,0.18598206341266632
4156,1734173261,65259456,-0.5471191760302511,0.1942389461780186,1.2184519523170747,-0.7261718497898884,-0.3621164842792999,0.07304731128655267,0.5798363447557742,0,-1,0.08652910590171814,-1.611823860798971,-0.724072281514303,-1.414987866078512,0.5909222960472107,0.18729957938194275
4172,1734173261,81283330,-0.5501082759792052,0.19341513411023986,1.2156858233991297,-0.7264193146699598,-0.36432174052546046,0.07336139111416967,0.5781027200668741,0,-1,0.08712756633758545,-1.612051788960592,-0.7291949431048792,-1.4139216581927698,0.5950815677642822,0.18862909078598022
4188,1734173261,97395658,-0.5530858678164305,0.19263969537201653,1.212908785013596,-0.7266808923033379,-0.3664900955989049,0.07362447972556262,0.5763673538415153,0,-1,0.08773763477802277,-1.6123641172992151,-0.734138313923971,-1.412865940724508,0.5991929173469543,0.18992263078689575
4204,1734173261,113650798,-0.5560280295726272,0.19184483464564286,1.2101687314512815,-0.7269177922708429,-0.36865746976550495,0.07390258733025815,0.5746482409718774,0,-1,0.08832411468029022,-1.6126754919635218,-0.7390454451190394,-1.411799732838766,0.6033282279968262,0.19118022918701172
4220,1734173261,129666328,-0.558915012206845,0.19103018140746814,1.2074354446029232,-0.7271661099640723,-0.3707827996554832,0.0742319686132935,0.5729216166589941,0,-1,0.08893493562936783,-1.6129515806781214,-0.7440245787249964,-1.4107330481158655,0.6074755191802979,0.1924857646226883
4236,1734173261,145169734,-0.5617911207479795,0.19024435881732804,1.2046370704126783,-0.7274329128235552,-0.37290791272921947,0.07449753450973853,0.5711664935173852,0,-1,0.08956897258758545,-1.6131914297686976,-0.7491706053363245,-1.409689728413717,0.6115029454231262,0.19376732409000397
4252,1734173261,161317586,-0.5647353015221774,0.18941060197212137,1.2017439049346723,-0.727666475847888,-0.3751331228014185,0.07466900980953255,0.5693866692138436,0,-1,0.0901554524898529,-1.6134308020221155,-0.7543414274798792,-1.4086349646197718,0.6155663728713989,0.1950724720954895
4268,1734173261,177446842,-0.5676616960375637,0.18859890415976244,1.198857647759713,-0.7279233376139419,-0.37730089214386886,0.07486014294642007,0.567598106359122,0,-1,0.09077788144350052,-1.6137307325946253,-0.7595837751971644,-1.407555882130758,0.6196892857551575,0.19630610942840576
4284,1734173261,193524599,-0.5705993924478029,0.18778034155122897,1.1959189334901514,-0.7281707967427966,-0.3794961891174526,0.07502810713944805,0.5657921140802185,0,-1,0.09135200083255768,-1.6139825026141565,-0.7645867506610315,-1.406548802052633,0.6238130331039429,0.19751612842082977
4300,1734173261,209071159,-0.5734628886997478,0.1869462020788653,1.1930705398110786,-0.7284185479267906,-0.3816151546682709,0.07526774509130571,0.5640133502964337,0,-1,0.09195046871900558,-1.6142943541156214,-0.7695415655719202,-1.4054339567767542,0.6278883814811707,0.19884487986564636
4316,1734173261,225369691,-0.5762717814940091,0.18613621807754527,1.1902422839261118,-0.7286791134861251,-0.38370491754957786,0.07552644453423557,0.5622215239506255,0,-1,0.09258487820625305,-1.614558521901266,-0.774508301411764,-1.4043315092669886,0.6319518089294434,0.2001623958349228
4332,1734173261,241332530,-0.5790880793434172,0.1853038274384133,1.187358841526358,-0.7289308531131214,-0.38579100838557734,0.0757716524522925,0.5604317674019429,0,-1,0.09318334609270096,-1.6148465315448206,-0.7795351187335413,-1.4032285849200647,0.6360751390457153,0.20149190723896027
4348,1734173261,257537364,-0.5818497577774514,0.18449270470120788,1.184455606765438,-0.7292091494586974,-0.38786351614794123,0.07604407495826482,0.5585993267547148,0,-1,0.09374585002660751,-1.6150501410113733,-0.7845981756793421,-1.4021619001971644,0.6402587294578552,0.20277346670627594
4364,1734173261,273636817,-0.584617021210419,0.18367266815155106,1.1815534971641712,-0.7294833830980999,-0.3899267078211158,0.0762917601799883,0.5567681058036427,0,-1,0.09434393793344498,-1.6153138319598597,-0.7896845976458948,-1.4010351339923304,0.6442981362342834,0.20416288077831268
4380,1734173261,289813041,-0.5873707036402468,0.18284155487173986,1.178611583406432,-0.7297714843510541,-0.39194301726141123,0.07651061108144445,0.5549417791444649,0,-1,0.09496674686670303,-1.6156137625323694,-0.794687573109762,-1.3999560515033167,0.6484218835830688,0.20560024678707123
4396,1734173261,305442094,-0.5901778370158424,0.18196874272158506,1.1756496206878255,-0.7300436673552338,-0.39404778343860664,0.07677911091181974,0.5530529416332872,0,-1,0.0955888032913208,-1.6159136931048792,-0.7996662298785608,-1.3988898436175745,0.6525811553001404,0.20691776275634766
4412,1734173261,321300506,-0.5928624397583634,0.18116671956409575,1.1727495510696602,-0.7303260793680443,-0.39602561137611836,0.07702840554958928,0.5512296777819212,0,-1,0.09619925171136856,-1.616213623677389,-0.804669205342428,-1.3977387587176722,0.6566205620765686,0.20823490619659424
4428,1734173261,337523460,-0.5956105678320083,0.18035015282046418,1.1697340450314424,-0.7305879903878972,-0.3980922583119889,0.07714058344800823,0.5493751655820778,0,-1,0.09676175564527512,-1.6164892355548304,-0.8097079435931605,-1.3966715971576136,0.66068434715271,0.20952844619750977
4444,1734173261,353414058,-0.598317661163413,0.1795013550892405,1.1667475377305758,-0.7308608531268143,-0.40013095333351084,0.0773413977619763,0.5474997184870369,0,-1,0.09731190651655197,-1.6167767683612269,-0.8148186842547815,-1.3955448309527796,0.6647477746009827,0.21085794270038605
4460,1734173261,369073152,-0.6009828941062667,0.17865282268149735,1.1637540355315898,-0.7311364825368635,-0.40214401355039414,0.07755070872789822,0.5456239766038548,0,-1,0.09794669598340988,-1.6170414129840296,-0.8199175039874476,-1.3945143858539026,0.6688594818115234,0.21210356056690216
4476,1734173261,385411977,-0.603687639913657,0.17782056772959276,1.1606953384454988,-0.7314016872032021,-0.40423155972365127,0.07767287138334966,0.54370519873435,0,-1,0.09849722683429718,-1.6172927061664026,-0.8249438444720667,-1.3934591452227991,0.6729592084884644,0.21334916353225708
4492,1734173261,401412725,-0.6063136569786216,0.17698206960833746,1.1576991884330698,-0.7316724143073449,-0.4062451653843592,0.07783659018208151,0.5418134448057952,0,-1,0.0990833267569542,-1.6175807158099573,-0.829935375844137,-1.3923800627337855,0.677082896232605,0.2146906554698944
4508,1734173261,417664289,-0.6089074785096303,0.176116815178188,1.1547132908138136,-0.7319493309829911,-0.4082394388911867,0.07807575656939346,0.5399026890500523,0,-1,0.09972972422838211,-1.6179645697223108,-0.8348305861102503,-1.391290012990133,0.6812301874160767,0.2160201519727707
4524,1734173261,433303356,-0.6115388776383852,0.175239113257034,1.1516828158232713,-0.7322093561339519,-0.41028328420169935,0.07830228906850811,0.5379645313784197,0,-1,0.10032819211483002,-1.618216339741842,-0.8398211638080042,-1.3901990095721644,0.6853781938552856,0.21728935837745667
4540,1734173261,449627876,-0.6141197417031323,0.1743918477403506,1.1486236779312358,-0.7324978147458695,-0.41224749325368054,0.07846992575169377,0.5360423737458693,0,-1,0.10095062106847763,-1.618528191243307,-0.8448479811297815,-1.3891080061541956,0.6895015239715576,0.2186068743467331
4556,1734173261,465326070,-0.616727139483798,0.17349104396355863,1.1455273648160942,-0.7327644230089144,-0.4142762524246883,0.07863962916460274,0.5340854760936888,0,-1,0.10152511298656464,-1.6188281218158167,-0.8500178495990198,-1.3879931608783167,0.6935896277427673,0.21990041434764862
4572,1734173261,481650590,-0.6193841775758492,0.17261962121395152,1.1423485765188528,-0.7330472047052657,-0.416283381197623,0.07873907274657306,0.532118502436704,0,-1,0.10217113792896271,-1.619103733693258,-0.8550213019000452,-1.3868902365313929,0.6976290941238403,0.2212059497833252
4588,1734173261,497375249,-0.6219319993712386,0.1717440033090314,1.1392571338707416,-0.7333230283254158,-0.4182764159290947,0.07889950092359244,0.5301481347313789,0,-1,0.10275761783123016,-1.6194279829608362,-0.8600361982928675,-1.3858955542193812,0.7017651200294495,0.22248750925064087
4604,1734173261,513566493,-0.6245427558443203,0.1708902122963525,1.1361052083465535,-0.7336071167906356,-0.42025475858790234,0.0789875378905199,0.528173745027475,0,-1,0.10336768627166748,-1.6198113600360315,-0.8649914900409144,-1.3847926298724573,0.7057690024375916,0.22376908361911774
4620,1734173261,529389142,-0.6270406292524063,0.17001840229697765,1.1330100939877217,-0.7338790736817373,-0.42218450268626573,0.07912572389223915,0.5262327153666093,0,-1,0.1040140837430954,-1.6200874487506312,-0.8699820677386683,-1.3836777845965784,0.7098208069801331,0.22507460415363312
4636,1734173261,545530796,-0.6295155656736103,0.16911920545771061,1.12990059287118,-0.7341405151384502,-0.4241443439542943,0.07927971464395372,0.5242652061407519,0,-1,0.10456498712301254,-1.6203988234149378,-0.8750570456134241,-1.3825753370868128,0.7139684557914734,0.22634418308734894
4652,1734173261,561364889,-0.6320170220337554,0.16827032859057178,1.1267084005644217,-0.734418221020274,-0.42605278876565783,0.07928120488648095,0.5223249834826683,0,-1,0.10522299259901047,-1.6206868330584925,-0.8802154699908655,-1.3815086523639124,0.7179243564605713,0.2275538444519043
4668,1734173261,577480077,-0.6345134220163904,0.16737957177480775,1.1234868490850076,-0.7346969561358306,-0.4280667605524842,0.07940026012111616,0.5202641923557173,0,-1,0.10582146048545837,-1.6209624449359339,-0.885266129170553,-1.3804777304278772,0.7220484614372253,0.22887098789215088
4684,1734173261,593410253,-0.6369669505295374,0.1665001759184384,1.1202925285832428,-0.734975572817174,-0.4300240674673141,0.07945610154555087,0.5182440898728293,0,-1,0.10637198388576508,-1.6212742964373987,-0.8902209440814417,-1.3793986479388636,0.7261362075805664,0.23010461032390594
4700,1734173261,609313488,-0.6393585983144692,0.16561234830948546,1.117152334438113,-0.7352488636727614,-0.4319471296113979,0.07959987818026845,0.516231193441537,0,-1,0.10699441283941269,-1.6215623060809534,-0.8951037565814417,-1.3783438841449183,0.7302838563919067,0.23139816522598267
4716,1734173261,625482797,-0.6417147107393455,0.16472232157206929,1.114050585450301,-0.7355277704651453,-0.4338442700981146,0.07977457187099248,0.5142120825694461,0,-1,0.1075689047574997,-1.6218741575824183,-0.9001191298114222,-1.3772414366351526,0.7343835830688477,0.2326917052268982
4733,1734173261,641627788,-0.6441062147826883,0.16385178741420825,1.1108215753032478,-0.7358316711688453,-0.4357179079423724,0.0798664609409861,0.5121747795625518,0,-1,0.10816699266433716,-1.6221736113177698,-0.9050973097430628,-1.3761866728412073,0.738447368144989,0.23403319716453552
4748,1734173261,657477140,-0.6464583878060886,0.1629806550973918,1.107588423752783,-0.7361215406171975,-0.4376215958856444,0.07992463092188325,0.5101220144493532,0,-1,0.10872950404882431,-1.6224139372455042,-0.9102924505816858,-1.3751075903521937,0.7426193952560425,0.23539865016937256
4764,1734173261,673629283,-0.6487955483201803,0.16208511838584339,1.1043379219788896,-0.7364350821757846,-0.4395003083400505,0.08006089201549182,0.508028643168306,0,-1,0.10932834446430206,-1.6226776281939905,-0.9153550306903284,-1.3740289847003382,0.7467913627624512,0.23673975467681885
4780,1734173261,689453601,-0.6511007224787878,0.16123736120238757,1.101078027898866,-0.7367517705163787,-0.4413562909701721,0.08014690409267973,0.50594261218679,0,-1,0.10997436940670013,-1.6229894796954554,-0.9203460852252405,-1.3729499022113245,0.7508195638656616,0.23808124661445618
4796,1734173261,705615282,-0.6533828061154834,0.160330365847759,1.097896618269571,-0.7370300047161786,-0.4431876289628448,0.08023855925754805,0.5039179211842287,0,-1,0.11051290482282639,-1.6232650915728968,-0.9252885023700159,-1.3718598524676722,0.754883348941803,0.23933883011341095
4812,1734173261,721444606,-0.6556862479730415,0.15941930828159662,1.094654594379436,-0.7373214099454019,-0.44501459162328305,0.08035586041226345,0.5018586328597849,0,-1,0.1111469492316246,-1.6235292593585413,-0.9303038755999964,-1.370744530354635,0.7589355111122131,0.24068032205104828
4828,1734173261,737616539,-0.6579444743631504,0.1585115415222949,1.0913887105822482,-0.7376062860541858,-0.44690518778170846,0.0804244008754439,0.49974457040669523,0,-1,0.11174578219652176,-1.623840634022848,-0.9353306929217737,-1.3697016874896448,0.7631314992904663,0.2419499009847641
4844,1734173261,753485202,-0.660175687788961,0.15762754434181672,1.0880980910318876,-0.7378989992509342,-0.44872078523427666,0.08046243307812512,0.4976751155787803,0,-1,0.11236821860074997,-1.624056641255514,-0.9404295126544397,-1.3685992399798792,0.7671836614608765,0.24323146045207977
4860,1734173261,769638299,-0.6623757806669608,0.1567172832087561,1.084802606361657,-0.7381805212473989,-0.45056832712537426,0.08050248445015762,0.49557749206326185,0,-1,0.11295431852340698,-1.6242731253253382,-0.9455879370318812,-1.3674843947040003,0.7712478041648865,0.24451301991939545
4876,1734173261,785427808,-0.6645938105090159,0.15580395419670134,1.0814778866154158,-0.7384698534904117,-0.45242206209606084,0.08055000592793941,0.49344528547713074,0,-1,0.11351682990789413,-1.6245964209186,-0.9506023565875452,-1.3664177099811,0.7753838896751404,0.24583053588867188
4892,1734173261,801159858,-0.6667466387634673,0.1549027540840879,1.078207319368634,-0.7387749748238764,-0.45421608814795766,0.08063367756448199,0.49132218745338024,0,-1,0.11418682336807251,-1.6248486677752894,-0.9555099646197718,-1.3653505484210413,0.7794480323791504,0.24712371826171875
4908,1734173261,817464351,-0.6689292573109732,0.15398294002130158,1.07492520570702,-0.7390602449227394,-0.45600896933645085,0.08069805259971384,0.48921733265090067,0,-1,0.11476168781518936,-1.6251242796527308,-0.9604051748858851,-1.364283863698141,0.7835241556167603,0.24840565025806427
4924,1734173261,833742380,-0.6710158862424712,0.15306989133038967,1.0716804216287223,-0.7393621951849403,-0.45776079668387293,0.08078443258568302,0.4871062233255303,0,-1,0.11543168127536774,-1.6253998915301722,-0.9654315153705042,-1.3631694952594202,0.7876242399215698,0.2497471272945404
4940,1734173261,849597454,-0.6731202190809294,0.15216328156332376,1.068332650881861,-0.739669935712101,-0.4595319891694282,0.08084585168677233,0.4849563747376513,0,-1,0.1160660982131958,-1.6256640593158167,-0.9705904165851038,-1.3621142546283167,0.7917723059654236,0.25108861923217773
4956,1734173261,865727901,-0.6752382642531837,0.1512235709181958,1.0649301367150328,-0.7399510716378656,-0.46139260665519916,0.0808486387241012,0.4827553953322063,0,-1,0.11665257811546326,-1.6258915106402796,-0.9756892363177698,-1.3610594908343714,0.7959446907043457,0.2523941397666931
4972,1734173261,881480932,-0.6773092085049014,0.15029444367386646,1.0615435441936536,-0.7402481137686561,-0.46319070595970485,0.08089188621932328,0.4805659192227192,0,-1,0.11726264655590057,-1.626143757496969,-0.9807637373553675,-1.3599451223956507,0.8000447750091553,0.2536517381668091
4988,1734173261,897824764,-0.6793794973987144,0.14939163252506418,1.0581997800638676,-0.7405578086784954,-0.46493733017220906,0.08089254808704219,0.4783971223592684,0,-1,0.11787346750497818,-1.6264551321612757,-0.9856227079974573,-1.3588784376727503,0.804169237613678,0.25501683354377747
5004,1734173261,913441419,-0.681383512724371,0.14848882749603076,1.0549262044704402,-0.7408634882667904,-0.46663042744636074,0.08100722298724493,0.47625115827500575,0,-1,0.1184835433959961,-1.6267073790179651,-0.9906018416034144,-1.3577397505389612,0.8082453608512878,0.2562864124774933
5020,1734173261,929646253,-0.6833679117172439,0.14754235670121238,1.051619742651737,-0.7411443324697967,-0.4683574927657286,0.08106972440641834,0.47410340349207286,0,-1,0.11911795288324356,-1.6269834677325647,-0.9955690542804163,-1.3566611448871058,0.8123818039894104,0.2575559914112091
5036,1734173261,945405960,-0.6853851008939462,0.14663194640386745,1.0481882555337028,-0.7414352953255195,-0.4701356730749345,0.08102644825156034,0.4718907356917225,0,-1,0.11968046426773071,-1.6272590796100062,-1.000655476246969,-1.355582062398092,0.81648188829422,0.25880157947540283
5052,1734173261,961609840,-0.6874254661245758,0.14568902819154683,1.0447023836269567,-0.7417313949082182,-0.4718870630411504,0.08096196399111591,0.4696831888929042,0,-1,0.12025458365678787,-1.6275108496295374,-1.0058139006244105,-1.3545029799090784,0.8205224275588989,0.2601071298122406
5068,1734173261,977297067,-0.6893400104336721,0.1448008902778687,1.0413331796547047,-0.7420357113052521,-0.4735872242179372,0.08096400179895168,0.46748580151482366,0,-1,0.12086503207683563,-1.6277745405780237,-1.0109007994281214,-1.3534005323993128,0.8246105909347534,0.261412650346756
5084,1734173261,993654727,-0.6913209029114542,0.14391810134571703,1.0378738546877464,-0.7423472177574479,-0.4752895949039433,0.08091313237737473,0.46526709992508924,0,-1,0.12143952399492264,-1.6280620733844202,-1.0158441702472132,-1.3523338476764124,0.8287593722343445,0.26267024874687195
5100,1734173262,9364843,-0.69323712817571,0.14298628359179158,1.0344926862115504,-0.7426462373545879,-0.4769692709997854,0.08091146013877709,0.4630661035783308,0,-1,0.1220260038971901,-1.6283381620990198,-1.0207513014422815,-1.351255242024557,0.8327995538711548,0.2639754116535187
5116,1734173262,25672674,-0.6951609244058152,0.14207331864974593,1.0310790641317917,-0.7429607915026513,-0.4786287707563209,0.0808912396707178,0.4608474470348965,0,-1,0.1226244643330574,-1.62868577638735,-1.0257781187640589,-1.350140396748678,0.8368876576423645,0.265316903591156
5132,1734173262,41290283,-0.6970201126787133,0.14113667143264416,1.0276828230222281,-0.7432530705378423,-0.48030337092486347,0.08092032834153552,0.45862342447304205,0,-1,0.12318697571754456,-1.6289375464068812,-1.0308168570147913,-1.3490851561175745,0.8410244584083557,0.26665836572647095
5148,1734173262,57534217,-0.6988758405752257,0.1402528531725289,1.024188107131417,-0.7436067891693271,-0.4819441506861735,0.08085826141618378,0.4563340007948332,0,-1,0.12379742413759232,-1.6291897932635706,-1.035975758229391,-1.3480427900897425,0.8451125621795654,0.2679998576641083
5164,1734173262,73274374,-0.7007834216877965,0.13933278408765193,1.0206196552267655,-0.7439168903508107,-0.48363329838851193,0.08072758506558993,0.45405897188592853,0,-1,0.12437154352664948,-1.6294415632831019,-1.0410988966571253,-1.346976105366842,0.8492010831832886,0.26934170722961426
5180,1734173262,89531183,-0.702612021149189,0.1384031661473959,1.0171329723196403,-0.7442320384164437,-0.485276115081338,0.08065492397083752,0.4517970212001486,0,-1,0.12495839595794678,-1.6297653357135218,-1.0461018721209925,-1.3459094206439417,0.8533375263214111,0.2706109285354614
5196,1734173262,105281352,-0.7044175112085688,0.1374735165189444,1.0136964398819703,-0.7445311019955452,-0.48693383257443545,0.08063440745773244,0.4495186016057748,0,-1,0.1255808174610138,-1.6300771872149866,-1.0510442892657679,-1.3448427359210413,0.8574143648147583,0.27190446853637695
5212,1734173262,121441602,-0.7062205464223175,0.13656504924128682,1.0102165754878083,-0.7448408868140546,-0.4885558638245939,0.08054773021589681,0.4472552787946997,0,-1,0.12620288133621216,-1.6303890387164515,-1.0559638182269495,-1.3437755743609827,0.8615025281906128,0.27315008640289307
5228,1734173262,137150049,-0.7080209768763938,0.1356180839430572,1.0067237904410864,-0.7451399724120654,-0.49018905793331047,0.08048650512509557,0.4449753155950877,0,-1,0.12677738070487976,-1.6306646505938929,-1.0610030333148401,-1.3426850477801722,0.8656269311904907,0.2744675874710083
5243,1734173262,153385400,-0.7097467253778249,0.13469591889359572,1.0032446473382286,-0.7454445526648065,-0.49179008358652765,0.08042149517976015,0.44270454673673115,0,-1,0.12735149264335632,-1.6309407393084925,-1.0661137739764612,-1.3415826002704065,0.869679868221283,0.2757132053375244
5260,1734173262,169117212,-0.7114861555655383,0.13373595222823276,0.9996897546125627,-0.7457411657861501,-0.49344544935122947,0.08034879788408511,0.44037004081233705,0,-1,0.128022238612175,-1.631228272114889,-1.0711882750140589,-1.340539280568258,0.8739001750946045,0.27700674533843994
5276,1734173262,185460805,-0.7132504771034601,0.13280943313673257,0.9960781925114567,-0.746061004833578,-0.49505760716048935,0.08019950889549479,0.43803993132152236,0,-1,0.1286083459854126,-1.6315043608294886,-1.0762150923358362,-1.3394368330584925,0.8779890537261963,0.2783122956752777
5292,1734173262,201164245,-0.7149370352592728,0.13186532134830695,0.9926012187331446,-0.7463610367021526,-0.49663625529363153,0.0801348158782592,0.4357476839926567,0,-1,0.12921878695487976,-1.6318519751178187,-1.0811227003680628,-1.3383100668536585,0.8820891380310059,0.27959346771240234
5308,1734173262,217434644,-0.716653860548755,0.13092798555033816,0.9891293577358764,-0.7466736977571861,-0.49818774833494844,0.08008960489946608,0.43344320466886055,0,-1,0.12979328632354736,-1.632200066243307,-1.086017910634176,-1.3372796217547815,0.8862259387969971,0.2809229791164398
5324,1734173262,233165502,-0.718305711684347,0.12999631521654215,0.985603973642623,-0.746984494304922,-0.49974452057750407,0.0800163865883093,0.43112290277614673,0,-1,0.13041533529758453,-1.6324875990497034,-1.0910447279559534,-1.3361290136920374,0.8903264403343201,0.2822648286819458
5340,1734173262,249409437,-0.7199915479127241,0.1290684843254157,0.9819686217085422,-0.7473089537040702,-0.5013105323641289,0.079842266498656,0.4287683411061024,0,-1,0.13100218772888184,-1.6327751318561,-1.0961440245257776,-1.3351100126849573,0.8944029808044434,0.2835463881492615
5356,1734173262,265167951,-0.7216227979532365,0.12813085611809533,0.9783692100723926,-0.7476114017051325,-0.5028744205318137,0.07967246329937257,0.42643499833748355,0,-1,0.13166019320487976,-1.633099381123678,-1.101290527974264,-1.3339832464801233,0.8984082937240601,0.28482794761657715
