yildirimyigit/pemp/data/ur10/raw/14_2024-12-14_13-48-56.csv
Time,ROS secs,ROS nsecs,________p_x________,________p_y________,________p_z________,________q_x________,________q_y________,________q_z________,________q_w________,gripper_position,gripper_force,shoulder_pan_joint,shoulder_lift_joint,elbow_joint,wrist_1_joint,wrist_2_joint,wrist_3_joint
0,1734173336,950291156,7.596250759864396e-05,0.25614099536877016,1.4272999971286848,-0.707106775324523,0.00011020808862047944,2.582448610430266e-05,0.7071067779886059,0,-1,-0.00013143221010381012,-1.570796314870016,3.5762786865234375e-05,-1.5706999937640589,-7.135072817021637e-05,4.793690095539205e-05
15,1734173336,966005086,7.147897467347439e-05,0.25614099457334105,1.4272999980961896,-0.7071067718351002,0.00012260448393349978,3.8558056351912746e-05,0.7071067788575927,0,-1,-0.00010711351503545075,-1.570796314870016,1.1920928955078125e-05,-1.5706999937640589,-5.990663637334137e-05,7.190534961409867e-05
30,1734173336,982141017,4.1955085254665456e-05,0.25614099683484765,1.4272999989408253,-0.7071067729336735,0.0001186822161010762,-8.18540959702758e-06,0.7071067794321144,0,-1,-8.32716571252945e-05,-1.5707839171039026,2.384185791015625e-05,-1.5706880728351038,-2.366701234990387e-05,2.3968450477696024e-05
46,1734173336,998112440,6.672070727849312e-05,0.2561409935798472,1.427299998402757,-0.7071067733382657,0.00011869927548141982,-8.168350191919988e-06,0.7071067790248561,0,-1,-0.00010711351503545075,-1.5707600752459925,1.1920928955078125e-05,-1.5706999937640589,-4.7985707418263246e-05,5.992112710373476e-05
62,1734173337,13992786,4.686095680899914e-05,0.25614099688423,1.4272999990376756,-0.7071067751635666,0.00010171670668629294,9.240909190964569e-06,0.7071067798332148,0,-1,-8.32716571252945e-05,-1.570808235798971,0.0,-1.5706761519061487,-4.7985707418263246e-05,8.388957940042019e-05
78,1734173337,29882669,6.083664439795721e-05,0.25614099429390985,1.427299998001939,-0.7071067718661058,0.00013130389161554172,-3.993103625454563e-06,0.70710677830469,0,-1,-0.00013143221010381012,-1.570808235798971,0.0,-1.5706761519061487,-3.5587941304981996e-05,4.793690095539205e-05
95,1734173337,45709371,9.731208768988208e-05,0.2561409881144935,1.4272999973102336,-0.7071067709271861,0.0001354738191475546,-8.252545650529537e-06,0.7071067784201109,0,-1,-0.00013143221010381012,-1.570808235798971,0.0,-1.5706761519061487,-5.990663637334137e-05,4.793690095539205e-05
110,1734173337,61264991,7.194665608401722e-05,0.2561409936861716,1.4272999977034835,-0.7071067737860881,0.00012679147038206472,-7.831175362804471e-06,0.7071067771761389,0,-1,-0.00013143221010381012,-1.5707600752459925,2.384185791015625e-05,-1.5706880728351038,-3.5587941304981996e-05,5.992112710373476e-05
126,1734173337,77286243,9.245094765530159e-05,0.25614099013877206,1.427299996956755,-0.7071067707323381,0.00013990184860068668,4.604853491335465e-06,0.7071067777858961,0,-1,-0.00014335313905888825,-1.5707839171039026,2.384185791015625e-05,-1.5706999937640589,-3.5587941304981996e-05,2.3968450477696024e-05
142,1734173337,93796491,1.7968424103605887e-05,0.25614100029257814,1.427299999228583,-0.7071067736312954,0.00010589195184098498,-3.7797597491248423e-06,0.7071067808028345,0,-1,-0.000119511281148732,-1.570808235798971,3.5762786865234375e-05,-1.5706761519061487,-4.7985707418263246e-05,5.992112710373476e-05
159,1734173337,109995365,2.7826435786780313e-05,0.2561409985632667,1.4272999989602644,-0.7071067738482627,0.00011433838222587404,-2.905080812684186e-05,0.7071067786838751,0,-1,-0.00014335313905888825,-1.5707839171039026,1.1920928955078125e-05,-1.5706999937640589,-7.135072817021637e-05,4.793690095539205e-05
174,1734173337,125749826,4.392789132985613e-05,0.25614099657555744,1.427299998748011,-0.7071067745042732,0.00011024752756704343,-1.662009818469838e-05,0.7071067790789578,0,-1,-0.00010711351503545075,-1.5707724730121058,3.5762786865234375e-05,-1.5706999937640589,-3.5587941304981996e-05,3.5952674807049334e-05
191,1734173337,142031669,6.898463909691942e-05,0.2561409942647231,1.4272999980457353,-0.7071067731411996,0.00011855306699693982,1.764789998575778e-05,0.7071067790734027,0,-1,-9.519258608037262e-05,-1.570808235798971,1.1920928955078125e-05,-1.5706637541400355,-4.7985707418263246e-05,3.5952674807049334e-05
206,1734173337,157967805,5.689659111699431e-05,0.25614099559208026,1.4272999989349109,-0.7071067742434608,0.00010586957423374614,1.3393776800379973e-05,0.7071067800772719,0,-1,-0.000119511281148732,-1.570808235798971,3.5762786865234375e-05,-1.5706880728351038,-8.32716571252945e-05,5.992112710373476e-05
222,1734173337,174171924,5.177211318733592e-05,0.2561409955923394,1.427299998420223,-0.707106772274546,0.00012270593455530895,4.604853422412958e-06,0.7071067794368275,0,-1,-0.00015527406801396637,-1.5707724730121058,-1.1746083394825746e-05,-1.5706518332110804,-5.990663637334137e-05,5.992112710373476e-05
239,1734173337,189938545,0.00011797714160818615,0.2561409889099057,1.4272999940332793,-0.7071067715043277,0.00013987946965859636,2.1778388748191973e-05,0.7071067766979483,0,-1,-0.00010711351503545075,-1.570808235798971,2.384185791015625e-05,-1.570711914693014,-5.990663637334137e-05,5.992112710373476e-05
254,1734173337,206248521,9.13518380379826e-05,0.25614099034252324,1.4272999971286848,-0.7071067692174858,0.00014416128992732506,1.7293664570650547e-05,0.7071067782487033,0,-1,-0.000119511281148732,-1.5707839171039026,-1.1746083394825746e-05,-1.5706999937640589,-4.7985707418263246e-05,4.793690095539205e-05
271,1734173337,221989631,5.7158112104568925e-05,0.256140995796959,1.4272999984940984,-0.7071067749806126,0.00011012369742738839,4.519857973142778e-07,0.7071067788170923,0,-1,-0.00013143221010381012,-1.570796314870016,3.5762786865234375e-05,-1.5706761519061487,-2.366701234990387e-05,4.793690095539205e-05
286,1734173337,237718343,2.5167329915692582e-05,0.2561409991015089,1.4272999985420682,-0.7071067718746918,0.00012711158572776906,-1.6614779270313938e-05,0.7071067788782301,0,-1,-0.00013143221010381012,-1.5707839171039026,-1.1746083394825746e-05,-1.570723835621969,-2.366701234990387e-05,3.5952674807049334e-05
303,1734173337,254058599,9.335946546695912e-05,0.2561409899501158,1.4272999969742783,-0.7071067705754248,0.0001437793586417551,3.9016866663142064e-07,0.7071067771798947,0,-1,-0.00014335313905888825,-1.570796314870016,0.0,-1.5707357565509241,-3.5587941304981996e-05,5.992112710373476e-05
318,1734173337,269861459,5.579289946295892e-05,0.2561409949568204,1.4272999990280908,-0.7071067737857124,0.00011444515237381332,-2.0851843067245438e-05,0.7071067790184655,0,-1,-0.00010711351503545075,-1.5707724730121058,7.200241088867188e-05,-1.570723835621969,-3.5587941304981996e-05,8.388957940042019e-05
335,1734173337,286267995,6.232031136179049e-05,0.256140994458704,1.4272999985085606,-0.7071067735959805,0.00011865983719969495,-8.207788510698106e-06,0.7071067787733037,0,-1,-0.00013143221010381012,-1.570808235798971,7.200241088867188e-05,-1.5706637541400355,-3.5587941304981996e-05,5.992112710373476e-05
351,1734173337,301863670,8.967765092670227e-05,0.256140991248486,1.4272999968519708,-0.7071067694197305,0.00014416128993086333,2.5723034257011308e-05,0.7071067777900591,0,-1,-0.00010711351503545075,-1.570796314870016,1.1920928955078125e-05,-1.5706999937640589,-2.366701234990387e-05,5.992112710373476e-05
366,1734173337,317640542,5.4398854143978084e-05,0.25614099546470026,1.427299998749631,-0.7071067738343809,0.00011444515236723003,-3.993103676533939e-06,0.7071067792659719,0,-1,-0.00010711351503545075,-1.570808235798971,-1.1746083394825746e-05,-1.5706637541400355,-1.1746083394825746e-05,3.5952674807049334e-05
382,1734173337,333632469,4.829813993777513e-05,0.256140995772854,1.4272999988707347,-0.7071067712265997,0.00012694299827559964,-8.016822196510071e-06,0.70710677970636,0,-1,-9.519258608037262e-05,-1.5707839171039026,1.1920928955078125e-05,-1.5706999937640589,-7.135072817021637e-05,4.793690095539205e-05
398,1734173337,349658727,-8.485424218209393e-06,0.2561410022048204,1.4272999988080035,-0.7071067769903872,8.039049896117764e-05,4.773440754156365e-06,0.7071067807968248,0,-1,-0.00013143221010381012,-1.570796314870016,1.1920928955078125e-05,-1.5706999937640589,-2.366701234990387e-05,5.992112710373476e-05
414,1734173337,365651607,6.85721634925308e-05,0.256140995395027,1.4272999980009495,-0.7071067732267836,0.0001143213215031951,3.870426352227047e-05,0.7071067788456149,0,-1,-0.00013143221010381012,-1.570796314870016,1.1920928955078125e-05,-1.5706999937640589,-3.5587941304981996e-05,5.992112710373476e-05
430,1734173337,381657361,8.452949046203607e-05,0.2561409912391995,1.42729999741667,-0.7071067708943691,0.00013568716377006893,8.819538314272774e-06,0.7071067784051766,0,-1,-0.000119511281148732,-1.5707724730121058,0.0,-1.570711914693014,-3.5587941304981996e-05,4.793690095539205e-05
446,1734173337,397618293,5.508769734242295e-05,0.2561409958398258,1.4272999974353897,-0.7071067741429858,0.0001267296531418571,5.363770847285348e-07,0.7071067768734843,0,-1,-0.00013143221010381012,-1.570808235798971,4.8160552978515625e-05,-1.570711914693014,-5.990663637334137e-05,5.992112710373476e-05
462,1734173337,413599252,3.0574321804965876e-05,0.2561409983789872,1.4272999986252812,-0.7071067742116601,0.0001100618801408045,9.156713036427457e-06,0.7071067795365261,0,-1,-9.519258608037262e-05,-1.570808235798971,4.8160552978515625e-05,-1.5706880728351038,-3.5587941304981996e-05,8.388957940042019e-05
478,1734173337,429610729,4.59276557124323e-05,0.2561409970056372,1.4272999989923831,-0.7071067748821583,0.00010148630202955403,1.743987425054982e-05,0.707106779993046,0,-1,-0.00014335313905888825,-1.5707724730121058,1.1920928955078125e-05,-1.5706999937640589,-3.5587941304981996e-05,5.992112710373476e-05
494,1734173337,445683002,0.00011354040592715517,0.2561409872976902,1.427299996353328,-0.7071067727216859,0.00013125913441713145,-1.2130055690557545e-05,0.7071067773646519,0,-1,-0.00014335313905888825,-1.570808235798971,1.1920928955078125e-05,-1.5706761519061487,-3.5587941304981996e-05,3.5952674807049334e-05
510,1734173337,461158752,6.442784057539004e-05,0.2561409951642274,1.4272999976365124,-0.7071067755677185,0.00010597102551591567,4.7286835956746745e-06,0.7071067788488563,0,-1,-0.00015527406801396637,-1.570808235798971,3.5762786865234375e-05,-1.5706880728351038,-2.366701234990387e-05,4.793690095539205e-05
526,1734173337,477228403,0.00010156106448044788,0.2561409888721615,1.4272999963878092,-0.707106770006593,0.00014799404343053963,4.604853529810464e-06,0.7071067768642876,0,-1,-0.00013143221010381012,-1.570796314870016,3.5762786865234375e-05,-1.5706880728351038,-3.5587941304981996e-05,5.992112710373476e-05
542,1734173337,493280649,3.622413449487378e-05,0.25614099767556464,1.427299999068144,-0.7071067731430553,0.0001100618800661076,3.901685238451264e-07,0.707106780664311,0,-1,-9.519258608037262e-05,-1.5707839171039026,3.5762786865234375e-05,-1.5706761519061487,-2.366701234990387e-05,3.5952674807049334e-05
558,1734173337,509425878,7.522962831003954e-05,0.2561409930749784,1.427299998457834,-0.7071067718722833,0.00011853600625626912,2.572303420208662e-05,0.707106780097532,0,-1,-0.000119511281148732,-1.5707600752459925,0.0,-1.5706999937640589,-4.7985707418263246e-05,5.992112710373476e-05
574,1734173337,525394201,7.757447498994003e-05,0.2561409927427175,1.4272999980723258,-0.7071067736694274,0.00011442277340611714,4.751061879447856e-06,0.7071067794298606,0,-1,-0.000119511281148732,-1.570796314870016,2.384185791015625e-05,-1.5706999937640589,-2.366701234990387e-05,3.5952674807049334e-05
590,1734173337,541889905,6.506754852968342e-05,0.25614099283788844,1.4272999991051045,-0.7071067719863372,0.0001231049265842483,-2.905080811731607e-05,0.7071067790739173,0,-1,-0.00010711351503545075,-1.5707839171039026,1.1920928955078125e-05,-1.5706999937640589,-4.7985707418263246e-05,2.3968450477696024e-05
606,1734173337,557697772,9.578537456867398e-05,0.256140989840143,1.4272999973751692,-0.7071067711733063,0.00012692061930912266,1.7248907957790158e-05,0.7071067795987342,0,-1,-0.00013143221010381012,-1.5707839171039026,1.1920928955078125e-05,-1.5706518332110804,-4.7985707418263246e-05,3.5952674807049334e-05
622,1734173337,573551177,5.445838718162198e-05,0.25614099483329605,1.4272999987766717,-0.7071067715255988,0.0001311576831573729,-2.0660876709272032e-05,0.7071067783817625,0,-1,-0.000119511281148732,-1.5707839171039026,2.384185791015625e-05,-1.5706999937640589,-3.5587941304981996e-05,8.388957940042019e-05
638,1734173337,589603662,1.2193214718738458e-05,0.2561410000572316,1.4272999991999076,-0.7071067765845892,8.890406482505173e-05,4.8576369356591396e-06,0.7071067801828961,0,-1,-0.00013143221010381012,-1.5707724730121058,3.5762786865234375e-05,-1.5706637541400355,-4.7985707418263246e-05,5.992112710373476e-05
654,1734173337,605571746,8.6466669810315e-05,0.256140993696052,1.4272999969748414,-0.7071067735279276,0.00012677441099781138,1.7439874276993094e-05,0.7071067772656572,0,-1,-0.000119511281148732,-1.5707839171039026,3.5762786865234375e-05,-1.5706880728351038,-3.5587941304981996e-05,5.992112710373476e-05
670,1734173337,621779441,5.384315250208772e-05,0.2561409962521406,1.4272999989349109,-0.707106774861932,0.00010165488942218508,1.7608461644594694e-05,0.707106779984878,0,-1,-0.00013143221010381012,-1.5707600752459925,6.008148193359375e-05,-1.5706880728351038,-4.7985707418263246e-05,2.3968450477696024e-05
686,1734173337,638024806,8.062791356132484e-05,0.2561409917997578,1.4272999980723258,-0.7071067715022977,0.0001271115856799767,9.01050459443093e-06,0.7071067793884124,0,-1,-0.00015527406801396637,-1.570796314870016,4.8160552978515625e-05,-1.5706999937640589,-2.366701234990387e-05,4.793690095539205e-05
702,1734173337,653827190,6.914265895098754e-05,0.25614099364335646,1.4272999983051575,-0.7071067728722629,0.00012289690094043895,-3.9707247366533765e-06,0.7071067788097912,0,-1,-8.32716571252945e-05,-1.570808235798971,0.0,-1.5706880728351038,-3.5587941304981996e-05,4.793690095539205e-05
718,1734173337,670013189,3.614314370430141e-05,0.25614099764646353,1.4272999992791924,-0.7071067763302685,9.332697104129913e-05,-2.5111285163007954e-05,0.7071067794380954,0,-1,-0.000119511281148732,-1.5707839171039026,0.0,-1.5706637541400355,-2.366701234990387e-05,3.5952674807049334e-05
734,1734173337,685763359,1.7768978869292104e-05,0.25614099960580516,1.4272999989556276,-0.7071067753783948,0.00010171670670295435,4.743647056492887e-07,0.7071067796786104,0,-1,-0.00015527406801396637,-1.570808235798971,6.008148193359375e-05,-1.570711914693014,-7.135072817021637e-05,4.793690095539205e-05
751,1734173337,701775550,0.00010317571867653828,0.2561409896353146,1.4272999963833848,-0.7071067702961171,0.0001397556401051554,2.1317384380573523e-05,0.7071067779446922,0,-1,-0.000119511281148732,-1.5707724730121058,-1.1746083394825746e-05,-1.570711914693014,-7.135072817021637e-05,4.793690095539205e-05
766,1734173337,717603445,-1.588035004926172e-05,0.25614100448405225,1.4272999983796262,-0.7071067771506541,8.034574174388947e-05,-3.7755339736562816e-05,0.7071067796498004,0,-1,-0.00013143221010381012,-1.5707724730121058,4.8160552978515625e-05,-1.5706999937640589,-3.5587941304981996e-05,7.190534961409867e-05
783,1734173337,733972549,8.009680045036087e-05,0.25614099239350574,1.4272999976769416,-0.7071067706835348,0.00013573192035424664,1.729366455001832e-05,0.7071067784509478,0,-1,-9.519258608037262e-05,-1.570796314870016,-1.1746083394825746e-05,-1.5706637541400355,-8.32716571252945e-05,2.3968450477696024e-05
798,1734173337,749564647,5.3317999814153755e-05,0.2561409965849372,1.4272999984172683,-0.7071067759974851,0.00010161013159903657,8.797159314433328e-06,0.707106779020279,0,-1,-9.519258608037262e-05,-1.5707600752459925,-1.1746083394825746e-05,-1.5706880728351038,-3.5587941304981996e-05,4.793690095539205e-05
815,1734173337,766327619,2.648343592455856e-05,0.25614099905246296,1.4272999992797886,-0.7071067745544871,0.00010169432771274055,-1.6406753629097558e-05,0.7071067803155558,0,-1,-0.000119511281148732,-1.5707600752459925,3.5762786865234375e-05,-1.5706880728351038,-7.135072817021637e-05,3.5952674807049334e-05
830,1734173337,781841754,5.076253374832558e-05,0.2561409964650634,1.4272999985208685,-0.7071067753558173,0.00010605522105023056,4.812879111124326e-06,0.7071067790475665,0,-1,-9.519258608037262e-05,-1.5707839171039026,-2.366701234990387e-05,-1.5706761519061487,-1.1746083394825746e-05,4.793690095539205e-05
846,1734173337,797933340,2.6949393829271653e-05,0.2561409986726049,1.4272999987943487,-0.7071067759990595,0.00010161013161129338,-8.061580075593614e-06,0.7071067790274733,0,-1,-0.00010711351503545075,-1.5707839171039026,1.1920928955078125e-05,-1.5706999937640589,-3.5587941304981996e-05,4.793690095539205e-05
862,1734173337,813573837,8.973718385753125e-05,0.2561409897759698,1.4272999970796876,-0.7071067687820948,0.00015239969453529787,5.811349983263989e-07,0.7071067771677347,0,-1,-0.00013143221010381012,-1.5707724730121058,0.0,-1.5706999937640589,-4.7985707418263246e-05,4.793690095539205e-05
878,1734173337,829873323,4.4537861802763684e-05,0.2561409965839073,1.4272999992429014,-0.7071067748472744,0.00010601578274144587,-2.085184308693929e-05,0.7071067792709531,0,-1,-0.00010711351503545075,-1.570808235798971,4.8160552978515625e-05,-1.5706999937640589,-2.366701234990387e-05,9.58738019107841e-05
894,1734173337,845661401,7.905157340332043e-05,0.2561409924591294,1.4272999975341856,-0.7071067740902643,0.00011878366736999872,-8.083958296066251e-06,0.7071067782596556,0,-1,-0.000119511281148732,-1.570820156727926,3.5762786865234375e-05,-1.5706761519061487,-3.5587941304981996e-05,5.992112710373476e-05
910,1734173337,861980676,7.681391959628784e-05,0.256140992572333,1.4272999969769873,-0.7071067703584665,0.00014801642239946846,4.627232427108888e-06,0.7071067765075839,0,-1,-0.000119511281148732,-1.570808235798971,1.1920928955078125e-05,-1.5706999937640589,-4.7985707418263246e-05,5.992112710373476e-05
926,1734173337,877919912,5.951585756792182e-05,0.2561409952789575,1.4272999980760517,-0.7071067736930715,0.00011427656495091919,1.3371397890981659e-05,0.7071067793193951,0,-1,-0.00010711351503545075,-1.5707839171039026,-1.1746083394825746e-05,-1.5706761519061487,-4.7985707418263246e-05,5.992112710373476e-05
943,1734173337,893841505,0.00011586057595253021,0.25614098528215967,1.4272999952911134,-0.7071067654724391,0.00016116623868747026,2.6206418842721986e-05,0.7071067780482465,0,-1,-9.519258608037262e-05,-1.5707839171039026,1.1920928955078125e-05,-1.5706999937640589,-2.366701234990387e-05,5.992112710373476e-05
958,1734173337,910019874,0.0001353268614204764,0.2561409870515162,1.427299992982224,-0.7071067684634221,0.0001567829666580374,3.868188597256505e-05,0.7071067754703171,0,-1,-0.00013143221010381012,-1.5707600752459925,6.008148193359375e-05,-1.5706999937640589,-4.7985707418263246e-05,4.793690095539205e-05
974,1734173337,925548076,6.59522889497078e-05,0.2561409950191113,1.4272999977439627,-0.707106774471997,0.00011425418604481496,1.3011844188717635e-05,0.7071067785507937,0,-1,-9.519258608037262e-05,-1.570796314870016,3.5762786865234375e-05,-1.5706880728351038,-1.1746083394825746e-05,4.793690095539205e-05
990,1734173337,941612720,6.762647609730118e-05,0.2561409943624352,1.4272999979871348,-0.7071067735724338,0.00011849124978977269,8.819538269796153e-06,0.7071067788177555,0,-1,-0.00013143221010381012,-1.5707839171039026,2.384185791015625e-05,-1.5706761519061487,-2.366701234990387e-05,3.5952674807049334e-05
1006,1734173337,957729578,5.278251925281276e-05,0.25614099570563587,1.4272999987079145,-0.7071067719629084,0.00012277307135565002,1.3101359889753593e-05,0.7071067796304337,0,-1,-0.00010711351503545075,-1.570796314870016,2.384185791015625e-05,-1.5706999937640589,-3.5587941304981996e-05,4.793690095539205e-05
1023,1734173337,973845958,8.91096544115304e-05,0.2561409907175477,1.4272999974794216,-0.7071067711470159,0.00012708920670082203,1.7417495351932374e-05,0.7071067795906117,0,-1,-0.000119511281148732,-1.5707724730121058,1.1920928955078125e-05,-1.5706880728351038,-4.7985707418263246e-05,4.793690095539205e-05
1038,1734173337,989543914,5.549796377065344e-05,0.2561409952740515,1.427299998630635,-0.7071067721231564,0.00012713396339055053,2.6633775131414566e-07,0.7071067788208899,0,-1,-0.00013143221010381012,-1.570820156727926,2.384185791015625e-05,-1.570711914693014,-5.990663637334137e-05,4.793690095539205e-05
1054,1734173338,5844593,8.846496315335544e-05,0.2561409928167788,1.4272999971268125,-0.7071067736628903,0.0001227059346245465,1.303422312570635e-05,0.7071067779433462,0,-1,-0.000119511281148732,-1.570796314870016,1.1920928955078125e-05,-1.5706761519061487,-3.5587941304981996e-05,4.793690095539205e-05
1070,1734173338,21662950,5.090725382199123e-05,0.25614099649905253,1.4272999982787284,-0.7071067736816593,0.00011436076112800201,2.1884963747640865e-05,0.707106779104952,0,-1,-0.00014335313905888825,-1.570808235798971,0.0,-1.570711914693014,-5.990663637334137e-05,3.5952674807049334e-05
1086,1734173338,37933826,1.3867401913798769e-05,0.25614100002497175,1.427299999331043,-0.7071067758891797,9.314112729093713e-05,6.653297343363794e-07,0.7071067803492603,0,-1,-0.000119511281148732,-1.570796314870016,-2.366701234990387e-05,-1.570711914693014,-2.366701234990387e-05,8.388957940042019e-05
1102,1734173338,53667068,6.703314323410395e-05,0.25614099353878306,1.4272999981905379,-0.7071067720793848,0.00012708920678444112,2.2158120193660858e-07,0.7071067788727226,0,-1,-0.00014335313905888825,-1.5707724730121058,3.5762786865234375e-05,-1.5706761519061487,-5.990663637334137e-05,5.992112710373476e-05
1118,1734173338,70093631,8.677800407130346e-05,0.2561409913815125,1.4272999960058408,-0.7071067682469001,0.00016102002917995473,1.763083940627555e-05,0.7071067755729176,0,-1,-9.519258608037262e-05,-1.570796314870016,2.384185791015625e-05,-1.5706518332110804,-3.5587941304981996e-05,7.190534961409867e-05
1134,1734173338,85658550,1.9991779475858424e-05,0.25614099951252045,1.427299998703247,-0.7071067732534841,0.00011417511435651202,1.3269947273564573e-05,0.7071067797772819,0,-1,-0.00010711351503545075,-1.5707600752459925,0.0,-1.570711914693014,1.1984225238848012e-05,2.3968450477696024e-05
1150,1734173338,102056741,8.452949046203607e-05,0.2561409912391995,1.42729999741667,-0.7071067724696969,0.00012721303695021537,3.454114135184567e-07,0.7071067784600938,0,-1,-0.00010711351503545075,-1.570796314870016,2.384185791015625e-05,-1.5706999937640589,-5.990663637334137e-05,9.58738019107841e-05
1166,1734173338,117842197,9.937320434577848e-05,0.25614098839461596,1.4272999961573754,-0.7071067684422333,0.00015676058777440397,4.942028358591021e-06,0.7071067765372329,0,-1,-0.00013143221010381012,-1.570796314870016,0.0,-1.5706999937640589,-3.5587941304981996e-05,3.5952674807049334e-05
1182,1734173338,134048461,7.2676165263099e-05,0.25614099306684135,1.4272999978228538,-0.7071067710154076,0.00013960943044816695,-3.7797596756563186e-06,0.7071067775655131,0,-1,-0.00015527406801396637,-1.570808235798971,6.008148193359375e-05,-1.5706880728351038,-3.5587941304981996e-05,5.992112710373476e-05
1198,1734173338,149856805,4.138000771031178e-05,0.2561409969613065,1.4272999986279826,-0.7071067735959805,0.00011865983719969495,-8.207788510698095e-06,0.7071067787733037,0,-1,-0.00014335313905888825,-1.5707839171039026,-1.1746083394825746e-05,-1.5706999937640589,-1.1746083394825746e-05,4.793690095539205e-05
1214,1734173338,166099548,7.32744528612616e-05,0.25614099320885325,1.427299997883598,-0.7071067722593988,0.0001272577941800264,8.819538291216802e-06,0.7071067786074211,0,-1,-8.32716571252945e-05,-1.570796314870016,3.5762786865234375e-05,-1.5706999937640589,-7.135072817021637e-05,5.992112710373476e-05
1231,1734173338,181826829,6.31315663186017e-05,0.2561409940993414,1.4272999987513126,-0.707106771966794,0.00012275069113242844,4.6496099819262585e-06,0.7071067797365186,0,-1,-0.00014335313905888825,-1.5707839171039026,0.0,-1.5706880728351038,-4.7985707418263246e-05,3.5952674807049334e-05
1246,1734173338,197558164,5.7986867329642775e-05,0.25614099582512584,1.4272999981120011,-0.7071067716987952,0.0001268191687738186,3.434337151029232e-05,0.7071067784678203,0,-1,-0.00015527406801396637,-1.5707839171039026,2.384185791015625e-05,-1.5706880728351038,-3.5587941304981996e-05,0.0
1262,1734173338,213700294,3.5535550192873037e-05,0.2561409980657113,1.4272999991616278,-0.7071067753811007,0.00010167726711359005,8.864294799980195e-06,0.7071067796261744,0,-1,-0.000119511281148732,-1.5707724730121058,-1.1746083394825746e-05,-1.5706637541400355,-4.7985707418263246e-05,4.793690095539205e-05
1278,1734173338,229564428,8.886988880275989e-05,0.25614099142535196,1.4272999969520104,-0.707106772073925,0.00012299835206695947,2.1756010381077057e-05,0.7071067792669475,0,-1,-0.00010711351503545075,-1.5708320776568812,1.1920928955078125e-05,-1.5706999937640589,-4.7985707418263246e-05,5.992112710373476e-05
1294,1734173338,245959281,5.3945190937785215e-05,0.2561409953587523,1.4272999992508955,-0.707106774324899,0.00010186291508301603,6.205731538887435e-07,0.7071067807109459,0,-1,-9.519258608037262e-05,-1.5707724730121058,3.5762786865234375e-05,-1.5706880728351038,-7.135072817021637e-05,3.5952674807049334e-05
1310,1734173338,261696815,2.952957159918859e-05,0.25614099838383586,1.4272999987045627,-0.7071067747340465,0.00011006188018130263,-8.039201138368211e-06,0.7071067790277281,0,-1,-0.00013143221010381012,-1.570808235798971,2.384185791015625e-05,-1.5706761519061487,-1.1746083394825746e-05,5.992112710373476e-05
1326,1734173338,278016090,3.201936021091716e-05,0.25614099801218143,1.4272999983411527,-0.7071067709999984,0.00013562515024751937,-7.76403989394534e-06,0.7071067783238215,0,-1,-8.32716571252945e-05,-1.5707724730121058,0.0,-1.5706761519061487,-3.5587941304981996e-05,7.190534961409867e-05
1342,1734173338,293781518,3.337241891378821e-05,0.25614099807712665,1.4272999994735385,-0.7071067757671092,8.479083081108447e-05,8.75772062422421e-06,0.7071067814680188,0,-1,-0.000119511281148732,-1.570796314870016,-2.366701234990387e-05,-1.5706761519061487,-7.135072817021637e-05,8.388957940042019e-05
1358,1734173338,310115098,7.859625795252534e-05,0.25614099326775264,1.4272999983092314,-0.7071067749883296,0.00010144154415710107,8.965746695986031e-06,0.7071067800515225,0,-1,-0.00014335313905888825,-1.570796314870016,4.8160552978515625e-05,-1.5706999937640589,-8.32716571252945e-05,5.992112710373476e-05
1375,1734173338,325684309,8.06985412415507e-05,0.25614099306839155,1.4272999978207594,-0.7071067720112487,0.00011436076099845023,3.862006862380174e-05,0.7071067800593759,0,-1,-0.00013143221010381012,-1.570820156727926,7.200241088867188e-05,-1.5706880728351038,-4.7985707418263246e-05,3.5952674807049334e-05
1390,1734173338,341581344,5.383085765041224e-05,0.25614099535431795,1.4272999991595006,-0.7071067741430721,0.00010584719529300875,-3.824516314587849e-06,0.7071067802975182,0,-1,-0.00010711351503545075,-1.5707839171039026,4.8160552978515625e-05,-1.570711914693014,-5.990663637334137e-05,4.793690095539205e-05
1406,1734173338,357746601,4.643343253780234e-05,0.25614099646442345,1.4272999989141326,-0.7071067733834708,0.00011429894388080833,4.627232330898164e-06,0.7071067797366654,0,-1,-0.00010711351503545075,-1.5707839171039026,2.384185791015625e-05,-1.5706880728351038,-3.5587941304981996e-05,4.793690095539205e-05
1422,1734173338,373377084,3.950403467155651e-05,0.2561409971569947,1.4272999992587827,-0.707106775535332,9.779443877962915e-05,-2.907318709105924e-05,0.7071067794774868,0,-1,-0.00013143221010381012,-1.570796314870016,1.1920928955078125e-05,-1.5706761519061487,-4.7985707418263246e-05,5.992112710373476e-05
1438,1734173338,389418125,8.034928297521256e-06,0.2561410012930489,1.427299998682913,-0.7071067767935235,8.479083121240506e-05,-4.2076794725002923e-05,0.707106779243936,0,-1,-0.000119511281148732,-1.5707839171039026,-9.566942323857575e-05,-1.5706999937640589,3.5952674807049334e-05,7.190534961409867e-05
1454,1734173338,405468940,-8.227510251499941e-05,0.25614101294442004,1.4272999902279082,-0.7071067821894792,2.5611335974024605e-05,-8.006380688093929e-06,0.7071067796744688,0,-1,-5.990663637334137e-05,-1.5707481543170374,-0.00037080446352177887,-1.570592228566305,0.000215716048842296,0.00014381069922819734
1470,1734173338,422114372,-0.00029902573757847553,0.2561410162717436,1.4272999122419365,-0.7071068012616811,-0.00015229161794516583,5.147959345411327e-05,0.7071067428377331,0,-1,-2.366701234990387e-05,-1.5707600752459925,-0.0008738676654260757,-1.5704363028155726,0.0006231797160580754,0.000215716048842296
1486,1734173338,437560081,-0.0008085531886212204,0.2561409620316951,1.4272995047565171,-0.7071068581736993,-0.0004949220195133209,0.00014884669424847975,0.7071065153288972,0,-1,7.190534961409867e-05,-1.5707481543170374,-0.0017002264605920914,-1.5702202955829065,0.0012939218431711197,0.00041944789700210094
1502,1734173338,453876733,-0.001630535890323189,0.2561406102365797,1.4272981797317004,-0.7071070114821292,-0.0010073540995148048,0.0003310274061865025,0.7071057558607386,0,-1,0.0002393100003246218,-1.5707481543170374,-0.002957646046773732,-1.5699322859393519,0.0022762538865208626,0.0007186789880506694
1518,1734173338,469557285,-0.002809257860231823,0.25613958883282295,1.4272948501338247,-0.7071072941303091,-0.0017773231083714359,0.000534785077959236,0.7071038323437381,0,-1,0.00044266731129027903,-1.570820156727926,-0.004658047352926076,-1.5695489088641565,0.003617363516241312,0.0011740796035155654
1534,1734173338,485988140,-0.004383368287373815,0.2561374633455025,1.4272876186663503,-0.7071080005459607,-0.0028061201584845398,0.0007675609055561811,0.707099577219366,0,-1,0.0007179299718700349,-1.5708802382098597,-0.006920639668599904,-1.5690816084491175,0.005377921275794506,0.0017485733842477202
1550,1734173338,501674413,-0.006379790795582531,0.25613352855664484,1.4272740466584148,-0.7071093948296467,-0.00410568752492542,0.0010857205766440898,0.7070914143761242,0,-1,0.0010171610629186034,-1.571024243031637,-0.009662930165426076,-1.5685656706439417,0.007558301091194153,0.0024552680552005768
1566,1734173338,518025398,-0.008894063817932934,0.25612672028179506,1.427250617442874,-0.7071116953981536,-0.00569763918734342,0.0014247222683104767,0.707077476168841,0,-1,0.001424250309355557,-1.5711801687823694,-0.012860123311178029,-1.5679543654071253,0.010253253392875195,0.0033057737164199352
1582,1734173338,533830404,-0.01187076643671592,0.25611560666741906,1.427212897175745,-0.707115101580157,-0.007619312459895328,0.0017892834111122708,0.7070551447092353,0,-1,0.0018792763585224748,-1.5714319388019007,-0.016571823750631154,-1.5671990553485315,0.01327178068459034,0.004239794332534075
1598,1734173338,550086736,-0.015310147124066722,0.25609929089311273,1.4271565514031337,-0.7071206270727769,-0.00976951217983554,0.002230205906805561,0.7070219243995083,0,-1,0.0023455375339835882,-1.5717199484454554,-0.020798508320943654,-1.5663836638080042,0.01667342707514763,0.005341219250112772
1614,1734173338,565843820,-0.019026381714318585,0.2560764405474816,1.4270802466360912,-0.707127799173943,-0.012148645174812733,0.002780890629109834,0.7069759208793049,0,-1,0.002884453162550926,-1.572031323109762,-0.0252764860736292,-1.5654242674456995,0.020410632714629173,0.006539267487823963
1630,1734173338,581549406,-0.02306353835862646,0.2560459652750479,1.4269785144149891,-0.7071370349189228,-0.014687666898583824,0.0033233066761643743,0.706916149143508,0,-1,0.003470931202173233,-1.5723679701434534,-0.030102078114644826,-1.5644410292254847,0.02429164946079254,0.007748925127089024
1646,1734173338,597817182,-0.0273675536963325,0.2560063345350034,1.4268489653756473,-0.7071484350456758,-0.01744733588429639,0.0038905400206992406,0.7068391224184889,0,-1,0.004141299054026604,-1.5727151075946253,-0.03523856798280889,-1.5634096304522913,0.02850785106420517,0.00903011392802
1662,1734173338,614069938,-0.03180994358803939,0.25595907489299774,1.4266923759475942,-0.7071617940358522,-0.020303343369865983,0.004478903778884397,0.7067460015627535,0,-1,0.004775339271873236,-1.5730631987201136,-0.04056674638857061,-1.5622947851764124,0.0327240489423275,0.01029969286173582
1678,1734173338,629848718,-0.03638496261614673,0.255901321176699,1.4265060738699735,-0.7071774441316233,-0.023218085511626445,0.0051012076912506175,0.706636370912742,0,-1,0.005469675175845623,-1.5734465757953089,-0.04593068758119756,-1.5611079374896448,0.03715633973479271,0.011749034747481346
1694,1734173338,646094799,-0.04100331159321941,0.2558362857851712,1.4262931604353757,-0.7071972283698295,-0.026102766681180917,0.005828656942519408,0.7065102635601732,0,-1,0.006152027286589146,-1.5737465063678187,-0.051450554524556935,-1.5598247686969202,0.04163619503378868,0.013126097619533539
1710,1734173338,661623954,-0.045647927678574486,0.25576189045316994,1.4260524762029847,-0.7072189523034516,-0.02905870486138782,0.00656004497450799,0.7063666972504575,0,-1,0.006822020281106234,-1.5740702787982386,-0.05694610277284795,-1.558577839528219,0.04615199938416481,0.014587423764169216
1726,1734173338,677528142,-0.05029775245611627,0.2556791104208602,1.4257851674354478,-0.707244077552788,-0.03201846439704722,0.007320559922956987,0.7062060903918739,0,-1,0.0074920132756233215,-1.5743702093707483,-0.06248981157411748,-1.5574148336993616,0.050835587084293365,0.016131890937685966
1742,1734173338,693625926,-0.05489481951942594,0.2555906559869169,1.4254947223422394,-0.7072729396851206,-0.034947730568451844,0.008059450291558804,0.7060302331899679,0,-1,0.00809047557413578,-1.5746100584613245,-0.06794959703554326,-1.5562155882464808,0.055291470140218735,0.01760520227253437
1758,1734173338,710050106,-0.059413339348239676,0.255498372139971,1.4251839446403305,-0.7073032605609637,-0.037816707546491656,0.008756090389454832,0.7058436973659709,0,-1,0.008700922131538391,-1.5749457518206995,-0.07325393358339483,-1.5550769011126917,0.059723760932683945,0.019042184576392174
1775,1734173338,725877523,-0.06379597796802061,0.25539443295741393,1.424861000439835,-0.7073325334678151,-0.04065142248122732,0.00953612060172702,0.705646661830214,0,-1,0.00929938443005085,-1.575197998677389,-0.07840234438051397,-1.553878132496969,0.06398789584636688,0.020431606099009514
1790,1734173338,741835594,-0.06804463978625025,0.25529716256308965,1.424522942059197,-0.7073673816846815,-0.04332478882874948,0.010189139491984269,0.7054434998197343,0,-1,0.009897846728563309,-1.5754974524127405,-0.08339482942690069,-1.5527504126178187,0.06816814839839935,0.0217607319355011
1807,1734173338,757961988,-0.07215992629838383,0.2551916475901586,1.4241747993470093,-0.7073998652616287,-0.045950683176146354,0.01079543910385708,0.7052357221794923,0,-1,0.010471966117620468,-1.5757253805743616,-0.08829194704164678,-1.5517314116107386,0.07209747284650803,0.023018326610326767
1822,1734173338,774230241,-0.07618710299663688,0.2550816388683349,1.423815311712814,-0.7074338073916194,-0.0485085205173618,0.011391578748833165,0.7050209667309355,0,-1,0.011022865772247314,-1.5759771505938929,-0.09308082262148076,-1.5507362524615687,0.07595489919185638,0.024275921285152435
1838,1734173338,789863348,-0.08000573402684318,0.25497414356480047,1.4234542006671063,-0.7074670137189266,-0.05097267427494714,0.011963169104975689,0.7048042945114976,0,-1,0.01153743825852871,-1.576205078755514,-0.09753448167909795,-1.5497172514544886,0.07966813445091248,0.025413673371076584
1854,1734173338,805566549,-0.08365461991042501,0.25487041441820346,1.4230921244547754,-0.7075017468000491,-0.053245947118356375,0.012402929376333499,0.7045937231718958,0,-1,0.012063995003700256,-1.5764454046832483,-0.10192853609193975,-1.5487940947162073,0.08316565304994583,0.026527082547545433
1871,1734173338,821855068,-0.08725855629154969,0.25475355627196095,1.422721750194914,-0.7075372086600019,-0.05556891066911009,0.013053799111336228,0.7043669447506904,0,-1,0.012530631385743618,-1.5766852537738245,-0.10614282289613897,-1.5478704611407679,0.08668789267539978,0.027641240507364273
1886,1734173338,837505102,-0.0907748689427688,0.25464067766899523,1.422342307351678,-0.7075738297668925,-0.05781146772538,0.013581501535328722,0.7041396540775814,0,-1,0.013069172389805317,-1.5769246260272425,-0.11042911211122686,-1.546875301991598,0.09019739925861359,0.028802961111068726
1902,1734173338,853781223,-0.09437695943590182,0.25451690966758045,1.4219388305543423,-0.7076102632329263,-0.06013301304752823,0.01414661868507149,0.7038974423089158,0,-1,0.01359610352665186,-1.5771167914019983,-0.11477548280824834,-1.5459283033954065,0.093779556453228,0.029892778024077415
1918,1734173338,869466543,-0.09798074719215384,0.25438704221341535,1.4215178055377533,-0.7076488106014084,-0.06244994360406659,0.014724060935494498,0.703645057843675,0,-1,0.014110676012933254,-1.577296559010641,-0.11926490465273076,-1.544873062764303,0.09738493710756302,0.031054498627781868
1934,1734173338,885666608,-0.10169978030708668,0.2542533649413973,1.421067566926426,-0.707691389792538,-0.06481995069696808,0.015279192179269168,0.7033760140149063,0,-1,0.014648842625319958,-1.5774882475482386,-0.12391025224794561,-1.5438655058490198,0.1011105328798294,0.03220423310995102
1950,1734173338,902090549,-0.10556396470205236,0.25410512128385965,1.4205798750656211,-0.7077370757374549,-0.0673153314919657,0.01585058487551554,0.70308295152978,0,-1,0.015211726538836956,-1.5778124968158167,-0.12862760225404912,-1.5428345839129847,0.10495597124099731,0.03343748673796654
1966,1734173338,917540788,-0.10961771558741196,0.25394803577737063,1.4200551905192218,-0.7077857626313746,-0.06989860881378579,0.016433346237531992,0.7027684140836566,0,-1,0.01581018976867199,-1.5781000296222132,-0.13348895708192998,-1.5418036619769495,0.10900476574897766,0.03465912863612175
1982,1734173338,933373451,-0.1138547280923497,0.2537671833062088,1.4194869902229483,-0.7078342811901484,-0.07263165111688231,0.016997550807769917,0.702428898106135,0,-1,0.01645621471107006,-1.5784481207477015,-0.1385286490069788,-1.540832821522848,0.113041952252388,0.035952676087617874
1998,1734173338,949522733,-0.11810083171798696,0.25358888558256265,1.4188905290901672,-0.707890077913693,-0.07532973384897687,0.01759447062990957,0.7020737164948146,0,-1,0.01705467514693737,-1.5787957350360315,-0.14367705980409795,-1.5397651831256312,0.11717501282691956,0.037282176315784454
2014,1734173338,965857505,-0.12245164055091012,0.2533938290505727,1.4182604677794928,-0.7079459902805662,-0.07809355372273806,0.018173579570646487,0.7017005007253535,0,-1,0.01771305873990059,-1.579095188771383,-0.14878923097719365,-1.5387104193316858,0.12133128941059113,0.038587331771850586
2030,1734173338,981501340,-0.12688715247394577,0.25319017434633473,1.4175947853074893,-0.7080017463718231,-0.08096077659041132,0.01872199554810284,0.7013047601941846,0,-1,0.01835908368229866,-1.5794552008258265,-0.154093090687887,-1.5376070181476038,0.1256321370601654,0.039916832000017166
2046,1734173338,997805595,-0.13134555068066198,0.2529771986526307,1.4168990362195053,-0.7080629325634946,-0.08381344105646488,0.019298479713882086,0.7008921167402238,0,-1,0.01901746727526188,-1.579827133809225,-0.1593845526324671,-1.536516014729635,0.1298966407775879,0.04115045815706253
2062,1734173339,13413429,-0.13573127831314666,0.25276699162632776,1.4161880103384554,-0.7081275166257371,-0.08662641916888995,0.019895564183305472,0.7004680222717309,0,-1,0.019603945314884186,-1.5801146666156214,-0.16459209123720342,-1.5354612509356897,0.13422144949436188,0.04252752289175987
2078,1734173339,29689550,-0.14008734813159957,0.2525406150979775,1.4154593316610335,-0.7081925806306137,-0.08944618833244469,0.020550020069840053,0.7000288171266077,0,-1,0.020285923033952713,-1.5803902784930628,-0.1698840300189417,-1.534285847340719,0.13854625821113586,0.0438450388610363
2094,1734173339,45395851,-0.1444796133184034,0.25231424091016447,1.4147023155883647,-0.708263740345339,-0.0922552492673896,0.021186075825943142,0.699573150775342,0,-1,0.02093232236802578,-1.5807507673846644,-0.1750558058368128,-1.5331948439227503,0.1429309844970703,0.04528239369392395
2110,1734173339,61682462,-0.1488771557433139,0.2520700009810837,1.4139199745183841,-0.7083349585936727,-0.09508383259386873,0.02187565344379931,0.699100927620446,0,-1,0.02153078466653824,-1.5810263792621058,-0.18040734926332647,-1.532032314931051,0.14725542068481445,0.04665945842862129
2126,1734173339,77449321,-0.1532326331181562,0.25183009126628564,1.41311193527355,-0.7084142271807182,-0.09787985731010965,0.022526342884756804,0.6986138991869091,0,-1,0.022152841091156006,-1.5813501516925257,-0.18568736711610967,-1.5308926741229456,0.15155625343322754,0.04808483272790909
2142,1734173339,93711614,-0.15763304928670716,0.25157826355442436,1.412280342387396,-0.7084929367333976,-0.10065341829244223,0.0231536343708145,0.6981193001202266,0,-1,0.022763287648558617,-1.5816739241229456,-0.19099074998964483,-1.529717747365133,0.15588106215000153,0.04950983077287674
2158,1734173339,109392166,-0.16192870676438256,0.2513257387157316,1.4114417989907033,-0.7085720071031255,-0.10337469749951606,0.023797639700898796,0.6976195632372977,0,-1,0.02336212433874607,-1.5819738546954554,-0.19618636766542608,-1.528579060231344,0.16009801626205444,0.050863299518823624
2174,1734173339,125585556,-0.16619328031280275,0.2510645634719889,1.4105906632010858,-0.7086493681556562,-0.10606933451240644,0.024423377638391943,0.6971146734314355,0,-1,0.0240317415446043,-1.582285229359762,-0.20126229921449834,-1.5274398962603968,0.16419512033462524,0.05227668955922127
2190,1734173339,141386985,-0.1703969967626334,0.2508046127787227,1.4097293432193463,-0.708728330990006,-0.10873668609224703,0.025014705705783975,0.6966022900107706,0,-1,0.024570656940340996,-1.5826452414142054,-0.20630294481386358,-1.5263131300555628,0.1683281809091568,0.05353390797972679
2206,1734173339,157643318,-0.17458762564175165,0.2505414206992373,1.4088442858116954,-0.7088143394824226,-0.11139708922933704,0.025642207145591095,0.6960714028517698,0,-1,0.025181103497743607,-1.5829451719867151,-0.21136695543398076,-1.525233570729391,0.17248520255088806,0.05486340820789337
2222,1734173339,173373222,-0.17873324828758103,0.25026800177411956,1.407948943529385,-0.7088958116646003,-0.11406048058319286,0.026238657434924102,0.6955346632839599,0,-1,0.025803159922361374,-1.5832093397723597,-0.2163947264300745,-1.5241425673114222,0.176558718085289,0.056144971400499344
2238,1734173339,189691305,-0.18285084777129967,0.2499896567958807,1.4070309087802335,-0.7089783463939857,-0.11672158052424715,0.026799742864889183,0.6949874464814074,0,-1,0.02638963796198368,-1.5834491888629358,-0.22143489519228154,-1.5230515638934534,0.18065544962882996,0.057414550334215164
2254,1734173339,205353021,-0.18690286071534878,0.24971303482972101,1.4061076877150298,-0.7090648518201732,-0.11930917510093657,0.027407086810147047,0.6944358921041962,0,-1,0.02700008451938629,-1.5837605635272425,-0.22641498247255498,-1.5219367186175745,0.1847769021987915,0.0587436743080616
2270,1734173339,221657276,-0.1910526004308564,0.24941872899251066,1.4051411158347318,-0.7091535310101931,-0.12201552683545336,0.028007303017322335,0.6938509001540156,0,-1,0.02756296843290329,-1.584036652241842,-0.2314069906817835,-1.5208700338946741,0.1888500452041626,0.06002523750066757
2286,1734173339,237364530,-0.1951081697736397,0.24912616540315746,1.4041737608906926,-0.7092460758291286,-0.12463168394067306,0.02863593147547104,0.6932654114461694,0,-1,0.028185024857521057,-1.5843122641192835,-0.23638707796205694,-1.5197671095477503,0.19298310577869415,0.06133076921105385
2302,1734173339,253619432,-0.19922170913906115,0.24881500801432216,1.4031738361507837,-0.7093301265834991,-0.12732571970410753,0.02919109432708913,0.6926664512121654,0,-1,0.02880745567381382,-1.5846002737628382,-0.24139148393739873,-1.518735710774557,0.1970805823802948,0.06260035187005997
2318,1734173339,269363164,-0.20326168290247956,0.24851012694633867,1.4021671849916375,-0.7094262862219216,-0.1299246329159843,0.02982942533196634,0.6920579018863837,0,-1,0.02934599667787552,-1.5848763624774378,-0.24649078050722295,-1.5176804701434534,0.20128555595874786,0.0639055073261261
2334,1734173339,285631656,-0.2074076551368602,0.2481977019858691,1.4011077775165532,-0.7095237488125137,-0.13264548362254033,0.030355131445853323,0.6914186803525664,0,-1,0.030004005879163742,-1.5851400534259241,-0.25153094926943,-1.5166133085833948,0.20539501309394836,0.06519905477762222
2350,1734173339,301375150,-0.21142281264516044,0.24787073561619158,1.400061247374674,-0.709616788532178,-0.13524870896451124,0.030955974135127746,0.6907919569755112,0,-1,0.0306024681776762,-1.585451904927389,-0.2565830389605921,-1.5155342260943812,0.20943257212638855,0.0665045827627182
2366,1734173339,317696571,-0.21557337654027275,0.24754500046271144,1.3989602894133275,-0.7097167234349928,-0.13789410278262948,0.03148317044894928,0.690142158452122,0,-1,0.031201304867863655,-1.585787598286764,-0.2616470495807093,-1.5144675413714808,0.2135300636291504,0.06779813021421432
2382,1734173339,333550453,-0.21961785098493003,0.24722164026202328,1.397862278111974,-0.7098204332788559,-0.14048254656703607,0.032038880657294565,0.6894875754762267,0,-1,0.03181137517094612,-1.5860393683062952,-0.2666867415057581,-1.5133402983294886,0.21759121119976044,0.0690673366189003
2398,1734173339,349720716,-0.22370520947669129,0.2468768196786394,1.396735671196249,-0.7099189789056706,-0.14313534558161164,0.03260920726753145,0.6888134405164767,0,-1,0.03242182359099388,-1.5863269011126917,-0.2716906706439417,-1.5122492949115198,0.22164075076580048,0.07031294703483582
2414,1734173339,365536212,-0.22774089631512934,0.24653126342101395,1.3955965900103553,-0.7100203228117525,-0.1457484197979423,0.033156663424035365,0.6881345616892691,0,-1,0.03300829976797104,-1.5865791479693812,-0.27676660219301397,-1.511158291493551,0.2256663292646408,0.07159451395273209
2430,1734173339,381862878,-0.23171655765036847,0.2461780502402962,1.394446562482389,-0.7101191081776483,-0.148379633611152,0.03371538782886951,0.6874428042782545,0,-1,0.033570434898138046,-1.5868309179889124,-0.28177005449403936,-1.5101030508624476,0.22981174290180206,0.0728401243686676
2446,1734173339,397518634,-0.235699596184978,0.2458462576847438,1.3932762790720448,-0.7102352205360929,-0.15094855391506162,0.03429803348790609,0.6867343813148294,0,-1,0.034120962023735046,-1.587095085774557,-0.28671437898744756,-1.5090487639056605,0.23394519090652466,0.07413329184055328
2462,1734173339,413995504,-0.23968686256673516,0.24546906243139818,1.392086950568848,-0.7103410920922322,-0.15355313362812212,0.03491484291151446,0.6860159777896309,0,-1,0.0347197987139225,-1.5873587767230433,-0.29172975221742803,-1.5079572836505335,0.23800671100616455,0.07545080780982971
2478,1734173339,429510593,-0.24363799828232366,0.24511368382198906,1.3908748522785794,-0.7104566622089146,-0.15614954113538837,0.03547596827513281,0.6852810427854528,0,-1,0.035317886620759964,-1.5875986258136194,-0.2966979185687464,-1.5068782011615198,0.2421405166387558,0.07675596326589584
2494,1734173339,445733785,-0.24757699931063448,0.24474979867440302,1.38965529160843,-0.7105768988691482,-0.15871761386742286,0.0360771374067998,0.6845346083276337,0,-1,0.03590436279773712,-1.587874714528219,-0.3016899267779749,-1.5058110396014612,0.2462499886751175,0.07812141627073288
2510,1734173339,461540937,-0.25153911513018357,0.24436599739630044,1.3884009002995954,-0.7106940491929824,-0.16129598496456188,0.03666273651221664,0.6837787781347344,0,-1,0.036526795476675034,-1.588114086781637,-0.3067534605609339,-1.5047677198993128,0.250359445810318,0.07946252822875977
2526,1734173339,477730274,-0.25555633885530565,0.24398158230171801,1.3870978230761117,-0.7108242596581272,-0.16389835390897003,0.037223687304580214,0.6829938495849402,0,-1,0.03710091486573219,-1.5883896986590784,-0.3119247595416468,-1.5036891142474573,0.25454118847846985,0.08081600069999695
2542,1734173339,493220090,-0.2596203382808227,0.24359292325719328,1.385768914978546,-0.7109472783112363,-0.16651507091882373,0.037741677366893,0.6822039756614426,0,-1,0.03775929659605026,-1.588665787373678,-0.317024056111471,-1.5026457945453089,0.2585428059101105,0.08213351666927338
2559,1734173339,509763479,-0.2635924206092024,0.24317803018084977,1.3844430088561546,-0.7110633396667959,-0.169125584951706,0.03830389229404134,0.6814090367259394,0,-1,0.03836974501609802,-1.5889056364642542,-0.3221238295184534,-1.5015547911273401,0.2627241909503937,0.0834270641207695
2574,1734173339,525937318,-0.2676110787582022,0.24276256166132865,1.3830911354447695,-0.711185049421972,-0.1718027427065481,0.038884257956139624,0.6805789135437381,0,-1,0.03894423693418503,-1.5892537275897425,-0.32705575624574834,-1.5005114714251917,0.2667737305164337,0.08476816862821579
2590,1734173339,541488885,-0.2715602505384793,0.2423556495906723,1.381736637925124,-0.7113110369737609,-0.17434453018194965,0.03941324815924204,0.6797699532521913,0,-1,0.039602622389793396,-1.5895174185382288,-0.33198768297304326,-1.4994328657733362,0.27083563804626465,0.08607370406389236
2606,1734173339,557669162,-0.2754759083532968,0.24193893162449243,1.380369160084051,-0.7114412080675152,-0.1768786587359178,0.04000264151770572,0.678944133356216,0,-1,0.040129177272319794,-1.5898049513446253,-0.33703929582704717,-1.4983180204974573,0.2749810516834259,0.08734328299760818
2622,1734173339,573642253,-0.27941990824780244,0.24152377230810174,1.378967767105637,-0.7115630963325278,-0.17947212424503722,0.04052859945198281,0.6781040843285789,0,-1,0.04075123369693756,-1.5900691191302698,-0.3420670668231409,-1.4971550146686,0.2791028618812561,0.08863683044910431
2639,1734173339,589875936,-0.28329226040125877,0.2410920664422913,1.3775629229478663,-0.7116949619422704,-0.18201180525860694,0.041143482419157704,0.6772512072687042,0,-1,0.04139763489365578,-1.590320889149801,-0.34705907503236944,-1.4960883299456995,0.28318873047828674,0.08998992294073105
2654,1734173339,605955600,-0.28725589082756253,0.24066109781803663,1.3761158276564822,-0.7118269912753065,-0.18458928967861793,0.04166370318966372,0.6763824838539297,0,-1,0.04199609532952309,-1.5905731360064905,-0.3521221319781702,-1.4949730078326624,0.2872506380081177,0.09124751389026642
2670,1734173339,621415138,-0.2911831898962685,0.24021940062621466,1.3746486524534764,-0.7119583526799095,-0.18715953946345823,0.04219334135195054,0.6755045024148201,0,-1,0.042594559490680695,-1.590860668812887,-0.35716182390321904,-1.4938700834857386,0.2913840711116791,0.09251709282398224
2686,1734173339,637534379,-0.2951416894197727,0.23975480438775593,1.3731572984745721,-0.7120891222997792,-0.18978751640538724,0.04273194969107983,0.6745989630844417,0,-1,0.0431690514087677,-1.591208283101217,-0.3621771971331995,-1.4928272406207483,0.2955178916454315,0.09382262825965881
2702,1734173339,653641223,-0.2990087186791868,0.2393152377801595,1.371670232381549,-0.7122332521540646,-0.19231640629562116,0.043299129660364456,0.6736938323647002,0,-1,0.04377949982881546,-1.5915082136737269,-0.36716920534242803,-1.4917243162738245,0.29960376024246216,0.09507984668016434
2718,1734173339,669704675,-0.3029209328008559,0.23885909922421372,1.3701436160596479,-0.7123698332551212,-0.19487559447972053,0.04381390633846916,0.6727801014860726,0,-1,0.044377587735652924,-1.5917719046222132,-0.37225658098329717,-1.4906328360186976,0.30370160937309265,0.09637339413166046
2734,1734173339,685781717,-0.3068364006619173,0.23839463943761288,1.3685954404901772,-0.7125171033466717,-0.19742520941044472,0.04437935773809017,0.6718430893701779,0,-1,0.04497604817152023,-1.5920599142657679,-0.37736827531923467,-1.4895899931537073,0.3078470230102539,0.0977148786187172
2750,1734173339,701930999,-0.31079681149130695,0.2379186389748448,1.3669999420070515,-0.7126563593573704,-0.2000543546342637,0.04485764762130168,0.670885206357429,0,-1,0.045562900602817535,-1.5923236052142542,-0.3823593298541468,-1.4884513060199183,0.31194525957107544,0.09904437512159348
2766,1734173339,717617034,-0.3146571359618095,0.2374483697991428,1.365423415131744,-0.7128023567591684,-0.20260890648261817,0.04538963899293232,0.6699270198197593,0,-1,0.04617297276854515,-1.5926597754107874,-0.3875544706927698,-1.4874561468707483,0.3161270022392273,0.10028998553752899
2782,1734173339,733670949,-0.31863950840458777,0.2369602269286353,1.3637711362596951,-0.7129476168414877,-0.20522899438947345,0.045836648063034995,0.6689437623569521,0,-1,0.04678341746330261,-1.5929473082171839,-0.39252216020693,-1.4863532225238245,0.3202248513698578,0.10158316045999527
2799,1734173339,749756336,-0.3224666648966993,0.23647300724983367,1.3621682191979103,-0.7130888604124699,-0.20776975475054518,0.046364383066488074,0.6679718183796433,0,-1,0.047345928847789764,-1.5932586828814905,-0.3975136915790003,-1.485309902821676,0.3242987394332886,0.10280480235815048
2815,1734173339,765850543,-0.32635868796738643,0.2359862974408169,1.3605160436536954,-0.7132421897727929,-0.21034023916803457,0.046866468807583335,0.6669678377675742,0,-1,0.04795600101351738,-1.5935590902911585,-0.4025533835040491,-1.4842074553119105,0.32844454050064087,0.10408636927604675
2830,1734173339,781961441,-0.33020309811000437,0.23549763928750597,1.3588460538876035,-0.7133887078052478,-0.21290069877193876,0.0473339749218125,0.6659649681901295,0,-1,0.048566821962594986,-1.5938709417926233,-0.4076760450946253,-1.4831283728228968,0.3325188159942627,0.10537991672754288
2846,1734173339,797510147,-0.3340613556435779,0.23499389744342866,1.3571590870153545,-0.71355084830839,-0.21540171078466883,0.047884743094886356,0.6649468709965867,0,-1,0.04917726665735245,-1.594147030507223,-0.4127157370196741,-1.4819768110858362,0.33665260672569275,0.1066255271434784
2862,1734173339,813586235,-0.3378488466817216,0.23449249347001483,1.355463516350174,-0.7137016350418546,-0.2179295704013554,0.048380482492154486,0.6639247000956435,0,-1,0.04976337030529976,-1.5944584051715296,-0.41770726839174444,-1.480922047291891,0.3407624661922455,0.10799060016870499
2878,1734173339,829703569,-0.34170714008672837,0.23397836417481965,1.3537358837783298,-0.7138597541064209,-0.22046000196776508,0.048854699750908316,0.6628837434360129,0,-1,0.05039778724312782,-1.5947702566729944,-0.42263871828188115,-1.4798672834979456,0.34489625692367554,0.10925980657339096
2894,1734173339,845819950,-0.3454777284352173,0.2334531897908916,1.3520215711691064,-0.7140234258852591,-0.2229570963420811,0.049404979358802274,0.6618306645149815,0,-1,0.05099624767899513,-1.5950701872455042,-0.4276188055621546,-1.478812042866842,0.34897053241729736,0.11068517714738846
2910,1734173339,861426591,-0.34931706023517006,0.23290750734086407,1.350252490326084,-0.714183580362203,-0.2254752816303298,0.0499258332848574,0.660764800882705,0,-1,0.051582351326942444,-1.5953581968890589,-0.432657543812887,-1.4777210394488733,0.35305678844451904,0.11202666163444519
2926,1734173339,877613067,-0.3530615683787082,0.23238920294149235,1.348483166475086,-0.7143477231257455,-0.22796429355714315,0.0504055400306608,0.6596960609722278,0,-1,0.05224073678255081,-1.5956695715533655,-0.4377687613116663,-1.4766300360309046,0.35715463757514954,0.11330822855234146
2942,1734173339,893704414,-0.356814880804154,0.231853248383707,1.3466965224759058,-0.7145200597070673,-0.23045554483733727,0.050955638432655624,0.6586006749479197,0,-1,0.0527556836605072,-1.5959575811969202,-0.4427722136126917,-1.475550953541891,0.3612648546695709,0.11462574452161789
2958,1734173339,909857988,-0.36055733447461935,0.2313107444944318,1.3448839385804763,-0.714682590914437,-0.2329655345163104,0.05143202725398602,0.6575033083900813,0,-1,0.053413692861795425,-1.5962217489825647,-0.44778758684267217,-1.4745081106769007,0.3653147518634796,0.11593089997768402
2974,1734173339,925632476,-0.3642645793396166,0.23076606501402885,1.3430760611294232,-0.7148469942866915,-0.23543432114967502,0.05190266330603227,0.6564073192201737,0,-1,0.05403612181544304,-1.5965212027179163,-0.45273095766176397,-1.4734414259540003,0.36947327852249146,0.11727238446474075
2990,1734173339,941414594,-0.36801150867034954,0.23019148774982184,1.3412298577572461,-0.7150208322583174,-0.23794079123128575,0.052453425656426717,0.6552694311821348,0,-1,0.05462222546339035,-1.5968330542193812,-0.4577105681048792,-1.4723861853228968,0.3735831379890442,0.11855395138263702
3006,1734173339,957724332,-0.37174728494751524,0.22963713056947296,1.3393608459320876,-0.7151861571036697,-0.24046089149181613,0.052938783409738975,0.6541290435084982,0,-1,0.055268626660108566,-1.5970967451678675,-0.46272594133485967,-1.4713318983661097,0.3776933550834656,0.1198834478855133
3022,1734173339,973802328,-0.3754089361869364,0.2290854227856155,1.3374906463344216,-0.7153659696946497,-0.24289408895273115,0.053411899615476294,0.6529939968591766,0,-1,0.05581952631473541,-1.597372833882467,-0.4677770773517054,-1.4702404181109827,0.3818155527114868,0.1212485283613205
3038,1734173339,989474058,-0.37916098712689456,0.22850254512530202,1.3355630764844253,-0.7155376357494165,-0.24541166666472605,0.05387972399416175,0.6518251153747373,0,-1,0.05646517500281334,-1.5976842085467737,-0.47284061113466436,-1.4691975752459925,0.38591375946998596,0.12253008782863617
3054,1734173340,5665540,-0.38285077182475835,0.2279347955767101,1.333632533995096,-0.7157117673938233,-0.24789662983630872,0.0543429217004395,0.6506541122523316,0,-1,0.05704004317522049,-1.59794789949526,-0.477879826222555,-1.4680584112750452,0.39000001549720764,0.12379966676235199
3070,1734173340,21740436,-0.38653265276642923,0.22735491722986562,1.331683463828203,-0.7158884469537784,-0.2503608610970271,0.0547935089602914,0.6494773607483796,0,-1,0.0576624758541584,-1.5982244650470179,-0.4829667250262659,-1.4669917265521448,0.39407429099082947,0.12510520219802856
3087,1734173340,37847757,-0.39020725521602795,0.22677664026549543,1.3297196506806923,-0.7160717865704312,-0.2528153377373806,0.055270225811450524,0.648282965703493,0,-1,0.05827254801988602,-1.5985119978534144,-0.48794633546938115,-1.4658406416522425,0.39820846915245056,0.12639836966991425
3102,1734173340,53951978,-0.39382164991843965,0.22621059750121036,1.3277496744530068,-0.7162576240094061,-0.25523708057154393,0.055733853784042484,0.6470879277904158,0,-1,0.05884703993797302,-1.598800007496969,-0.4930337111102503,-1.4647377173053187,0.40228310227394104,0.12767992913722992
3118,1734173340,69577455,-0.3974991308263672,0.225616605973231,1.3257336752732851,-0.716441802186215,-0.25770962716304846,0.05617381293699496,0.6458648425853278,0,-1,0.05939793959259987,-1.5990517775165003,-0.498084847127096,-1.46367055574526,0.4064052999019623,0.12897348403930664
3134,1734173340,85671663,-0.4010696372873054,0.22502437978151277,1.3237335011261702,-0.7166212268353147,-0.2601355758663102,0.05663551487823853,0.6446517803219257,0,-1,0.05998404324054718,-1.5993035475360315,-0.5031479040728968,-1.4625800291644495,0.410455584526062,0.13029062747955322
3150,1734173340,101812124,-0.4046859186787479,0.22442963468087165,1.3216890116154107,-0.7168060956060197,-0.262575293527429,0.057045371607512,0.6434198179332054,0,-1,0.06059449166059494,-1.5995672384845179,-0.5081871191607874,-1.4614647070514124,0.41455382108688354,0.1315961629152298
3166,1734173340,117415666,-0.4082152551800139,0.22382569584548317,1.3196736310170065,-0.7169910890252704,-0.2650023954416314,0.05754536659983883,0.6421729046381854,0,-1,0.06114501506090164,-1.5998552481280726,-0.5131900946246546,-1.4603856245623987,0.4186764061450958,0.13284176588058472
3182,1734173340,133593082,-0.41174399077866825,0.22323137005702146,1.3176325385790657,-0.7171839399932247,-0.2674071917000526,0.05801747405023025,0.6409169702447556,0,-1,0.06181500852108002,-1.6001432577716272,-0.5181334654437464,-1.4593308607684534,0.4228225648403168,0.1341233253479004
3198,1734173340,149689435,-0.4152707855768354,0.2226101533761206,1.3155848292972145,-0.7173660939637044,-0.26981033646079877,0.05848595272260799,0.639662147468722,0,-1,0.06237751618027687,-1.6003592650042933,-0.5231249968158167,-1.4582279364215296,0.426944762468338,0.1353689432144165
3214,1734173340,165910482,-0.41877805548694147,0.2220017016668943,1.3134994157418445,-0.7175525103735775,-0.27223873990761144,0.05891862189868425,0.6383831602914138,0,-1,0.06297635287046432,-1.6005986372577112,-0.5280922094928187,-1.4571850935565394,0.4309958219528198,0.13663852214813232
3230,1734173340,181974172,-0.42234400489161433,0.221372974126678,1.311362088421344,-0.7177451161410965,-0.27465251772418214,0.05931899655719973,0.6370943410601123,0,-1,0.06356246024370193,-1.6008747259723108,-0.5332029501544397,-1.4560821692096155,0.4351659417152405,0.137920081615448
3246,1734173340,197593450,-0.4259112658777067,0.22073318159070138,1.309202299219578,-0.7179448456639447,-0.27710629733018677,0.05975437718852787,0.635764667916785,0,-1,0.06413695216178894,-1.6011622587787073,-0.538314167653219,-1.4550393263446253,0.43922820687294006,0.13923722505569458
3262,1734173340,213725328,-0.42941600256325196,0.22011225528451794,1.3070377198509728,-0.7181437865373597,-0.27949687926267813,0.060128593734080506,0.6344568925906386,0,-1,0.06479533761739731,-1.601438347493307,-0.5433290640460413,-1.4539721647845667,0.4432433247566223,0.140554741024971
3279,1734173340,229870557,-0.43287907081759397,0.21946737479322878,1.3049048250495976,-0.7183449765216368,-0.28183587868375,0.06060658891723751,0.6331475922504206,0,-1,0.06535784155130386,-1.6017382780658167,-0.5483325163470667,-1.452893082295553,0.44736552238464355,0.14194415509700775
3294,1734173340,246020317,-0.43644347800966793,0.21880552705087764,1.302699134278059,-0.7185524649938475,-0.2842488893175342,0.06106445506486854,0.6317879836627511,0,-1,0.06599225848913193,-1.602013889943258,-0.5532992521869105,-1.4518025557147425,0.4514760971069336,0.14326167106628418
3310,1734173340,261607646,-0.4398767947571654,0.21816587242397584,1.300510513650647,-0.7187607675177173,-0.28658416115766194,0.06151077248050015,0.6304513482575428,0,-1,0.06656637787818909,-1.6022775808917444,-0.5583384672748011,-1.4506877104388636,0.4555627107620239,0.14460279047489166
3326,1734173340,277715444,-0.44337547243323133,0.21749607704290808,1.2982629135095987,-0.7189620958530317,-0.2889924568933743,0.061899321418466796,0.6290829345907267,0,-1,0.06717682629823685,-1.6025412718402308,-0.5634616057025355,-1.4496081511126917,0.45962536334991455,0.1459442675113678
3342,1734173340,293889999,-0.4468565488322138,0.21683041564194608,1.2960147105490056,-0.7191698147082805,-0.29136715546940073,0.062323389503105314,0.6277067415975169,0,-1,0.06785918027162552,-1.6028178373919886,-0.5685003439532679,-1.448505703602926,0.46374794840812683,0.14721347391605377
3358,1734173340,310013532,-0.4502632208105126,0.21617515763035555,1.293765573010827,-0.7193799595574688,-0.2937051425913617,0.06275530091850294,0.6263318091947037,0,-1,0.06844528019428253,-1.603081528340475,-0.5735276381122034,-1.4474628607379358,0.4678944945335388,0.14856694638729095
3374,1734173340,325605869,-0.4536295735176422,0.21550546718267252,1.291531796590039,-0.7195782223211827,-0.2960870578745287,0.06317581363959185,0.624938759152661,0,-1,0.06904374063014984,-1.6033571402179163,-0.5785186926471155,-1.4463360945331019,0.47198110818862915,0.14980056881904602
3390,1734173340,341722011,-0.45707800199967846,0.21479314077949668,1.2892393907240913,-0.7197688584330251,-0.29848912183619264,0.06360561259704141,0.6235313629815531,0,-1,0.06967853009700775,-1.603645149861471,-0.5834620634662073,-1.4452927748309534,0.4760677218437195,0.1510341912508011
3406,1734173340,357840061,-0.4605120643865334,0.2141428932458227,1.2869160773959183,-0.7199889846395185,-0.3008088567796345,0.06396006664447432,0.6221245884511548,0,-1,0.07027661800384521,-1.6039326826678675,-0.5884893576251429,-1.4442017714129847,0.48013076186180115,0.15242362022399902
3422,1734173340,373930454,-0.4638685719219811,0.21345339410033226,1.284611893905564,-0.7202018530490879,-0.30314399016807553,0.06437844545410795,0.6206999499359976,0,-1,0.07087508589029312,-1.6042326132403772,-0.5935877005206507,-1.4431589285479944,0.48427730798721313,0.15369319915771484
3438,1734173340,389500856,-0.4672482516312314,0.21277786151169936,1.282247454560079,-0.720415886387203,-0.3055189932636619,0.06471888614765522,0.6192499989276593,0,-1,0.07143758982419968,-1.6045320669757288,-0.5986383597003382,-1.442080322896139,0.48831596970558167,0.15497475862503052
3454,1734173340,405593633,-0.4706653912598815,0.21208238434393578,1.2798538481328814,-0.720627962513025,-0.3078582624764184,0.06504664703093968,0.6178086787828085,0,-1,0.07202406972646713,-1.6048081556903284,-0.6037138144122522,-1.4410250822650355,0.4924149513244629,0.15626829862594604
3470,1734173340,421715259,-0.4740153644647754,0.21138586670105097,1.2774842883510165,-0.7208484598050812,-0.3102012434669255,0.06543996020443284,0.6163361892317032,0,-1,0.07263451814651489,-1.6051204840289515,-0.6086810270892542,-1.4399703184710901,0.496549516916275,0.15759743750095367
3487,1734173340,438106060,-0.4773419469410637,0.21070156476371413,1.2751107741902823,-0.7210648742874554,-0.3125513440851513,0.06580473294063137,0.6148551386318518,0,-1,0.07318466901779175,-1.6054204146014612,-0.6136239210711878,-1.438939396535055,0.5007320046424866,0.1588314324617386
3502,1734173340,453945159,-0.48067266689472465,0.21000424944666413,1.272689883927169,-0.721288976986332,-0.3148482720122454,0.06617953251311061,0.6133783879183062,0,-1,0.07381908595561981,-1.6057079474078577,-0.6186865011798304,-1.4378607908831995,0.5047950148582458,0.16016018390655518
3518,1734173340,469498395,-0.4839800107529045,0.20930215165521177,1.2702690203627618,-0.7215133899435668,-0.3171615787551271,0.06654236007635006,0.6118815861007478,0,-1,0.07432204484939575,-1.6059954802142542,-0.6236894766436976,-1.436793629323141,0.5089176297187805,0.16146571934223175
3534,1734173340,485496044,-0.48730646374132675,0.2086036540400153,1.2677906618046837,-0.7217456769224241,-0.31947062218521177,0.06689578566918904,0.6103659994331985,0,-1,0.07493212074041367,-1.6062596479998987,-0.6288250128375452,-1.4356663862811487,0.5130285620689392,0.16271132230758667
3550,1734173340,501693725,-0.4906564738954655,0.2078591597665902,1.265281922661073,-0.7219511080441443,-0.32185265693825293,0.06721522172831029,0.6088346070844147,0,-1,0.07555454969406128,-1.6065710226642054,-0.6339352766620081,-1.4345281759845179,0.5171515345573425,0.16396892070770264
3566,1734173340,517848014,-0.4939122401474742,0.20714719512944407,1.2628142594385705,-0.7221687804334126,-0.3241399184782218,0.06754922890165456,0.6073241864861313,0,-1,0.07616499811410904,-1.6068828741656702,-0.6388548056231897,-1.4334371725665491,0.5212381482124329,0.16526246070861816
3582,1734173340,533954143,-0.4971337754894979,0.20642842624533406,1.2603569522580638,-0.7223905004571836,-0.32637922286983484,0.06791693475171676,0.6058183372117699,0,-1,0.07678704708814621,-1.607194725667135,-0.6438453833209437,-1.4323695341693323,0.5252652168273926,0.16648410260677338
3598,1734173340,550051927,-0.5003514987599982,0.2056954936326666,1.257894014232247,-0.7226149553330085,-0.3286454698623008,0.06829797573031397,0.6042807029677544,0,-1,0.07740948349237442,-1.607507054005758,-0.648752514516012,-1.4312432448016565,0.5293642282485962,0.1678255945444107
3614,1734173340,565485000,-0.5035968308293162,0.20495096589064532,1.2553739669053543,-0.7228372523996933,-0.33092887588091136,0.06863183937875784,0.6027288414162265,0,-1,0.07799595594406128,-1.6078303495990198,-0.6537559668170374,-1.4301884810077112,0.5333912968635559,0.16911913454532623
3630,1734173340,581581354,-0.5067865875968067,0.20422822221004902,1.252848794464744,-0.7230644714250675,-0.33314526989279314,0.06893342350358385,0.6011989541199497,0,-1,0.07861839234828949,-1.6081183592425745,-0.6587827841388147,-1.429049317036764,0.5374183654785156,0.17043665051460266
3646,1734173340,597734451,-0.5100188583695535,0.20347846054927154,1.2502623919148952,-0.7232983975933879,-0.3354200188010888,0.0692646248539764,0.5996125838990979,0,-1,0.07922883331775665,-1.6084063688861292,-0.6638816038714808,-1.4279826323138636,0.541553258895874,0.17171822488307953
3662,1734173340,613951921,-0.5132409799660818,0.202714240905853,1.2476705625602726,-0.7235410843537521,-0.3376967947963133,0.06964167385511275,0.5979959960561201,0,-1,0.07985088974237442,-1.6086939016925257,-0.6689208189593714,-1.4269159475909632,0.5456762313842773,0.17308367788791656
3678,1734173340,630051136,-0.5163667577819957,0.20193866453693382,1.2451224895819593,-0.723783213744695,-0.33992340252682385,0.07003015614614391,0.5963939278246674,0,-1,0.08044935762882233,-1.6090176741229456,-0.6738155523883265,-1.4258607069598597,0.5498710870742798,0.17449630796909332
3694,1734173340,645605564,-0.5194998617746686,0.20121111844770795,1.2425458480328555,-0.724028662542596,-0.3421360461311596,0.07035814881010016,0.5947900071878582,0,-1,0.08109575510025024,-1.609305206929342,-0.6787946859942835,-1.424769703541891,0.5539824366569519,0.17581382393836975
3710,1734173340,661692142,-0.5227072321744679,0.20042462481767878,1.239867402993495,-0.7242669141966337,-0.34444629999853515,0.07069556783565319,0.5931242029337529,0,-1,0.08165788650512695,-1.6095812956439417,-0.6838696638690394,-1.4237030188189905,0.5581772923469543,0.17713133990764618
3727,1734173340,677848577,-0.52579638873079,0.19965241192333213,1.2372602366215526,-0.7245096078495771,-0.34666891479920614,0.07105886280968025,0.5914872185109225,0,-1,0.0822567269206047,-1.6098693052874964,-0.6889680067645472,-1.4226482550250452,0.562288224697113,0.17838893830776215
3742,1734173340,693967342,-0.5289504858502813,0.19887186195839313,1.2345663711166084,-0.7247395401925661,-0.3489402354360516,0.07132746204504867,0.58983531950326,0,-1,0.08291473239660263,-1.6101215521441858,-0.694042984639303,-1.421532932912008,0.5663512945175171,0.17973041534423828
3758,1734173340,709572315,-0.5320232268988169,0.19810794128236203,1.2318949700000954,-0.7249796752713537,-0.35114750788255383,0.07160679512297981,0.5881941559073247,0,-1,0.08350121229887009,-1.6104090849505823,-0.6991055647479456,-1.4204185644732874,0.5704262852668762,0.18098801374435425
3774,1734173340,725710868,-0.5350770906458506,0.19737478377145473,1.2292337563457534,-0.7252235840163455,-0.35334351975720496,0.07188491441258733,0.5865421291876411,0,-1,0.08408769220113754,-1.6107085386859339,-0.7040846983539026,-1.4193156401263636,0.5745376348495483,0.18223363161087036
3790,1734173340,741834163,-0.5380971039854228,0.1965988264592332,1.2265707876942902,-0.7254700202929389,-0.355434932069113,0.07213094811033156,0.5849413518002403,0,-1,0.08467379212379456,-1.6109965483294886,-0.7089923063861292,-1.418237034474508,0.5785051584243774,0.18356312811374664
3806,1734173340,757399559,-0.5410837544270708,0.19583635661490734,1.2239147600599847,-0.7257155734744956,-0.3575897822163388,0.07247274883834019,0.5832787967574942,0,-1,0.08530858159065247,-1.611260239277975,-0.7139828840838831,-1.4171221891986292,0.5825082659721375,0.18485629558563232
3822,1734173340,773503065,-0.5440833569647696,0.19506480026573675,1.2212070002079733,-0.7259583703305942,-0.3597635806912836,0.07274608059510061,0.5816034889107744,0,-1,0.08587109297513962,-1.6116083304034632,-0.719057861958639,-1.4160788694964808,0.5865716338157654,0.1861618310213089
3838,1734173340,789602994,-0.5470705011653645,0.1942796763104666,1.2184919488018329,-0.726212290945681,-0.3619304772419897,0.0730634946380499,0.5798997877858613,0,-1,0.08644521236419678,-1.6117880980121058,-0.7240365187274378,-1.4149640242206019,0.5907305479049683,0.18745538592338562
3854,1734173340,805720567,-0.550070574040949,0.19349409613233692,1.2157014874175194,-0.7264730369092898,-0.36411008738249173,0.07334834304365809,0.5781702097850234,0,-1,0.08703169226646423,-1.612027947102682,-0.7291830221759241,-1.4138734976397913,0.5948662161827087,0.18877288699150085
3870,1734173340,821846723,-0.5530143039227996,0.19267960312197283,1.21297074349439,-0.7267044291883377,-0.3662934525959119,0.07363559535064046,0.5764612547958237,0,-1,0.08763052523136139,-1.6123040358172815,-0.7340782324420374,-1.4128182570086878,0.5989891886711121,0.19007804989814758
3886,1734173340,837944269,-0.5559005717086092,0.19191175773808367,1.2102438847518289,-0.7269581145924928,-0.36845187430119847,0.07393360191893561,0.5747250981637693,0,-1,0.0882406011223793,-1.6126397291766565,-0.7390096823321741,-1.4117277304278772,0.603112518787384,0.1913476288318634
3902,1734173340,853506326,-0.5587937803910197,0.19109966398772638,1.207487061481812,-0.7272156462739324,-0.3705663554445872,0.07423466014016955,0.5729984251817593,0,-1,0.08883906155824661,-1.6128676573382776,-0.743988339100973,-1.4106724897967737,0.6072478294372559,0.19265316426753998
3918,1734173340,869596958,-0.5617069839584656,0.1903012107583965,1.20468289964487,-0.7274728346575883,-0.3727347392726302,0.0745039868751602,0.5712278397577657,0,-1,0.08943714946508408,-1.613131348286764,-0.749099079762594,-1.4096296469317835,0.6113108396530151,0.1939706802368164
3934,1734173340,885697364,-0.5646375958932036,0.18950500017760563,1.2018086791795655,-0.7277273026843959,-0.37488203754734933,0.07467923927861694,0.5694729511335973,0,-1,0.09005957841873169,-1.6133831183062952,-0.7543171087848108,-1.408551041279928,0.6153866052627563,0.19519232213497162
3950,1734173340,901868820,-0.5675696880266419,0.1886669383112251,1.1989120459453755,-0.7279643217011702,-0.3770926836652198,0.07486238163842886,0.567683607365705,0,-1,0.0906820073723793,-1.6136229673968714,-0.7594159285174769,-1.4074962774859827,0.6194615960121155,0.19644992053508759
3966,1734173340,917956352,-0.5704560825540249,0.1878401514813811,1.1960599675582484,-0.7282129233759634,-0.37925005278078355,0.07509277148209277,0.565894346468618,0,-1,0.09122055023908615,-1.6139105002032679,-0.7644546667682093,-1.4065011183368128,0.6236212849617004,0.19771911203861237
3982,1734173340,933925867,-0.573291223013791,0.1870394915147267,1.193202008248337,-0.7284663102467014,-0.38137409552924195,0.07532111845829625,0.5641075812369485,0,-1,0.09187893569469452,-1.614234749470846,-0.7693617979632776,-1.4053743521319788,0.6276846528053284,0.19900068640708923
3998,1734173340,949739456,-0.5761304441261835,0.18619585663742427,1.190363184739468,-0.7287124919712937,-0.38347361466257834,0.0755908529781908,0.5623274080539141,0,-1,0.09250099211931229,-1.6145227591144007,-0.7743647734271448,-1.4042595068561,0.6317600607872009,0.20030620694160461
4014,1734173340,965589523,-0.578935000231978,0.18538918513441308,1.1874917390342192,-0.7289747031527927,-0.3855592997379807,0.07583383163765094,0.5605257697269664,0,-1,0.09307548403739929,-1.6147502104388636,-0.7793796698199671,-1.403144661580221,0.6358593702316284,0.20157578587532043
4030,1734173340,981747865,-0.5816998546947684,0.18457210709693211,1.1846048483355454,-0.729248249363697,-0.3876346118651229,0.0761065711613905,0.5586986560841316,0,-1,0.0936979129910469,-1.615014378224508,-0.7844427267657679,-1.4020660559283655,0.6400546431541443,0.20289330184459686
4046,1734173340,997826099,-0.5844666371590763,0.18373126138497842,1.1816900918121158,-0.7295133016004877,-0.3897159897332326,0.07636942769599082,0.5568657833334613,0,-1,0.09426042437553406,-1.6152899901019495,-0.789469067250387,-1.4009392897235315,0.644106388092041,0.2043066918849945
4062,1734173341,13380527,-0.5872268846045737,0.1829183194837109,1.1787436707103551,-0.7297904290005892,-0.3917608994599091,0.07656824100484476,0.5550375049155895,0,-1,0.09489484131336212,-1.615542236958639,-0.7945078055011194,-1.3998244444476526,0.6482416987419128,0.20563620328903198
4078,1734173341,29493808,-0.589990433756571,0.18208223695475811,1.1758157113389913,-0.7300630761876616,-0.3938286169516471,0.07680047541157667,0.5531804517821624,0,-1,0.09542139619588852,-1.6158774534808558,-0.7994988600360315,-1.3987816015826624,0.6523414254188538,0.2069297432899475
4094,1734173341,45591831,-0.5926829122196889,0.1812726548779724,1.172900748312817,-0.730341783103868,-0.39583164408555366,0.07703624402118038,0.5513470835148211,0,-1,0.09607940912246704,-1.6161535421954554,-0.8044660727130335,-1.397618595753805,0.656356930732727,0.2082468867301941
4110,1734173341,61740398,-0.5953762649736042,0.18044716114436438,1.1699561420401963,-0.7306137435346077,-0.39783473787024237,0.07724539970979,0.549512718074602,0,-1,0.09665390104055405,-1.6164291540728968,-0.8095048109637659,-1.3965519110309046,0.6604207158088684,0.20956440269947052
4126,1734173341,77358245,-0.5980914636537011,0.17959809315998387,1.1669531255979462,-0.7308703168852786,-0.39991053373514107,0.07741511282361134,0.547637695205685,0,-1,0.0971924439072609,-1.616680924092428,-0.8146031538592737,-1.395472828541891,0.6645680069923401,0.2108459621667862
4142,1734173341,93483209,-0.6007586906663593,0.17877171226667996,1.1639484796481747,-0.7311490096933407,-0.40193327051315886,0.07758124805012616,0.5457581164124156,0,-1,0.09782685339450836,-1.616969410573141,-0.8197262922870081,-1.394442383443014,0.6686201691627502,0.21215149760246277
4158,1734173341,109625339,-0.6034550200477203,0.1779064494508029,1.1608987272721263,-0.7314186961938403,-0.40400607353501455,0.07774379854891086,0.5438397605840434,0,-1,0.09840135276317596,-1.6172450224505823,-0.8247049490558069,-1.3933876196490687,0.6727794408798218,0.21338512003421783
4174,1734173341,125831127,-0.606142434305015,0.17706795994342236,1.1578493021478713,-0.7316958779129928,-0.40604100691824113,0.07788310912665619,0.5419280987905322,0,-1,0.09897584468126297,-1.617533032094137,-0.8296597639666956,-1.3922961393939417,0.6768428087234497,0.21473859250545502
4190,1734173341,141378164,-0.6087510482276393,0.17621560036119993,1.1548488962514059,-0.7319782482527574,-0.408036736384406,0.07810249870893628,0.5400128383112831,0,-1,0.09963423013687134,-1.617880646382467,-0.8346388975726526,-1.3912299315081995,0.6809905171394348,0.2160441279411316
4206,1734173341,157536506,-0.6113481103193906,0.1753260727982941,1.1518518564262885,-0.7322314319759106,-0.4100608501107314,0.07831643488175692,0.5381020026541279,0,-1,0.1002083495259285,-1.6181443373309534,-0.8396175543414515,-1.3901270071612757,0.6851381659507751,0.21733729541301727
4222,1734173341,173708915,-0.6139668769317895,0.17447643574015836,1.1487803348881769,-0.7325174875772339,-0.4120663533532947,0.0785008170334968,0.5361502331928318,0,-1,0.10086672753095627,-1.6184442679034632,-0.8446806112872522,-1.3890717665301722,0.6892378926277161,0.21864283084869385
4238,1734173341,189936637,-0.6165975350018904,0.1735973364992956,1.1456550601421516,-0.7327988325989303,-0.41406918263236586,0.07864575900517191,0.5341979291669986,0,-1,0.10146519541740417,-1.618767563496725,-0.8497789541827601,-1.3879454771624964,0.6932896971702576,0.21996034681797028
4254,1734173341,205520153,-0.6191970505971682,0.17271715420846373,1.1425265460471732,-0.7330659201041079,-0.4160807003577566,0.07877960796439898,0.532245226320248,0,-1,0.1020992323756218,-1.6190317312823694,-0.854865852986471,-1.3868783156024378,0.6973774433135986,0.2212538868188858
4270,1734173341,221576213,-0.621743294685996,0.17184286950930514,1.1394287244833508,-0.733336891886178,-0.4180861176418308,0.07892122794443869,0.5302758159803662,0,-1,0.1026737242937088,-1.6193798224078577,-0.8598206678973597,-1.3858235518084925,0.7015131115913391,0.22254744172096252
4286,1734173341,237729787,-0.6242690531544747,0.17100168380309977,1.1363417307411805,-0.7336207134391124,-0.4200096646092476,0.07904506701898716,0.52834118505742,0,-1,0.1032482236623764,-1.6196916739093226,-0.8647640387164515,-1.384733025227682,0.7055173516273499,0.2238050252199173
4302,1734173341,253886222,-0.6268077564521256,0.17011549373034177,1.133234634570651,-0.733886752388683,-0.42197555992861163,0.07918929866925846,0.5263800114628193,0,-1,0.10389462113380432,-1.6199911276446741,-0.8697903792010706,-1.3836177031146448,0.7095811367034912,0.22509858012199402
4318,1734173341,269602537,-0.6293068679064983,0.16922371571354203,1.1301058544766784,-0.7341637282753626,-0.4239224589080625,0.07931275549921504,0.5244071469128575,0,-1,0.10451705008745193,-1.6202910582171839,-0.874829117451803,-1.3825152556048792,0.7136688232421875,0.2263801395893097
4334,1734173341,285708427,-0.6318283576377264,0.16833361956069381,1.1268933959136616,-0.7344369329388161,-0.425918310259315,0.07941946322372098,0.5223873403735307,0,-1,0.1051151379942894,-1.6205909887896937,-0.8799522558795374,-1.3814004103290003,0.717780590057373,0.2275778204202652
4350,1734173341,301454544,-0.6342945651585215,0.16746325820053443,1.1236991586548224,-0.7347103634143465,-0.4279025437947101,0.07947168392543572,0.5203694325761561,0,-1,0.10573756694793701,-1.620866600667135,-0.8850267569171351,-1.3804295698748987,0.721880316734314,0.22887098789215088
4367,1734173341,317590713,-0.6367408308124501,0.1665907243572573,1.1205203632947665,-0.7349884588078216,-0.4298447612345668,0.07956166846252452,0.5183583582522432,0,-1,0.10626450181007385,-1.6211665312396448,-0.8899577299701136,-1.3793628851519983,0.7260043621063232,0.2301645427942276
4382,1734173341,333855390,-0.6391881932780065,0.1657062690638333,1.1173353583267438,-0.735270274315847,-0.4317740160805561,0.07966400271869668,0.5163356170321803,0,-1,0.10691052675247192,-1.6214779059039515,-0.8948887030230921,-1.378296200429098,0.7301157116889954,0.23143412172794342
4398,1734173341,349468469,-0.641509710230263,0.16481015317888326,1.114250854464602,-0.7355523527105559,-0.4336668519448719,0.07988178941293193,0.5143099237486854,0,-1,0.10748501867055893,-1.6218021551715296,-0.8998673597918909,-1.3771932760821741,0.7342637181282043,0.23275163769721985
4414,1734173341,365486621,-0.6439298912683238,0.1639141389904448,1.111022916353389,-0.7358431018944924,-0.43556006442392203,0.07998172993621784,0.5122746163433538,0,-1,0.10804715007543564,-1.6220420042621058,-0.9049661795245569,-1.3761504332171839,0.7383634448051453,0.23408113420009613
4430,1734173341,381605863,-0.6462943586182931,0.16304947363565142,1.107779632637361,-0.736143988288215,-0.4374561839055309,0.08003174365773338,0.5102146956694147,0,-1,0.10864599049091339,-1.6223419348346155,-0.9100173155414026,-1.3751075903521937,0.7424755692481995,0.23542261123657227
4446,1734173341,397728204,-0.6485876325764922,0.16218270799377948,1.1045572663620302,-0.7364808653014573,-0.4392860260484917,0.08018321148782834,0.5081283056068012,0,-1,0.10923247039318085,-1.6225937048541468,-0.9151156584369105,-1.3739689032184046,0.7466115951538086,0.23683562874794006
4462,1734173341,413832664,-0.6509456178965889,0.16130447802919748,1.101284874079373,-0.736777383323419,-0.44114879196777135,0.0802515792084755,0.5060696738622239,0,-1,0.10985452681779861,-1.6228936354266565,-0.9201548735248011,-1.3729141394244593,0.7507117390632629,0.23814116418361664
4478,1734173341,429400205,-0.653260195977786,0.1603881177946998,1.0980518741810277,-0.7370537320857056,-0.4430414044903307,0.08032429521681697,0.5039981324605183,0,-1,0.11046496778726578,-1.6232050100909632,-0.9251216093646448,-1.3718474547015589,0.7547515034675598,0.23938676714897156
4494,1734173341,445533990,-0.6555267148215537,0.15950483630320952,1.0948136064991167,-0.7373506944293073,-0.4448661914516547,0.08041228114535748,0.5019381338062672,0,-1,0.11102747917175293,-1.6234810988055628,-0.9300764242755335,-1.3706849257098597,0.7588875889778137,0.24071627855300903
4510,1734173341,461928606,-0.6577675333153852,0.15857815075656936,1.09158230348038,-0.73762303561273,-0.4467382832667227,0.08052640142652405,0.4998526405558512,0,-1,0.111661896109581,-1.6237447897540491,-0.9351151625262659,-1.369593922291891,0.7629876732826233,0.24200981855392456
4526,1734173341,477762222,-0.6600025937643448,0.15769936344525176,1.0883191205707021,-0.737929984031699,-0.44853849099966137,0.08058902020592672,0.49777301110141753,0,-1,0.11224837601184845,-1.6240323225604456,-0.9403932730304163,-1.3684914747821253,0.7670877575874329,0.24327939748764038
4542,1734173341,493418931,-0.662277867557168,0.15677857686728827,1.0848965158703683,-0.7382118993206531,-0.45044488273989736,0.08056688309757887,0.4956325016206816,0,-1,0.11283447593450546,-1.6242731253253382,-0.945467774068014,-1.3674123922931116,0.7711879014968872,0.2445729523897171
4558,1734173341,509516239,-0.6644974825241239,0.15588389797245827,1.0815728198133197,-0.738511143066708,-0.4523063767519293,0.08062295079005503,0.4934776316326309,0,-1,0.11343331634998322,-1.6245363394366663,-0.95056659380068,-1.3663814703570765,0.7752999663352966,0.2459140568971634
4574,1734173341,525666713,-0.6666673538491158,0.1549831318692358,1.0782893098720607,-0.7388180342382712,-0.45408154814463675,0.08070804229545295,0.49136958781318774,0,-1,0.11406735330820084,-1.6248005072223108,-0.9554618040667933,-1.3652666250811976,0.7794120907783508,0.24721959233283997
4590,1734173341,541843175,-0.6687880817982371,0.15405511416083184,1.075036490625855,-0.7391004572096165,-0.4558730554253584,0.08079087338192695,0.48926792891816384,0,-1,0.11468978226184845,-1.6251242796527308,-0.9603694120990198,-1.364164177571432,0.7834762334823608,0.2485131323337555
4606,1734173341,557467699,-0.6709201677319461,0.1531780450123854,1.0717588098067157,-0.7394051964637053,-0.45762065928304796,0.08083416072716265,0.48716437277304386,0,-1,0.11528825014829636,-1.6253517309771937,-0.9654439131366175,-1.3630850950824183,0.7875763177871704,0.24983102083206177
4622,1734173341,573586702,-0.6730404905012118,0.15224718371095713,1.0683993447498166,-0.7397030110645368,-0.4594303018743931,0.0808603912912089,0.48499984563079424,0,-1,0.11589831858873367,-1.625603977833883,-0.9705422560321253,-1.3620665709124964,0.7917483448982239,0.2511964738368988
4638,1734173341,589736461,-0.6751499406449911,0.15131427330937713,1.0650120139852188,-0.7399984260276333,-0.4612687189266242,0.08089730582936992,0.4827930450265058,0,-1,0.11655670404434204,-1.6258676687823694,-0.9756172339068812,-1.3609755674945276,0.7958727478981018,0.2524420917034149
4654,1734173341,605301618,-0.6772198033605965,0.15037216514064583,1.0616491647837767,-0.7402861485525523,-0.46306285673427355,0.0809468463946577,0.48062128233473167,0,-1,0.1171547919511795,-1.6261194388019007,-0.9807279745685022,-1.359885040913717,0.8000088334083557,0.2537476122379303
4670,1734173341,621449232,-0.679281282649102,0.14946721839635066,1.0583125293156055,-0.7405854998838179,-0.46483352802202355,0.080959845807987,0.4784437395924217,0,-1,0.1177416443824768,-1.6264074484454554,-0.9855631033526819,-1.3588421980487269,0.8041213154792786,0.2550647556781769
4686,1734173341,637580633,-0.6813050889068674,0.14855702529725592,1.0550024798948034,-0.7408858837086467,-0.46654408568822553,0.08103572313570051,0.47629605814710363,0,-1,0.11838766932487488,-1.6266830603228968,-0.9904940764056605,-1.3577154318438929,0.8082573413848877,0.25634631514549255
4702,1734173341,653722047,-0.6832699016699779,0.14761948645302686,1.0517065162433894,-0.741164083677173,-0.46827292916766494,0.0811111582083778,0.47414896909073523,0,-1,0.11898612976074219,-1.6269591490374964,-0.9955094496356409,-1.356589142476217,0.8123818039894104,0.2576158940792084
4718,1734173341,669295310,-0.6853062095406457,0.1467222400590032,1.0482908455206064,-0.7414717095266649,-0.47001623632639444,0.0810959892894416,0.4719405493092776,0,-1,0.1195606216788292,-1.6271989981280726,-1.0006077925311487,-1.3554981390582483,0.8164459466934204,0.2588375508785248
4734,1734173341,685432910,-0.6872907807534704,0.14582784788252315,1.044828485813327,-0.7417672205250484,-0.4717592427700897,0.08100158519189397,0.469748177869735,0,-1,0.12014710158109665,-1.6274026075946253,-1.0057781378375452,-1.354455296193258,0.8204864859580994,0.26014307141304016
4750,1734173341,701599836,-0.6892694430744257,0.14491465555103195,1.0414070954738173,-0.74206485380014,-0.473501726853676,0.08097526992130762,0.46752419518388033,0,-1,0.1207096129655838,-1.6277144590960901,-1.0107691923724573,-1.3533766905414026,0.8245986104011536,0.26140066981315613
4766,1734173341,717746973,-0.691232393257518,0.14400797693330702,1.0379506960983294,-0.74238329818973,-0.47520918101183796,0.08094826393141713,0.46528555900380825,0,-1,0.12128373235464096,-1.6280143896686,-1.0157960096942347,-1.3522856871234339,0.8286870718002319,0.26270583271980286
4782,1734173341,733345031,-0.6931805054860017,0.1430990480674096,1.0345405266076502,-0.7426873033863335,-0.4768715376481915,0.08092542821071062,0.4630984571758998,0,-1,0.12187058478593826,-1.6283381620990198,-1.0206916967975062,-1.3512070814715784,0.8327755928039551,0.26401135325431824
4798,1734173341,749490737,-0.6950763924540576,0.142155969638381,1.0311617222344025,-0.7429844005122238,-0.47854392267939394,0.0809509480134567,0.4608870129194705,0,-1,0.12249301373958588,-1.6286500136004847,-1.0256827513324183,-1.3501046339618128,0.8369355797767639,0.26532888412475586
4814,1734173341,765590429,-0.6969534229460596,0.14124320917746133,1.0277398571132816,-0.7432947355314273,-0.4802116399758178,0.0809303091092722,0.4586501957161672,0,-1,0.12306713312864304,-1.628925625477926,-1.0308168570147913,-1.3490493933307093,0.8410604000091553,0.26668235659599304
4830,1734173341,781816244,-0.6988596439900233,0.14034804433101886,1.024215597521985,-0.7436425806570359,-0.48186129427573565,0.08084317134125739,0.45636584771446786,0,-1,0.1237015500664711,-1.6291778723346155,-1.0359156767474573,-1.3479827086078089,0.8451245427131653,0.26801183819770813
4846,1734173341,797345161,-0.7007287735611273,0.13941747836049084,1.0206949732161135,-0.7439546123860671,-0.4835269316885906,0.08075138910302887,0.4541062146670586,0,-1,0.12428802251815796,-1.6294177214251917,-1.0410268942462366,-1.3469279448138636,0.849165141582489,0.26934170722961426
4862,1734173341,813518285,-0.7025466593961145,0.1385096375767692,1.0171927628278266,-0.7442625074333225,-0.48519988038998574,0.08066742692511164,0.45182647369525486,0,-1,0.12482656538486481,-1.6297295729266565,-1.046053711568014,-1.3458970228778284,0.8532895445823669,0.2706229090690613
4878,1734173341,829597949,-0.7043865051853243,0.13756118202719353,1.0137136889956073,-0.7445739654994319,-0.48685606608848664,0.08062371154210789,0.44953375618574953,0,-1,0.12544900178909302,-1.630029026662008,-1.0510323683368128,-1.3448308149920862,0.8574383854866028,0.27190446853637695
4894,1734173341,845735311,-0.7061675064496893,0.13663611999707698,1.0102812304146118,-0.7448633991159324,-0.4884985274276077,0.08058100810952772,0.44727441966936843,0,-1,0.1260710507631302,-1.630340878163473,-1.0559638182269495,-1.3437398115741175,0.8615624308586121,0.2731740474700928
4910,1734173341,861360788,-0.7079511344902766,0.13572460359771849,1.0067958133751007,-0.7451860534982643,-0.4900958720961191,0.08052030989153819,0.4449946758344386,0,-1,0.12665753066539764,-1.6306288878070276,-1.06097919145693,-1.3426373640643519,0.865602970123291,0.2744675874710083
4926,1734173341,877486944,-0.7096788355266741,0.1347962049261482,1.0033381218901787,-0.745477336571513,-0.49169369154211184,0.08046369944582876,0.4427487407406426,0,-1,0.1272200345993042,-1.6308687368976038,-1.0660656134234827,-1.3415587584124964,0.8697277903556824,0.275749146938324
4942,1734173341,893589496,-0.711438832687698,0.13383990876355745,0.9997421794309901,-0.7457850817303978,-0.49336780688110243,0.08036100202001319,0.4403804359369912,0,-1,0.1278664469718933,-1.6311681906329554,-1.0711043516742151,-1.3404796759234827,0.8738642334938049,0.27705469727516174
4958,1734173341,909757137,-0.7131741475233013,0.13291017393618076,0.9961791574831316,-0.7460975659119017,-0.4949596335567903,0.0802561666235195,0.4380779964898503,0,-1,0.12848886847496033,-1.6314438025103968,-1.0762150923358362,-1.3393891493426722,0.8779650926589966,0.2783602178096771
4974,1734173341,925388336,-0.7148642256086383,0.13196674784434054,0.9926935530101755,-0.7463977525099277,-0.49654108874748015,0.08017859577868591,0.4357851936591626,0,-1,0.1290869563817978,-1.6318519751178187,-1.0810626188861292,-1.3382981459247034,0.8820891380310059,0.27961742877960205
4990,1734173341,941479444,-0.7165738898125301,0.13100374452537553,0.9892000410154981,-0.7466934232132051,-0.4981300948623268,0.08013092775327978,0.43346784741200034,0,-1,0.129709392786026,-1.6321762243853968,-1.0859821478473108,-1.3371833006488245,0.8862379789352417,0.28097090125083923
5006,1734173341,957586526,-0.7182260931640881,0.13008297064286783,0.9857091859092725,-0.7470236700580731,-0.4996346803170723,0.08008484819356294,0.43116961823305444,0,-1,0.13033181428909302,-1.632427994404928,-1.090997044240133,-1.3360808531390589,0.8902785181999207,0.2822648286819458
5022,1734173341,974021434,-0.7198792748509741,0.12914308007680966,0.9821178698130545,-0.7473323848551597,-0.501205105898317,0.07994168357290965,0.42883222313124403,0,-1,0.13091829419136047,-1.6327155272113245,-1.0961077849017542,-1.3350618521319788,0.8943789601325989,0.2835943400859833
5038,1734173341,989273786,-0.7215398028633805,0.12819073765010774,0.9784427676222915,-0.7476462653745835,-0.5027920593739611,0.07974229247611034,0.4264579389489465,0,-1,0.13151638209819794,-1.6330154577838343,-1.1012786070453089,-1.333935562764303,0.8984082937240601,0.284839928150177
5054,1734173342,5369424,-0.7231564658761008,0.1272752197574037,0.9748302471288186,-0.74796502433247,-0.5043286894543749,0.07957966151005971,0.4241084446724735,0,-1,0.13211484253406525,-1.6332910696612757,-1.1063411871539515,-1.3328807989703577,0.9025567173957825,0.2861810624599457
5070,1734173342,21468877,-0.7247438481970148,0.12634232710082452,0.9712571913871123,-0.748271985610997,-0.5058709024182612,0.07942448205483646,0.42175279167615604,0,-1,0.13272567093372345,-1.6336148420916956,-1.1112731138812464,-1.3318379561053675,0.9065972566604614,0.2874506413936615
5086,1734173342,37587881,-0.7263156178980943,0.12538277673140774,0.9676812354879939,-0.7485761948135073,-0.5074023646899691,0.07929352818732341,0.4193912937259948,0,-1,0.13335971534252167,-1.6339505354510706,-1.1162036100970667,-1.3307479063617151,0.9106861352920532,0.2887322008609772
5102,1734173342,53730249,-0.7278262878324797,0.12446396455109483,0.9641801912735708,-0.7488787569795198,-0.5088937039978457,0.07917834926983518,0.4170594614477248,0,-1,0.13392221927642822,-1.6342747847186487,-1.1212189833270472,-1.329644505177633,0.9147746562957764,0.28996580839157104
5118,1734173342,69267034,-0.7293340835905153,0.12355745225782694,0.9605981932997038,-0.7491924104926562,-0.5103846956500631,0.0790359023241153,0.41469449074012155,0,-1,0.13450832664966583,-1.634538475667135,-1.1262701193438929,-1.3285897413836878,0.9189118146896362,0.29128333926200867
5134,1734173342,85372686,-0.7308373267114722,0.12262264479680546,0.9569264644552264,-0.7495111513101692,-0.511893822842484,0.07884221558845436,0.4122883132451317,0,-1,0.1350831836462021,-1.6347788015948694,-1.1314051787005823,-1.3275111357318323,0.9230362772941589,0.29249337315559387
5150,1734173342,101475238,-0.7323127982703088,0.12172510623347733,0.9532723934580419,-0.7498232789709577,-0.5133893367404251,0.07862550431440288,0.40989568100404944,0,-1,0.13564570248126984,-1.6350300947772425,-1.1365154425250452,-1.3263967672931116,0.9270771741867065,0.2938108742237091
5166,1734173342,117590427,-0.7337560401540939,0.12079026436671231,0.9496264013311057,-0.7501497859361701,-0.5148345940377004,0.07844028580877795,0.4075141236867645,0,-1,0.1362198144197464,-1.6353419462787073,-1.141578499470846,-1.3252938429461878,0.931190013885498,0.29511603713035583
5182,1734173342,133717536,-0.7352157164944167,0.11987559385727381,0.9460217526413728,-0.7504844266828059,-0.5162683021960459,0.07830297324185528,0.4051034557192491,0,-1,0.13684262335300446,-1.635629955922262,-1.1464865843402308,-1.3242152372943323,0.9353268146514893,0.296469509601593
5198,1734173342,149365425,-0.7366060634881963,0.11892766940727714,0.9424775291207734,-0.7507993314690045,-0.5176941050200126,0.07819268430190261,0.4027146404277938,0,-1,0.1374167501926422,-1.6359413305865687,-1.1514175573932093,-1.323148552571432,0.9394276738166809,0.29783496260643005
5214,1734173342,165471553,-0.7379784310176997,0.11802217714467104,0.9388773097830111,-0.7511395584829101,-0.5190840729207444,0.0780527772168187,0.40031094525487537,0,-1,0.13802719116210938,-1.6362054983722132,-1.1564205328570765,-1.322033707295553,0.9435405135154724,0.29918843507766724
5230,1734173342,181600332,-0.7393435041531475,0.11706611014425618,0.9352463104190218,-0.7514713565034048,-0.5204897395319517,0.07787855114148172,0.3978896362925242,0,-1,0.1386372596025467,-1.636432949696676,-1.1614835898028772,-1.3209431807147425,0.947677731513977,0.30055350065231323
5246,1734173342,197203397,-0.740680125296238,0.11613585741934032,0.9315768697009593,-0.7517917156110148,-0.5219098288540875,0.07767646209289546,0.39545633655420814,0,-1,0.13924771547317505,-1.6366966406451624,-1.1665943304644983,-1.319852654133932,0.9517545700073242,0.30178749561309814
5262,1734173342,213436126,-0.741975816537914,0.11519882017217033,0.9279517683857803,-0.7521088709549497,-0.5233177399340797,0.07749277540357997,0.39302119416312414,0,-1,0.13985852897167206,-1.6369851271258753,-1.1715977827655237,-1.3188579718219202,0.9559029936790466,0.3031409680843353
5278,1734173342,229557514,-0.7432599055370793,0.11422123274979473,0.9243785869418784,-0.7524156195721595,-0.5247140923736452,0.0773162670550075,0.39059960514192,0,-1,0.14049257338047028,-1.6372488180743616,-1.1765411535846155,-1.3177793661700647,0.9599083662033081,0.304422527551651
5294,1734173342,245782852,-0.7445093219740185,0.11330734343121518,0.9208063022560854,-0.7527242224925905,-0.5260773247690669,0.07713432369817105,0.388199934755755,0,-1,0.14112699031829834,-1.6375368277179163,-1.181436840687887,-1.316676441823141,0.963781476020813,0.3057400584220886
5310,1734173342,261845350,-0.7457930623946587,0.11234938161674796,0.9171815370192786,-0.7530354625244311,-0.5274234778408717,0.076918982194955,0.38580505100497026,0,-1,0.1417011022567749,-1.6377885977374476,-1.1864398161517542,-1.3156335989581507,0.9679902195930481,0.307045578956604
5326,1734173342,277392148,-0.7470172137967808,0.1114109019034344,0.9134716021578787,-0.7533397167825605,-0.5288061164287795,0.07664572886466225,0.383365093080067,0,-1,0.14234749972820282,-1.6380522886859339,-1.1916464010821741,-1.3145669142352503,0.972007155418396,0.3083387613296509
5342,1734173342,293530225,-0.748216490199133,0.11048807414503053,0.9097529064413017,-0.7536738970713234,-0.530156597746504,0.07636307300322463,0.380891480372927,0,-1,0.14296993613243103,-1.63829213777651,-1.1967814604388636,-1.3135126272784632,0.9761204123497009,0.3096802532672882
5358,1734173342,309605121,-0.7493902200210373,0.10957910267036802,0.9060418485779058,-0.7539998694296961,-0.5315119226171997,0.07610306217544607,0.3784013701657136,0,-1,0.14354443550109863,-1.6385319868670862,-1.201904598866598,-1.3124340216266077,0.9802572131156921,0.31096217036247253
5374,1734173342,325727462,-0.7505564485176937,0.10861951383912974,0.9023948029060035,-0.7543171346191718,-0.5328338901479887,0.07589511093834532,0.375943663419587,0,-1,0.1441664844751358,-1.6388557592975062,-1.206764046345846,-1.3113911787616175,0.9843468070030212,0.3123156428337097
5390,1734173342,341866731,-0.7517205687342842,0.10770309981803523,0.8987923007981281,-0.7546400296729563,-0.5341181008146105,0.07569401293530495,0.3735059522994822,0,-1,0.14482486248016357,-1.639155689870016,-1.2116358915912073,-1.3102644125567835,0.9884237051010132,0.3135972023010254
5406,1734173342,357470273,-0.7528656448287406,0.10677493440263844,0.8951780441995625,-0.7549545396828055,-0.5354217749539337,0.07547560505700067,0.3710398886356857,0,-1,0.14535179734230042,-1.639406983052389,-1.2166512648211878,-1.3090899626361292,0.9925485253334045,0.3148784041404724
5422,1734173342,373582601,-0.7539783283600187,0.10583435694807128,0.8914765130777169,-0.7552719194380902,-0.5367420506185979,0.07525306367140942,0.368523099973546,0,-1,0.14594988524913788,-1.6396477858172815,-1.2217143217669886,-1.3080232779132288,0.9967455863952637,0.31617194414138794
