yildirimyigit/pemp/data/ur10/raw/15_2024-12-14_13-50-17.csv
Time,ROS secs,ROS nsecs,________p_x________,________p_y________,________p_z________,________q_x________,________q_y________,________q_z________,________q_w________,gripper_position,gripper_force,shoulder_pan_joint,shoulder_lift_joint,elbow_joint,wrist_1_joint,wrist_2_joint,wrist_3_joint
0,1734173417,881890773,-7.554536644584447e-06,0.2561410001287874,1.4272999985543204,-0.7071067803557184,-2.5054590873144108e-05,3.677898592315281e-07,0.7071067815734071,0,-1,1.1984225238848012e-05,-1.570808235798971,-1.1746083394825746e-05,-1.5706279913531702,3.5952674807049334e-05,-0.00015527406801396637
11,1734173417,898209333,3.573443245641961e-05,0.25614100062995865,1.4272999984531702,-0.7071067790669644,-7.881054849794816e-06,2.601545192586452e-05,0.707106782783639,0,-1,-2.366701234990387e-05,-1.5707839171039026,-3.5587941304981996e-05,-1.5706399122821253,5.992112710373476e-05,-0.000119511281148732
27,1734173417,914010524,-3.4913937521638247e-05,0.2561410006110874,1.427299998319287,-0.7071067794191024,-2.0733135477152242e-05,-3.616490779132155e-06,0.7071067826407853,0,-1,2.3968450477696024e-05,-1.570796314870016,-3.5587941304981996e-05,-1.5706399122821253,4.793690095539205e-05,-0.00017911592592412262
43,1734173417,930047035,-3.0592538031422543e-05,0.2561409997887346,1.4272999988085986,-0.7071067788283086,-3.352871772148436e-05,8.841916721516332e-06,0.7071067826945934,0,-1,1.1984225238848012e-05,-1.5707839171039026,-4.7985707418263246e-05,-1.5706399122821253,3.5952674807049334e-05,-0.00015527406801396637
58,1734173417,945506811,-2.240273537036052e-05,0.25614099982729444,1.4272999988055561,-0.7071067779520793,-3.7597194049176514e-05,1.3247567849081888e-05,0.7071067832973899,0,-1,-1.1746083394825746e-05,-1.5707724730121058,-4.7985707418263246e-05,-1.5706518332110804,2.3968450477696024e-05,-0.00014335313905888825
74,1734173417,962250709,-3.363188624916882e-06,0.25614100030007836,1.4272999987405757,-0.707106781243956,4.622109044412567e-06,-3.683626176514264e-06,0.7071067811044376,0,-1,1.1984225238848012e-05,-1.5707839171039026,-7.18275653284195e-05,-1.5706160704242151,0.0,-0.00015527406801396637
91,1734173417,978033065,-5.04278961526105e-05,0.25614099959736986,1.4272999976786487,-0.707106779026056,-3.772102364508351e-05,-3.8245167576984025e-06,0.7071067823305712,0,-1,1.1984225238848012e-05,-1.5707600752459925,-8.374849428349762e-05,-1.5706399122821253,3.5952674807049334e-05,-0.00017911592592412262
107,1734173417,994111299,-4.159108821249846e-05,0.25614100068951773,1.4272999974585465,-0.7071067796809056,-8.25766834722377e-06,8.858976406429204e-06,0.7071067825884776,0,-1,0.0,-1.570820156727926,-7.18275653284195e-05,-1.5706518332110804,1.1984225238848012e-05,-0.000119511281148732
123,1734173418,10493040,-2.128599327996516e-05,0.25614099994661305,1.4272999989680775,-0.7071067792739535,-2.92916539470973e-05,4.604852940924446e-06,0.7071067824774493,0,-1,-1.1746083394825746e-05,-1.5707839171039026,-5.990663637334137e-05,-1.5706518332110804,1.1984225238848012e-05,-0.000119511281148732
139,1734173418,26360273,-6.173215020723738e-05,0.25614099941555046,1.4272999981138141,-0.7071067787843521,-4.178950004710046e-05,5.811344381090785e-07,0.7071067823536394,0,-1,2.3968450477696024e-05,-1.5707724730121058,-7.18275653284195e-05,-1.5706399122821253,8.388957940042019e-05,-0.00014335313905888825
155,1734173418,42694568,-2.6295304474580163e-05,0.2561409996597373,1.4272999987421655,-0.7071067785456961,-5.441117598251342e-05,-2.0514668402076563e-05,0.7071067814363684,0,-1,1.1984225238848012e-05,-1.570820156727926,-5.990663637334137e-05,-1.5706160704242151,3.5952674807049334e-05,-0.00015527406801396637
171,1734173418,58177471,-3.3936495297821754e-05,0.256140999443485,1.4272999987873376,-0.7071067795760845,-2.93140325991425e-05,1.3056601302844571e-05,0.7071067820688409,0,-1,0.0,-1.5707839171039026,-7.18275653284195e-05,-1.5706279913531702,5.992112710373476e-05,-0.0001671949969690445
186,1734173418,73881387,2.5010053188523967e-06,0.2561410003698031,1.4272999988668833,-0.7071067805069363,-1.6288046376991827e-05,9.13433434207315e-06,0.7071067816195648,0,-1,1.1984225238848012e-05,-1.570796314870016,-5.990663637334137e-05,-1.5706279913531702,3.5952674807049334e-05,-0.00014335313905888825
203,1734173418,90108156,-2.976189838699013e-05,0.25614099987814065,1.4272999986938604,-0.7071067792999672,-4.1913330234142444e-05,-1.6490949570110832e-05,0.7071067816386354,0,-1,0.0,-1.5707839171039026,-2.366701234990387e-05,-1.5706399122821253,3.5952674807049334e-05,-0.000119511281148732
218,1734173418,105975627,-2.8230889762659586e-05,0.2561409994743042,1.427299998941402,-0.707106777957283,-4.604894239230021e-05,1.3269946519534301e-05,0.7071067827918729,0,-1,3.5952674807049334e-05,-1.5707839171039026,-9.566942323857575e-05,-1.5706518332110804,4.793690095539205e-05,-0.00010759035219365387
235,1734173418,122291088,-2.827189459034833e-05,0.2561410002362831,1.4272999977665741,-0.7071067805546906,-1.6580463941188114e-05,-8.106337085544724e-06,0.7071067815775466,0,-1,-1.1746083394825746e-05,-1.5707839171039026,-5.990663637334137e-05,-1.5706399122821253,5.992112710373476e-05,-0.0001671949969690445
251,1734173418,138004779,-3.51192005252411e-05,0.25614099882721375,1.4272999979984782,-0.7071067797345016,-2.916782413596294e-05,2.1676937344753926e-05,0.7071067817047517,0,-1,0.0,-1.570808235798971,-2.366701234990387e-05,-1.57060414949526,4.793690095539205e-05,-0.00013143221010381012
267,1734173418,154428720,-4.498480001070246e-05,0.2561409996626011,1.4272999982946524,-0.7071067789401896,-4.193570850258538e-05,-8.039201597344731e-06,0.7071067821436854,0,-1,2.3968450477696024e-05,-1.570808235798971,-3.5587941304981996e-05,-1.5706279913531702,5.992112710373476e-05,-0.00010759035219365387
283,1734173418,170207262,-3.255724382020065e-05,0.25614099947654356,1.4272999987019495,-0.7071067787873329,-4.195808709826324e-05,4.1254671602823666e-07,0.7071067823407936,0,-1,1.1984225238848012e-05,-1.5707724730121058,-5.990663637334137e-05,-1.5706637541400355,1.1984225238848012e-05,-0.00010759035219365387
299,1734173418,186333417,-1.1323610059728723e-05,0.25614100057601497,1.4272999988566093,-0.7071067808024063,-8.212911497700828e-06,-1.6473889537016698e-05,0.707106781331092,0,-1,1.1984225238848012e-05,-1.570820156727926,-3.5587941304981996e-05,-1.5706399122821253,3.5952674807049334e-05,-0.0001671949969690445
315,1734173418,202537059,-4.129615248963149e-05,0.2561410012324078,1.4272999976786487,-0.7071067797232589,-2.0901722907949284e-05,-1.2214447848066544e-05,0.7071067822354188,0,-1,0.0,-1.570796314870016,-3.5587941304981996e-05,-1.5706160704242151,5.992112710373476e-05,-0.00013143221010381012
331,1734173418,218065738,-4.375074546166389e-05,0.2561409996773904,1.4272999985407047,-0.7071067792402372,-3.3337751411883205e-05,5.587554938810245e-07,0.7071067823467545,0,-1,-1.1746083394825746e-05,-1.570808235798971,-5.990663637334137e-05,-1.5706399122821253,4.793690095539205e-05,-0.00014335313905888825
347,1734173418,234311342,-3.8718786020655354e-05,0.2561409995589286,1.4272999989161845,-0.7071067772547358,-4.20028439039476e-05,1.7316042926312232e-05,0.7071067836588313,0,-1,2.3968450477696024e-05,-1.570796314870016,-3.5587941304981996e-05,-1.5706399122821253,1.1984225238848012e-05,-0.00013143221010381012
363,1734173418,250333547,3.372562017630024e-06,0.2561410002752315,1.4272999991818383,-0.7071067796961218,-2.4886003416837897e-05,5.363771933770113e-07,0.7071067822388493,0,-1,-1.1746083394825746e-05,-1.5707600752459925,-4.7985707418263246e-05,-1.5706399122821253,7.190534961409867e-05,-0.00013143221010381012
379,1734173418,266386032,2.821337608302879e-05,0.25614099923552563,1.4272999993223296,-0.7071067781471815,-8.133838745044894e-06,9.07232150119306e-06,0.707106784120932,0,-1,-2.366701234990387e-05,-1.570808235798971,-4.7985707418263246e-05,-1.5706518332110804,7.190534961409867e-05,-0.00014335313905888825
395,1734173418,281957387,-1.3393144783561412e-05,0.25614100023628306,1.4272999986689818,-0.7071067806514952,-7.982506844708384e-06,4.916200088928583e-07,0.7071067816763718,0,-1,2.3968450477696024e-05,-1.570796314870016,-3.5587941304981996e-05,-1.5706160704242151,4.793690095539205e-05,-0.00013143221010381012
411,1734173418,298183202,2.0038269787631417e-05,0.2561410003955056,1.4272999989949182,-0.7071067782909859,-1.2118118582567034e-05,3.0252515663419074e-05,0.7071067833311168,0,-1,0.0,-1.570796314870016,-4.7985707418263246e-05,-1.5706518332110804,3.5952674807049334e-05,-0.0001671949969690445
426,1734173418,314257621,-2.340928739943497e-05,0.2561410004759528,1.4272999987019495,-0.7071067798352819,-1.668703806523541e-05,4.296067252358999e-07,0.7071067823407835,0,-1,2.3968450477696024e-05,-1.5707839171039026,-7.18275653284195e-05,-1.5706279913531702,3.5952674807049334e-05,-0.00014335313905888825
443,1734173418,330136775,3.838218301562377e-05,0.256141001130505,1.427299998594713,-0.7071067782056782,-1.63551820318018e-05,3.448957914252934e-05,0.7071067831371458,0,-1,3.5952674807049334e-05,-1.570820156727926,-1.1746083394825746e-05,-1.5706518332110804,1.1984225238848012e-05,-0.00015527406801396637
459,1734173418,346318006,-3.5626895015460874e-05,0.2561409990679765,1.4272999987019495,-0.7071067787860047,-4.198046539237115e-05,8.86429472595641e-06,0.7071067822853525,0,-1,1.1984225238848012e-05,-1.5707839171039026,-3.5587941304981996e-05,-1.5706518332110804,3.5952674807049334e-05,-0.00013143221010381012
475,1734173418,362102508,1.958862460203048e-05,0.2561410001369687,1.427299998952366,-0.7071067782231395,-3.333775162769014e-05,5.587556949121003e-07,0.7071067833638522,0,-1,0.0,-1.5707724730121058,-4.7985707418263246e-05,-1.5706399122821253,1.1984225238848012e-05,-0.00014335313905888825
491,1734173418,378265619,-4.1201121345032544e-07,0.2561410000270591,1.4272999995355893,-0.7071067773864315,-1.6585586042868626e-05,2.5953438560237832e-05,0.7071067843158577,0,-1,-1.1746083394825746e-05,-1.570808235798971,-2.366701234990387e-05,-1.5706637541400355,3.5952674807049334e-05,-0.00014335313905888825
507,1734173418,394424915,-2.689505707599742e-05,0.25614100125630995,1.4272999979304333,-0.7071067792304171,-3.339956899559793e-05,-2.4667536080187253e-05,0.7071067819236126,0,-1,2.3968450477696024e-05,-1.5707839171039026,-4.7985707418263246e-05,-1.5706637541400355,5.992112710373476e-05,-0.00013143221010381012
523,1734173418,409975051,-5.638634158374982e-06,0.2561410002208706,1.4272999988219555,-0.7071067788155584,-1.6540829526557908e-05,9.049942663649809e-06,0.7071067833061598,0,-1,-1.1746083394825746e-05,-1.5707724730121058,-4.7985707418263246e-05,-1.5706399122821253,7.190534961409867e-05,-0.00013143221010381012
539,1734173418,426457166,-2.5851954919310096e-06,0.2561410002698884,1.4272999988219555,-0.7071067787044065,-2.0755514363196343e-05,-3.5941119282930832e-06,0.7071067833549388,0,-1,-2.366701234990387e-05,-1.5707839171039026,-1.1746083394825746e-05,-1.5706160704242151,2.3968450477696024e-05,-0.00014335313905888825
555,1734173418,442292213,-6.031845420717872e-05,0.256140998705215,1.4272999984200005,-0.7071067775220029,-5.8861584337855085e-05,4.573045943259227e-07,0.7071067824010412,0,-1,2.3968450477696024e-05,-1.570808235798971,-3.5587941304981996e-05,-1.5706518332110804,2.3968450477696024e-05,-0.00013143221010381012
571,1734173418,457613468,1.7623918801678482e-05,0.2561410004129182,1.427299998805674,-0.7071067792687286,-2.0693696831407826e-05,1.3202810015226131e-05,0.707106782678304,0,-1,-2.366701234990387e-05,-1.570808235798971,-5.990663637334137e-05,-1.5706160704242151,4.793690095539205e-05,-0.00014335313905888825
586,1734173418,473846197,7.859433689793856e-06,0.2561410000623211,1.4272999989737714,-0.7071067789067114,-1.2494732083850343e-05,1.3096040133768914e-05,0.7071067832347181,0,-1,2.3968450477696024e-05,-1.5707839171039026,-3.5587941304981996e-05,-1.5706160704242151,4.793690095539205e-05,-0.00015527406801396637
603,1734173418,489882469,-1.2998357920944993e-07,0.256141000235617,1.4272999993417648,-0.7071067800327779,-2.0710757226968442e-05,-1.2068238722864636e-05,0.7071067819340291,0,-1,-2.366701234990387e-05,-1.5707724730121058,-3.5587941304981996e-05,-1.5706637541400355,4.793690095539205e-05,-0.00015527406801396637
618,1734173418,505805969,-1.0382885481237338e-05,0.25614100000802853,1.4272999994621127,-0.7071067792739338,-2.9145445168387785e-05,1.3225188667412959e-05,0.7071067823748274,0,-1,1.1984225238848012e-05,-1.5707839171039026,-5.990663637334137e-05,-1.5706160704242151,3.5952674807049334e-05,-0.00013143221010381012
634,1734173418,522005796,-3.832600605746122e-05,0.25614100023628306,1.427299997995966,-0.7071067802461816,-2.922451849435771e-05,-2.0750391629310358e-05,0.7071067812185279,0,-1,0.0,-1.5707839171039026,-7.18275653284195e-05,-1.5706399122821253,-1.1746083394825746e-05,-0.00014335313905888825
650,1734173418,538003444,-6.233099590084365e-05,0.25614100088678377,1.4272999971709752,-0.7071067795804361,-2.513878670890681e-05,4.5198566954877187e-07,0.7071067823456523,0,-1,3.5952674807049334e-05,-1.5707724730121058,-4.7985707418263246e-05,-1.5706761519061487,3.5952674807049334e-05,-0.00014335313905888825
666,1734173418,554374694,2.255930939438215e-05,0.2561410002164202,1.4272999990020614,-0.7071067798419013,-1.6265667705654098e-05,6.825859561427145e-07,0.7071067823437835,0,-1,1.1984225238848012e-05,-1.570796314870016,-7.18275653284195e-05,-1.5706279913531702,5.992112710373476e-05,-0.000119511281148732
683,1734173418,570086717,-4.658699707114985e-05,0.25614099867393153,1.427299998459501,-0.7071067789778084,-4.619515028565586e-05,4.649609909115815e-06,0.7071067818710396,0,-1,-1.1746083394825746e-05,-1.570820156727926,-8.374849428349762e-05,-1.5706399122821253,3.5952674807049334e-05,-0.00013143221010381012
698,1734173418,585861444,-3.6965240475761865e-05,0.256140999324544,1.4272999986953125,-0.707106778221028,-3.338250885898009e-05,1.746225238102652e-05,0.7071067831484547,0,-1,1.1984225238848012e-05,-1.5707724730121058,-4.7985707418263246e-05,-1.5706399122821253,7.190534961409867e-05,-0.00015527406801396637
714,1734173418,602014303,-3.369900243755922e-05,0.25614099895852355,1.4272999996887321,-0.7071067773067031,-5.047697054568876e-05,2.5790169624782782e-05,0.7071067827944172,0,-1,-1.1746083394825746e-05,-1.570820156727926,-1.1746083394825746e-05,-1.5706399122821253,5.992112710373476e-05,-0.000119511281148732
730,1734173418,617894411,8.64030820021732e-06,0.2561410002362831,1.4272999988668833,-0.707106780651358,-7.813919450513225e-06,6.602074027742698e-07,0.7071067816782548,0,-1,1.1984225238848012e-05,-1.570796314870016,-7.18275653284195e-05,-1.5706761519061487,5.992112710373476e-05,-0.00014335313905888825
746,1734173418,633945703,-3.7863992575288935e-05,0.2561410011048321,1.4272999979566863,-0.7071067792305153,-3.35681563899534e-05,-1.6406753760975337e-05,0.7071067821554566,0,-1,0.0,-1.570808235798971,-4.7985707418263246e-05,-1.5706637541400355,3.5952674807049334e-05,-0.00015527406801396637
762,1734173418,649947643,-7.794392118079001e-05,0.2561409984218,1.4272999968587021,-0.7071067795006792,-4.1935708874066133e-05,-8.039201226410814e-06,0.7071067815831957,0,-1,-1.1746083394825746e-05,-1.570796314870016,-7.18275653284195e-05,-1.5706399122821253,3.5952674807049334e-05,-0.00014335313905888825
778,1734173418,665945529,-8.81807036081036e-06,0.25614100030456316,1.4272999985278347,-0.7071067797232589,-2.090172290794927e-05,-3.785078132715962e-06,0.7071067823307834,0,-1,-2.366701234990387e-05,-1.5707724730121058,-3.5587941304981996e-05,-1.5706399122821253,4.793690095539205e-05,-0.000119511281148732
794,1734173418,681907653,-5.099499372394546e-05,0.25614099846910554,1.4272999986478807,-0.7071067783776277,-4.183425690827261e-05,1.74846307444422e-05,0.7071067825417848,0,-1,0.0,-1.5707839171039026,-3.5587941304981996e-05,-1.5706399122821253,1.1984225238848012e-05,-0.00015527406801396637
810,1734173418,698180913,-8.671442943862912e-06,0.2561410003028409,1.4272999990320527,-0.7071067794247596,-2.9162505196647875e-05,-1.204586045457122e-05,0.7071067822443721,0,-1,0.0,-1.570808235798971,-3.5587941304981996e-05,-1.5706399122821253,2.3968450477696024e-05,-0.0001671949969690445
826,1734173418,713508605,7.62780222047611e-07,0.2561410001920257,1.4272999986756907,-0.7071067794202005,-2.090172287157502e-05,-3.7850781726499517e-06,0.7071067826338417,0,-1,0.0,-1.5707839171039026,-1.1746083394825746e-05,-1.5706399122821253,4.793690095539205e-05,-0.00013143221010381012
842,1734173418,729552984,-2.7003395434812257e-05,0.2561409999111992,1.4272999984802983,-0.7071067798962481,-2.5054590840210868e-05,3.6778982629828254e-07,0.7071067820328774,0,-1,-3.5587941304981996e-05,-1.5707600752459925,-3.5587941304981996e-05,-1.5706160704242151,4.793690095539205e-05,-0.00015527406801396637
858,1734173418,745508670,-3.7896458710939234e-06,0.2561410001562932,1.4272999989586397,-0.7071067792687286,-2.0693696831407826e-05,1.3202810015226135e-05,0.707106782678304,0,-1,0.0,-1.570808235798971,-4.7985707418263246e-05,-1.57060414949526,3.5952674807049334e-05,-0.000119511281148732
874,1734173418,761615753,9.143132270847468e-06,0.25614099991419637,1.427299999738219,-0.7071067786009505,-2.9207263036710922e-05,-1.2001102673133293e-05,0.707106783067095,0,-1,2.3968450477696024e-05,-1.570796314870016,-9.566942323857575e-05,-1.5706637541400355,2.3968450477696024e-05,-0.00013143221010381012
891,1734173418,777927398,4.2344627560172055e-05,0.2561410005304109,1.4272999990525885,-0.7071067760975447,-5.026362606681626e-05,9.055260499430943e-06,0.7071067844311119,0,-1,1.1984225238848012e-05,-1.5707839171039026,-7.18275653284195e-05,-1.5706399122821253,8.388957940042019e-05,-0.00014335313905888825
906,1734173418,793979644,-2.86937953949528e-05,0.25614099960224923,1.4272999983488541,-0.707106779931345,-2.0862284598767866e-05,1.3034222998823948e-05,0.7071067820138615,0,-1,0.0,-1.570808235798971,-1.1746083394825746e-05,-1.5706399122821253,2.3968450477696024e-05,-0.00015527406801396637
922,1734173418,809786319,-2.2116633086201602e-05,0.25614099983072314,1.4272999991157915,-0.7071067774629861,-4.1980466238584905e-05,8.86429555861906e-06,0.707106783608371,0,-1,-1.1746083394825746e-05,-1.570808235798971,-8.374849428349762e-05,-1.5706279913531702,3.5952674807049334e-05,-0.00017911592592412262
939,1734173418,826385259,-1.5877058843376956e-05,0.25614099983126415,1.4272999987810648,-0.7071067812712839,-2.494782047994632e-05,-7.831175474387702e-06,0.7071067806183473,0,-1,-1.1746083394825746e-05,-1.570796314870016,-1.1746083394825746e-05,-1.5706399122821253,4.793690095539205e-05,-0.00014335313905888825
954,1734173418,841923952,1.4063487975886933e-05,0.2561410005476235,1.4272999991624657,-0.7071067785028682,-2.0738454324966625e-05,3.010630694164361e-05,0.7071067829251976,0,-1,0.0,-1.5707600752459925,-5.990663637334137e-05,-1.5706399122821253,4.793690095539205e-05,-0.000119511281148732
970,1734173418,858548164,4.2820768362406246e-06,0.25614100015068775,1.427299998887742,-0.7071067792578595,-3.874396053258974e-06,1.3242248596608944e-05,0.7071067829806249,0,-1,-1.1746083394825746e-05,-1.570796314870016,-5.990663637334137e-05,-1.5706279913531702,2.3968450477696024e-05,-0.00014335313905888825
987,1734173418,873963594,1.3851141860549968e-05,0.2561409998595229,1.427299999359762,-0.7071067774818813,-1.253948860884791e-05,2.9999536036415252e-05,0.7071067841436527,0,-1,0.0,-1.570808235798971,-3.5587941304981996e-05,-1.57060414949526,4.793690095539205e-05,-0.00010759035219365387
1002,1734173418,890110731,-2.175573008949753e-05,0.2561410004101833,1.4272999986148402,-0.7071067791087502,-1.2494732108099854e-05,1.3096040160391571e-05,0.7071067830326792,0,-1,-1.1746083394825746e-05,-1.570820156727926,-4.7985707418263246e-05,-1.5706761519061487,2.3968450477696024e-05,-0.00015527406801396637
1019,1734173418,906029939,-4.9592291249456514e-05,0.25614100073715385,1.4272999979526204,-0.7071067789821478,-4.1997526086866444e-05,-1.6406753737965412e-05,0.7071067819534177,0,-1,1.1984225238848012e-05,-1.570808235798971,-4.7985707418263246e-05,-1.5706160704242151,3.5952674807049334e-05,-0.00013143221010381012
1034,1734173418,922326326,-3.145229834379454e-05,0.2561409995361322,1.4272999985953003,-0.7071067798344431,-2.929165431215885e-05,4.604853309071105e-06,0.7071067819169595,0,-1,1.1984225238848012e-05,-1.570796314870016,-7.18275653284195e-05,-1.5706399122821253,2.3968450477696024e-05,-0.00015527406801396637
1051,1734173418,938018798,-1.8801796330290597e-05,0.256141000009489,1.4272999987168122,-0.7071067801301929,-1.241053629456417e-05,1.301184438305897e-05,0.7071067820142736,0,-1,-2.366701234990387e-05,-1.5707839171039026,-1.1746083394825746e-05,-1.5706399122821253,4.793690095539205e-05,-0.00015527406801396637
1066,1734173418,954313278,-3.023163502512121e-05,0.2561410005560887,1.4272999982526624,-0.7071067797232587,-2.0901722907949274e-05,-3.785078132715961e-06,0.7071067823307834,0,-1,2.3968450477696024e-05,-1.5707839171039026,-3.5587941304981996e-05,-1.5706637541400355,4.793690095539205e-05,-0.00010759035219365387
1083,1734173418,970030784,2.1537655873386357e-05,0.25614099947310076,1.427299999447097,-0.707106778183709,4.6411831576488375e-07,1.7670278630698932e-05,0.7071067839684475,0,-1,-1.1746083394825746e-05,-1.570796314870016,-4.7985707418263246e-05,-1.5706279913531702,2.3968450477696024e-05,-0.00014335313905888825
1098,1734173418,986299753,-6.233099590084365e-05,0.25614100088678377,1.4272999971709752,-0.7071067785172234,-4.621221090220462e-05,-2.0621438617523488e-05,0.707106782045104,0,-1,-2.366701234990387e-05,-1.570808235798971,-3.5587941304981996e-05,-1.5706279913531702,3.5952674807049334e-05,-0.00014335313905888825
1115,1734173419,2078771,-4.735824471698416e-05,0.2561410001833154,1.4272999976786487,-0.7071067790272495,-3.769864502941307e-05,-1.2276265088815593e-05,0.7071067822343483,0,-1,1.1984225238848012e-05,-1.570808235798971,-5.990663637334137e-05,-1.5706160704242151,3.5952674807049334e-05,-0.00015527406801396637
1130,1734173419,18009662,1.9850560857101184e-05,0.25614100002078677,1.4272999988055337,-0.707106780627945,4.76831785953503e-06,4.9367094904759165e-06,0.7071067817118397,0,-1,-2.366701234990387e-05,-1.5707724730121058,-8.374849428349762e-05,-1.5706637541400355,1.1984225238848012e-05,-0.00014335313905888825
1147,1734173419,34080743,-5.5197335329357835e-05,0.25614099949386515,1.4272999973840743,-0.7071067777831584,-5.881682680040478e-05,-1.6446192362926774e-05,0.7071067819525015,0,-1,1.1984225238848012e-05,-1.570796314870016,-9.566942323857575e-05,-1.5706279913531702,4.793690095539205e-05,-0.00015527406801396637
1162,1734173419,49945831,-3.8162452385035504e-05,0.2561409997443617,1.4272999987439394,-0.7071067789401895,-4.1935708502585394e-05,-8.03920159734474e-06,0.7071067821436855,0,-1,-2.366701234990387e-05,-1.570796314870016,-2.366701234990387e-05,-1.5706399122821253,3.5952674807049334e-05,-0.00013143221010381012
1178,1734173419,66228151,-1.2687451461779584e-05,0.2561409998927109,1.4272999992129412,-0.7071067788750607,-3.759719313960664e-05,1.3247566961634432e-05,0.7071067823744085,0,-1,1.1984225238848012e-05,-1.570796314870016,-7.18275653284195e-05,-1.57060414949526,4.793690095539205e-05,-0.00014335313905888825
1195,1734173419,81878900,-1.904698164981175e-05,0.2561410000773801,1.4272999991157915,-0.7071067784007443,-2.0884663462934462e-05,2.1485971537295023e-05,0.7071067833374988,0,-1,1.1984225238848012e-05,-1.5707724730121058,-4.7985707418263246e-05,-1.5706637541400355,3.5952674807049334e-05,-0.00015527406801396637
1210,1734173419,98152875,-5.050324715970077e-05,0.25614099964943454,1.4272999971038265,-0.7071067799473827,-3.7676266812070074e-05,-2.072801300145782e-05,0.7071067811181648,0,-1,-2.366701234990387e-05,-1.570796314870016,-3.5587941304981996e-05,-1.5706399122821253,0.0,-0.000119511281148732
1226,1734173419,113864183,-9.477927172395948e-06,0.2561410000045496,1.4272999990030415,-0.7071067767929495,-3.338250811004013e-05,1.7462251578156592e-05,0.7071067845765332,0,-1,2.3968450477696024e-05,-1.5707839171039026,-4.7985707418263246e-05,-1.5706399122821253,0.0,-0.00015527406801396637
1242,1734173419,130290031,-3.418168046319244e-05,0.2561409996133024,1.427299999067769,-0.7071067773098967,-5.043221363601157e-05,8.886673266307095e-06,0.7071067832088949,0,-1,-1.1746083394825746e-05,-1.5707839171039026,-7.18275653284195e-05,-1.5706279913531702,3.5952674807049334e-05,-0.00017911592592412262
1259,1734173419,146046400,1.1956743746430224e-06,0.25614100028554865,1.4272999986764503,-0.7071067793163677,-1.2455293140045544e-05,2.991534065468778e-05,0.7071067823142214,0,-1,3.5952674807049334e-05,-1.570796314870016,-5.990663637334137e-05,-1.5706761519061487,4.793690095539205e-05,-0.0001671949969690445
1275,1734173419,161843299,-3.6508895073081974e-05,0.2561409997178316,1.4272999986765422,-0.7071067789757203,-2.5099348022201266e-05,1.727128642023183e-05,0.7071067827409855,0,-1,-1.1746083394825746e-05,-1.570796314870016,-3.5587941304981996e-05,-1.5706399122821253,4.793690095539205e-05,-0.00013143221010381012
1291,1734173419,178345203,-4.7444843147562377e-05,0.25614100133158224,1.4272999974069647,-0.7071067794219508,-3.778284126521924e-05,-2.0621438571503625e-05,0.7071067816410261,0,-1,0.0,-1.570796314870016,-5.990663637334137e-05,-1.5706637541400355,7.190534961409867e-05,-0.000119511281148732
1307,1734173419,194077968,-4.513058798286253e-06,0.2561410003949667,1.427299998924877,-0.707106780330446,-1.2281387548216295e-05,-1.206823870952922e-05,0.7071067818330096,0,-1,0.0,-1.570796314870016,-7.18275653284195e-05,-1.5706279913531702,3.5952674807049334e-05,-0.000119511281148732
1323,1734173419,210283279,-2.239093892273222e-05,0.25614099988702443,1.4272999990878985,-0.7071067788135558,-2.9314032859642295e-05,1.3056601559595409e-05,0.7071067828313696,0,-1,0.0,-1.570808235798971,-5.990663637334137e-05,-1.5706399122821253,4.793690095539205e-05,-0.00017911592592412262
1339,1734173419,226093292,9.177672796528869e-06,0.2561409998590773,1.4272999996029774,-0.7071067770889182,-3.327573800097622e-05,8.339167760300373e-07,0.7071067845007236,0,-1,-2.366701234990387e-05,-1.570820156727926,-2.366701234990387e-05,-1.5706279913531702,3.5952674807049334e-05,-0.00015527406801396637
1355,1734173419,242269754,-3.819929502720878e-05,0.2561409992949656,1.427299998571442,-0.7071067784231694,-3.355109628384227e-05,1.7293665013005026e-05,0.7071067829424774,0,-1,0.0,-1.5707724730121058,-7.18275653284195e-05,-1.5706399122821253,3.5952674807049334e-05,-0.00013143221010381012
1371,1734173419,258260011,-1.5493790574594995e-05,0.2561410003829767,1.4272999986673478,-0.7071067797221607,-2.073313551359874e-05,-3.6164907391259e-06,0.707106782337727,0,-1,3.5952674807049334e-05,-1.5707839171039026,-7.18275653284195e-05,-1.5706518332110804,2.3968450477696024e-05,-0.00013143221010381012
1387,1734173419,273941278,4.244855855802436e-06,0.25614100021071357,1.4272999988465573,-0.7071067810497663,1.7204346356649185e-05,8.898611134554684e-06,0.70710678105804,0,-1,2.3968450477696024e-05,-1.570796314870016,-1.1746083394825746e-05,-1.5706518332110804,4.793690095539205e-05,-0.000119511281148732
1403,1734173419,290024042,-4.451153911071711e-05,0.25614099966827286,1.427299997807435,-0.7071067789401896,-4.193570850258538e-05,-8.039201597344736e-06,0.7071067821436854,0,-1,2.3968450477696024e-05,-1.570796314870016,-8.374849428349762e-05,-1.5706637541400355,2.3968450477696024e-05,-0.00015527406801396637
1419,1734173419,306035995,-2.826001011003373e-05,0.2561409993858034,1.4272999986613335,-0.7071067803493664,-2.9123066637993198e-05,4.773440414384716e-06,0.7071067814078821,0,-1,2.3968450477696024e-05,-1.570796314870016,-3.5587941304981996e-05,-1.5706518332110804,5.992112710373476e-05,-0.00014335313905888825
1434,1734173419,321841239,-4.8691266013146845e-05,0.2561409996711497,1.4272999978655974,-0.7071067804070206,-2.5032212264093276e-05,-8.083958457078703e-06,0.7071067814767834,0,-1,-1.1746083394825746e-05,-1.5707724730121058,-4.7985707418263246e-05,-1.5706399122821253,4.793690095539205e-05,-9.566942323857575e-05
1451,1734173419,338171243,1.6841907308722748e-05,0.2561410002362831,1.4272999988055337,-0.7071067805861748,9.044819947790197e-06,1.751894681098824e-05,0.7071067815120521,0,-1,1.1984225238848012e-05,-1.570796314870016,-2.366701234990387e-05,-1.5706518332110804,4.793690095539205e-05,-0.0001671949969690445
1467,1734173419,354247331,-1.5743941172403916e-05,0.2561410001833154,1.4272999984459303,-0.7071067795315623,-1.645663339574164e-05,8.965746559263873e-06,0.707106782593193,0,-1,1.1984225238848012e-05,-1.570808235798971,-4.7985707418263246e-05,-1.5706399122821253,7.190534961409867e-05,-0.00015527406801396637
1482,1734173419,370409727,-2.8938980716739724e-05,0.2561409997489626,1.4272999987478334,-0.7071067777006486,-3.77657814089689e-05,1.3078980423961245e-05,0.707106783542975,0,-1,-1.1746083394825746e-05,-1.5707839171039026,-7.18275653284195e-05,-1.5706279913531702,3.5952674807049334e-05,-0.00015527406801396637
1499,1734173419,386530160,3.6565072009757105e-05,0.2561410006928809,1.4272999982913999,-0.7071067805500909,-7.836298051057185e-06,9.111955712353372e-06,0.7071067817208729,0,-1,-1.1746083394825746e-05,-1.570796314870016,-7.18275653284195e-05,-1.5706279913531702,7.190534961409867e-05,-0.0001671949969690445
1515,1734173419,401858806,-2.7422898273863867e-05,0.25614099992603456,1.4272999988214266,-0.7071067805465864,-2.0648940023097248e-05,-3.700686210237519e-06,0.7071067815153295,0,-1,0.0,-1.5707724730121058,-2.366701234990387e-05,-1.5706637541400355,3.5952674807049334e-05,-0.00013143221010381012
1530,1734173419,418694257,-2.1594743889303787e-05,0.25614100023628306,1.427299998547321,-0.7071067807370237,-3.767822003062372e-06,4.7063048692392046e-06,0.7071067816103709,0,-1,-2.366701234990387e-05,-1.5707839171039026,-2.366701234990387e-05,-1.5706279913531702,4.793690095539205e-05,-0.00013143221010381012
1547,1734173419,434080362,-5.5730797427731425e-06,0.25614100029955206,1.4272999990076156,-0.7071067801890492,-8.066702680147267e-06,5.758158322918599e-07,0.7071067821377988,0,-1,1.1984225238848012e-05,-1.570796314870016,-7.18275653284195e-05,-1.5706399122821253,4.793690095539205e-05,-0.00014335313905888825
1563,1734173419,450142860,-0.00014315995425109672,0.2561409945993682,1.4272999873182783,-0.7071067745805094,-0.00011378675896441804,-3.623108396351885e-06,0.7071067786280903,0,-1,2.3968450477696024e-05,-1.5707839171039026,-0.00023919740785771637,-1.5706279913531702,0.00015579492901451886,-8.374849428349762e-05
1579,1734173419,465882301,-0.0002484810616379088,0.2561409873367897,1.4272999562232973,-0.707106768251777,-0.00019032393747805114,4.695161282979303e-05,0.7071067669488623,0,-1,7.190534961409867e-05,-1.5707600752459925,-0.000634495412008107,-1.5705083052264612,0.0004909787094220519,-2.366701234990387e-05
1595,1734173419,482081890,-0.0005933680315867554,0.256140921484096,1.4272997491328372,-0.7071067711069591,-0.0004232690725031077,0.00014449740192017628,0.7071066498191654,0,-1,0.00017976337403524667,-1.5707724730121058,-0.0012810865985315445,-1.5702927748309534,0.001006300444714725,0.00016777915880084038
1610,1734173419,497863054,-0.0012709899428388618,0.256140646030735,1.427298958348916,-0.7071067943535133,-0.000846544436136371,0.000271775148268634,0.7071062090519956,0,-1,0.00026327845989726484,-1.5707600752459925,-0.0023110548602502945,-1.5700410048114222,0.0018088689539581537,0.00044341632747091353
1627,1734173419,514150381,-0.0022578689618159755,0.2561399447056985,1.427296707091839,-0.7071069665371262,-0.00148964866121417,0.0004496001535219832,0.7071048837911047,0,-1,0.00046663577086292207,-1.5707724730121058,-0.0037835280047815445,-1.5696929136859339,0.00305447936989367,0.0008385212859138846
1643,1734173419,529906034,-0.0036361466044387072,0.256138393402801,1.427291609200453,-0.707107408502296,-0.0023658787985270323,0.0006659954382349437,0.7071018822692766,0,-1,0.0007179299718700349,-1.5708683172809046,-0.005807224904195607,-1.5692732969867151,0.004551758524030447,0.0013055315939709544
1658,1734173419,546195983,-0.005475049160221329,0.25613501390628696,1.4272812582148475,-0.7071081875569675,-0.003534391509477741,0.0009203192704544148,0.7070959426973108,0,-1,0.0010531138395890594,-1.5709884802447718,-0.008273903523580373,-1.5687697569476526,0.006552000530064106,0.0019523052033036947
1675,1734173419,561937808,-0.007770974174678605,0.2561292286466945,1.4272625956885079,-0.7071097616834631,-0.0050330918029795335,0.0012593853310426174,0.7070847663946995,0,-1,0.0013403607299551368,-1.5711801687823694,-0.011243168507711232,-1.5681818167315882,0.009043595753610134,0.002730530919507146
1690,1734173419,578190088,-0.010492905627229852,0.2561201660849317,1.427232250002689,-0.7071125818522788,-0.006777093418422627,0.0016324559401908586,0.7070666182748312,0,-1,0.0017354656010866165,-1.5713956991778772,-0.014763657246724904,-1.5675104300128382,0.011858390644192696,0.003640957409515977
1707,1734173419,593953371,-0.013741758361567684,0.25610652212496743,1.4271851877101562,-0.7071169274902145,-0.008821643354944297,0.0020438039178995054,0.7070386498140411,0,-1,0.0022264444269239902,-1.5716241041766565,-0.01877481142152959,-1.5667193571673792,0.015008743852376938,0.004658867605030537
1722,1734173419,610209226,-0.017369451530636976,0.2560852983755062,1.427117753842554,-0.7071226290672903,-0.011136613488424957,0.0025311450569138485,0.7069986963253,0,-1,0.0027646110393106937,-1.5719593206988733,-0.023025337849752248,-1.5658319632159632,0.01864970102906227,0.0057726516388356686
1739,1734173419,625938177,-0.021208780031800063,0.25605886132669675,1.4270293050982743,-0.7071305733209494,-0.01356653155182146,0.003047552451504789,0.7069462595703397,0,-1,0.0033151363022625446,-1.5722716490374964,-0.027802769337789357,-1.5648487249957483,0.02241087518632412,0.006970325019210577
1754,1734173419,642195463,-0.02532427473150667,0.2560236709167598,1.426914631420239,-0.707140133553887,-0.016211429568356826,0.0036027501822068903,0.706878377982992,0,-1,0.0039016143418848515,-1.5726435820208948,-0.03279620805849248,-1.5638774077044886,0.02648364007472992,0.008203576318919659
1771,1734173419,657898426,-0.029750955351783286,0.2559797730470339,1.426769181714161,-0.7071527111632657,-0.019046689929465566,0.004187004000604931,0.7067918616499999,0,-1,0.004559623077511787,-1.5729668776141565,-0.03798038164247686,-1.5627740065204065,0.03077174536883831,0.009461170993745327
1787,1734173419,674168348,-0.03430621508334027,0.255926201968984,1.4265964248794252,-0.7071666055045379,-0.021940763262670485,0.004787750893930359,0.7066902237954183,0,-1,0.005218006670475006,-1.5732911268817347,-0.04333240190614873,-1.5616114775287073,0.03508419543504715,0.01080265548080206
1803,1734173419,689928770,-0.03888542659922061,0.2558639389665142,1.4263967318899902,-0.7071835205271689,-0.024846878057497426,0.0054690814544620095,0.7065721407567945,0,-1,0.005912342574447393,-1.5736506620990198,-0.048792664204732716,-1.5603888670550745,0.03922811523079872,0.012227654457092285
1818,1734173419,706278562,-0.043498799403213696,0.25579459999750925,1.426170204876934,-0.7072035214191653,-0.027727263456673756,0.0061500532979764716,0.7064393498368904,0,-1,0.006618288345634937,-1.5739505926715296,-0.054264370595113576,-1.559152905141012,0.043947651982307434,0.013688981533050537
1835,1734173419,721983909,-0.04811313287815988,0.2557151580795018,1.4259166672376693,-0.7072263706411706,-0.030686914869189577,0.006894083731023763,0.7062872259463839,0,-1,0.007264687679708004,-1.5742386023150843,-0.059820000325338185,-1.557906452809469,0.04851139336824417,0.015137949027121067
1851,1734173419,738264083,-0.052808747518835256,0.25562805035876357,1.425633228507659,-0.707252742707839,-0.033658960539860935,0.007616228138550545,0.7061179967799693,0,-1,0.007899102754890919,-1.5745504538165491,-0.0653155485736292,-1.5566957632647913,0.05308712273836136,0.016647212207317352
1867,1734173419,754020214,-0.057313719212746334,0.25553646588537693,1.4253345705658569,-0.7072807707171351,-0.036562607598119766,0.00837176302838039,0.705936966508482,0,-1,0.008521158248186111,-1.5748260656939905,-0.07072717348207647,-1.5555561224566858,0.05760330334305763,0.01810816489160061
1882,1734173419,770303487,-0.061733363595721284,0.2554419131067343,1.425017209729031,-0.7073120588220821,-0.03938065083089136,0.009059168588741435,0.7057455258444673,0,-1,0.00917954184114933,-1.5751021544085901,-0.0759356657611292,-1.5543931166278284,0.061963312327861786,0.01950956881046295
1899,1734173419,786070346,-0.06604947034245037,0.25533965681946824,1.4246853956250627,-0.7073436656826012,-0.04213435385672564,0.009775876938099871,0.705545226809641,0,-1,0.009766019880771637,-1.5753539244281214,-0.08098823228944951,-1.5532782713519495,0.06613194942474365,0.020886631682515144
1914,1734173419,802341938,-0.07024117139734447,0.25523435361183533,1.424342172299706,-0.7073753270837927,-0.04481543681552767,0.010428608922735545,0.7053389024944445,0,-1,0.010340513661503792,-1.5756295363055628,-0.08595687547792608,-1.5521987120257776,0.0701931044459343,0.022168194875121117
1931,1734173419,818078756,-0.07432468781481913,0.2551262927266438,1.4239872654712011,-0.7074085240824719,-0.04742889579557117,0.011038201959232429,0.7051254058652112,0,-1,0.01087905466556549,-1.575869385396139,-0.09074622789491826,-1.5511320273028772,0.07407374680042267,0.023425789549946785
1946,1734173419,833837270,-0.07825838933523487,0.25501788238604717,1.423625207420126,-0.7074418640694181,-0.04991420089016385,0.011614206353460414,0.7049111232788587,0,-1,0.01141759566962719,-1.5761092344867151,-0.09543973604311162,-1.550196949635641,0.07789521664381027,0.024587510153651237
1963,1734173419,850386142,-0.08195307366535613,0.25490815803855865,1.4232665876792367,-0.707474838974429,-0.052331114084819136,0.01220663705160786,0.7046927023381452,0,-1,0.01190857496112585,-1.5763371626483362,-0.09983331361879522,-1.549189869557516,0.0815245658159256,0.02572488784790039
1979,1734173419,866528272,-0.0855907004854819,0.25479922906991703,1.422897616119321,-0.7075103153585314,-0.05463811538758454,0.012755854604567803,0.7044722266927714,0,-1,0.012410788796842098,-1.5765412489520472,-0.10414344469179326,-1.5482061545001429,0.08504680544137955,0.02686264179646969
1995,1734173419,882218599,-0.08923222907715848,0.254683282008488,1.4225148488486812,-0.7075469183915897,-0.05693144224989314,0.013283541682618945,0.7042440746490369,0,-1,0.012949704192578793,-1.5767448584186,-0.10847789445985967,-1.547319237385885,0.08859226107597351,0.028000393882393837
2010,1734173419,897908687,-0.092749087149089,0.2545659591580123,1.4221249304022219,-0.7075824180495486,-0.05922377893550966,0.013819701834669984,0.7040090067015853,0,-1,0.013404356315732002,-1.5770085493670862,-0.1127999464618128,-1.5463598410235804,0.09216206520795822,0.029102567583322525
2027,1734173419,914093494,-0.09633748740236084,0.25443797400570106,1.4217143582269982,-0.7076202659024714,-0.06152831449032611,0.01443514854854441,0.7037609340439952,0,-1,0.013990834355354309,-1.577188793812887,-0.11722976366151983,-1.5452926794635218,0.09571988135576248,0.030252303928136826
2042,1734173419,929846048,-0.10001426409400416,0.2543036998375017,1.4212758424416878,-0.7076606600772161,-0.06387378625524173,0.015008042019934345,0.70349931647673,0,-1,0.01454135961830616,-1.5774286429034632,-0.12182742754091436,-1.5442736784564417,0.09940914809703827,0.03141402453184128
2058,1734173419,946139335,-0.10387743590990556,0.2541606480400844,1.4207984276805963,-0.7077027986592287,-0.06634880949107477,0.015524643550807612,0.7032165880378766,0,-1,0.015067916363477707,-1.5776680151568812,-0.12646085420717412,-1.543314282094137,0.10320702195167542,0.032587356865406036
2075,1734173419,962013244,-0.10787322423126071,0.25399892633544396,1.4202881355237498,-0.7077481375158745,-0.06891124019869352,0.01611179124183918,0.7029112497321893,0,-1,0.015654394403100014,-1.5779560248004358,-0.13138133684267217,-1.542307202016012,0.10720787942409515,0.03383296728134155
2091,1734173419,978272199,-0.11196987186528796,0.2538327353131925,1.4197442572553358,-0.7077975858494713,-0.07153131101590456,0.016723659133180926,0.702585345872801,0,-1,0.01626446656882763,-1.5782917181598108,-0.13628989854921514,-1.5412762800799769,0.11123308539390564,0.03515048325061798
2107,1734173419,993943691,-0.11624867566715513,0.2536569840112192,1.4191569438912073,-0.7078516874955466,-0.07425532476427217,0.017253251839165915,0.7022353313205152,0,-1,0.016886897385120392,-1.5786040464984339,-0.14135438600649053,-1.5402448813067835,0.11526989936828613,0.036479607224464417
2122,1734173420,10246753,-0.12058974145499624,0.2534697307868495,1.4185380384874209,-0.7079072363934428,-0.07701532550067859,0.017837222413252078,0.7018673790655917,0,-1,0.017557265236973763,-1.5789874235736292,-0.14656240144838506,-1.5392258802997034,0.1194269210100174,0.037797123193740845
2139,1734173420,25881767,-0.1249817645480316,0.25326952693494553,1.4178904827510617,-0.7079632543755319,-0.0797868283777442,0.018407198796222497,0.7014864699364506,0,-1,0.01816733554005623,-1.5793116728412073,-0.1517704168902796,-1.5380991140948694,0.12372738867998123,0.03910265490412712
2154,1734173420,42258977,-0.1293050258233543,0.25306997362089967,1.4172213728473497,-0.7080260144414514,-0.08259377182836178,0.019031162718124012,0.7010814835487488,0,-1,0.018813734874129295,-1.5795753637896937,-0.15702611604799444,-1.5370200316058558,0.1279802918434143,0.04037223383784294
2171,1734173420,57995557,-0.1337688949069238,0.2528515634018895,1.4165105297132425,-0.7080832666739975,-0.08547525565686118,0.019560698377608546,0.700663576337214,0,-1,0.019448524340987206,-1.5799348990069788,-0.16230565706361944,-1.535940949116842,0.1322687715291977,0.04176127910614014
2186,1734173420,74233293,-0.1381828704828349,0.25262641572933126,1.4157832924756368,-0.7081503996691816,-0.08829967794668578,0.020236699514888483,0.7002261451242976,0,-1,0.020070206373929977,-1.5802348295794886,-0.1675494352923792,-1.5348017851458948,0.13659358024597168,0.04311474785208702
2203,1734173420,90134620,-0.14256641955461252,0.2523974278331605,1.4150377318295866,-0.7082170690476307,-0.09114361176978057,0.020890623283753372,0.6997749688306658,0,-1,0.020693011581897736,-1.5805347601519983,-0.1727812925921839,-1.5336983839618128,0.14098991453647614,0.04445585981011391
2219,1734173420,105899572,-0.14690064468489247,0.2521684564037793,1.4142760838609698,-0.7082896119442357,-0.09389696014549687,0.021547540580792814,0.699317445787132,0,-1,0.02132742665708065,-1.5809186140643519,-0.17809659639467412,-1.5325239340411585,0.14536266028881073,0.045833293348550797
2235,1734173420,122163534,-0.1513142361639395,0.2519210976938009,1.413475919255969,-0.7083624450801954,-0.09674915755971635,0.0222027500186493,0.6988342327069428,0,-1,0.02197345159947872,-1.5811823050128382,-0.1833403746234339,-1.5314086119281214,0.14967511594295502,0.047270651906728745
2251,1734173420,137766599,-0.15568952455705823,0.2516775189906035,1.4126529178598988,-0.7084422398107028,-0.0995192686926809,0.022826759209153013,0.6983440749908859,0,-1,0.022547945380210876,-1.5815299193011683,-0.18865615526308233,-1.5302336851703089,0.15393999218940735,0.048671308904886246
2266,1734173420,153821229,-0.1600514471065413,0.25142753380628424,1.41181299947143,-0.7085228647500494,-0.10226621093599884,0.023462791062802437,0.6978441585789196,0,-1,0.023194344714283943,-1.5818060080157679,-0.19392377534975225,-1.5290826002704065,0.15818090736865997,0.05003676190972328
2283,1734173420,170023918,-0.1643854493218183,0.2511671196336799,1.410958057693489,-0.7085994516072118,-0.10500362520617654,0.024063256401541742,0.6973392399448586,0,-1,0.023804791271686554,-1.5821417013751429,-0.19903594652284795,-1.5279315153705042,0.16233794391155243,0.05140221491456032
2298,1734173420,185733079,-0.1685283275197699,0.250911479434902,1.4101157301939948,-0.7086794521912654,-0.10762966484574171,0.02468897794189401,0.6968355212352956,0,-1,0.024402879178524017,-1.5824530760394495,-0.20409995714296514,-1.5268524328814905,0.16644702851772308,0.05275530740618706
2315,1734173420,202095270,-0.17279561532469465,0.25064120590653494,1.409231875361385,-0.7087623801968768,-0.11032083783546205,0.025312151183156644,0.6963077596576248,0,-1,0.02498973160982132,-1.5827654043780726,-0.2091282049762171,-1.525677506123678,0.17062802612781525,0.05410877615213394
2330,1734173420,217868328,-0.17693153034341252,0.25036802909008304,1.4083446115811917,-0.7088413892724933,-0.1129975987369658,0.025922225535336827,0.6957754420480909,0,-1,0.025611788034439087,-1.5830772558795374,-0.21414405504335576,-1.5246341864215296,0.17471352219581604,0.055402323603630066
2347,1734173420,234001398,-0.18102452094850952,0.2500985003964986,1.4074407414839125,-0.7089232451325783,-0.11564301464500736,0.02649307784227914,0.6952356740709956,0,-1,0.02623421885073185,-1.5833290258990687,-0.2191842238055628,-1.5235312620746058,0.178798645734787,0.05667153000831604
2362,1734173420,249786376,-0.185158366251992,0.24981492460173976,1.4065097760722651,-0.7090067076886247,-0.11832361910776376,0.02706652032393964,0.6946772006416589,0,-1,0.02683268114924431,-1.5836289564715784,-0.22424823442567998,-1.5224526564227503,0.1829436868429184,0.05794110894203186
2379,1734173420,266016721,-0.1892586630394291,0.24952953630749547,1.4055670039870678,-0.7090994439898538,-0.12090919080187232,0.027739786660685623,0.6941105462020704,0,-1,0.02739519067108631,-1.5838807264911097,-0.22919255891908819,-1.5213730970965784,0.1870531588792801,0.05928259342908859
2394,1734173420,282251119,-0.19329865296265417,0.24924265827462044,1.4046098166209013,-0.7091864772550531,-0.12356462529644441,0.028297447475890043,0.693531238171913,0,-1,0.02795732580125332,-1.584132496510641,-0.23420840898622686,-1.520318333302633,0.19113828241825104,0.06052820384502411
2411,1734173420,297960758,-0.19733403796654025,0.24893628994214384,1.4036400965567677,-0.7092722830817964,-0.12617600764459747,0.028938358743242708,0.6929466176698275,0,-1,0.028603723272681236,-1.584468189870016,-0.23922425905336553,-1.519214932118551,0.19525973498821259,0.061857327818870544
2426,1734173420,314252853,-0.2014065066005356,0.24862868353762374,1.4026315997500725,-0.7093637529629028,-0.128830796919467,0.029522250098803562,0.6923396048880813,0,-1,0.02923813834786415,-1.5847199598895472,-0.24425250688661748,-1.5181601683246058,0.199404776096344,0.06309095025062561
2443,1734173420,330016613,-0.20557419429666884,0.2483218877440866,1.4015817647914857,-0.7094598910498151,-0.13154481596966436,0.030074326095368985,0.691706700338374,0,-1,0.029812632128596306,-1.5849960486041468,-0.2492921988116663,-1.5171173254596155,0.20355018973350525,0.06438449770212173
2458,1734173420,346326351,-0.20967593934475884,0.24799835603379478,1.4005223130759064,-0.7095553718472472,-0.13421083803150774,0.0306459440237479,0.6910712346440767,0,-1,0.030399110168218613,-1.5853079001056116,-0.2543681303607386,-1.5160258452044886,0.2076476812362671,0.06572560966014862
2475,1734173420,362456560,-0.2137067704898948,0.2476772403654001,1.399456878715906,-0.709653221687144,-0.13680342706313448,0.03120410192607061,0.6904371306033782,0,-1,0.031021540984511375,-1.5856316725360315,-0.2594559828387659,-1.514947239552633,0.21172118186950684,0.06700717657804489
2491,1734173420,377996444,-0.2179050801179669,0.2473385653098758,1.398341259318506,-0.7097533657611811,-0.1394719698189528,0.03173761978266622,0.6897756540470438,0,-1,0.031655583530664444,-1.585895840321676,-0.2644723097430628,-1.513819996510641,0.21574638783931732,0.06830072402954102
2507,1734173420,394101619,-0.22193968129917638,0.2470030387970263,1.3972307196730827,-0.709856239536563,-0.14207188728525902,0.03233838077020381,0.6891109686860133,0,-1,0.0322420597076416,-1.5861833731280726,-0.26950008073915654,-1.5127289930926722,0.2198079228401184,0.06957030296325684
2522,1734173420,410184621,-0.22597405303707943,0.24665155494407742,1.396102727925249,-0.7099514152335945,-0.14471542900176207,0.032899453495325824,0.68843595096157,0,-1,0.032840896397829056,-1.586470905934469,-0.2745278517352503,-1.5116856733905237,0.22388143837451935,0.07086347043514252
2539,1734173420,426311016,-0.2299998879822193,0.2463125034215883,1.3949545651575739,-0.7100579369089977,-0.14731816473260467,0.03342957563278421,0.6877481719680301,0,-1,0.03340303152799606,-1.5867107550250452,-0.2795913855182093,-1.5105708281146448,0.22796693444252014,0.07210908085107803
2555,1734173420,441842317,-0.2339678373017789,0.24596567691362403,1.3937944515543377,-0.7101598287230346,-0.14991870698914211,0.034009037792457904,0.6870522427815844,0,-1,0.03397752717137337,-1.5869625250445765,-0.2845237890826624,-1.5095160643206995,0.23212432861328125,0.073366679251194
2571,1734173420,457981348,-0.23790398510807398,0.2456175564187148,1.3926224455903713,-0.7102761578081763,-0.15250657411376076,0.03463586416101455,0.6863307376295762,0,-1,0.03459995612502098,-1.587203327809469,-0.28955156007875615,-1.5084131399737757,0.2362218201160431,0.07468419522047043
2587,1734173420,474078416,-0.24182801398847953,0.24525316439077552,1.3914350074922193,-0.710384725504655,-0.1550596834418301,0.03523633053400706,0.685615371291436,0,-1,0.03516246750950813,-1.5874908606158655,-0.2944710890399378,-1.5073335806476038,0.24030731618404388,0.0759657546877861
2603,1734173420,490095376,-0.24580312491686665,0.24488522213754482,1.3902198781833495,-0.710497019221423,-0.15765484975339228,0.03581321516561822,0.6848768850284036,0,-1,0.03573695942759514,-1.5877421537982386,-0.2993434111224573,-1.5062788168536585,0.244464710354805,0.07728289812803268
2618,1734173420,506063938,-0.24972616618149812,0.24450656294190723,1.3889865476096857,-0.7106149582315195,-0.16023057452410933,0.036437711827666495,0.68412340793314,0,-1,0.03633542358875275,-1.5879705587970179,-0.3044069449054163,-1.505223576222555,0.2485741823911667,0.07868430018424988
2635,1734173420,521900653,-0.25369201479845777,0.2441351197798971,1.387712794122021,-0.7107410457277644,-0.1627975877210944,0.03701413685901881,0.6833550065833851,0,-1,0.03692152723670006,-1.5882580916034144,-0.3095310370074671,-1.5041807333575647,0.2526476979255676,0.08002578467130661
2651,1734173420,538021564,-0.2577020769977081,0.24373870351712024,1.3864106781805658,-0.7108637243893428,-0.16540739453033385,0.03758282942873033,0.6825691833903212,0,-1,0.037555940449237823,-1.5884855429278772,-0.31460649171938115,-1.5030773321734827,0.2567814886569977,0.08133094757795334
2666,1734173420,554169654,-0.26177347034991333,0.24333070861685896,1.385066354238839,-0.7109806161894755,-0.16806880548980965,0.03809474978133328,0.6817684578089248,0,-1,0.03819035366177559,-1.5887616316424769,-0.31967002550234014,-1.501998249684469,0.2608913481235504,0.08263647556304932
2683,1734173420,570084333,-0.2656932100845658,0.24292475120973145,1.3837434292597561,-0.7111045707414135,-0.17065624567010118,0.03867683884696128,0.6809631689168381,0,-1,0.038812410086393356,-1.5890854040728968,-0.32470971742738897,-1.5009797255145472,0.2650008201599121,0.0839659795165062
2699,1734173420,586429834,-0.26973193495268505,0.24252323944358856,1.3823735777267214,-0.7112341551864374,-0.173260298145495,0.03920162137139641,0.6801397492167491,0,-1,0.03938690572977066,-1.5893858114825647,-0.32966548601259404,-1.4999364058123987,0.2691102623939514,0.08527150750160217
2715,1734173420,601910591,-0.27367290887406537,0.24210052683941935,1.3810062254853028,-0.7113577317026372,-0.17585798031624297,0.039779308960129156,0.6793097635722788,0,-1,0.04000971093773842,-1.5896614233600062,-0.3346455732928675,-1.4988096396075647,0.2732081413269043,0.08661261945962906
2730,1734173420,617862462,-0.27763185836269455,0.24167695994375565,1.3796210978027494,-0.7114805799918263,-0.17844513800382997,0.04034761017782614,0.6784723924893529,0,-1,0.040619783103466034,-1.589961353932516,-0.3396971861468714,-1.4976828734027308,0.2773415744304657,0.08784624189138412
2747,1734173420,634066581,-0.2815376571880515,0.24124687447481946,1.3782197033509465,-0.7116033600849478,-0.1809995671804339,0.04093524518484728,0.6776312568779307,0,-1,0.04118229076266289,-1.5901888052569788,-0.34472400346864873,-1.4965913931476038,0.2814633846282959,0.08911582082509995
2762,1734173420,649810314,-0.28537354852912944,0.2408211462442833,1.3768162042253775,-0.7117408314985756,-0.18350429073000998,0.041514638695809326,0.6767774367067424,0,-1,0.041828691959381104,-1.5904768149005335,-0.3497517744647425,-1.495476547871725,0.28551292419433594,0.09044532477855682
2779,1734173420,665981769,-0.2893229929994876,0.24038707187107894,1.3753517046705284,-0.7118679354791593,-0.18610126514347977,0.04201273036602877,0.6759033155975986,0,-1,0.042414795607328415,-1.590752903615133,-0.3547557036029261,-1.4943860212909144,0.2895987927913666,0.0917508527636528
2794,1734173420,682136297,-0.29323042466613314,0.23994047217643227,1.3738837920677813,-0.712001488845705,-0.1886812105181302,0.04257921851598962,0.6750113264453271,0,-1,0.042989663779735565,-1.5910404364215296,-0.3597953955279749,-1.4933183828936976,0.293732613325119,0.09299609065055847
2810,1734173420,697831392,-0.297172235466195,0.23949325407708594,1.3723861178015841,-0.7121429514685395,-0.19126043574562615,0.04311324409801122,0.674101706402985,0,-1,0.04361172020435333,-1.5913165251361292,-0.3647993246661585,-1.4922393004046839,0.29789039492607117,0.09427765011787415
2826,1734173420,714238882,-0.30107133841231787,0.23903956955540143,1.3708741964007864,-0.7122850134484376,-0.19378383670608013,0.0436745803619701,0.6731941883873003,0,-1,0.044222164899110794,-1.5916045347796839,-0.3698504606830042,-1.491124455128805,0.3020241856575012,0.09569066762924194
2843,1734173420,729860067,-0.30494629698713294,0.23859807029276536,1.3693424005401083,-0.7124260419875527,-0.19633634348274231,0.04417622989571121,0.6722719952801676,0,-1,0.0447966605424881,-1.5918801466571253,-0.37489015260805303,-1.4900334517108362,0.3061096966266632,0.09693627804517746
2859,1734173420,746043443,-0.30887290819278235,0.23812741349939454,1.3677774904717654,-0.7125714347798612,-0.19888879116793357,0.04471069941047546,0.671331626278514,0,-1,0.045371152460575104,-1.592180077229635,-0.3800132910357874,-1.4889667669879358,0.31017160415649414,0.09826578199863434
2874,1734173420,761790513,-0.31277556624707115,0.23764374454824694,1.3661975232029167,-0.7127132408865131,-0.20148248447128314,0.04522960986241366,0.6703722302631696,0,-1,0.04598122462630272,-1.5924914518939417,-0.3850048224078577,-1.4878996054278772,0.3142574727535248,0.09957093745470047
2891,1734173420,778274059,-0.31667223867838873,0.23716806069472895,1.3645981542124874,-0.7128642206813179,-0.2040467943093717,0.045754203627331694,0.6693997770054266,0,-1,0.04657968878746033,-1.5927794615374964,-0.3900082747088831,-1.4868086020099085,0.3184396028518677,0.1008644849061966
2907,1734173420,793929815,-0.32053848248419153,0.2366832768448507,1.3629990040242588,-0.7130049530822719,-0.2065609913946296,0.04627104361013259,0.668442581107341,0,-1,0.047202493995428085,-1.5930913130389612,-0.39497596422304326,-1.4857538382159632,0.32251349091529846,0.10213406383991241
2923,1734173420,810037136,-0.32438950670715505,0.23620474428033117,1.3613638606438256,-0.7131533317147103,-0.20914214800004854,0.04675894948667663,0.6674469926795957,0,-1,0.047776613384485245,-1.5934270063983362,-0.39991981187929326,-1.4846623579608362,0.32665926218032837,0.10336768627166748
2939,1734173420,826053619,-0.32822857359936597,0.23570968778034213,1.3597086646439787,-0.7133020082365085,-0.211712391990689,0.04727660409248434,0.6664405681145372,0,-1,0.04839904233813286,-1.5937507788287562,-0.4050667921649378,-1.4835956732379358,0.3307691216468811,0.1046612337231636
2955,1734173420,842373371,-0.3320579641438791,0.2352164211500653,1.3580418685405335,-0.71345464183831,-0.2142172972206037,0.04776315874536727,0.6654412853719952,0,-1,0.04896155372262001,-1.5940268675433558,-0.4100702444659632,-1.482492748891012,0.3348669707775116,0.10594242066144943
2971,1734173420,858383178,-0.33593844609184703,0.23471635177016753,1.3563320268978398,-0.7136076523518121,-0.2167704461056127,0.04823449882584331,0.6644156269407941,0,-1,0.049571625888347626,-1.594266716633932,-0.4151576201068323,-1.4813292662249964,0.3389292359352112,0.10725993663072586
2987,1734173420,874220609,-0.33976642229841575,0.23418574360737565,1.354623510378548,-0.7137591214548918,-0.21930000841659475,0.04878058995713782,0.6633821499647514,0,-1,0.05018244683742523,-1.594614330922262,-0.42013723054994756,-1.4802630583392542,0.3430514335632324,0.10852951556444168
3002,1734173420,890218496,-0.34355131084438784,0.23366318209342368,1.3529109547766751,-0.7139120711042319,-0.22182121538750313,0.049296027911827196,0.6623403994682743,0,-1,0.05078090727329254,-1.5949142614947718,-0.42508107820619756,-1.4792197386371058,0.34713730216026306,0.10988298803567886
3018,1734173420,906010389,-0.3473469241100883,0.23313080913324696,1.3511736070184261,-0.7140797235053309,-0.22428812175952728,0.04983980573632575,0.6612873661883303,0,-1,0.05142693221569061,-1.5952017943011683,-0.43007213274110967,-1.4780924955951136,0.35121119022369385,0.1112724095582962
3035,1734173420,922138929,-0.35117496299243,0.232593764919887,1.3493941004374321,-0.7142461769405605,-0.22679453025217441,0.050351140320842765,0.6602131492494526,0,-1,0.05201340839266777,-1.5955379644977015,-0.43519527116884404,-1.477001969014303,0.3553333878517151,0.1126374825835228
3050,1734173420,938231706,-0.35500901457298556,0.23207322781113834,1.3475811477694042,-0.7144153751342662,-0.2293282093442205,0.05081124300385511,0.65911870080824,0,-1,0.05263584107160568,-1.5957773367511194,-0.44030648866762334,-1.4759348074542444,0.3594915568828583,0.11395499855279922
3067,1734173420,954133987,-0.35876366199410054,0.23151592966558254,1.3457806612891567,-0.7145820761417762,-0.23181086221393493,0.05134977287103162,0.6580268850454625,0,-1,0.05320996046066284,-1.5960777441607874,-0.4453218618976038,-1.4748557249652308,0.3635534644126892,0.1152605339884758
3083,1734173420,969653844,-0.3624883689950307,0.23096560293508733,1.343965771000877,-0.7147427875759748,-0.2343424166313422,0.05182433692662039,0.6569175119279616,0,-1,0.0538327656686306,-1.5963895956622522,-0.4502657095538538,-1.473849121724264,0.3676396906375885,0.11656568944454193
3099,1734173420,986137390,-0.3662409925531535,0.23042385921771824,1.342122074285456,-0.7149106807163063,-0.23684410130507075,0.05230654705550022,0.6557984563948527,0,-1,0.05450313165783882,-1.5966652075396937,-0.4552205244647425,-1.4727938810931605,0.37182146310806274,0.1178232878446579
3115,1734173421,2469062,-0.36994944831138676,0.22985822307472079,1.3402851497745691,-0.7150739105802348,-0.23933861016969885,0.05281367502106113,0.6546732374400965,0,-1,0.055101219564676285,-1.5969651381122034,-0.46024829546083623,-1.471715275441305,0.3759559988975525,0.11908050626516342
3131,1734173421,18134593,-0.37359607195988026,0.22930247302124218,1.3384385992797851,-0.7152400893050987,-0.2418206377890899,0.05331084180912193,0.6535383293546867,0,-1,0.05566373094916344,-1.5972526709186,-0.4652159849749964,-1.4706242720233362,0.3800063133239746,0.12037405371665955
3147,1734173421,34469127,-0.37736119082328157,0.22875302532860373,1.3365127147913678,-0.715424923717517,-0.244294046459065,0.053743352602097554,0.6523796819640597,0,-1,0.0562981441617012,-1.5975287596331995,-0.4703148047076624,-1.4695809523211878,0.38406819105148315,0.12169156968593597
3163,1734173421,50104379,-0.3810317042400412,0.22817264868057563,1.3345988125888009,-0.7155946582565651,-0.24678205850878845,0.0542150569734345,0.6512170362254059,0,-1,0.056884247809648514,-1.597828213368551,-0.4753783384906214,-1.4685018698321741,0.38817840814590454,0.1230090856552124
3179,1734173421,66146135,-0.3846277190488636,0.22760233311421002,1.3326919602048657,-0.7157701215296907,-0.2492370673258116,0.05471484979731971,0.6500463849663787,0,-1,0.05748271197080612,-1.5980804602252405,-0.48040515581239873,-1.4673751036273401,0.3923009932041168,0.12430263310670853
3195,1734173421,82019329,-0.3884124676007543,0.2270141545147251,1.3306985306801222,-0.7159506081814089,-0.2517019097831082,0.055141425652839346,0.648860769682664,0,-1,0.058105140924453735,-1.5983803907977503,-0.48538428941835576,-1.4663198629962366,0.3963392972946167,0.1255958080291748
3211,1734173421,98444700,-0.39198251873877116,0.22643437702088864,1.3287791391166512,-0.7161284114993963,-0.2541122420731784,0.05566568667246831,0.6476792400557363,0,-1,0.05866765230894089,-1.5986321608172815,-0.4904120604144495,-1.4651930967914026,0.4004495143890381,0.12693728506565094
3227,1734173421,113971710,-0.3956584366751356,0.2258577452494513,1.326768406104174,-0.7163169110061022,-0.2565547718408155,0.056091573027590595,0.6464700050951114,0,-1,0.059254128485918045,-1.5988958517657679,-0.49549943605531865,-1.4640782515155237,0.4045477509498596,0.12818290293216705
3242,1734173421,130194425,-0.39921051309182864,0.22527242648310575,1.3247865731105815,-0.7165004176592822,-0.25898206530377893,0.056570370409514764,0.645255944983689,0,-1,0.05979229509830475,-1.5991714636432093,-0.5005505720721644,-1.46299916902651,0.4086223840713501,0.1295243799686432
3259,1734173421,146271228,-0.4028530657489305,0.2246737963392082,1.3227500185225374,-0.7166871234517308,-0.2614075908918804,0.05700655513493748,0.6440309706638604,0,-1,0.06043906882405281,-1.5994356314288538,-0.5056374708758753,-1.461872402821676,0.41272062063217163,0.1308179348707199
3275,1734173421,161974430,-0.4063788154728965,0.2240800737561674,1.3207293950083012,-0.7168718567198904,-0.26382201695167173,0.05745830946512853,0.6427995232480639,0,-1,0.06098959594964981,-1.599687401448385,-0.5106290022479456,-1.4608176390277308,0.4167828857898712,0.13209949433803558
3291,1734173421,178117275,-0.40995696591669467,0.22347849396079567,1.3186893647934048,-0.7170549569387854,-0.26627833679793683,0.05792418504639954,0.641539418016034,0,-1,0.061599668115377426,-1.5999391714679163,-0.5155485312091272,-1.4597380797015589,0.420977383852005,0.1333211362361908
3307,1734173421,194468021,-0.41352799197626233,0.22285643272165895,1.3166341447454428,-0.7172368016623922,-0.2687068271405045,0.05837657226440975,0.6402813344146802,0,-1,0.062186144292354584,-1.600227181111471,-0.5204914251910608,-1.4586475531207483,0.42502766847610474,0.13455475866794586
3323,1734173421,209657669,-0.41701152574481964,0.22224262938636774,1.3145810745059365,-0.7174182121031808,-0.27112330524436146,0.05883656092553813,0.6390160572274406,0,-1,0.06277262419462204,-1.6004908720599573,-0.5255425612079065,-1.457580868397848,0.4291738271713257,0.1358599215745926
3338,1734173421,225670814,-0.42052298993830306,0.2216361265280562,1.312483027344161,-0.7176213922458349,-0.27350596001709276,0.05928990955605492,0.6377293578400738,0,-1,0.06337108463048935,-1.6007431189166468,-0.5306299368487757,-1.4564898649798792,0.43322449922561646,0.13715346157550812
3354,1734173421,242138385,-0.4240918276356815,0.22100497673068686,1.3103287302030433,-0.7178115143902136,-0.2759797183084851,0.05967975779773394,0.6364119353063715,0,-1,0.06398153305053711,-1.6009824911700647,-0.535644833241598,-1.4554465452777308,0.4373350739479065,0.13843464851379395
3370,1734173421,257587909,-0.4275946874517399,0.22037026564825019,1.3081849949147972,-0.7180063160552311,-0.2783856553500991,0.06009166304625273,0.6351042032866944,0,-1,0.06456801295280457,-1.601234261189596,-0.5407078901873987,-1.4543679396258753,0.4413853883743286,0.13977614045143127
3386,1734173421,273706436,-0.43107432999450124,0.21974302209662722,1.3060380858368101,-0.7182098783689962,-0.2807304956344432,0.060517759446925015,0.6338000948450194,0,-1,0.06515411287546158,-1.6015341917621058,-0.5457347075091761,-1.4533007780658167,0.4454839825630188,0.1411415934562683
3402,1734173421,290332555,-0.43464824629259585,0.21908919505484598,1.303837459020912,-0.7184228539265509,-0.2831251703748447,0.060972243210417686,0.6324485168091825,0,-1,0.06581249833106995,-1.6018460432635706,-0.5506418387042444,-1.4522460142718714,0.44961854815483093,0.14250704646110535
3418,1734173421,306290149,-0.4381111010214018,0.21842318274285294,1.3016609964590546,-0.7186202976920313,-0.2854962428159292,0.0614521382424012,0.6311104481692894,0,-1,0.06641095876693726,-1.6021340529071253,-0.5557172934161585,-1.4511073271380823,0.45372912287712097,0.14382418990135193
3434,1734173421,321513891,-0.4415468789801205,0.21777618097075174,1.2994586281893714,-0.7188205555016453,-0.2878538128693584,0.061864449007087055,0.6297697844084995,0,-1,0.06702140718698502,-1.6023977438556116,-0.5608041922198694,-1.4500163237201136,0.45779141783714294,0.1451536864042282
3450,1734173421,337606668,-0.44503635219302057,0.21712251657717702,1.2972035712371024,-0.7190311817508251,-0.2902416257873628,0.06226124978744051,0.6283927872797604,0,-1,0.06761986762285233,-1.6026132742511194,-0.5659030119525355,-1.4489133993731897,0.4616626799106598,0.14647120237350464
3466,1734173421,353587388,-0.4485134363660301,0.21644286082764275,1.2949382981760116,-0.7192261283371848,-0.29262900796383423,0.0626211457088458,0.6270252244729212,0,-1,0.0682658925652504,-1.6029136816607874,-0.5709660688983362,-1.447834316884176,0.46586915850639343,0.14771680533885956
3482,1734173421,369597434,-0.45194902408428284,0.21578414314148775,1.2926743094271593,-0.7194364988954264,-0.29496438514880735,0.06302563771783952,0.6256475881365936,0,-1,0.06882840394973755,-1.6032374540912073,-0.575897518788473,-1.446791950856344,0.46997973322868347,0.1490822583436966
3498,1734173421,385963678,-0.45532550656788406,0.21510187379070816,1.2904304942622558,-0.7196391820913005,-0.29730077431631613,0.0634722544347739,0.6242619402997834,0,-1,0.06946281343698502,-1.603537384663717,-0.58087665239443,-1.445700470601217,0.47410231828689575,0.15031589567661285
3514,1734173421,401893377,-0.4587620408128877,0.21443055001523795,1.288116373065553,-0.719841347160114,-0.29968915778402755,0.06382836948735152,0.6228489245988938,0,-1,0.07006090134382248,-1.6038249174701136,-0.5858796278582972,-1.4446333090411585,0.4781889319419861,0.15154951810836792
3530,1734173421,417972326,-0.4620892302370393,0.213754299247161,1.2858574644572116,-0.7200527769337103,-0.3020048966592658,0.06429400380216611,0.62143649868588,0,-1,0.07063577324151993,-1.6040647665606897,-0.5909183661090296,-1.4435790220843714,0.48223960399627686,0.15290260314941406
3546,1734173421,433457136,-0.46548988851093953,0.21308000573945846,1.2834937287835053,-0.7202687667072187,-0.30435941742853034,0.06465332151055939,0.6199985457614234,0,-1,0.07119828462600708,-1.6043885389911097,-0.5960176626788538,-1.4425113836871546,0.4863865077495575,0.15418380498886108
3562,1734173421,449456453,-0.46889846459006324,0.21238547136139088,1.2811139361853559,-0.7204756790000144,-0.30674836745440753,0.06496570513569203,0.6185464349503166,0,-1,0.0718083530664444,-1.6046159903155726,-0.6010683218585413,-1.4414928595172327,0.49043717980384827,0.155429407954216
3578,1734173421,465625524,-0.4723236731690788,0.21169450588286506,1.2787018983338012,-0.7206968086699683,-0.3090977340925941,0.06529814309164493,0.6170825335889278,0,-1,0.0724068135023117,-1.6049283186541956,-0.6060832182513636,-1.4403899351703089,0.49455976486206055,0.15677089989185333
3594,1734173421,481880664,-0.4756228276470882,0.21102007143709295,1.276341210821831,-0.7209248498910253,-0.3114094198029967,0.06569673182702199,0.6156098386923424,0,-1,0.07298168540000916,-1.6052640120135706,-0.6110747496234339,-1.4393590132342737,0.4987306594848633,0.15806443989276886
3611,1734173421,498079061,-0.4789345178788125,0.2103201129882123,1.2739741180999196,-0.7211440369026206,-0.31370683065892735,0.06610401717749365,0.6141413203414345,0,-1,0.07357977330684662,-1.6055401007281702,-0.6160176436053675,-1.4382918516742151,0.5028412342071533,0.15935799479484558
3626,1734173421,513550996,-0.48222083150839434,0.20964579088832264,1.271565956508723,-0.7213683486914519,-0.31600112740443054,0.0664394936076316,0.6126636815369897,0,-1,0.07414228469133377,-1.6058037916766565,-0.6211045424090784,-1.4372132460223597,0.5069402456283569,0.16066351532936096
3642,1734173421,530050277,-0.48555056759771825,0.20889781300698035,1.2691178303031458,-0.7215731897325793,-0.31837769793493387,0.06682208840021842,0.6111485758951226,0,-1,0.07474037259817123,-1.6060918013202112,-0.6262033621417444,-1.4361098448382776,0.5110511779785156,0.1619810312986374
3658,1734173421,546319007,-0.48890784202277376,0.20819531355039778,1.266598136165193,-0.721806554206876,-0.3207056335578323,0.06713022237654184,0.6096201507102121,0,-1,0.07533883303403854,-1.6063793341266077,-0.6313141028033655,-1.4349835554706019,0.5151737332344055,0.1632506102323532
3674,1734173421,561943292,-0.49223950487337265,0.20746145410771197,1.2640990391980906,-0.7220209872393559,-0.32304132948610914,0.06746142836274058,0.6080945231730112,0,-1,0.07594965398311615,-1.606739346181051,-0.6363289991961878,-1.4339163939105433,0.519284725189209,0.16447225213050842
3690,1734173421,578329086,-0.4954877508551079,0.20675187971263764,1.2616325625274685,-0.7222552910532626,-0.3253057682744379,0.06781387196303179,0.6065679932557655,0,-1,0.07658369094133377,-1.6070149580584925,-0.6412599722491663,-1.4327777067767542,0.5233237743377686,0.1658257246017456
3707,1734173421,593690156,-0.49872002270167193,0.20600465915882823,1.2591677528319352,-0.7224602980102869,-0.32758778035484226,0.06819296132355128,0.6050513069046292,0,-1,0.07715819031000137,-1.6073148886310022,-0.6462271849261683,-1.4317224661456507,0.5274107456207275,0.16703538596630096
3722,1734173421,609697341,-0.501938173368018,0.20526979153454494,1.2566861557833595,-0.7226808064093327,-0.32984914685411754,0.06856091842923336,0.603515859635277,0,-1,0.07775665074586868,-1.6076505819903772,-0.651158634816305,-1.4306319395648401,0.5314498543739319,0.16831694543361664
3738,1734173421,625883102,-0.5051699907306436,0.2045438873521339,1.2541492957189542,-0.7229068649668768,-0.3321131108333441,0.06884554796562604,0.6019691326984078,0,-1,0.0783906877040863,-1.607938591633932,-0.6562450567828577,-1.4295290152179163,0.535488486289978,0.16960974037647247
3754,1734173421,641743421,-0.5084292479812855,0.2037912096175148,1.2515533745755683,-0.723139576974018,-0.33439454424616155,0.06913962869421436,0.6003908333213177,0,-1,0.07901349663734436,-1.6082266012774866,-0.6613200346576136,-1.4284384886371058,0.5395638942718506,0.1709751933813095
3771,1734173421,658063173,-0.5116217837940916,0.20305975491865275,1.2489809013182336,-0.7233813249213255,-0.3366342859738153,0.0694712492583529,0.598807616675382,0,-1,0.07958798855543137,-1.608514134083883,-0.6665743033038538,-1.427347485219137,0.5436988472938538,0.1723046898841858
3786,1734173421,673870086,-0.514901228641871,0.20227029532332458,1.2463215897448312,-0.723633858321973,-0.3389225013946109,0.06984132768620598,0.5971664475550369,0,-1,0.08024599403142929,-1.608849827443258,-0.6715176741229456,-1.4262684027301233,0.5479173064231873,0.17368213832378387
3803,1734173421,689950466,-0.5180525171871606,0.2015153779949886,1.2437362444842115,-0.7238846956175842,-0.3411797868904965,0.07020315433355852,0.5955323816465495,0,-1,0.08090437948703766,-1.6091254393206995,-0.6765087286578577,-1.4252379576312464,0.5520046353340149,0.1750475913286209
3818,1734173421,705930948,-0.521225087593596,0.20071821818873034,1.2411249688469432,-0.7240990985433834,-0.34344306779699874,0.07052548693699157,0.5939305602199183,0,-1,0.08146651834249496,-1.6094253698932093,-0.6815837065326136,-1.4241464773761194,0.5561395883560181,0.17634113132953644
3834,1734173421,722161054,-0.524385725797414,0.1999765653488335,1.2384629960946905,-0.7243597259231019,-0.3456878576723533,0.0708424387383478,0.5922704123895697,0,-1,0.08208894729614258,-1.6097376982318323,-0.6866100470172327,-1.4231274763690394,0.5602988600730896,0.17768262326717377
3851,1734173421,737987041,-0.5275324372419825,0.19918672602304194,1.2357959425946858,-0.7245799661247234,-0.34796218111049726,0.07113563924986055,0.590631792266581,0,-1,0.08271137624979019,-1.6100013891803187,-0.691721264516012,-1.4220126310931605,0.5643615126609802,0.1789638102054596
3866,1734173421,754057407,-0.5306100389151858,0.19845474440966848,1.2331212693178224,-0.7248430655622717,-0.350142315856617,0.07140620743493058,0.5889856046565255,0,-1,0.0833098366856575,-1.61025315919985,-0.69684344926943,-1.4209097067462366,0.5684728622436523,0.18024536967277527
3883,1734173421,769842624,-0.5336722496702283,0.19766767346121172,1.2304718163060904,-0.7250670627307048,-0.35238050395543186,0.07171019513705928,0.5873358348411828,0,-1,0.08387234807014465,-1.6105530897723597,-0.7017510573016565,-1.4198430220233362,0.5725718140602112,0.18147899210453033
3898,1734173421,786002874,-0.5367290631935686,0.19689414742066824,1.2277863229577002,-0.7253027852252196,-0.3545869761381095,0.0720188203298344,0.5856767330328821,0,-1,0.08447080850601196,-1.6108649412738245,-0.7067297140704554,-1.4187043348895472,0.5766352415084839,0.18282011151313782
3914,1734173421,801755189,-0.5397570657841014,0.196138319159698,1.2251243607453595,-0.725564866353981,-0.3567236566900378,0.07234086771251635,0.5840125480920919,0,-1,0.08503294736146927,-1.6111286322223108,-0.7116487661944788,-1.4176257292376917,0.5806626677513123,0.18413762748241425
3930,1734173421,817449569,-0.5427559719128056,0.19535101348863082,1.2224396785555083,-0.7258057588091366,-0.35887623847491346,0.0726518056758863,0.5823534674659574,0,-1,0.08564339578151703,-1.6114161650287073,-0.7167475859271448,-1.4165223280536097,0.5847377181053162,0.18540720641613007
3946,1734173421,833787202,-0.5456847964398163,0.19459566423359337,1.2197377630123043,-0.7260510616316794,-0.3610458221682829,0.07289925031345297,0.5806732898128485,0,-1,0.08621788769960403,-1.6116440931903284,-0.7217624823199671,-1.4154556433307093,0.5888969898223877,0.1867247223854065
3962,1734173421,849472761,-0.5486901917095977,0.1938093480982231,1.2169860973598454,-0.726304608671405,-0.3632376548081138,0.07321416958239409,0.5789470674634593,0,-1,0.08684031665325165,-1.6119077841388147,-0.7268851439105433,-1.4143527189837855,0.5930558443069458,0.18803024291992188
3978,1734173421,865768432,-0.5516606127715766,0.19300550043315928,1.2142152182575696,-0.7265585319090887,-0.36541234732601857,0.07350838464724589,0.5772200910557008,0,-1,0.08745076507329941,-1.612136189137594,-0.7318399588214319,-1.413309399281637,0.5971435904502869,0.18928784132003784
3994,1734173421,882077455,-0.5545515221719003,0.19222443753741453,1.211494646529499,-0.7267994721392096,-0.3675813741046627,0.07377155780474456,0.5755034473993667,0,-1,0.08806083351373672,-1.6124480406390589,-0.736795727406637,-1.4122431913958948,0.6012665629386902,0.19061733782291412
4010,1734173421,897987365,-0.5574758019731505,0.19142906730449624,1.2087508394565676,-0.7270585060767472,-0.3696915422263925,0.07408714839389648,0.5737814799996432,0,-1,0.08867165446281433,-1.6127474943744105,-0.7417505423175257,-1.411152187977926,0.6053774952888489,0.19192250072956085
4026,1734173421,913605690,-0.5604086791522808,0.1906208013477027,1.2059609662567374,-0.7273086150646437,-0.3718406890081216,0.07436474931973205,0.5720372055289136,0,-1,0.08924615383148193,-1.6129873434649866,-0.7468250433551233,-1.4101093451129358,0.6095371842384338,0.19321604073047638
4042,1734173421,929833650,-0.5633016858370166,0.18980511514566328,1.2031286467086844,-0.7275545205885624,-0.37402311927852,0.07459745744458833,0.5702686605093391,0,-1,0.08985622227191925,-1.613262955342428,-0.7519715468036097,-1.4090302626239222,0.6135642528533936,0.19449761509895325
4058,1734173421,945555925,-0.5662370766199909,0.18901533458888292,1.2002332440650991,-0.7278086606005439,-0.3762019991295824,0.07475438774455499,0.5684878107036989,0,-1,0.09045468270778656,-1.6134913603412073,-0.7571538130389612,-1.407987419758932,0.6176639795303345,0.1957312375307083
4074,1734173421,961876392,-0.5691459677853598,0.18817582880885136,1.1973517273719656,-0.72805704763915,-0.37837966990357325,0.07496949795549188,0.5666933343201849,0,-1,0.09106475859880447,-1.6137669722186487,-0.7621806303607386,-1.4069331328021448,0.6217633485794067,0.19700081646442413
4090,1734173421,977759838,-0.572003946736952,0.18735542427552296,1.1944969954499534,-0.7283100524676911,-0.3805139114281832,0.07521121161425887,0.5649043320170674,0,-1,0.09167520701885223,-1.6140902678119105,-0.7671716848956507,-1.405853573475973,0.6258866786956787,0.19827039539813995
4107,1734173421,994073152,-0.5748419924239528,0.18653126484613422,1.1916669262302428,-0.7285586987065924,-0.38262580021716935,0.07548139515510045,0.5631183521539387,0,-1,0.09230999648571014,-1.6143787542926233,-0.7720664183246058,-1.4047988096820276,0.6299740076065063,0.19952799379825592
4122,1734173422,9744405,-0.5776795584010183,0.18570634059434576,1.1887884475982582,-0.7288167065358666,-0.3847028773006142,0.07572364884863901,0.5613339767695246,0,-1,0.09293204545974731,-1.6146662870990198,-0.7770937124835413,-1.4036601225482386,0.6340494155883789,0.20092938840389252
4138,1734173422,26016473,-0.5804397811912012,0.18490089744366572,1.1859084808890028,-0.7290888294489863,-0.3867740263463138,0.07596833223598003,0.5595213524199514,0,-1,0.09349455684423447,-1.6149304548846644,-0.7821920553790491,-1.402557675038473,0.6382330060005188,0.2022349238395691
4154,1734173422,41743040,-0.5832200945054941,0.1840350113449537,1.1830095794307927,-0.7293480549062697,-0.38889920074645135,0.07627361393269444,0.5576658159515056,0,-1,0.09409264475107193,-1.615134064351217,-0.7872551123248499,-1.401442829762594,0.6424042582511902,0.20354008674621582
4170,1734173422,57988643,-0.5859633461717499,0.18323371761175997,1.1800802010997282,-0.7296259308698223,-0.3909260904649052,0.07647740121278707,0.5558542973656933,0,-1,0.09467912465333939,-1.6153858343707483,-0.7922938505755823,-1.400339428578512,0.6464437246322632,0.20494148135185242
4186,1734173422,73898792,-0.5887111668335517,0.18239933708646436,1.1771637087872777,-0.7299023361206388,-0.39298196634215776,0.07674470523739373,0.5540018087276527,0,-1,0.09528994560241699,-1.615685764943258,-0.7972129026996058,-1.3992732206927698,0.6505670547485352,0.206247016787529
4203,1734173422,90106248,-0.5914256832627909,0.18158781098215626,1.1742418619669504,-0.7301842059567936,-0.39501767940531624,0.07695653907466132,0.5521501149344586,0,-1,0.09590001404285431,-1.6159856955157679,-0.8021443525897425,-1.3981941382037562,0.6546787619590759,0.2075405716896057
4218,1734173422,105810403,-0.5941662121280123,0.1807371445478935,1.1712880863034074,-0.730447052657834,-0.397057499456214,0.07717700852591632,0.5503055103704239,0,-1,0.0964265763759613,-1.6162374655352991,-0.8072188536273401,-1.3970916906939905,0.6586945652961731,0.208881676197052
4234,1734173422,122043848,-0.596855664753362,0.17993385549674606,1.1683181842858303,-0.7307260527637497,-0.399076731476501,0.07736459981818732,0.5484449989755712,0,-1,0.09703701734542847,-1.616561237965719,-0.8122933546649378,-1.3960240522967737,0.6628062725067139,0.21016360819339752
4250,1734173422,137756109,-0.5995620004881141,0.1790559302447124,1.1653085882295136,-0.7309875853273483,-0.4011363328044861,0.07755997982933341,0.5465631181577612,0,-1,0.09763548523187637,-1.6167648474322718,-0.8173921743976038,-1.394921604787008,0.6669056415557861,0.2114807516336441
4266,1734173422,154065370,-0.6022063612739389,0.17825455627045164,1.1623048934643856,-0.7312620829045914,-0.4031634881161712,0.07771615267804602,0.5446789582579477,0,-1,0.09820997714996338,-1.6170771757708948,-0.8225024382220667,-1.3938191572772425,0.6710293292999268,0.21273835003376007
4282,1734173422,169811964,-0.6048929079225013,0.17739316987033826,1.1592561409704096,-0.7315298422062201,-0.40523277056966045,0.07788779250654275,0.5427559151189763,0,-1,0.098844014108181,-1.6173766295062464,-0.8275054136859339,-1.3927643934832972,0.6750927567481995,0.21403151750564575
4298,1734173422,186223030,-0.6075689303346807,0.17657580681905743,1.1562045196324264,-0.7318211713156845,-0.40722075701272514,0.07803038295453768,0.5408514468947005,0,-1,0.09943049401044846,-1.6177008787738245,-0.8324125448810022,-1.3916972319232386,0.6792528033256531,0.2153969705104828
4314,1734173422,201909780,-0.6101720755483612,0.17567061456120553,1.1532201586403363,-0.7320772785418724,-0.4092599816963855,0.07827332528580705,0.5389270935602531,0,-1,0.10002895444631577,-1.6180122534381312,-0.8372958342181605,-1.3906305472003382,0.6834000945091248,0.2166425883769989
4330,1734173422,218158006,-0.6127706431710496,0.17481808780331173,1.1501891058605715,-0.7323536950324513,-0.41125007528089286,0.07849455297715437,0.5370009740276939,0,-1,0.10063940286636353,-1.6182764212237757,-0.8423827330218714,-1.389479939137594,0.6875600814819336,0.21792414784431458
4346,1734173422,233916044,-0.6153797805665703,0.17392723662750742,1.1470868744635199,-0.7326197693086067,-0.41328629183536153,0.07864714138101998,0.5350489152888492,0,-1,0.10127381980419159,-1.6185639540301722,-0.8475049177752894,-1.3884132544146937,0.691647469997406,0.21927762031555176
4362,1734173422,249637603,-0.6179878618573186,0.17305485707122578,1.1439575257570422,-0.7328992490339097,-0.4152954960734069,0.0787705273462309,0.5330886846747648,0,-1,0.1018359512090683,-1.618863884602682,-0.8526156584369105,-1.3873098532306116,0.6956992745399475,0.22055917978286743
4379,1734173422,265961408,-0.6205240239166185,0.17219294690178397,1.1408734178435955,-0.7331702919566908,-0.41726480274294603,0.0789364821336376,0.5311501098299773,0,-1,0.10247036814689636,-1.6191757361041468,-0.8576300779925745,-1.3862670103656214,0.6998109817504883,0.22185271978378296
4394,1734173422,281754732,-0.6230977977879121,0.17133571984740642,1.1377747708556682,-0.73345669953595,-0.4192428885822157,0.07906212924047878,0.5291746876023384,0,-1,0.10311676561832428,-1.619499985371725,-0.8625376860248011,-1.3851764837848108,0.7038747668266296,0.22312192618846893
4410,1734173422,298208951,-0.6256445741214313,0.17044814378267786,1.1346661411627976,-0.7337305763876606,-0.4211725427462158,0.07920132237546111,0.5272383531615435,0,-1,0.10366729646921158,-1.6198352018939417,-0.867528263722555,-1.3840377966510218,0.7079149484634399,0.2243679165840149
4426,1734173422,313813209,-0.628164906357565,0.16956733769184362,1.1315299143409296,-0.7340027821294565,-0.4231444336647592,0.07932352643666643,0.5252584908770153,0,-1,0.10432567447423935,-1.6201232115374964,-0.8725431601153772,-1.3829949537860315,0.7120142579078674,0.22570939362049103
4442,1734173422,329556465,-0.6307008608835251,0.16865145274349239,1.1283329918566778,-0.7342642459760972,-0.4251524132678475,0.07941701155106698,0.5232536486733529,0,-1,0.10486384481191635,-1.6204350630389612,-0.8777139822589319,-1.3818801085101526,0.7161144018173218,0.22695501148700714
4459,1734173422,346161842,-0.6331402371617826,0.16781894375593975,1.1251674489938213,-0.7345547230536692,-0.4270938248009828,0.07952662283362613,0.521244414758655,0,-1,0.10552223026752472,-1.6206744352923792,-0.8828004042254847,-1.3808372656451624,0.7202620506286621,0.22820061445236206
4475,1734173422,362494707,-0.6356593848106684,0.16690207419003047,1.1219212016864615,-0.7348215220265465,-0.4291026917971027,0.07959076584208581,0.5192047001441152,0,-1,0.10607275366783142,-1.6210225264178675,-0.8878391424762171,-1.3797944227801722,0.7243261933326721,0.22947019338607788
4491,1734173422,378101348,-0.638066371410193,0.16604847966628405,1.11880543705807,-0.7351056932414373,-0.4309892381535263,0.07970537123489266,0.5172184742989917,0,-1,0.10669481009244919,-1.6212981382953089,-0.8927701155291956,-1.3787396589862269,0.7284978032112122,0.23075176775455475
4506,1734173422,394162654,-0.6404734746521717,0.16515150935803852,1.115635057981785,-0.7353865747314008,-0.432930287206043,0.07986502298737976,0.5151694189562657,0,-1,0.1073056310415268,-1.621622387562887,-0.897677246724264,-1.3776605764972132,0.732669472694397,0.23200935125350952
4523,1734173422,410022735,-0.6428850045589791,0.1642708118109545,1.1124292578289294,-0.735672641268612,-0.43485143760134365,0.07995029224319072,0.5131256599266276,0,-1,0.10791569948196411,-1.6219103972064417,-0.9027403036700647,-1.3765462080584925,0.7367691993713379,0.23338642716407776
4538,1734173422,426133871,-0.6452299774187983,0.16339502600069788,1.1092236067657029,-0.735979390127912,-0.4367068661224845,0.08007097269133157,0.5110871645039516,0,-1,0.10847821086645126,-1.6221979300128382,-0.9078148047076624,-1.3755033651935022,0.7408449649810791,0.2346799671649933
4554,1734173422,441831827,-0.6475825787693392,0.16249992412693556,1.1059886092323652,-0.7362748966992045,-0.43859765160190717,0.080141917026973,0.5090271600171344,0,-1,0.10904109477996826,-1.6224497000323694,-0.9129012266742151,-1.3744362036334437,0.7450049519538879,0.23610533773899078
4571,1734173422,458064794,-0.6499077384879749,0.16163384438565578,1.1027132498037,-0.7366023675741019,-0.4404559955786153,0.08025701176523217,0.5069263063854488,0,-1,0.10965116322040558,-1.6227253119098108,-0.917976204548971,-1.373345677052633,0.7490571737289429,0.2374228537082672
4586,1734173422,473800182,-0.6522340432381597,0.16073165300044193,1.099486229789652,-0.7368916973089807,-0.4423301598901815,0.08035146779047998,0.5048547293158017,0,-1,0.11015375703573227,-1.6230252424823206,-0.9228594938861292,-1.372314755116598,0.753193199634552,0.23871640861034393
4603,1734173422,490066528,-0.6545249252383842,0.15984819077168477,1.096234608012491,-0.7371780383005996,-0.44418793770866194,0.08040303801428418,0.5027931655457135,0,-1,0.1108720600605011,-1.6232770125018519,-0.9278863112079065,-1.3711522261248987,0.7572569847106934,0.24005788564682007
4618,1734173422,505804777,-0.6567469659089288,0.1589504581162563,1.0930485719276324,-0.7374716399139849,-0.4459815663228588,0.08056849206979304,0.5007441870939561,0,-1,0.11145853996276855,-1.6235888640033167,-0.9328649679767054,-1.3700373808490198,0.7612975239753723,0.24131548404693604
4635,1734173422,522038221,-0.659024697008297,0.15803385726076152,1.0897565685410073,-0.7377505631002498,-0.44786425722577794,0.08061978008915532,0.49864031606283393,0,-1,0.11204501241445541,-1.6239126364337366,-0.9379757086383265,-1.368946377431051,0.7654572129249573,0.24262064695358276
4650,1734173422,537799358,-0.6612385187914492,0.15713723510338096,1.0864529309778295,-0.7380456220191818,-0.4497027886565239,0.0806684381879035,0.4965366701193269,0,-1,0.11267905682325363,-1.6240924040423792,-0.9430745283709925,-1.3679035345660608,0.7695217132568359,0.24392616748809814
4666,1734173422,553760290,-0.6634929891847808,0.15622337165991682,1.0831102429599189,-0.7383266632788766,-0.4515797802954361,0.0806835658560654,0.49440833581216653,0,-1,0.11325354874134064,-1.6243928114520472,-0.9481728712665003,-1.3668130079852503,0.7736334204673767,0.24521972239017487
4682,1734173422,570062637,-0.6656667626752014,0.155349505039752,1.0798128380887884,-0.7386466878245309,-0.4533457581008372,0.0807288590517077,0.49230229076659443,0,-1,0.1138639971613884,-1.6246922651873987,-0.9531400839435022,-1.3657105604754847,0.7777219414710999,0.2465372383594513
4698,1734173422,585825443,-0.6677669930182705,0.15443709169678843,1.0766001957497668,-0.7389344576844716,-0.4551293795637492,0.08085458307132484,0.49019960373386123,0,-1,0.11451002210378647,-1.6249683539019983,-0.9580352942096155,-1.3646796385394495,0.7818456292152405,0.24783077836036682
4714,1734173422,601712465,-0.669970533641222,0.15351398106933228,1.0732914784435172,-0.7392396529625715,-0.456901738946532,0.08089700094712737,0.4880791039095735,0,-1,0.11512047052383423,-1.6252439657794397,-0.9630139509784144,-1.3635886351214808,0.7858977913856506,0.24922020733356476
4731,1734173422,618010520,-0.672054275898567,0.15258495894877372,1.0700013308104719,-0.7395257566152474,-0.45867509726807176,0.0809660485175951,0.4859663665689397,0,-1,0.1157548800110817,-1.6254842917071741,-0.9680650869952601,-1.3624861876117151,0.789986252784729,0.25056132674217224
4746,1734173422,633759260,-0.674165450011764,0.15165096039470838,1.0666340335712021,-0.7398354138529086,-0.4604709874459006,0.08100327151912809,0.48378559314317254,0,-1,0.11629342287778854,-1.6256759802447718,-0.9732115904437464,-1.3614676634417933,0.7941822409629822,0.25180691480636597
4763,1734173422,650060176,-0.6762861235270524,0.1507309403431372,1.0632090811443273,-0.7401312217352115,-0.4623072238648123,0.08101224078737171,0.48157535466192863,0,-1,0.11696341633796692,-1.625939671193258,-0.9782984892474573,-1.3603408972369593,0.7982707619667053,0.2531484067440033
4779,1734173422,665937423,-0.6783012864695079,0.1498191009089357,1.059899707510441,-0.7404231192375665,-0.46406144014211564,0.0810645113375562,0.4794258329224044,0,-1,0.11754989624023438,-1.6262276808368128,-0.983253304158346,-1.3592975775348108,0.8023465275764465,0.2544179856777191
4794,1734173422,682141065,-0.6803650722418098,0.14891806922390805,1.0565610540248176,-0.7407338986454396,-0.4658065755293596,0.08110183761104262,0.47724209530096007,0,-1,0.11816071718931198,-1.626490894948141,-0.9881485144244593,-1.358194653187887,0.8065189123153687,0.25571152567863464
4811,1734173422,697891950,-0.6823472783050568,0.1479815419054963,1.053283640362854,-0.7410189169917395,-0.46750569351933596,0.0812050223295883,0.47511591799880293,0,-1,0.11883071064949036,-1.6267789045916956,-0.9931395689593714,-1.357020680104391,0.810343325138092,0.2570170760154724
4826,1734173422,714061260,-0.6843249312783842,0.14708399404392802,1.0499603894977032,-0.7413106459863708,-0.46920511154301087,0.08122642235893403,0.47297712181452134,0,-1,0.11944115906953812,-1.6270549933062952,-0.9981544653521937,-1.3559535185443323,0.8145880103111267,0.25823870301246643
4843,1734173422,730018377,-0.6863459989385055,0.14615056154496392,1.0465089003842805,-0.7415953225757971,-0.4709760200668805,0.08117743630921807,0.4707740327268738,0,-1,0.11996734142303467,-1.6273067633258265,-1.0033610502826136,-1.3548386732684534,0.8186641335487366,0.25954386591911316
4858,1734173422,746032714,-0.688345804949051,0.14524041586022995,1.0430211054064018,-0.7419013337110539,-0.47272356826152623,0.0810970990982494,0.4685489297455476,0,-1,0.12055419385433197,-1.6275947729693812,-1.008411709462301,-1.3538439909564417,0.8227642774581909,0.2608258128166199
4874,1734173422,761776685,-0.6903005953169072,0.14434711834983094,1.0396027230684561,-0.7421976497986088,-0.47444127414539816,0.08105682540869259,0.46634527667317205,0,-1,0.12117662280797958,-1.6278584639178675,-1.0134504477130335,-1.3527172247516077,0.826876699924469,0.26205942034721375
4890,1734173422,777545452,-0.692314770981115,0.143412205460445,1.0361229000866277,-0.7425071281192019,-0.4761545348721306,0.08099803279086408,0.4641113468736681,0,-1,0.12173875421285629,-1.6281822363482874,-1.018393341694967,-1.3516143004046839,0.8309049010276794,0.2634128928184509
4906,1734173422,793997049,-0.6941761370651442,0.14253117647666735,1.0327839054712242,-0.7428233216832948,-0.4777916883234439,0.08102085209953884,0.4619136681864848,0,-1,0.12228928506374359,-1.6285060087787073,-1.023360554371969,-1.3505356947528284,0.8350656628608704,0.2647424042224884
4922,1734173422,809731483,-0.6960814902310077,0.14162528757794451,1.0293874804768073,-0.7431463977882176,-0.4794193553812192,0.0810405206214911,0.45969875696770185,0,-1,0.1228753849864006,-1.6287696997271937,-1.0283997694598597,-1.3494213263141077,0.8391298055648804,0.2660479247570038
4939,1734173422,825482606,-0.6979669793445594,0.1406834574817616,1.0258829673832308,-0.7434562911467268,-0.4811228255971127,0.08098489172583014,0.45742214327244707,0,-1,0.12347421795129776,-1.6290338675128382,-1.0334623495685022,-1.3484023253070276,0.8432422876358032,0.267425000667572
4954,1734173422,841775417,-0.6998267381113429,0.13979796103598205,1.0223889655015213,-0.7437815604266055,-0.48275955545866345,0.08088433492651656,0.4551812016617257,0,-1,0.12404871731996536,-1.6292379538165491,-1.0386088530169886,-1.3473356405841272,0.8473547697067261,0.26876646280288696
4970,1734173422,857536315,-0.7017032398364971,0.13887785094455762,1.0188308740511032,-0.7441071174553918,-0.4844241198731054,0.08078456098585571,0.4528926192197412,0,-1,0.12463481724262238,-1.6295378843890589,-1.04376727739443,-1.3462689558612269,0.8514189124107361,0.2700839936733246
4986,1734173422,873948812,-0.7035298800779504,0.13796512319616375,1.0153724076809776,-0.7444299772156088,-0.48606996487003357,0.08072740553765786,0.4506030229250255,0,-1,0.12523365020751953,-1.6298731009112757,-1.0486748854266565,-1.3452618757831019,0.8555676937103271,0.2714014947414398
5002,1734173422,889673471,-0.70531256227993,0.13701876558324924,1.011957676963091,-0.7447266547136177,-0.4876871191363306,0.08071628889524905,0.44836186757411617,0,-1,0.1258077770471573,-1.6301854292498987,-1.0535224119769495,-1.3441951910602015,0.8596082329750061,0.2726351320743561
5018,1734173422,905944108,-0.707081245829851,0.1360860028031204,1.0085315399725232,-0.7450157669137595,-0.48931652384506114,0.08068228824490918,0.44610673039717047,0,-1,0.12646615505218506,-1.6304968039142054,-1.058465305958883,-1.3430922667132776,0.8636967539787292,0.27389273047447205
5034,1734173422,921736001,-0.7088356830615085,0.13517806951558128,1.0050365243812898,-0.7453236271506917,-0.49092894299850304,0.08059295751326655,0.4438313181114806,0,-1,0.12701630592346191,-1.6307366530047815,-1.0635884443866175,-1.341989819203512,0.8678331971168518,0.2752218544483185
5051,1734173422,938045501,-0.7105995930963236,0.13424205613794793,1.0014748104885611,-0.745629738183377,-0.4925496789901869,0.08047843669412329,0.4415363274867906,0,-1,0.12765109539031982,-1.6310127417193812,-1.0686987082110804,-1.340935532246725,0.8719580173492432,0.2764798104763031
5066,1734173422,953976154,-0.7123431337200572,0.13332053187280596,0.99790808813149,-0.7459481202933255,-0.49418210669524315,0.08037930217623068,0.43918631016320164,0,-1,0.12826155126094818,-1.6312640349017542,-1.0737856070147913,-1.339832607899801,0.8760584592819214,0.2777973413467407
5082,1734173422,969730854,-0.7140468986847514,0.1323899670215316,0.9943753115525212,-0.7462733711188647,-0.49575382174362154,0.08031002145928334,0.43686897834326494,0,-1,0.1288476437330246,-1.6316478888141077,-1.0787647406207483,-1.3387296835528772,0.8801952600479126,0.2791028618812561
5099,1734173422,986119985,-0.7157401574555824,0.13141558730397895,0.9908846601099272,-0.7465567532144718,-0.4973652175328369,0.08024802481306191,0.4345585221025841,0,-1,0.12948206067085266,-1.632007900868551,-1.0836480299579065,-1.337686840687887,0.8843433260917664,0.28039640188217163
5114,1734173423,1954078,-0.7174453607997959,0.13048750964997144,0.987372961934144,-0.7468790473751419,-0.49890641635654165,0.08017949544788504,0.4322445197107724,0,-1,0.13009212911128998,-1.6323078314410608,-1.0885794798480433,-1.336548153554098,0.8884437680244446,0.2817259132862091
5130,1734173423,18206357,-0.7191210522557717,0.12954024049418753,0.9838349992954948,-0.7471939837018899,-0.5004614027277624,0.0801216998482603,0.42990702286992877,0,-1,0.13070295751094818,-1.6326077620135706,-1.0936301390277308,-1.3354695479022425,0.8925326466560364,0.28300711512565613
5147,1734173423,33851385,-0.7208032921803745,0.12855433215056788,0.9802229153032641,-0.7474884058524747,-0.5020591677444294,0.07995223530172262,0.42755738242972136,0,-1,0.13131339848041534,-1.6328476111041468,-1.0987175146686,-1.3344033400165003,0.8965855836868286,0.2842886745929718
5162,1734173423,50101041,-0.7223787560536874,0.12764606040186377,0.9766222819198124,-0.7478031670078855,-0.5035948900765831,0.07980078579775175,0.42522281769419673,0,-1,0.13192348182201385,-1.6331713835345667,-1.1038396994220179,-1.3332999388324183,0.9006984233856201,0.2855702340602875
5179,1734173423,65917491,-0.7239657471218264,0.12669692279936018,0.9729909710973809,-0.7481141981129222,-0.5051605736417085,0.07962549243778265,0.4228447970282712,0,-1,0.13255788385868073,-1.633446995412008,-1.1088669935809534,-1.332245175038473,0.904810905456543,0.2869117259979248
5194,1734173423,82177639,-0.7255258197882258,0.12575973554087427,0.9694913381031394,-0.7484313772894796,-0.5066436170211003,0.07953323139579116,0.42052013498058893,0,-1,0.1331559717655182,-1.633782688771383,-1.1138103644000452,-1.3311427275287073,0.9088634252548218,0.28815770149230957
5210,1734173423,97846269,-0.7270825440517897,0.12482835310955011,0.9659576569028225,-0.7487307602431768,-0.5081467880670779,0.07940973112614742,0.4181903693836813,0,-1,0.13371886312961578,-1.634118382130758,-1.1186698118792933,-1.3301003615008753,0.9129642844200134,0.28941529989242554
5226,1734173423,114090681,-0.728625904162648,0.12392441770834642,0.962377875189838,-0.7490389687334227,-0.5096643791132082,0.07925248428422169,0.41581472763323074,0,-1,0.13429297506809235,-1.6343825499164026,-1.123732868825094,-1.3289855162249964,0.9170891046524048,0.2906844913959503
5242,1734173423,129813432,-0.7301085509769317,0.12299762190908257,0.958761293809728,-0.7493526947664577,-0.5111552483021229,0.07907892509310005,0.4134457335437905,0,-1,0.13489145040512085,-1.634646240864889,-1.1288912932025355,-1.3279183546649378,0.9212139248847961,0.29202598333358765
5259,1734173423,146126031,-0.7315828463966074,0.12211502725125764,0.9550764717146528,-0.749687416340312,-0.5126364286628937,0.07888116271968035,0.411035803740663,0,-1,0.13545432686805725,-1.6348984877215784,-1.1339781920062464,-1.3268283049212855,0.9252787828445435,0.2933075428009033
5274,1734173423,161795139,-0.7330861029897043,0.12115658269163086,0.9513931593390235,-0.749992995246379,-0.5141357937843053,0.07864922132645517,0.4086431115483161,0,-1,0.13606439530849457,-1.635186020527975,-1.1391013304339808,-1.3257134596454065,0.9293193817138672,0.29455316066741943
5290,1734173423,178140878,-0.7345203570149798,0.12022433048790163,0.9477991911795504,-0.750304925809933,-0.5156008165841413,0.07848874436491547,0.40624848707550465,0,-1,0.13663889467716217,-1.6354859511004847,-1.1439841429339808,-1.3246944586383265,0.9334685206413269,0.29591861367225647
5307,1734173423,193873643,-0.7359298992838905,0.1193063725825406,0.9442788348603162,-0.7506414782555366,-0.5170003592473713,0.0784036028249095,0.40385749308946284,0,-1,0.1372489631175995,-1.6357858816729944,-1.148975674306051,-1.3235562483416956,0.937640905380249,0.2972601056098938
5322,1734173423,210151195,-0.7373085609494733,0.11839450995827572,0.9406699383041067,-0.7509755385065493,-0.5184090888961856,0.07823995136545046,0.4014551869448904,0,-1,0.1378358155488968,-1.636073414479391,-1.153954807912008,-1.3224294821368616,0.9416942000389099,0.2986135482788086
5339,1734173423,225790262,-0.7386623637008326,0.11747223213629857,0.937101331143843,-0.7513286271778565,-0.5197733004313764,0.07812844593109333,0.3990450551981617,0,-1,0.1384342759847641,-1.6363733450519007,-1.1589224974261683,-1.3213985602008265,0.9458190202713013,0.2999550402164459
5354,1734173423,242140054,-0.7400491200314846,0.11649724916511947,0.9333930381381939,-0.7516264698399354,-0.5212329182675106,0.07788972447089254,0.3966195728555761,0,-1,0.13908030092716217,-1.6365888754474085,-1.1640213171588343,-1.3202956358539026,0.9499075412750244,0.3012605905532837
5370,1734173423,257877588,-0.7413267578519239,0.11558213616356668,0.9297823978124654,-0.7519430558218915,-0.5226405074655696,0.07770170494567306,0.3941966334279167,0,-1,0.13966678082942963,-1.6368292013751429,-1.169084374104635,-1.3192294279681605,0.9540087580680847,0.3025661110877991
5386,1734173423,274156808,-0.7426168662415582,0.11465070122065713,0.9261782038260623,-0.7522706947348697,-0.5240364809155665,0.07752704268045003,0.3917449759294548,0,-1,0.14025288820266724,-1.6371172110186976,-1.174051586781637,-1.3182223478900355,0.9581096172332764,0.3038596510887146
5402,1734173423,289755105,-0.743918856134336,0.11367935182817229,0.9225588858171911,-0.7525579156793523,-0.5254477133732148,0.0773270211975746,0.3893350945547018,0,-1,0.1409236341714859,-1.6373809019671839,-1.1790068785296839,-1.3171079794513147,0.962210476398468,0.3051528334617615
