yildirimyigit/pemp/data/ur10/raw/16_2024-12-14_13-51-39.csv
Time,ROS secs,ROS nsecs,________p_x________,________p_y________,________p_z________,________q_x________,________q_y________,________q_z________,________q_w________,gripper_position,gripper_force,shoulder_pan_joint,shoulder_lift_joint,elbow_joint,wrist_1_joint,wrist_2_joint,wrist_3_joint
0,1734173499,846280097,-0.00022965685108969529,0.2561410144340097,1.4272999767911332,-0.7071067821690603,1.7029139312684004e-05,-8.382995797086474e-06,0.7071067799492881,0,-1,-4.7985707418263246e-05,-1.5709646383868616,-1.1746083394825746e-05,-1.570723835621969,2.3968450477696024e-05,0.00015579492901451886
13,1734173499,862457752,-0.00012807331982694938,0.2561410049364875,1.4272999925999765,-0.7071067804950265,4.2362008782913055e-05,3.414578794450069e-05,0.7071067797846968,0,-1,-4.7985707418263246e-05,-1.5709765593158167,-1.1746083394825746e-05,-1.5706880728351038,2.3968450477696024e-05,0.00014381069922819734
29,1734173499,878806829,-0.00017977504128515123,0.25614101146562124,1.427299984927225,-0.7071067794210878,5.50508169867912e-05,2.116455509257727e-05,0.7071067804923145,0,-1,-3.5587941304981996e-05,-1.57092792192568,-1.1746083394825746e-05,-1.5707357565509241,1.1984225238848012e-05,0.00015579492901451886
45,1734173499,893971920,-0.0001681530786640814,0.25614101071642087,1.427299986990723,-0.7071067810404128,4.253059303685447e-05,2.5592584199480094e-05,0.7071067795904902,0,-1,-4.7985707418263246e-05,-1.5709765593158167,-2.366701234990387e-05,-1.570711914693014,0.0,0.00014381069922819734
61,1734173499,909887313,-0.00012013557726953717,0.2561410078398539,1.427299992748184,-0.7071067791990748,5.9557919718865126e-05,4.2619911012603733e-05,0.7071067793813803,0,-1,-5.990663637334137e-05,-1.5709527174579065,-2.366701234990387e-05,-1.5706999937640589,2.3968450477696024e-05,0.00015579492901451886
77,1734173499,926366806,-0.00014606007639899186,0.2561410112568058,1.4272999892795766,-0.7071067795773577,5.496130479002957e-05,2.993110118303686e-05,0.7071067800262717,0,-1,-3.5587941304981996e-05,-1.5709646383868616,3.5762786865234375e-05,-1.5707357565509241,3.5952674807049334e-05,0.00013182648399379104
93,1734173499,942116022,-0.0001533909215511917,0.25614100787189087,1.4272999892385574,-0.7071067810281875,3.428687067976509e-05,1.7304105351649197e-05,0.7071067803019098,0,-1,-5.990663637334137e-05,-1.5709403196917933,-1.1746083394825746e-05,-1.5707357565509241,0.0,0.00014381069922819734
109,1734173499,958404302,-0.0002115891844227439,0.2561410078755404,1.427299980874943,-0.7071067833778634,4.1544845596451445e-06,4.4123897083066935e-06,0.7071067789692603,0,-1,-5.990663637334137e-05,-1.57092792192568,2.384185791015625e-05,-1.5707476774798792,2.3968450477696024e-05,0.00014381069922819734
125,1734173499,974442720,-0.00016656892618256887,0.2561410106747478,1.4272999871150018,-0.7071067792787613,4.6559633514672334e-05,-4.1064904194904165e-06,0.707106781549544,0,-1,-5.990663637334137e-05,-1.5709527174579065,0.0,-1.5707357565509241,1.1984225238848012e-05,0.0001917476038215682
140,1734173499,990034103,-0.00015659964417303227,0.2561410059185759,1.4272999891825466,-0.707106780597285,4.233963049902877e-05,4.259753592083181e-05,0.7071067792251382,0,-1,-3.5587941304981996e-05,-1.5709527174579065,0.0,-1.5707600752459925,2.3968450477696024e-05,0.00017976337403524667
157,1734173500,6201505,-0.0001773462973682163,0.25614101587240284,1.4272999846591508,-0.7071067808939167,4.2423826086039394e-05,4.901263881913006e-07,0.7071067802063712,0,-1,-1.1746083394825746e-05,-1.5709403196917933,3.5762786865234375e-05,-1.570723835621969,0.0,0.00016777915880084038
173,1734173500,21982669,-0.0001985804947807606,0.25614100741258794,1.427299983347932,-0.7071067823097738,2.11594361875961e-05,2.1417341486330283e-05,0.7071067794223825,0,-1,-1.1746083394825746e-05,-1.5709403196917933,-1.1746083394825746e-05,-1.570711914693014,0.0,0.00014381069922819734
188,1734173500,38263082,-0.00014815479778949582,0.2561410154470811,1.42729998832217,-0.7071067793887312,5.917598965224991e-05,1.7287046639105405e-05,0.7071067802969057,0,-1,-4.7985707418263246e-05,-1.5709527174579065,-3.5587941304981996e-05,-1.5707476774798792,-1.1746083394825746e-05,0.00014381069922819734
205,1734173500,54032325,-0.00019572416725854803,0.25614100982383015,1.427299983325528,-0.7071067824247501,2.5458512289044586e-05,2.542400063049923e-05,0.7071067790329841,0,-1,-7.135072817021637e-05,-1.5709527174579065,-1.1746083394825746e-05,-1.5707600752459925,2.3968450477696024e-05,0.00015579492901451886
220,1734173500,70353507,-0.00015846373088935158,0.2561410100896179,1.427299988307592,-0.7071067812108325,3.847917856790366e-05,3.0015297332200568e-05,0.7071067794782416,0,-1,-2.366701234990387e-05,-1.570916000996725,1.1920928955078125e-05,-1.5706999937640589,3.5952674807049334e-05,0.00015579492901451886
237,1734173500,86077451,-0.00020270219022854296,0.2561410051053742,1.4272999827933222,-0.7071067805429182,3.800111513797335e-05,2.974013709997902e-05,0.7071067801836359,0,-1,-2.366701234990387e-05,-1.5709403196917933,1.1920928955078125e-05,-1.570723835621969,2.3968450477696024e-05,0.00016777915880084038
253,1734173500,102524995,-0.00019015301299143148,0.2561410144560971,1.4272999826924144,-0.7071067780798317,6.327216056173521e-05,4.51384174918247e-06,0.7071067814480487,0,-1,-1.1746083394825746e-05,-1.570916000996725,2.384185791015625e-05,-1.570723835621969,1.1984225238848012e-05,0.00015579492901451886
269,1734173500,118325471,-0.00016954813161954038,0.2561410129856633,1.4272999861116755,-0.7071067797519612,5.0622789449515414e-05,8.644332640833466e-06,0.7071067807562166,0,-1,-2.366701234990387e-05,-1.570916000996725,-4.7985707418263246e-05,-1.5707357565509241,0.0,0.0001917476038215682
285,1734173500,133797645,-0.00020767058421598122,0.25614100516999355,1.4272999823237886,-0.7071067820232005,2.5334678859684807e-05,3.402195386174136e-05,0.7071067790775695,0,-1,-2.366701234990387e-05,-1.57092792192568,-2.366701234990387e-05,-1.5707357565509241,3.5952674807049334e-05,0.00016777915880084038
301,1734173500,149893283,-0.00018747928869316093,0.25614100475171453,1.4272999851649206,-0.7071067797317488,4.6475238491032e-05,2.9740133584850233e-05,0.7071067804886138,0,-1,-8.32716571252945e-05,-1.57092792192568,-2.366701234990387e-05,-1.570723835621969,2.3968450477696024e-05,0.00016777915880084038
317,1734173500,165744066,-0.00014189533767669169,0.2561410019272885,1.427299991294439,-0.7071067783904249,6.369353285608532e-05,5.5387797652485495e-05,0.7071067789447645,0,-1,-5.990663637334137e-05,-1.5709765593158167,2.384185791015625e-05,-1.570723835621969,3.5952674807049334e-05,0.00014381069922819734
333,1734173500,181899309,-0.00016507554922388134,0.2561410062533207,1.42729998815779,-0.7071067805947052,4.2384383875412414e-05,3.4168163012799144e-05,0.7071067796825965,0,-1,-3.5587941304981996e-05,-1.5709527174579065,0.0,-1.5707357565509241,3.5952674807049334e-05,0.00013182648399379104
349,1734173500,198011159,-0.00021062782005373774,0.2561410105389924,1.427299980856875,-0.7071067827611496,2.1305644701939905e-05,2.127113301083888e-05,0.7071067789710298,0,-1,-2.366701234990387e-05,-1.5709646383868616,-1.1746083394825746e-05,-1.5707357565509241,2.3968450477696024e-05,0.00016777915880084038
365,1734173500,214074373,-0.00015417684046911535,0.2561410039370612,1.4272999900435317,-0.7071067809165815,3.84224838989088e-05,3.863563270044974e-05,0.7071067793571139,0,-1,-2.366701234990387e-05,-1.5709527174579065,2.384185791015625e-05,-1.570723835621969,-1.1746083394825746e-05,0.0001917476038215682
381,1734173500,230116128,-0.0001727585453857483,0.25614101321472865,1.427299985706653,-0.7071067809360237,3.416304212456982e-05,-7.815414741045786e-06,0.7071067805686069,0,-1,-2.366701234990387e-05,-1.5709403196917933,3.5762786865234375e-05,-1.570723835621969,1.1984225238848012e-05,0.00015579492901451886
396,1734173500,246100902,-0.0001492656836284937,0.25614100961804537,1.4272999892352083,-0.7071067801207818,4.670052056265249e-05,2.1288385577963096e-05,0.7071067803896992,0,-1,-3.5587941304981996e-05,-1.5709403196917933,1.1920928955078125e-05,-1.570723835621969,1.1984225238848012e-05,0.00014381069922819734
412,1734173500,262333393,-0.00017439092721646066,0.2561410043823635,1.4272999871422702,-0.7071067808522191,3.79563582574878e-05,4.6643633365353756e-05,0.707106778963756,0,-1,-3.5587941304981996e-05,-1.5709403196917933,1.1920928955078125e-05,-1.5707476774798792,-1.1746083394825746e-05,0.00014381069922819734
429,1734173500,277842760,-0.00013028566960957528,0.25614100676316903,1.4272999920094804,-0.7071067798104291,5.112855324666155e-05,3.414578795392324e-05,0.7071067798897571,0,-1,-4.7985707418263246e-05,-1.570916000996725,1.1920928955078125e-05,-1.5707357565509241,1.1984225238848012e-05,0.00014381069922819734
445,1734173500,293813467,-0.00022162627424492787,0.2561410053943477,1.4272999799367376,-0.7071067841824296,-1.2647560827128957e-05,1.2987969123086539e-05,0.707106777958276,0,-1,-4.7985707418263246e-05,-1.5709403196917933,-1.1746083394825746e-05,-1.5707476774798792,2.3968450477696024e-05,0.00014381069922819734
461,1734173500,310132026,-0.00020938361413635518,0.25614100785663735,1.4272999813322955,-0.707106780232205,3.810768604366725e-05,1.2943211430917927e-05,0.7071067809955732,0,-1,-1.1746083394825746e-05,-1.5709646383868616,-2.366701234990387e-05,-1.570711914693014,3.5952674807049334e-05,0.00015579492901451886
477,1734173500,325921773,-0.0001947748971154339,0.25614100492437974,1.4272999839804703,-0.7071067794405693,5.071230355605784e-05,3.397719865471173e-05,0.707106780297713,0,-1,-3.5587941304981996e-05,-1.5709403196917933,-1.1746083394825746e-05,-1.570723835621969,3.5952674807049334e-05,0.00015579492901451886
492,1734173500,341912508,-0.0001322212549159476,0.25614100671700935,1.4272999919757925,-0.7071067798403224,5.5343237494008626e-05,6.378285349549278e-05,0.7071067774903048,0,-1,-4.7985707418263246e-05,-1.5709646383868616,0.0,-1.570711914693014,3.5952674807049334e-05,0.00015579492901451886
509,1734173500,358018398,-0.00018273770502531464,0.25614100688188046,1.4272999857623205,-0.7071067817044075,2.5565086678198246e-05,1.7348865767443194e-05,0.7071067799937139,0,-1,-2.366701234990387e-05,-1.57092792192568,-1.1746083394825746e-05,-1.5707357565509241,2.3968450477696024e-05,0.00017976337403524667
524,1734173500,373960971,-0.00021067908019695565,0.2561410027286071,1.4272999822281365,-0.7071067815612367,1.698950815393784e-05,1.7157899778220574e-05,0.707106780399589,0,-1,-4.7985707418263246e-05,-1.570916000996725,1.1920928955078125e-05,-1.570723835621969,0.0,0.00017976337403524667
540,1734173500,390173196,-0.0002329650972407919,0.25614100858991845,1.427299977301653,-0.7071067838902797,6.363312436985746e-08,8.795665791158406e-06,0.707106778428108,0,-1,-3.5587941304981996e-05,-1.5709040800677698,-1.1746083394825746e-05,-1.570723835621969,4.793690095539205e-05,0.00017976337403524667
556,1734173500,406083345,-0.00016022578562154607,0.2561410102746282,1.427299988024606,-0.707106781145864,3.405646605974036e-05,8.64433101627826e-06,0.7071067803542601,0,-1,-2.366701234990387e-05,-1.57092792192568,-5.990663637334137e-05,-1.570723835621969,2.3968450477696024e-05,0.00015579492901451886
572,1734173500,422162294,-0.00013995913900360495,0.25614100908038445,1.4272999901376036,-0.7071067777346064,7.210052392363548e-05,3.82142621055964e-05,0.7071067799299952,0,-1,-5.990663637334137e-05,-1.5709527174579065,2.384185791015625e-05,-1.5707357565509241,2.3968450477696024e-05,0.00014381069922819734
588,1734173500,437705278,-0.00012689548194670522,0.25614100662035133,1.4272999919631142,-0.7071067784801772,6.379498634250963e-05,3.833809420135641e-05,0.7071067799758223,0,-1,-4.7985707418263246e-05,-1.5709527174579065,0.0,-1.5707719961749476,2.3968450477696024e-05,0.00014381069922819734
605,1734173500,453930854,-0.00018772672905696517,0.2561410045920467,1.4272999856126782,-0.7071067832616784,4.3797658868775694e-06,3.0015295972749188e-05,0.7071067784608074,0,-1,-4.7985707418263246e-05,-1.5709403196917933,-1.1746083394825746e-05,-1.570711914693014,1.1984225238848012e-05,0.00015579492901451886
621,1734173500,470237731,-0.00013732101120923944,0.2561410018139694,1.4272999922004808,-0.7071067805144996,3.833297002830701e-05,5.544961487173755e-05,0.7071067786454481,0,-1,-7.135072817021637e-05,-1.5709527174579065,-2.366701234990387e-05,-1.5706999937640589,1.1984225238848012e-05,0.00016777915880084038
636,1734173500,486450433,-0.00017429879881224883,0.2561410111441789,1.427299985998977,-0.7071067799735932,4.26371705972833e-05,2.7678180103694095e-07,0.7071067811139783,0,-1,-5.990663637334137e-05,-1.5709527174579065,-2.366701234990387e-05,-1.570711914693014,3.5952674807049334e-05,0.00014381069922819734
653,1734173500,502074718,-0.0002006660812686386,0.2561410127237541,1.4272999816536764,-0.7071067808013825,2.5441256423423164e-05,-1.6919132388029933e-05,0.7071067809116182,0,-1,-2.366701234990387e-05,-1.5709765593158167,-2.366701234990387e-05,-1.5707357565509241,2.3968450477696024e-05,0.00016777915880084038
669,1734173500,518394947,-0.00017275157745145982,0.25614100876782087,1.427299986739406,-0.7071067821406408,2.5879883225848263e-05,1.7371244040428636e-05,0.7071067795454798,0,-1,-1.1746083394825746e-05,-1.5709646383868616,-1.1746083394825746e-05,-1.5707357565509241,2.3968450477696024e-05,0.00015579492901451886
685,1734173500,534039735,-0.00015006339890122575,0.2561410056859644,1.4272999901521555,-0.7071067811902112,3.4056467988953803e-05,3.431437339721653e-05,0.7071067795301494,0,-1,-3.5587941304981996e-05,-1.570916000996725,1.1920928955078125e-05,-1.570711914693014,3.5952674807049334e-05,0.0001917476038215682
701,1734173500,550262689,-0.00012758614856876816,0.25614100165327625,1.4272999931181232,-0.7071067800164822,3.820401850860269e-05,6.379479097168406e-05,0.7071067784467915,0,-1,-5.990663637334137e-05,-1.5709527174579065,3.5762786865234375e-05,-1.570723835621969,4.793690095539205e-05,0.000215716048842296
717,1734173500,566240549,-0.00017652931978437124,0.25614100894909847,1.427299986131662,-0.7071067808829401,4.259241025357734e-05,3.4083771137644685e-05,0.7071067793859346,0,-1,-5.990663637334137e-05,-1.5709403196917933,0.0,-1.5707476774798792,-1.1746083394825746e-05,0.00014381069922819734
733,1734173500,582538127,-0.00018612061972525659,0.2561410047129379,1.4272999857044464,-0.7071067813076582,2.544125293781482e-05,1.7180274856830175e-05,0.7071067803990457,0,-1,-5.990663637334137e-05,-1.5709403196917933,1.1920928955078125e-05,-1.570723835621969,2.3968450477696024e-05,0.00015579492901451886
749,1734173500,598284006,-0.00015422178327051153,0.2561410038586734,1.4272999900868488,-0.7071067816310701,2.9841784451955733e-05,4.7003187061819536e-05,0.7071067785501128,0,-1,-7.135072817021637e-05,-1.5709403196917933,1.1920928955078125e-05,-1.570723835621969,1.1984225238848012e-05,0.00013182648399379104
765,1734173500,614045619,-0.00021827065581734066,0.25614100814642504,1.4272999795968366,-0.7071067817245991,2.522791189111576e-05,1.7011690978955995e-05,0.7071067799938245,0,-1,-2.366701234990387e-05,-1.5709646383868616,-1.1746083394825746e-05,-1.5707357565509241,4.793690095539205e-05,0.00015579492901451886
781,1734173500,630220651,-0.00015434482850406936,0.2561410039675208,1.427299989078595,-0.7071067780143916,6.773963029606681e-05,5.1004525420212975e-05,0.7071067792745214,0,-1,-2.366701234990387e-05,-1.5709527174579065,0.0,-1.5707357565509241,0.0,0.00015579492901451886
797,1734173500,646355628,-0.00017148082343480011,0.2561410087399476,1.4272999869332748,-0.7071067807852716,4.257535152424887e-05,2.5592586134281354e-05,0.7071067798429378,0,-1,-3.5587941304981996e-05,-1.5709646383868616,-2.366701234990387e-05,-1.5707357565509241,3.5952674807049334e-05,0.0001917476038215682
813,1734173500,662276268,-0.00013885419343890137,0.2561410090208118,1.427299990177093,-0.7071067780025181,6.786346238740587e-05,2.550307365879985e-05,0.7071067806541254,0,-1,-3.5587941304981996e-05,-1.5709646383868616,-1.1746083394825746e-05,-1.5707476774798792,3.5952674807049334e-05,0.00016777915880084038
829,1734173500,678617238,-0.00016023461912529583,0.25614100820029057,1.4272999880590884,-0.7071067798428103,5.079137846028732e-05,3.3808613165775856e-05,0.7071067798978771,0,-1,-3.5587941304981996e-05,-1.5709527174579065,3.5762786865234375e-05,-1.570723835621969,0.0,0.00017976337403524667
845,1734173500,694293022,-0.00020714741414213706,0.2561410000773801,1.4272999835057802,-0.7071067829174947,1.2769500952119506e-05,5.514013588248943e-05,0.7071067771903874,0,-1,-2.366701234990387e-05,-1.57092792192568,0.0,-1.570711914693014,2.3968450477696024e-05,0.00014381069922819734
861,1734173500,710511445,-0.00012952770016762458,0.256141008462093,1.4272999916710776,-0.7071067804348695,3.414066538114422e-05,-8.219723425746843e-06,0.7071067810662577,0,-1,-3.5587941304981996e-05,-1.5709527174579065,1.1920928955078125e-05,-1.5707357565509241,2.3968450477696024e-05,0.00017976337403524667
877,1734173500,726082324,-0.00017248423947854874,0.2561410131752938,1.4272999857572908,-0.7071067815302005,2.9903598478322145e-05,-3.600731509833447e-06,0.707106780201414,0,-1,-5.990663637334137e-05,-1.5709646383868616,-1.1746083394825746e-05,-1.5707357565509241,2.3968450477696024e-05,0.0002037318336078897
893,1734173500,742250204,-0.00020926629088456478,0.2561410077465267,1.4272999816063432,-0.7071067833716149,1.2730062729141089e-05,2.146209543205619e-05,0.7071067785611816,0,-1,-5.990663637334137e-05,-1.5709646383868616,0.0,-1.5707476774798792,-1.1746083394825746e-05,0.00015579492901451886
909,1734173500,758186578,-0.00021099832891853672,0.2561410027124942,1.4272999822629395,-0.7071067821218118,8.431182174461164e-06,1.7073700685517787e-05,0.707106779994889,0,-1,-4.7985707418263246e-05,-1.5709527174579065,-1.1746083394825746e-05,-1.5707357565509241,3.5952674807049334e-05,0.0001917476038215682
925,1734173500,774356842,-0.00017689982866375968,0.25614100233183323,1.42729998729509,-0.7071067805306094,3.819207761021006e-05,3.836046926042834e-05,0.7071067797705494,0,-1,-3.5587941304981996e-05,-1.57092792192568,-1.1746083394825746e-05,-1.5707357565509241,2.3968450477696024e-05,0.00016777915880084038
941,1734173500,790532588,-0.00019189907094937543,0.2561410047503822,1.427299984846791,-0.7071067821655674,2.1052859756600085e-05,3.821426235654139e-05,0.7071067788615124,0,-1,-4.7985707418263246e-05,-1.570916000996725,-1.1746083394825746e-05,-1.5707357565509241,2.3968450477696024e-05,0.00016777915880084038
957,1734173500,806233882,-0.00016999523583676558,0.2561410108863669,1.4272999862822635,-0.7071067787754207,5.926550532509427e-05,1.690511656737793e-05,0.7071067809119533,0,-1,-5.990663637334137e-05,-1.570916000996725,2.384185791015625e-05,-1.5707357565509241,4.793690095539205e-05,0.00017976337403524667
973,1734173500,821988344,-0.00014177801443495612,0.256141001819975,1.427299991905211,-0.7071067812375216,3.407884435846535e-05,5.966961666122087e-05,0.7071067777967348,0,-1,-3.5587941304981996e-05,-1.5709765593158167,-1.1746083394825746e-05,-1.570711914693014,3.5952674807049334e-05,0.00015579492901451886
989,1734173500,838209629,-0.00016188767842611736,0.2561410021356364,1.4272999893603386,-0.707106781295526,2.5627096331201907e-05,3.426961489165849e-05,0.7071067797827472,0,-1,-7.135072817021637e-05,-1.5709403196917933,-3.5587941304981996e-05,-1.570711914693014,3.5952674807049334e-05,0.00016777915880084038
1005,1734173500,854032039,-0.00020185864253413044,0.25614100752925045,1.4272999826342574,-0.7071067817225444,2.52675432922401e-05,2.5525448687909198e-05,0.7071067797383849,0,-1,0.0,-1.57092792192568,-5.990663637334137e-05,-1.5706999937640589,3.5952674807049334e-05,0.00014381069922819734
1021,1734173500,870289325,-0.00014466019505505958,0.2561410131505769,1.4272999891349083,-0.7071067802343876,4.650955810353236e-05,4.575858498598311e-06,0.7071067805943315,0,-1,0.0,-1.5709403196917933,3.5762786865234375e-05,-1.570711914693014,0.0,0.00015579492901451886
1037,1734173500,886620998,-0.00013328822553158447,0.2561410103786297,1.4272999910054271,-0.707106779700276,5.525884304397837e-05,2.175451311650377e-05,0.7071067801789958,0,-1,-3.5587941304981996e-05,-1.5709884802447718,0.0,-1.5706999937640589,5.992112710373476e-05,0.00015579492901451886
1053,1734173500,902309179,-0.00016039159417421774,0.2561410102845612,1.427299988040964,-0.7071067810108614,3.854631600643763e-05,1.3134180934472403e-05,0.7071067801896206,0,-1,-3.5587941304981996e-05,-1.5709646383868616,-1.1746083394825746e-05,-1.5707476774798792,3.5952674807049334e-05,0.00014381069922819734
1069,1734173500,918149948,-0.00013786962311718935,0.2561410018733812,1.4272999921285434,-0.7071067801741188,4.261479199946149e-05,4.278318366975531e-05,0.707106779620567,0,-1,-3.5587941304981996e-05,-1.5709403196917933,2.384185791015625e-05,-1.5707476774798792,-1.1746083394825746e-05,0.0001917476038215682
1085,1734173500,934265851,-0.00021306873753772765,0.2561410053507194,1.4272999811288103,-0.7071067813975717,2.1181812775862163e-05,1.2920834714405089e-05,0.7071067805402164,0,-1,-1.1746083394825746e-05,-1.570916000996725,-2.366701234990387e-05,-1.5707357565509241,0.0,0.00016777915880084038
1101,1734173500,949971914,-0.0001877406865677149,0.25614100702682147,1.4272999849263235,-0.7071067818612556,2.1030483358876176e-05,2.128838876642994e-05,0.7071067798786417,0,-1,-3.5587941304981996e-05,-1.5709403196917933,1.1920928955078125e-05,-1.5707357565509241,1.1984225238848012e-05,0.0001917476038215682
1117,1734173500,966556787,-0.00016441844013571953,0.2561410060908954,1.4272999883813957,-0.7071067814329123,3.40959076078692e-05,5.1302068086382294e-05,0.7071067782571133,0,-1,-8.32716571252945e-05,-1.5709527174579065,-2.366701234990387e-05,-1.570711914693014,2.3968450477696024e-05,0.00017976337403524667
1133,1734173500,982248544,-0.00017023254300655515,0.25614100643684745,1.4272999871954586,-0.7071067791955763,5.9119296274543074e-05,5.090307544713992e-05,0.7071067788739153,0,-1,-3.5587941304981996e-05,-1.5709646383868616,1.1920928955078125e-05,-1.570723835621969,4.793690095539205e-05,0.0001917476038215682
1149,1734173500,998522043,-0.00017079295123149967,0.25614100647665416,1.42729998729509,-0.7071067800250813,4.6621447301656116e-05,2.993109957260353e-05,0.7071067801775989,0,-1,-1.1746083394825746e-05,-1.5709527174579065,1.1920928955078125e-05,-1.570711914693014,4.793690095539205e-05,0.00014381069922819734
1165,1734173501,14250755,-0.00018875004280259877,0.25614100477516855,1.4272999850663464,-0.7071067807935636,3.401683493091845e-05,2.575585688363161e-05,0.707106780292237,0,-1,-5.990663637334137e-05,-1.57092792192568,2.384185791015625e-05,-1.5707600752459925,1.1984225238848012e-05,0.00015579492901451886
1181,1734173501,30688524,-0.00018191478738760556,0.2561410067135544,1.4272999859740372,-0.7071067823104228,2.5497950570839087e-05,4.270411097603758e-05,0.7071067783134409,0,-1,-7.135072817021637e-05,-1.5709646383868616,-2.366701234990387e-05,-1.5707600752459925,5.992112710373476e-05,0.00014381069922819734
1197,1734173501,46389818,-0.00015335543485444757,0.25614100983114674,1.427299988550413,-0.7071067771087964,6.780164504460758e-05,2.7678184956080236e-07,0.70710678201363,0,-1,-3.5587941304981996e-05,-1.5709527174579065,-2.366701234990387e-05,-1.570723835621969,5.992112710373476e-05,0.00015579492901451886
1213,1734173501,62249183,-0.00020273887916271945,0.2561410050069281,1.427299983229077,-0.7071067830313911,8.470622499728272e-06,2.56320250183626e-05,0.7071067788263984,0,-1,-3.5587941304981996e-05,-1.5709403196917933,-3.5587941304981996e-05,-1.570711914693014,2.3968450477696024e-05,0.00017976337403524667
1229,1734173501,78500747,-0.00021320276989158642,0.2561410216722706,1.4272999781717899,-0.7071067817544998,2.956642372637828e-05,-2.0796645691869952e-05,0.7071067796946373,0,-1,-3.5587941304981996e-05,-1.5709527174579065,-3.5587941304981996e-05,-1.5707357565509241,0.0,0.00015579492901451886
1245,1734173501,94246387,-0.00017431942874049478,0.256141008896023,1.4272999862892866,-0.7071067800105939,4.682947685727245e-05,2.1372584648703336e-05,0.7071067804888186,0,-1,-3.5587941304981996e-05,-1.5709403196917933,-1.1746083394825746e-05,-1.570711914693014,1.1984225238848012e-05,0.00016777915880084038
1261,1734173501,110491752,-0.00017010157196415803,0.25614100867376327,1.4272999870829006,-0.7071067806855993,4.255297128442874e-05,2.557020592228222e-05,0.7071067799447669,0,-1,-2.366701234990387e-05,-1.5709403196917933,1.1920928955078125e-05,-1.570711914693014,3.5952674807049334e-05,0.00016777915880084038
1277,1734173501,126695871,-0.00019378858204343908,0.2561410098302641,1.4272999834896036,-0.707106780684159,3.8192077633184965e-05,1.2735185381932674e-05,0.7071067805428435,0,-1,-7.135072817021637e-05,-1.5709527174579065,-1.1746083394825746e-05,-1.5707476774798792,0.0,0.00016777915880084038
1293,1734173501,142372131,-0.00015746728267717488,0.25614101010937557,1.4272999882745316,-0.7071067796096073,5.5197025788623834e-05,2.9784890786026032e-05,0.7071067799818347,0,-1,-4.7985707418263246e-05,-1.57092792192568,0.0,-1.5707357565509241,-1.1746083394825746e-05,0.00017976337403524667
1309,1734173501,158558607,-0.00015522039269665825,0.2561410058694912,1.4272999892795766,-0.7071067801808315,4.655431532680989e-05,4.681222077307502e-05,0.7071067791102055,0,-1,-2.366701234990387e-05,-1.5709646383868616,0.0,-1.5707476774798792,3.5952674807049334e-05,0.00015579492901451886
1325,1734173501,174358606,-0.0001899122255274813,0.25614101197359146,1.4272999836623408,-0.7071067816680123,3.386550171749428e-05,2.5401620445786524e-05,0.7071067794378663,0,-1,-2.366701234990387e-05,-1.57092792192568,-1.1746083394825746e-05,-1.5707357565509241,2.3968450477696024e-05,0.00017976337403524667
1341,1734173501,190444707,-0.000215456953662953,0.25614100801318634,1.4272999805670916,-0.7071067828148292,1.2730066517839094e-05,1.2987971767529514e-05,0.7071067793243958,0,-1,-5.990663637334137e-05,-1.5709527174579065,2.384185791015625e-05,-1.570711914693014,3.5952674807049334e-05,0.00014381069922819734
1357,1734173501,206235170,-0.00016954116365977984,0.2561410086137669,1.4272999870281406,-0.7071067804884775,4.65766904461372e-05,3.806805135787211e-05,0.7071067793259059,0,-1,-4.7985707418263246e-05,-1.57092792192568,-1.1746083394825746e-05,-1.5707476774798792,3.5952674807049334e-05,0.0002037318336078897
1373,1734173501,221987247,-0.000140482548357111,0.2561410053450016,1.4272999911371367,-0.7071067804309251,4.248583765060071e-05,4.274374310418254e-05,0.7071067793739056,0,-1,-2.366701234990387e-05,-1.5709646383868616,-5.990663637334137e-05,-1.5707357565509241,2.3968450477696024e-05,0.00016777915880084038
1388,1734173501,238079786,-0.0002285275926983219,0.25614101150386104,1.427299977284803,-0.7071067799810491,4.25133385055995e-05,8.582319410257734e-06,0.7071067810619497,0,-1,-5.990663637334137e-05,-1.5709403196917933,2.384185791015625e-05,-1.570723835621969,0.0,0.00016777915880084038
1404,1734173501,254447460,-0.00017870833773041438,0.2561410067391455,1.4272999859251094,-0.7071067796592055,3.3511268650905326e-05,-8.388310780988338e-06,0.7071067818700502,0,-1,-2.366701234990387e-05,-1.5709765593158167,0.00022745132446289062,-1.5707839171039026,-0.00010711351503545075,9.58738019107841e-05
1420,1734173501,269700527,0.00015325620993551488,0.2561409833292731,1.4272999641497532,-0.7071067692209569,0.00021976751454910593,-4.197002381752314e-05,0.7071067577549072,0,-1,-0.00013143221010381012,-1.5709765593158167,0.0007424354553222656,-1.5709040800677698,-0.0005386511432092789,-8.374849428349762e-05
1437,1734173501,286166667,0.0006088799715594821,0.2561408953721198,1.427299668604802,-0.7071067875989528,0.0005288052183688627,-0.00010584755730684761,0.7071065691201186,0,-1,-0.0001671949969690445,-1.5709527174579065,0.001377105712890625,-1.5710118452655237,-0.0010059515582483414,-0.00021535554994756012
1453,1734173501,302324771,0.0010005765216013105,0.25614078705502774,1.4272992085298823,-0.7071068150385686,0.000791295657492638,-0.00013130418871034892,0.7071062923892022,0,-1,-0.00015527406801396637,-1.570916000996725,0.00164031982421875,-1.5709760824786585,-0.0012691656695764664,-0.00017911592592412262
1469,1734173501,318189144,0.0009729699251215867,0.2561408086376411,1.4272992716109214,-0.7071067845821905,0.000813043434521727,-5.898022105954944e-05,0.707106307905355,0,-1,-0.000119511281148732,-1.5708444754229944,0.0011014938354492188,-1.570820156727926,-0.0007899443255823257,-5.990663637334137e-05
1485,1734173501,334491729,0.0003836016941963287,0.2561409765807455,1.4272998805108752,-0.707106742244684,0.0004191720698242346,0.00013990145487164095,0.7071066820462588,0,-1,1.1984225238848012e-05,-1.570796314870016,-0.00020295778383427887,-1.5704124609576624,0.00025166873820126057,0.0002996056282427162
1501,1734173501,350043058,-0.0008173823095954015,0.2561408657703044,1.4272995659764713,-0.7071068471113421,-0.0004104683100218629,0.00038583463642646377,0.7071064908595147,0,-1,0.0002752626605797559,-1.5707724730121058,-0.002251450215474904,-1.5699566046344202,0.0019047427922487259,0.0007666159071959555
1516,1734173501,366292953,-0.0025518597845029835,0.2561397791437521,1.4272957830394082,-0.7071073526058816,-0.0015951044595172669,0.000674633613902698,0.7071040888030217,0,-1,0.0005385411204770207,-1.5708320776568812,-0.004741493855611623,-1.5694411436664026,0.0038810165133327246,0.0013894210569560528
1533,1734173501,382126331,-0.004849915655152106,0.25613670323994037,1.42728517044457,-0.7071085355238208,-0.003043093877097085,0.0009709699027503134,0.707097812036256,0,-1,0.0008857091306708753,-1.5710004011737269,-0.007699314747945607,-1.5688536802874964,0.006240785121917725,0.0021560369059443474
1548,1734173501,398408651,-0.007584613349765124,0.2561306005530418,1.4272646857183147,-0.7071105038501033,-0.004791757844869769,0.001297344445275717,0.7070856322249798,0,-1,0.0012328771408647299,-1.5712998549090784,-0.011028114949361623,-1.5683258215533655,0.008923754096031189,0.0029702153988182545
1565,1734173501,414078950,-0.010727946915373862,0.25612100890029754,1.4272304862254641,-0.707113850869052,-0.0067688815308031445,0.001581336763139368,0.7070655440098914,0,-1,0.0016395917627960443,-1.5717080275165003,-0.01472789445985967,-1.5677502791034144,0.01182243786752224,0.0038686576299369335
1580,1734173501,429922342,-0.014168016216458867,0.2561069468418481,1.4271803368730775,-0.707118126267064,-0.008923822600780432,0.0018229593682070478,0.7070367725330048,0,-1,0.002070649527013302,-1.5721038023578089,-0.01855928102602178,-1.5670908133136194,0.014912870712578297,0.004766725469380617
1597,1734173501,446285009,-0.017753453683738745,0.25608776395687716,1.4271133699178529,-0.7071239053846529,-0.011141777415362673,0.0021533717415679085,0.7069985899701113,0,-1,0.0025612537283450365,-1.5724275747882288,-0.02254659334291631,-1.5663474241839808,0.018015285953879356,0.0057846358977258205
1612,1734173501,462387561,-0.021230282558469538,0.2560632845589826,1.4270345834150948,-0.7071305198136408,-0.013321342366961959,0.002598480676639994,0.7069527690615587,0,-1,0.0030758262146264315,-1.5727031866656702,-0.026497666035787404,-1.5654962698565882,0.02133304439485073,0.006826514378190041
1629,1734173501,478179216,-0.024579847031646538,0.2560363824862493,1.4269426986509162,-0.7071388466886068,-0.015475507271875723,0.00309414325646576,0.7068985687183795,0,-1,0.003602383192628622,-1.5729549566852015,-0.030568424855367482,-1.5645611921893519,0.02467477135360241,0.007868767715990543
1645,1734173501,494045734,-0.027953951973531156,0.2560033324683516,1.4268373242005905,-0.7071488961412603,-0.017655024277617483,0.0037335781909743847,0.7068343506068772,0,-1,0.004093362018465996,-1.5730989615069788,-0.034627739583150685,-1.5635893980609339,0.028076792135834694,0.008994161151349545
1661,1734173501,510313034,-0.031238698342421375,0.255966885899174,1.4267195912545776,-0.7071595143606936,-0.01982978225835349,0.004360217651696451,0.7067624703440075,0,-1,0.004583591595292091,-1.5731948057757776,-0.038794819508687794,-1.5625584761248987,0.031657829880714417,0.0100240558385849
1677,1734173501,525957584,-0.03466911723168009,0.25592361496085647,1.426582770127285,-0.7071726974825653,-0.022046250478529667,0.005037573066187884,0.7066791079639139,0,-1,0.00514647550880909,-1.5733149687396448,-0.04311687151064092,-1.5615394751178187,0.03515572473406792,0.011185776442289352
1693,1734173501,542210578,-0.03828433104723174,0.25587549722592823,1.4264230749144884,-0.7071885189800065,-0.024309228597030597,0.00563472779295147,0.7065845383749786,0,-1,0.005661048460751772,-1.5735304991351526,-0.04767924944032842,-1.5604961554156702,0.03890491649508476,0.01238344982266426
1709,1734173501,557959794,-0.04199935258017374,0.2558189837763173,1.4262439388363175,-0.7072047386741187,-0.02673699252867029,0.006302849349022415,0.7064749570349091,0,-1,0.006247526500374079,-1.5737102667437952,-0.05224067369569951,-1.5594289938556116,0.04269043356180191,0.01358112320303917
1724,1734173501,574224472,-0.0458836190412805,0.25575593818138564,1.4260381673400984,-0.7072242570582876,-0.029206370407916626,0.0069287659900246195,0.7063517752209617,0,-1,0.006822020281106234,-1.5739505926715296,-0.05699378648866826,-1.5583856741534632,0.04654710367321968,0.014778796583414078
1741,1734173501,589959144,-0.04990348062600654,0.25568287009341467,1.4258078766610416,-0.7072450004024272,-0.03179808349630087,0.007558178227132629,0.706212620415141,0,-1,0.0073845298029482365,-1.5742505232440394,-0.061831299458638966,-1.5573905150042933,0.05051201209425926,0.016107922419905663
1756,1734173501,606496095,-0.054143538970534505,0.25560497736327925,1.4255459809961442,-0.7072694266117053,-0.034453493684731565,0.008064227368005982,0.7060579885464244,0,-1,0.007959024049341679,-1.5745862166034144,-0.06668025652040654,-1.556455437337057,0.05446493253111839,0.01736551709473133
1773,1734173501,622295379,-0.058230142659830564,0.2555214096809467,1.4252714568824578,-0.7072949412974209,-0.03706098281049478,0.00865062453574738,0.7058934170704099,0,-1,0.008557111024856567,-1.5749576727496546,-0.07144624391664678,-1.5554965178119105,0.05834595113992691,0.018611127510666847
1789,1734173501,638482332,-0.06234009450510286,0.2554331833045592,1.424976063733604,-0.7073223262509377,-0.039671730462520184,0.009198228174253842,0.7057171339761601,0,-1,0.009095652028918266,-1.5752576033221644,-0.07618695894350225,-1.554465119038717,0.062322840094566345,0.019820785149931908
1805,1734173501,654053211,-0.06631029975178504,0.25534091550897176,1.424669094858739,-0.7073513535257092,-0.042193421019468116,0.009767209091315501,0.705534109391309,0,-1,0.009646552614867687,-1.575533692036764,-0.08088046709169561,-1.553434197102682,0.0660960003733635,0.021078379824757576
1821,1734173501,670175552,-0.07018958270802934,0.25524747170780276,1.4243523694314528,-0.7073815400206634,-0.044642551452911405,0.010339563552168186,0.7053449460110417,0,-1,0.010173109360039234,-1.5757973829852503,-0.08539468446840459,-1.5524748007403772,0.06980923563241959,0.022288037464022636
1837,1734173501,686063528,-0.07399930133509879,0.2551501746197682,1.424019840169974,-0.7074139038579138,-0.04706537632918438,0.010877741678387709,0.705146859679228,0,-1,0.010699291713535786,-1.5760372320758265,-0.09005195299257451,-1.5514076391803187,0.07357078790664673,0.02344975806772709
1853,1734173501,702039241,-0.07777274807235625,0.25504516612932476,1.4236738486029012,-0.7074473548560166,-0.04947093145468379,0.011491559882878142,0.7049388704701206,0,-1,0.01117828581482172,-1.5761931578265589,-0.09452945390810186,-1.5504606405841272,0.07727203518152237,0.02463507279753685
1869,1734173501,718226909,-0.08142747236760763,0.25493678190125113,1.4233222993237453,-0.7074799129079341,-0.05183752612681754,0.012092605278897708,0.7047260550131534,0,-1,0.011716826818883419,-1.5764454046832483,-0.09895974794496709,-1.5494416395770472,0.08091374486684799,0.025748856365680695
1885,1734173501,733952283,-0.08507883427571836,0.25482348597164783,1.4229546555052408,-0.7075135524528312,-0.0541993473011093,0.012680235677310912,0.7045042338204055,0,-1,0.012195821851491928,-1.576637093220846,-0.10341340700258428,-1.548518482838766,0.08456743508577347,0.026946529746055603
1901,1734173501,750285625,-0.08879303355256278,0.25470549585861535,1.4225648575518264,-0.7075508952191524,-0.05657265190180244,0.013237528406504093,0.7042698584868307,0,-1,0.01278192549943924,-1.5768769423114222,-0.10789138475526983,-1.5475228468524378,0.08824509382247925,0.028060315176844597
1917,1734173501,766032934,-0.09250889849433812,0.2545818958579875,1.4221556270343874,-0.7075886500056294,-0.05898331504199941,0.01379859067061157,0.7040233446593742,0,-1,0.013308482244610786,-1.5771048704730433,-0.11247665086855108,-1.5465157667743128,0.09193436056375504,0.029246004298329353
1933,1734173501,782368183,-0.09633742753258301,0.25445243214093854,1.4217189967249928,-0.7076293485279983,-0.06142249846553701,0.014346514239656875,0.7037628572987232,0,-1,0.013871366158127785,-1.5773804823504847,-0.11714584032167608,-1.5455206076251429,0.09569591283798218,0.03046727180480957
1949,1734173501,798009872,-0.10025016152468218,0.2543093897603382,1.4212527871262968,-0.7076717101882688,-0.06391540187062435,0.014914222726966875,0.7034864163318139,0,-1,0.014433501288294792,-1.5776680151568812,-0.12193519273866826,-1.5444772879229944,0.09952899068593979,0.03167730197310448
1965,1734173501,814234972,-0.10433408408453897,0.2541581352542506,1.4207521994564911,-0.7077157614260685,-0.06651286692934782,0.015451180384659301,0.7031896618883696,0,-1,0.015031963586807251,-1.5779321829425257,-0.12672406831850225,-1.5434945265399378,0.10351824015378952,0.03289894387125969
1981,1734173501,830572128,-0.10841161093115663,0.2539976217331781,1.4202294924531222,-0.7077633894340851,-0.06912126883037568,0.016051301833140613,0.7028766538173793,0,-1,0.01563042588531971,-1.5782559553729456,-0.1316450277911585,-1.5423911253558558,0.10754343867301941,0.034144554287195206
1997,1734173501,846273183,-0.11258892150151173,0.2538323424023863,1.4196721457263657,-0.7078156462277212,-0.07178269218525465,0.01662897097175311,0.7025437590515561,0,-1,0.016240498051047325,-1.5785558859454554,-0.13662511507143194,-1.5413840452777308,0.11159223318099976,0.035414133220911026
2013,1734173501,862009763,-0.11676643424091014,0.25365261496838004,1.4190953156064388,-0.7078681219450439,-0.07445619487336315,0.01726013416347314,0.7021973260755378,0,-1,0.01683933474123478,-1.57884389558901,-0.14160567918886358,-1.540304962788717,0.1156533882021904,0.03674326092004776
2029,1734173501,878259181,-0.12101856920590472,0.25346051219247373,1.4184887073554755,-0.7079226472747574,-0.07715316673536715,0.01789914072848991,0.7018351195967509,0,-1,0.017521312460303307,-1.5791438261615198,-0.14671785036195928,-1.5392020384417933,0.11978607624769211,0.03812069818377495
2045,1734173501,894576311,-0.12520552272137322,0.2532679214898855,1.4178630986613814,-0.7079815009564552,-0.0798316860945306,0.018537108701365674,0.7014595296948662,0,-1,0.018131384626030922,-1.5794432798968714,-0.15185434023012334,-1.5381229559527796,0.12394310534000397,0.039389900863170624
2061,1734173501,910571575,-0.12954266235952008,0.25306187238629785,1.4171968061591051,-0.7080397956674329,-0.08261797618790125,0.019148332361737432,0.7010615230702649,0,-1,0.018718237057328224,-1.5797308127032679,-0.15700227419008428,-1.5370314756976526,0.12820760905742645,0.040671464055776596
2077,1734173501,926107645,-0.1339021245360911,0.25285286033793886,1.4164988900552957,-0.7080996842458518,-0.08543634983499804,0.019699371011844973,0.7006478445549765,0,-1,0.019376618787646294,-1.580055061970846,-0.16218597093691045,-1.5359647909747522,0.13243654370307922,0.041988980025053024
2093,1734173501,942458152,-0.13825877350710153,0.2526319617035452,1.4157819928775406,-0.708161912636524,-0.0882445649183347,0.020299484898330878,0.7002196320914006,0,-1,0.019987065345048904,-1.5803545157061976,-0.16742974916567022,-1.5348494688617151,0.136665478348732,0.04335443302989006
2109,1734173501,958429813,-0.1426019891580514,0.2524079277001972,1.415041451069374,-0.7082319250367802,-0.09103758471301118,0.02095339233131309,0.6997718584496863,0,-1,0.020645074546337128,-1.5806906859027308,-0.17259008089174444,-1.5337584654437464,0.14101389050483704,0.04465958848595619
2125,1734173501,974195718,-0.1469601855330957,0.2521775501945081,1.4142780390013405,-0.7083048576723919,-0.09379068594897375,0.02159348562625109,0.6993148484090858,0,-1,0.021243536844849586,-1.5810025374041956,-0.17779761949648076,-1.5326436201678675,0.14531472325325012,0.046060994267463684
2141,1734173501,990467309,-0.15132659988887381,0.2519303829239392,1.4134867797879944,-0.7083753797033319,-0.09662275185533237,0.02224408327093456,0.6988372958089021,0,-1,0.02186596766114235,-1.5813382307635706,-0.18304139772524053,-1.5315640608416956,0.14956724643707275,0.04748561978340149
2157,1734173502,6105422,-0.15567013200459165,0.2516899112304898,1.4126695915751262,-0.7084566432063558,-0.0993796765078844,0.022855917130053284,0.6983483884467083,0,-1,0.022488024085760117,-1.5816858450519007,-0.18834478059877569,-1.5304492155658167,0.15386809408664703,0.048910994082689285
2173,1734173502,22222042,-0.15998605064195695,0.2514435909402097,1.4118408853439004,-0.7085340698228001,-0.10202677779369691,0.023399104662252368,0.6978699666946414,0,-1,0.02312243916094303,-1.5819619337665003,-0.19357663789858037,-1.529238526021139,0.15789328515529633,0.050240494310855865
2189,1734173502,38428068,-0.16425961828086527,0.25118533536496557,1.4109953627099612,-0.7086132960126889,-0.10477236441214786,0.02405901865974181,0.6973601020926359,0,-1,0.02372090145945549,-1.582285229359762,-0.19862872758974248,-1.5281356016742151,0.16206267476081848,0.05162953957915306
2205,1734173502,54538965,-0.1685071627305024,0.2509286918274295,1.4101388303233262,-0.7086950611413226,-0.10745238749665963,0.024663320950248518,0.6968479140636568,0,-1,0.0243313480168581,-1.5826094786273401,-0.20364505449403936,-1.5269845167743128,0.16615977883338928,0.052983008325099945
2221,1734173502,70140361,-0.17258744519319347,0.250664879560619,1.409286284202361,-0.7087750692901204,-0.1100606191612,0.025304217378201634,0.6963363108768027,0,-1,0.024965763092041016,-1.58293325105776,-0.20869666734804326,-1.5258696714984339,0.1703287959098816,0.054312508553266525
2237,1734173502,86222171,-0.17677233012885807,0.2503934630179205,1.4083944276403821,-0.7088570998488094,-0.11272493461032687,0.025901185221730592,0.6958044478983605,0,-1,0.025564225390553474,-1.5832093397723597,-0.2137368361102503,-1.5248382727252405,0.17440193891525269,0.055605679750442505
2253,1734173502,102149724,-0.18091270846792104,0.2501210806121321,1.4074828283182834,-0.7089374492046819,-0.11539536724511103,0.02646365286135575,0.6952634589928904,0,-1,0.02611437626183033,-1.583461109791891,-0.21876508394350225,-1.5237115065204065,0.17847545444965363,0.05683930963277817
2269,1734173502,118757963,-0.1849769500555632,0.24983793181523367,1.4065661033505144,-0.7090222145543429,-0.11803410619956352,0.02707930340546206,0.6947101268652994,0,-1,0.026736807078123093,-1.5837486425982874,-0.22376948991884404,-1.5226438681231897,0.18258453905582428,0.0581568218767643
2285,1734173502,134668588,-0.1890075896592602,0.2495581330421428,1.4056358098126844,-0.7091097843623567,-0.12062505999408736,0.02769819333287428,0.6941510777266642,0,-1,0.027311675250530243,-1.5840485731707972,-0.22878533998598272,-1.5215171019183558,0.18670599162578583,0.059474337846040726
2301,1734173502,150171279,-0.1931507266652656,0.24925864749170884,1.4046626383899874,-0.7091991918695607,-0.12330907496926298,0.028318572911420193,0.6935628570721237,0,-1,0.02789740450680256,-1.5843003431903284,-0.23382550874818975,-1.5204742590533655,0.19083905220031738,0.060767512768507004
2317,1734173502,166429758,-0.19722948237286572,0.24896457257023988,1.4036810195740934,-0.7092888839230505,-0.12594538498220642,0.028900777574130457,0.6929731482535871,0,-1,0.028556162491440773,-1.584588352833883,-0.23882943788637334,-1.5193951765643519,0.19496013224124908,0.06206106022000313
2333,1734173502,182243347,-0.20133219391597135,0.24865697851694932,1.402670571682846,-0.7093853343890768,-0.12857903914925825,0.029496208297299004,0.6923654033393304,0,-1,0.029130656272172928,-1.5848763624774378,-0.2438576857196253,-1.5183160940753382,0.19906958937644958,0.06337857246398926
2349,1734173502,198365688,-0.20548432460429172,0.24833569922109927,1.4016258237758157,-0.709476689502785,-0.1312893294150401,0.030069583610969047,0.6917382157835296,0,-1,0.029788663610816002,-1.5851643721209925,-0.24889737764467412,-1.5172608534442347,0.20322662591934204,0.06463617086410522
2365,1734173502,214498281,-0.20952022465924935,0.24801466175388104,1.4005818339207072,-0.7095690632150989,-0.1339558614282548,0.03063301204614518,0.6911072205454388,0,-1,0.03038712590932846,-1.5854037443744105,-0.25394946733583623,-1.5162175337420862,0.2073241025209427,0.06591735780239105
2381,1734173502,230277299,-0.21360118109540152,0.24768755865610223,1.3995107351186897,-0.7096689135022081,-0.1365899907424341,0.03124108663008672,0.6904615862911918,0,-1,0.030973603948950768,-1.5857036749469202,-0.2590130011187952,-1.5151270071612757,0.21137364208698273,0.06724686175584793
2397,1734173502,245979070,-0.2177285453129003,0.2473607167951948,1.3984083970523011,-0.709770814607154,-0.13919243077651572,0.03175026417783879,0.6898135825504302,0,-1,0.031547725200653076,-1.5860274473773401,-0.26400500932802373,-1.5139878431903284,0.21544715762138367,0.06854040920734406
2413,1734173502,262229919,-0.22172765352320303,0.24702930900782,1.3973094719376227,-0.709870330958482,-0.14178869043962344,0.03234753325867311,0.6891543496056532,0,-1,0.032182514667510986,-1.5863149801837366,-0.26905709901918584,-1.5128968397723597,0.21948471665382385,0.06980998814105988
2429,1734173502,278027057,-0.22579849511911887,0.246687239110311,1.3961743267268971,-0.7099687263672914,-0.14444032572975823,0.032875561675614375,0.6884770129263578,0,-1,0.03274502232670784,-1.5866149107562464,-0.2739766279803675,-1.5118415991412562,0.2235698401927948,0.07110315561294556
2445,1734173502,294318914,-0.2297796194971232,0.24634897994693575,1.3950340422991492,-0.7100747505802512,-0.14700148252774,0.03341418469631163,0.687799320284719,0,-1,0.0333431102335453,-1.5868428389178675,-0.27899295488466436,-1.5107505957232874,0.22761976718902588,0.07230082899332047
2461,1734173502,310027122,-0.2337020350926708,0.24600086426545378,1.3938905334962657,-0.7101772170691604,-0.14961488394717712,0.03401418800555317,0.6871002415017028,0,-1,0.03392959013581276,-1.587095085774557,-0.2839611212359827,-1.5096715132342737,0.23175281286239624,0.07359437644481659
2477,1734173502,326229095,-0.2377198407374936,0.24564006860173732,1.3927067117809737,-0.7102910736286007,-0.1522156998586496,0.0346447094634496,0.686379425351798,0,-1,0.034504082053899765,-1.587311093007223,-0.28894120851625615,-1.508580509816305,0.23585030436515808,0.07487594336271286
2493,1734173502,342064380,-0.2416554307252412,0.24528709306578514,1.3915104053482992,-0.7104037789267723,-0.15476438415836286,0.035207367333999075,0.6856638371447433,0,-1,0.035054609179496765,-1.5875986258136194,-0.2939565817462366,-1.5075376669513147,0.23991182446479797,0.0762050673365593
2509,1734173502,358326435,-0.2455488619472345,0.24492304753180139,1.390310979967559,-0.7105165542545302,-0.15731452670987367,0.03581448143378851,0.684934806193952,0,-1,0.03568902239203453,-1.587862793599264,-0.29882890382875615,-1.506434742604391,0.24409319460391998,0.07748662680387497
2525,1734173502,374023437,-0.2495055789625467,0.24455172669856332,1.3890717420274028,-0.7106353652356553,-0.1599150321197088,0.03641415237269235,0.6841772940441079,0,-1,0.03627550229430199,-1.588114086781637,-0.3039043585406702,-1.5053556601153772,0.24820303916931152,0.07887604832649231
2540,1734173502,390281677,-0.2534828851929716,0.2441659217809637,1.387797712090264,-0.7107561769722802,-0.16252003157535963,0.036994483790972144,0.6834063976884708,0,-1,0.036861978471279144,-1.5883658568011683,-0.30905181566347295,-1.5043004194842737,0.25230053067207336,0.08018158376216888
2557,1734173502,406104564,-0.25757293677960685,0.24377326371884306,1.3864732068275494,-0.7108796489201781,-0.16516309015630795,0.03750374411440947,0.6826161055663311,0,-1,0.03746006637811661,-1.5886300245868128,-0.31417543092836553,-1.5032809416400355,0.2563740313053131,0.08154666423797607
2572,1734173502,422291040,-0.2615564520650588,0.24336914398856413,1.3851604040882446,-0.7109989253737565,-0.16776240155424588,0.0380799331194701,0.6818256547210086,0,-1,0.038106463849544525,-1.5888937155352991,-0.31922704378236944,-1.5021784941302698,0.26047152280807495,0.08285219222307205
2589,1734173502,438001394,-0.2655867987778505,0.24296433006605234,1.3838089831090705,-0.7111231432513108,-0.17036246664798954,0.038589894264974244,0.6810222647980068,0,-1,0.038752488791942596,-1.5892418066607874,-0.32423097292055303,-1.5011833349811,0.2646408975124359,0.08415772020816803
2605,1734173502,454304933,-0.26956547980285606,0.24254588498462176,1.3824569577941312,-0.711242745189481,-0.1730052017327807,0.03916134870048268,0.6801980199594011,0,-1,0.03932735696434975,-1.5895174185382288,-0.3292463461505335,-1.5001280943499964,0.26866722106933594,0.0854632556438446
2621,1734173502,470062494,-0.2735285783166709,0.24213865166761084,1.3810902974608126,-0.7113726285567892,-0.17557375564972283,0.039718619272957334,0.6793712320596933,0,-1,0.03993780538439751,-1.5898049513446253,-0.3342502752887171,-1.4990132490741175,0.27280065417289734,0.08676841109991074
2637,1734173502,486305952,-0.27739861912666375,0.2417330759805743,1.379723270735624,-0.7115003369076583,-0.17810664693657072,0.04028371001629018,0.6785444094564657,0,-1,0.040511924773454666,-1.590081040059225,-0.3392422834979456,-1.4978621641742151,0.2768745422363281,0.08799005299806595
2653,1734173502,502023458,-0.2813437989318875,0.2412924209889752,1.37831565625864,-0.7116228958962633,-0.18069454533708995,0.04086141370173251,0.677696598923098,0,-1,0.04114633798599243,-1.5903447310077112,-0.34426957765688115,-1.4966872374164026,0.2809600532054901,0.08929520845413208
2668,1734173502,518323421,-0.2852611039195163,0.24085643903795853,1.3768902067614646,-0.7117554881484445,-0.18323271271725974,0.041449319346108356,0.6768396058200111,0,-1,0.041720833629369736,-1.590644661580221,-0.34922534624208623,-1.4956205526935022,0.28506988286972046,0.09057677537202835
2685,1734173502,533914566,-0.28913553753172344,0.2404305911133403,1.3754496910899845,-0.7118855171873799,-0.18579290733713008,0.041943951583471875,0.6759738981111895,0,-1,0.0423312783241272,-1.590848747883932,-0.3542888800250452,-1.49449330965151,0.2891434133052826,0.09186995029449463
2701,1734173502,549950122,-0.29302243790453936,0.23999680013914687,1.3739863903093528,-0.7120160553424537,-0.18834108317729614,0.042487806906040704,0.6750967038776664,0,-1,0.04295371100306511,-1.5911720434771937,-0.3593404928790491,-1.4933784643756312,0.2932412624359131,0.09313952922821045
2716,1734173502,566123485,-0.2969600178785776,0.2395289688333756,1.3724976697417528,-0.7121530978073035,-0.190930054668727,0.043087536685573566,0.674186282632647,0,-1,0.04354018718004227,-1.5914719740497034,-0.3642485777484339,-1.492347542439596,0.29737505316734314,0.09445704519748688
2732,1734173502,582253932,-0.30087060555015316,0.23907883865256993,1.3709864158326281,-0.7122921939250831,-0.19348282406458378,0.04361148123652042,0.673277257873561,0,-1,0.04413827508687973,-1.591748062764303,-0.3693354765521448,-1.4912565390216272,0.30146095156669617,0.095750592648983
2749,1734173502,598488330,-0.3048130674327005,0.23861688917516552,1.369438818499931,-0.7124315179518158,-0.19606814969047434,0.04412834168616064,0.6723476053098238,0,-1,0.04470078647136688,-1.5920599142657679,-0.37438708940614873,-1.4901655356036585,0.3055947422981262,0.09703215211629868
2765,1734173502,614130496,-0.3087776282669499,0.2381558326625997,1.3678600946666628,-0.7125773644236848,-0.19864079450979805,0.04460871487983494,0.671405538422406,0,-1,0.04533519968390465,-1.5923479239093226,-0.3794749418841761,-1.4890983740436,0.3097405433654785,0.09836127609014511
2781,1734173502,630255460,-0.3126313751595254,0.23768099438952411,1.3662924627530746,-0.7127228184991756,-0.20121387773076654,0.045157478504873255,0.6704475829878285,0,-1,0.04594527184963226,-1.5926597754107874,-0.38452655473818,-1.4880192915545862,0.313838392496109,0.09963085502386093
2797,1734173502,646661996,-0.3166075264131929,0.23720003706607845,1.3646682677855861,-0.7128701868224153,-0.20379944661325058,0.04562769394577665,0.6694774050295483,0,-1,0.046460218727588654,-1.5929115454303187,-0.38954145113100225,-1.4869769255267542,0.31792426109313965,0.1009363904595375
2813,1734173502,662508010,-0.32037480073537355,0.23672943800865026,1.3630958769243129,-0.7130103265163885,-0.20633014882113127,0.0461541420673648,0.6685162220458591,0,-1,0.04713058844208717,-1.5932467619525355,-0.39453345934023076,-1.4858973662005823,0.3220101296901703,0.10219398140907288
2829,1734173502,678100585,-0.3242952968521905,0.23623831727276312,1.3614529581795194,-0.7131583510226842,-0.2088999748621667,0.046645194084905126,0.6675254247876806,0,-1,0.04770470783114433,-1.5935590902911585,-0.39947683015932256,-1.4848540464984339,0.3261682987213135,0.10345157980918884
2845,1734173502,694184541,-0.32808679926241874,0.2357456208667254,1.359811818322541,-0.7133083122388079,-0.21146202294397448,0.04717945043344186,0.6665201902420238,0,-1,0.048315152525901794,-1.5938347021686,-0.4045642058001917,-1.483715836201803,0.3302901089191437,0.10474512726068497
2861,1734173502,710319519,-0.3320179956717958,0.23523282284849512,1.3581093707162981,-0.7134525391624287,-0.21402067385224854,0.04763619694326393,0.6655159038424965,0,-1,0.048890020698308945,-1.5941346327411097,-0.4096034208880823,-1.4826605955706995,0.3343759775161743,0.1060263141989708
2877,1734173502,726429462,-0.3357693180572611,0.23474281973659294,1.3564433251503225,-0.713609662013547,-0.21650933055067442,0.0481760707565151,0.6645028414325053,0,-1,0.04951207712292671,-1.594398323689596,-0.4146669546710413,-1.4815095106707972,0.3384259045124054,0.10730787366628647
2893,1734173502,741921424,-0.33961331176879545,0.2342278133924432,1.3547283445435347,-0.7137668409683485,-0.21904205581780992,0.048676530702693364,0.6634667059287311,0,-1,0.05012252554297447,-1.5947225729571741,-0.4196580092059534,-1.480466667805807,0.3425956666469574,0.10858944058418274
2909,1734173502,758151769,-0.34345357877266675,0.23370454962253098,1.3530025506000811,-0.7139249600151032,-0.2215869329940905,0.0492075605314773,0.6624115024516458,0,-1,0.05072098597884178,-1.595057789479391,-0.4245660940753382,-1.4793995062457483,0.34669390320777893,0.11000283062458038
2924,1734173502,774162292,-0.34716676149191855,0.23318026937973457,1.351297735780541,-0.7140935373756065,-0.22402117574542701,0.04979488007161287,0.6613663149984912,0,-1,0.05130708962678909,-1.5953219572650355,-0.42959338823427373,-1.4782727400409144,0.35081610083580017,0.11135592311620712
2941,1734173502,789861202,-0.3510356583479467,0.23265462646009616,1.349501213518216,-0.7142629675807897,-0.2265274844682168,0.05026469235675915,0.6602932474480303,0,-1,0.051929522305727005,-1.5956457296954554,-0.43469268480409795,-1.4772055784808558,0.35491394996643066,0.1126614511013031
2957,1734173502,806008815,-0.3548734348839348,0.23211477721990675,1.347686345007085,-0.7144229491267376,-0.22910345363334017,0.050707247688793367,0.6591966567923095,0,-1,0.05250401422381401,-1.5959456602679651,-0.43975621858705694,-1.4761384169207972,0.35905975103378296,0.11397896707057953
2973,1734173502,822171926,-0.3586095406294517,0.2315738432463712,1.3458877037884198,-0.714590373102662,-0.23160630123060258,0.05122624626373936,0.6580995301571064,0,-1,0.05315041169524193,-1.5962217489825647,-0.44486695924867803,-1.4750478903399866,0.36313438415527344,0.11529648303985596
2989,1734173502,838308095,-0.362336928911924,0.2310301499330324,1.3440767399360216,-0.7147538586597965,-0.23407376913515063,0.05171974354329449,0.657009482626858,0,-1,0.05378482863306999,-1.5965212027179163,-0.44979840913881475,-1.4740164915667933,0.3672682046890259,0.11661362648010254
3005,1734173502,854452371,-0.36605469385385425,0.23047205195119264,1.342255998812394,-0.7149224235361825,-0.23658772072783418,0.052262108556978125,0.6558817353266807,0,-1,0.054407257586717606,-1.596821133290426,-0.45478994051088506,-1.4729741255389612,0.37143832445144653,0.11789481341838837
3021,1734173502,870547771,-0.3697628390709072,0.22991561339094002,1.340402462103974,-0.7150933138052089,-0.23907313309871386,0.0527602636162716,0.6547533460507026,0,-1,0.05501732975244522,-1.5971086660968226,-0.4597576300250452,-1.4718588034259241,0.37558412551879883,0.11916439235210419
3037,1734173502,886102199,-0.3734842416996437,0.22933739749857235,1.3385372631520498,-0.7152521334358736,-0.24161645091092904,0.05325973957494784,0.6536048319933433,0,-1,0.05561579391360283,-1.5973847548114222,-0.46478492418398076,-1.4708274046527308,0.37969470024108887,0.12045793980360031
3053,1734173502,902048110,-0.37715215794748624,0.22877710339247437,1.3366503271596415,-0.7154345828294436,-0.24405862167124687,0.05374261127248398,0.6524572619054875,0,-1,0.056250207126140594,-1.5976722876178187,-0.4698599020587366,-1.4697726408587855,0.383745014667511,0.12177545577287674
3068,1734173502,918296575,-0.3808923905119443,0.22820103701590297,1.33471087741246,-0.7155979690778711,-0.24659976812987586,0.054160894912084895,0.651286955552036,0,-1,0.056824326515197754,-1.597935978566305,-0.474863354359762,-1.468705956135885,0.3878428637981415,0.12305702269077301
3085,1734173502,933876752,-0.38453396032686255,0.22764174584031233,1.3327868902839515,-0.7157810481561583,-0.2490377562786102,0.05465250707626885,0.6501159823588905,0,-1,0.0573752261698246,-1.5982244650470179,-0.4799264113055628,-1.467602554951803,0.39190512895584106,0.12432660162448883
3101,1734173502,949852705,-0.38814614977174283,0.2270732051639675,1.3308693308223505,-0.7159614677674354,-0.2514401667457744,0.05512479262871233,0.6489516749780357,0,-1,0.05800926685333252,-1.5984762350665491,-0.4849298636065882,-1.4664881865130823,0.3959917724132538,0.1256197690963745
3117,1734173502,965954303,-0.39185912928252964,0.22650071252617784,1.3288796593703354,-0.7161409293429086,-0.253913116148298,0.055530220898590735,0.6477551183392453,0,-1,0.05857177823781967,-1.5987523237811487,-0.48994523683656865,-1.4653971830951136,0.40003007650375366,0.12691332399845123
3132,1734173502,982123851,-0.3954944144657572,0.22590965276138153,1.3268978896981418,-0.716311631191211,-0.2563681469036453,0.05596713023060671,0.6465606704765824,0,-1,0.05915825441479683,-1.599016014729635,-0.49500877061952764,-1.4643061796771448,0.4041283130645752,0.1282188445329666
3149,1734173502,997867584,-0.39908785213552,0.2253255107016,1.3248950285643664,-0.7165021595844858,-0.2588056223128763,0.05644924442966316,0.6453354073451517,0,-1,0.05974510684609413,-1.5992916266070765,-0.500035587941305,-1.463203255330221,0.40827447175979614,0.12951239943504333
3164,1734173503,13850212,-0.40271595916562736,0.2247375753078712,1.3228694231869411,-0.7166857561226211,-0.2612401710102491,0.05686229746464659,0.6441131726245977,0,-1,0.060343194752931595,-1.5995433966266077,-0.505099121724264,-1.462088410054342,0.4122771918773651,0.1308179348707199
3181,1734173503,30095577,-0.40630513177029076,0.22413311268563446,1.320826263497638,-0.7168718826832082,-0.2636501098897615,0.057299848361894154,0.6428841658892006,0,-1,0.06088173761963844,-1.599807087575094,-0.5101140181170862,-1.4609854857074183,0.4163634479045868,0.13205155730247498
3196,1734173503,46372175,-0.4098264244787465,0.22354972957888658,1.3188011790913967,-0.7170594692898727,-0.26608273546044386,0.057767262041357695,0.6416296742108012,0,-1,0.061492182314395905,-1.600130860005514,-0.5150936285602015,-1.4598940054522913,0.42053356766700745,0.13330915570259094
3213,1734173503,62059879,-0.41337228428949546,0.22292669045470592,1.3167476567855907,-0.7172454152462655,-0.26851822478188725,0.05826914637161323,0.6403605889257392,0,-1,0.06211423873901367,-1.6003473440753382,-0.5200966040240687,-1.458827320729391,0.42468011379241943,0.13457873463630676
3229,1734173503,78401088,-0.41687584050434495,0.2223170956500709,1.3146896481149317,-0.7174303877413681,-0.2709340681915272,0.0587203147850711,0.6390933375259057,0,-1,0.06268911063671112,-1.6006348768817347,-0.5250876585589808,-1.4577487150775355,0.42879071831703186,0.1358599215745926
3245,1734173503,94193220,-0.4204307808328018,0.22169023314790143,1.3125705496832027,-0.717623858442657,-0.2733506204264251,0.0591477936363362,0.6378063770567955,0,-1,0.06328719854354858,-1.6008628050433558,-0.5302346388446253,-1.4566815535174769,0.43287694454193115,0.13716545701026917
3260,1734173503,110449075,-0.4239541636881866,0.22107827601793567,1.3104385410646302,-0.7178229605392616,-0.2757683472434738,0.05955572630684013,0.6365022635036871,0,-1,0.06389763951301575,-1.6011503378497522,-0.535285774861471,-1.4556029478656214,0.43704748153686523,0.13842304050922394
3277,1734173503,126138925,-0.4274998094179846,0.2204341534197481,1.308275374661262,-0.7180153735836418,-0.278201720694635,0.05998840235503274,0.635184317724374,0,-1,0.06447213888168335,-1.6013787428485315,-0.5403369108783167,-1.4545119444476526,0.4410981237888336,0.13976415991783142
3292,1734173503,141894817,-0.43103370103368577,0.21980233055868525,1.3061115256212408,-0.7182216283165657,-0.2805695438227837,0.06041312015239009,0.6338680293332587,0,-1,0.06508220732212067,-1.601678196583883,-0.5453041235553187,-1.4534686247455042,0.44517239928245544,0.14117754995822906
3309,1734173503,158257961,-0.4344861548529412,0.21915336086462728,1.3039637318068913,-0.7184315652949139,-0.28292720529851434,0.06089440737767852,0.6325347054826269,0,-1,0.06571662425994873,-1.602001969014303,-0.5502474943744105,-1.4524019400226038,0.4493309259414673,0.1425190269947052
3325,1734173503,174019813,-0.43800305741172185,0.21849034112806393,1.3017726569234351,-0.7186377596492081,-0.2852847135001093,0.06136040395087007,0.63119513898359,0,-1,0.06633942574262619,-1.6022537390338343,-0.5552862326251429,-1.4512751738177698,0.45342952013015747,0.14382418990135193
3341,1734173503,190186262,-0.44142993671811426,0.21782915984758056,1.299588272652332,-0.7188258517178,-0.2876648037744025,0.061777822524299926,0.6298586001760792,0,-1,0.06693751364946365,-1.6025412718402308,-0.560373608266012,-1.4501960913287562,0.45743227005004883,0.14516566693782806
3357,1734173503,205931425,-0.4449404079037347,0.2171746660404018,1.2973193155688982,-0.7190386883895673,-0.2900601972824584,0.06216506027728008,0.6284774871323507,0,-1,0.06758391112089157,-1.6027939955340784,-0.5654242674456995,-1.4491050879107874,0.4614705741405487,0.14651913940906525
3373,1734173503,222180128,-0.4483779669948667,0.21650084513605172,1.2950700753164528,-0.7192406504526888,-0.2924190164944588,0.06258837569905823,0.6271097996014413,0,-1,0.06813444197177887,-1.6030214468585413,-0.5704515616046351,-1.4479783217059534,0.46559351682662964,0.14783665537834167
3389,1734173503,238429784,-0.4517991713722275,0.2158463305716371,1.292816451217039,-0.7194573397857902,-0.29476048802866583,0.06301666919870134,0.6257206168319518,0,-1,0.06876847892999649,-1.6033332983600062,-0.5754664579974573,-1.4469831625567835,0.4697400629520416,0.14911821484565735
3405,1734173503,254184007,-0.4552094251011716,0.21514963346457902,1.2905431902312245,-0.7196544168224908,-0.2971483904369044,0.0634573587694392,0.6243184428051478,0,-1,0.06940289586782455,-1.603645149861471,-0.5804575125323694,-1.4458563963519495,0.4738386571407318,0.15041138231754303
3421,1734173503,270460128,-0.45861993564529746,0.21446591018944222,1.2882665176194519,-0.7198552468756013,-0.29949931381562045,0.06385546469812692,0.6229213948788609,0,-1,0.07002495229244232,-1.6039088408099573,-0.585484806691305,-1.4447296301471155,0.4779612421989441,0.151668980717659
3437,1734173503,286155462,-0.46213174799001905,0.21378611356660565,1.2858610756964723,-0.7200801909669593,-0.3019211271106231,0.0641993719479883,0.6214552214139989,0,-1,0.07056386768817902,-1.604184929524557,-0.5906789938556116,-1.443686310444967,0.48207181692123413,0.15302208065986633
3453,1734173503,302451372,-0.4655256327194643,0.21311321895520347,1.2835078168949254,-0.7202941934011015,-0.30426868803043505,0.06455967416533212,0.6200232970691995,0,-1,0.07116232812404633,-1.6044963041888636,-0.595802132283346,-1.442667309437887,0.4861348569393158,0.15426768362522125
3469,1734173503,318119525,-0.4689625564357781,0.21241638411003214,1.2811230271153913,-0.7204978096462455,-0.30667003541565685,0.06486861493413577,0.6185696876421035,0,-1,0.07179637253284454,-1.6047723929034632,-0.6008647123919886,-1.4416363875018519,0.49026942253112793,0.15553726255893707
3485,1734173503,333807945,-0.47231056094879803,0.21174374067468618,1.2787468766344565,-0.7207230988862235,-0.3089656258821066,0.06522094860987243,0.6171261496789334,0,-1,0.0723828449845314,-1.605072323475973,-0.605880085621969,-1.4405697027789515,0.49435603618621826,0.1568308174610138
3501,1734173503,350064277,-0.4756321498709281,0.21105095631213733,1.2763804956920923,-0.7209423362410988,-0.3113065713205101,0.06562265705124778,0.6156492778761531,0,-1,0.07293374836444855,-1.6053598562823694,-0.6107752958880823,-1.439538304005758,0.498526930809021,0.15813635289669037
3516,1734173503,365765094,-0.4789783394736456,0.21034853119311503,1.2739910747695449,-0.7211584556893837,-0.31363114794980923,0.06600047841244576,0.6141741786111788,0,-1,0.07354381680488586,-1.6056717077838343,-0.6157782713519495,-1.4384482542621058,0.502637505531311,0.15941791236400604
3533,1734173503,382039785,-0.48226021109054285,0.20963360080736732,1.271602252315043,-0.7213737425246373,-0.31594718722656717,0.06640261906042826,0.6126891468449026,0,-1,0.07413029670715332,-1.605959717427389,-0.6208174864398401,-1.4373686949359339,0.5066765546798706,0.16071145236492157
3548,1734173503,398286819,-0.4855869863875158,0.20893968667554078,1.2691477800522784,-0.7216046738013094,-0.31825588678754435,0.06672904408250496,0.6111850128635475,0,-1,0.07469280809164047,-1.6062353293048304,-0.6258562246905726,-1.4362781683551233,0.5105238556861877,0.1620050072669983
3565,1734173503,413980722,-0.488949523652567,0.20823172430641315,1.2666374926514994,-0.7218169017918429,-0.32058678222127407,0.06697172869284916,0.6096878405450825,0,-1,0.07531486451625824,-1.6065109411822718,-0.6309669653521937,-1.4351633230792444,0.5148022174835205,0.16328656673431396
3580,1734173503,430248737,-0.4921611894502119,0.2075350329442865,1.2641901654501566,-0.7220476938149134,-0.32285093550735205,0.06734800749066504,0.6081764934504047,0,-1,0.07590171694755554,-1.6068113485919397,-0.6360414663897913,-1.4340961615191858,0.5188892483711243,0.16452018916606903
3597,1734173503,445963859,-0.49542890393113764,0.20679867541275745,1.2617211256208045,-0.7222610014764196,-0.3251182681192585,0.06770791974508288,0.606673549023861,0,-1,0.076499804854393,-1.6071108023272913,-0.6410086790667933,-1.432993237172262,0.5229282975196838,0.1658257246017456
3612,1734173503,462285995,-0.49863858914981246,0.20608545960448366,1.2592565082600746,-0.7224755841495977,-0.3274205523105741,0.06805462034689144,0.6051391417531813,0,-1,0.07713422179222107,-1.6074588934527796,-0.6459162870990198,-1.431854550038473,0.5270388722419739,0.16708295047283173
3629,1734173503,477969408,-0.5019067508171925,0.2053292298940112,1.2567557459216643,-0.7227009894686934,-0.3296948287771593,0.06843397101028754,0.6035904168476617,0,-1,0.07774466276168823,-1.6077588240252894,-0.6508715788470667,-1.4307640234576624,0.5310783386230469,0.16838809847831726
3644,1734173503,493725776,-0.505127001498227,0.2045742056530665,1.2542176809195045,-0.7229213486061968,-0.3319717974607839,0.0687608097099241,0.6020393678723089,0,-1,0.07835473865270615,-1.6080344359027308,-0.6560538450824183,-1.4296849409686487,0.5350814461708069,0.16965767741203308
3661,1734173503,510045528,-0.5083977544916648,0.20382251401755005,1.2516318609236465,-0.7231470320822938,-0.334241330407471,0.06905030288233961,0.600477442298935,0,-1,0.07900150865316391,-1.6083701292621058,-0.6610448996173304,-1.4286177794085901,0.5392040014266968,0.1709991693496704
3677,1734173503,526251316,-0.5115789063051469,0.2030921745979527,1.2490567193611415,-0.7233932621734468,-0.33648362230651907,0.06937567301549936,0.5988889514385696,0,-1,0.07961120456457138,-1.608633820210592,-0.6661317984210413,-1.4275153318988245,0.5433153510093689,0.1723526269197464
3693,1734173503,541970968,-0.5147878842629241,0.20232765804640984,1.2464626574252087,-0.7236382102265705,-0.33874584859646156,0.0697457660725217,0.5972725666508599,0,-1,0.08018607646226883,-1.6089819113360804,-0.6711228529559534,-1.4264605681048792,0.5475097894668579,0.17369411885738373
3708,1734173503,558275938,-0.517971301753658,0.20157886340832742,1.2438662934102795,-0.7238902895669322,-0.34098439169529504,0.07008909803394538,0.5956509142338998,0,-1,0.08083247393369675,-1.609281365071432,-0.6761019865619105,-1.4254048506366175,0.5516570806503296,0.17505957186222076
3725,1734173503,574018955,-0.5211864611159616,0.20078122375544327,1.2412356674385112,-0.7241144866275234,-0.3432595250076705,0.07043287878059763,0.594028886784426,0,-1,0.08144254982471466,-1.6095693747149866,-0.6811049620257776,-1.4243148008929651,0.5557920336723328,0.17636510729789734
3741,1734173503,590351819,-0.5242174513837154,0.2000285729468267,1.2386628588442148,-0.724355573255132,-0.34546453125991683,0.07081088629523949,0.592409553871034,0,-1,0.08201704174280167,-1.6098573843585413,-0.6861794630633753,-1.4232476393329065,0.5598910450935364,0.17769460380077362
3757,1734173503,606407880,-0.5274047500197457,0.19926459942601799,1.2359576526189395,-0.7245967757501264,-0.34775329360511215,0.0710588913578931,0.5907434242700507,0,-1,0.08261587470769882,-1.610133473073141,-0.691265885029928,-1.4221566359149378,0.563978374004364,0.1789877712726593
3773,1734173503,622148275,-0.5304830932962795,0.1984952548859103,1.2332930400767341,-0.7248344417094911,-0.34997571095284485,0.0713518449607388,0.589101814693725,0,-1,0.08322595059871674,-1.6103609243976038,-0.6964009443866175,-1.421065632496969,0.5681013464927673,0.18025735020637512
3789,1734173503,638195991,-0.5335621622508402,0.19771581916028422,1.230618843329152,-0.7250687173174085,-0.35219258560573485,0.07163283915015188,0.5874559338089315,0,-1,0.08380044251680374,-1.6106489340411585,-0.7013800779925745,-1.4199751059161585,0.5721766948699951,0.18152692914009094
3804,1734173503,654317140,-0.5366336530410304,0.19697013234726213,1.2279380712831827,-0.7253220357288928,-0.35437170882366437,0.07195906902854479,0.5857905161881986,0,-1,0.08442287147045135,-1.6109488646136683,-0.7063825766192835,-1.4188359419452112,0.5763116478919983,0.18284407258033752
3821,1734173503,670537948,-0.5395922679906401,0.1961917381752522,1.2253094330305718,-0.7255636167825429,-0.356519693983341,0.07228744252368567,0.5841452485956252,0,-1,0.08499699085950851,-1.6112363974200647,-0.7112658659564417,-1.4177692572223108,0.5803390741348267,0.18416158854961395
3837,1734173503,686004877,-0.5425956652832699,0.19542067409545827,1.2226223450636804,-0.7258054292388944,-0.35869021164950526,0.07258888407130545,0.5824763212899389,0,-1,0.08557186275720596,-1.6115005652057093,-0.716292683278219,-1.416678253804342,0.5844021439552307,0.18540720641613007
3852,1734173503,702028274,-0.5456184697576558,0.1946261291488492,1.2198658044267567,-0.7260455652303136,-0.3609051004983494,0.07281999386949176,0.5807775771640274,0,-1,0.08618193119764328,-1.6117637793170374,-0.7213433424579065,-1.415623966847555,0.5884771347045898,0.18668876588344574
3868,1734173503,718129873,-0.548567452245478,0.19387163032366028,1.217148922002184,-0.7263113025200071,-0.36305364747455215,0.073134077538851,0.5790641998860364,0,-1,0.08680436760187149,-1.612027947102682,-0.7264302412616175,-1.4144967238055628,0.5926603674888611,0.18800628185272217
3884,1734173503,733718872,-0.5515726972013302,0.19305416385261878,1.2143711672817592,-0.7265447971057071,-0.36525404741013817,0.07340414108918239,0.5773508211824929,0,-1,0.0874028280377388,-1.6122682730304163,-0.7314451376544397,-1.4134295622455042,0.5967477560043335,0.1893237978219986
3901,1734173503,749819993,-0.5544643070219313,0.19229015102274208,1.2116541866564658,-0.7268058135858485,-0.3673844155827468,0.07371142764578716,0.5756288960425427,0,-1,0.08800091594457626,-1.6126154104815882,-0.7363527456866663,-1.412386719380514,0.6008591055870056,0.19053345918655396
3917,1734173503,765922546,-0.5573889356733176,0.19148324742728123,1.2089072485320378,-0.7270516528035724,-0.3695282218434465,0.07399444325465186,0.5739073181135156,0,-1,0.08862371742725372,-1.6128676573382776,-0.7412594000445765,-1.4113081137286585,0.6049340963363647,0.19189852476119995
3932,1734173503,782030105,-0.560277883425678,0.19067813208546214,1.2061369883273578,-0.7272996793351247,-0.3716784920802785,0.07429045608885454,0.5721636156713088,0,-1,0.08921019732952118,-1.6130955854998987,-0.7462981382953089,-1.4102891127215784,0.6090933680534363,0.19321604073047638
3949,1734173503,798137903,-0.5632037483791164,0.1898552127838365,1.2033192858190076,-0.7275488697839233,-0.3738318551258764,0.07453929464595446,0.5704088706559226,0,-1,0.08978431671857834,-1.6133468786822718,-0.7514689604388636,-1.4091742674456995,0.6131328344345093,0.19447363913059235
3964,1734173503,813753604,-0.5660824266419409,0.18910564262164187,1.2004304601409348,-0.7278133321226926,-0.37597274786245394,0.07467673619360947,0.5686436771130834,0,-1,0.0903707966208458,-1.6136229673968714,-0.7566869894610804,-1.4081075827227991,0.6172561049461365,0.1956833004951477
3981,1734173503,829832077,-0.5690419074973758,0.18824753404964234,1.1975328608849607,-0.7280554204245185,-0.3781709362073267,0.0749032834484885,0.5668434933270267,0,-1,0.09100483357906342,-1.6138628164874476,-0.7617381254779261,-1.407088581715719,0.6213798522949219,0.19696485996246338
3997,1734173503,845947504,-0.5718731818804916,0.18741944120316004,1.1946974497621643,-0.7283028726450291,-0.38033576541990655,0.0751695655247395,0.5650390850713553,0,-1,0.09157970547676086,-1.6141865889178675,-0.7666929403888147,-1.4060099760638636,0.6254428625106812,0.1982584148645401
4013,1734173503,862060785,-0.5747346657514454,0.18660385754105865,1.1918470741019083,-0.7285664871138651,-0.38240794330202504,0.07542002924718506,0.5632644653645666,0,-1,0.09225007146596909,-1.614462677632467,-0.7716358343707483,-1.404942814503805,0.6295785307884216,0.19952799379825592
4029,1734173503,878198385,-0.5775268471867326,0.1857837485771162,1.1889972073569952,-0.7288152557399754,-0.38449912558786553,0.07565409284321511,0.5614848205062284,0,-1,0.09282419085502625,-1.6147382895099085,-0.7766388098346155,-1.403827969227926,0.6336419582366943,0.20086947083473206
4044,1734173503,894333600,-0.5803260949052449,0.18496026283716077,1.1861055621300496,-0.729090171816575,-0.3865736373100808,0.0759229720356088,0.5596642266704307,0,-1,0.09339868277311325,-1.6150262991534632,-0.7817376295672815,-1.4027255217181605,0.6377896070480347,0.20219896733760834
4061,1734173503,910536050,-0.5831513385149517,0.1841555060843338,1.1831452251091503,-0.7293682390230823,-0.3886807343996041,0.0761225084130086,0.5578123540437802,0,-1,0.09404508769512177,-1.6152899901019495,-0.7868121306048792,-1.4016106764422815,0.6419728398323059,0.20354008674621582
4077,1734173503,926079511,-0.5858673088792217,0.18330962072287937,1.180270099992086,-0.7296423454863918,-0.3907173489218437,0.0764435622834205,0.5559841568876077,0,-1,0.09459561109542847,-1.6155059973346155,-0.7918990294085901,-1.4004834334002894,0.6460362672805786,0.20497743785381317
4093,1734173503,942194223,-0.5886437738039372,0.1825107218860172,1.1773056324200977,-0.7299283251839795,-0.39276579303732123,0.07663574469765833,0.5541359350813749,0,-1,0.09525398910045624,-1.6158416906939905,-0.7968419233905237,-1.3994529883014124,0.6501476168632507,0.20630693435668945
4108,1734173503,958346128,-0.5914180023102197,0.18164652662871214,1.174365222916531,-0.730196144067751,-0.39483203632785757,0.07686110881283292,0.5522803855197533,0,-1,0.09581612795591354,-1.6161053816424769,-0.8017728964435022,-1.3983143011676233,0.6542589068412781,0.2076600342988968
4125,1734173503,974415779,-0.5941153424641527,0.18082243176924423,1.1714322567687276,-0.7304750323441422,-0.39682803023334423,0.07708679918661474,0.5504465159614611,0,-1,0.0964265763759613,-1.6164172331439417,-0.8068116346942347,-1.3972352186786097,0.6582631468772888,0.20898953080177307
4141,1734173503,989976406,-0.5968038300110279,0.17998695917131502,1.1684782010046262,-0.7307412578600461,-0.398852974778035,0.07728932884942886,0.548598102637837,0,-1,0.09727632999420166,-1.616788689290182,-0.8144715468036097,-1.3956411520587366,0.6644002199172974,0.21088191866874695
4165,1734173504,13878107,-0.6008498168736083,0.17872003440343315,1.1639305541693248,-0.731141710941882,-0.40196298796135893,0.07751887779415487,0.5457548702629128,0,-1,0.09787479043006897,-1.6170414129840296,-0.8195102850543421,-1.394573990498678,0.6685358881950378,0.21218745410442352
4181,1734173504,29964685,-0.6035126093826227,0.17787820779543984,1.1609189671766866,-0.7314078663698471,-0.4040137002049301,0.07770378935174034,0.5438543777330556,0,-1,0.09846127033233643,-1.6173647085772913,-0.8245609442340296,-1.3935073057757776,0.6726715564727783,0.2134210765361786
4196,1734173504,46069860,-0.6061456778615295,0.1770456631546587,1.1579046886705988,-0.7316864821119479,-0.40602484405935557,0.07786526990817232,0.5419554572502666,0,-1,0.0990833267569542,-1.617664639149801,-0.8294685522662562,-1.392416779194967,0.676734983921051,0.21476255357265472
4212,1734173504,61669588,-0.6087720325675166,0.1762001469475768,1.1549253878177512,-0.7319776125128218,-0.4079833378319637,0.07810199072350045,0.5400541175442931,0,-1,0.09965819865465164,-1.6179645697223108,-0.8343756834613245,-1.3913376967059534,0.6808706521987915,0.2160920649766922
4229,1734173504,77810764,-0.611389503798123,0.1753268291824705,1.1518943618829094,-0.73223224572217,-0.41003369984932214,0.07829335438936223,0.5381249427140552,0,-1,0.10026826709508896,-1.6182525793658655,-0.8393901030169886,-1.3902352491961878,0.6850302815437317,0.21733729541301727
4245,1734173504,93944549,-0.6139639038384554,0.17447593250315335,1.1488502346362965,-0.7325046195194264,-0.4120352625468732,0.078488348879277,0.5361935321232763,0,-1,0.10089069604873657,-1.6185157934771937,-0.8444531599627894,-1.389155689870016,0.6891180276870728,0.21869076788425446
4260,1734173504,110078096,-0.616566750692494,0.1736133070869606,1.1457474848766507,-0.7327909641273839,-0.4140296342186186,0.07863513772779791,0.5342409381511178,0,-1,0.10150114446878433,-1.6188519636737269,-0.8494799772845667,-1.3880294005023401,0.6932057738304138,0.21994835138320923
4276,1734173504,125695705,-0.6191814139708018,0.17273957463230755,1.1426047638720216,-0.73306819038555,-0.4160301542914774,0.07875795023220374,0.5322848149630856,0,-1,0.10213518142700195,-1.619103733693258,-0.8545783201800745,-1.3869264761554163,0.6972938776016235,0.2212299257516861
4292,1734173504,141954660,-0.6216892701231572,0.1718490720540929,1.1395514599038596,-0.7333325894758905,-0.4180156673441843,0.07893709266494872,0.5303349417764083,0,-1,0.10268571227788925,-1.6194637457477015,-0.8595812956439417,-1.385883633290426,0.7014291882514954,0.22251148521900177
4308,1734173504,157769918,-0.6242812368487018,0.17098436809890002,1.1364284419687518,-0.7336102386224658,-0.41997503720160195,0.07905696333697368,0.5283814743759835,0,-1,0.10333210974931717,-1.6197875181781214,-0.8644645849810999,-1.3847807089435022,0.7054334282875061,0.22381702065467834
4325,1734173504,173974752,-0.6267892388104953,0.17008886597676598,1.1333304831827375,-0.7338805700156785,-0.4219226484502995,0.07920917211742022,0.5264280527580391,0,-1,0.10395453870296478,-1.620075527821676,-0.8695390860186976,-1.3837140242206019,0.7094972133636475,0.22508659958839417
4340,1734173504,189720630,-0.6293033846043806,0.16919766276716142,1.130181604383219,-0.7341566681720821,-0.4238963497894584,0.07934923065774861,0.5244326179860134,0,-1,0.10452903062105179,-1.6203869024859827,-0.8745897451983851,-1.382599178944723,0.7135965824127197,0.22636815905570984
4357,1734173504,205957889,-0.6318229184161044,0.16834738776707525,1.1269857227923146,-0.7344315772333017,-0.42587844435117506,0.07940825070784413,0.5224290753003205,0,-1,0.10512711852788925,-1.6206744352923792,-0.8797605673419397,-1.3815086523639124,0.7177686095237732,0.2276017814874649
4372,1734173504,222231864,-0.6342966584972883,0.16743640898618256,1.1237681498052456,-0.7347059770531473,-0.42787581310120854,0.07950605415706892,0.5203923550531203,0,-1,0.10576153546571732,-1.6209386030780237,-0.884798828755514,-1.3804896513568323,0.7218562960624695,0.22889496386051178
4389,1734173504,238017559,-0.6367203990014054,0.16657676577930194,1.1205984312432637,-0.7349831549162128,-0.4298052207631525,0.07957523305142686,0.518396582240816,0,-1,0.10634801536798477,-1.6212623755084437,-0.889777962361471,-1.379434887562887,0.7258964776992798,0.23012858629226685
4404,1734173504,253772497,-0.639168051932633,0.16566521784081895,1.1174243354299829,-0.7352582833343282,-0.4317605102092872,0.07971841672690103,0.5163555874071948,0,-1,0.10697044432163239,-1.6215742270099085,-0.8947089354144495,-1.3783438841449183,0.7300317883491516,0.23141014575958252
4420,1734173504,270056009,-0.6415839192864599,0.16479241284510768,1.1142572678222382,-0.7355406970230668,-0.43367214694455736,0.07984186141607214,0.5143283281649341,0,-1,0.10753295570611954,-1.6218979994403284,-0.8996284643756312,-1.3773015181170862,0.7342277765274048,0.23270370066165924
4436,1734173504,285812854,-0.6439214144645498,0.1638927793012498,1.1111076777296376,-0.7358292632724537,-0.4355634472981654,0.08001254433967571,0.5122868058401933,0,-1,0.108131043612957,-1.6221497694598597,-0.9047272841082972,-1.3762100378619593,0.7382795810699463,0.23406915366649628
4452,1734173504,302185773,-0.64628015071113,0.16301808957661051,1.1078922558997233,-0.7361305053288666,-0.43742110212552876,0.08007935542295472,0.5102567543645053,0,-1,0.108705535531044,-1.6224139372455042,-0.9097893873797815,-1.3751433531390589,0.7424276471138,0.23543459177017212
4469,1734173504,317876577,-0.6485910262780021,0.16216645665645768,1.104634664042691,-0.7364463338356809,-0.43929591426782894,0.08015499618040635,0.5081742552263898,0,-1,0.109268419444561,-1.6226776281939905,-0.9148758093463343,-1.3740647474872034,0.746575653553009,0.23676373064517975
4485,1734173504,334166526,-0.6509490814514396,0.16123882839489817,1.1013697614380629,-0.7367335261649758,-0.4411951086419436,0.08026139537749971,0.5060915884965894,0,-1,0.10984253883361816,-1.6229055563556116,-0.9198911825763147,-1.3729742209063929,0.7506757378578186,0.23810520768165588
4500,1734173504,349860906,-0.6532345608150759,0.1603703869577527,1.0981696463534714,-0.7370354621225508,-0.4430253365460232,0.08036453187649664,0.5040325592343738,0,-1,0.11047695577144623,-1.623288933430807,-0.9248579184161585,-1.3719070593463343,0.75473952293396,0.2394227236509323
4517,1734173504,366157531,-0.6554830600992898,0.15948141203198105,1.0949555350557283,-0.7373397553005621,-0.4448246861231634,0.08048662052436507,0.5019790710630309,0,-1,0.11111099272966385,-1.6235411802874964,-0.9297531286822718,-1.370744530354635,0.7588156461715698,0.24070428311824799
4533,1734173504,381958484,-0.6577219612680916,0.15857788007041818,1.0917302451139053,-0.737612145209081,-0.4466968811138156,0.08058289613460154,0.4998966058034474,0,-1,0.11172181367874146,-1.6238287130938929,-0.934768025075094,-1.3696897665606897,0.7629517316818237,0.2419738620519638
4548,1734173504,398248195,-0.6599813009419151,0.15767020012147248,1.0884403602851902,-0.7379013128627877,-0.4485436854823893,0.0806520751887817,0.49780062018542415,0,-1,0.11233226209878922,-1.6240804831134241,-0.939854923878805,-1.3686111609088343,0.7670877575874329,0.24326741695404053
4565,1734173504,413978576,-0.6622034983263249,0.156760729603296,1.0851335871175685,-0.738187569037746,-0.4503767787637304,0.08067476951019989,0.4957130738976177,0,-1,0.11295431852340698,-1.6243327299701136,-0.9449299017535608,-1.3675206343280237,0.7711279988288879,0.2445489764213562
4580,1734173504,429713964,-0.6643919220541642,0.15586723661271576,1.081834960519467,-0.7384815452973481,-0.45220722537873076,0.08073207341875925,0.493594940099692,0,-1,0.11352881044149399,-1.6245844999896448,-0.9499805609332483,-1.3664177099811,0.7752037048339844,0.24584214389324188
4597,1734173504,445972681,-0.666575077255605,0.15495584568976592,1.0785329175895468,-0.7387731974780448,-0.45402741799204627,0.0807936151635101,0.491472947524431,0,-1,0.11417483538389206,-1.6248725096331995,-0.9549949804889124,-1.3653624693499964,0.7793401479721069,0.24717165529727936
4612,1734173504,461714506,-0.6687334534131152,0.154041906652317,1.0752522216919327,-0.7390771690929657,-0.4558300732874446,0.08086373364917983,0.48933111386116157,0,-1,0.11476168781518936,-1.6252082029925745,-0.9598901907550257,-1.3643201033221644,0.7833923101425171,0.24845321476459503
4629,1734173504,478035211,-0.6708298294455124,0.15314076348266653,1.0720187670980588,-0.7393578635243325,-0.45758083545662104,0.08092589416743516,0.48725837942590194,0,-1,0.11531183868646622,-1.6254356543170374,-0.9648931662188929,-1.3631814161883753,0.7874564528465271,0.249795064330101
4644,1734173504,494301080,-0.6729179137641564,0.15223005270069226,1.0687074679991475,-0.7396674147452039,-0.45933344426663275,0.08100364389692609,0.48512195602520264,0,-1,0.11595824360847473,-1.625723663960592,-0.9699676672564905,-1.362138573323385,0.7915685772895813,0.2511005997657776
4661,1734173504,510116338,-0.6750518343485802,0.151328154305089,1.065300322537214,-0.7399739068447553,-0.4611635991508632,0.0809900195853314,0.48291548819094515,0,-1,0.11653273552656174,-1.6259153524981897,-0.9751146475421351,-1.3610957304583948,0.7958128452301025,0.2523701786994934
4676,1734173504,525841236,-0.6771429473737679,0.1503899742930802,1.0618820374699742,-0.7402606059787525,-0.4629949514735819,0.08099535406230116,0.4807178619172248,0,-1,0.11721470952033997,-1.6261556784259241,-0.980224911366598,-1.360004727040426,0.7996013760566711,0.25363975763320923
4693,1734173504,542058706,-0.6791903356539333,0.14948208250056874,1.0585557718501761,-0.7405557664491863,-0.4647137047163355,0.08098927926359625,0.4786011555272719,0,-1,0.11776561290025711,-1.6264551321612757,-0.985060993825094,-1.3589261213885706,0.8038696050643921,0.25499284267425537
4708,1734173504,557875156,-0.681224828380837,0.14854767825977164,1.0552662514394664,-0.7408331803590179,-0.46645204789062517,0.0810649009404843,0.4764631861259525,0,-1,0.11839964985847473,-1.6267192999469202,-0.9900153318988245,-1.3577635923968714,0.8079337477684021,0.2562384605407715
4724,1734173504,574077129,-0.6831902811404265,0.14763237284680866,1.0519756431776999,-0.7411341692016229,-0.46815181706286074,0.08115383277544055,0.47430799576690436,0,-1,0.11899811029434204,-1.6269834677325647,-0.9949944655047815,-1.3566611448871058,0.812069833278656,0.2575080394744873
4740,1734173504,589785814,-0.6852026943067648,0.14671406263491585,1.0485952439007802,-0.7414211241233449,-0.46990957393724314,0.08116483139160373,0.4721143708583405,0,-1,0.1196325272321701,-1.6272590796100062,-1.0001056830035608,-1.3555939833270472,0.8161343336105347,0.25874167680740356
4757,1734173504,606050491,-0.6872008818708748,0.14583493139477632,1.0451284660557045,-0.7417308013633689,-0.4716368572850234,0.08105554041715989,0.46991924043056943,0,-1,0.1201830506324768,-1.6275346914874476,-1.0051801840411585,-1.3544791380511683,0.820234477519989,0.2600831687450409
4772,1734173504,622352838,-0.6891799659808098,0.1449209099409136,1.0416858793082862,-0.7420341220838247,-0.47337119739959255,0.08104374324026038,0.46769325718612864,0,-1,0.1207335814833641,-1.6277745405780237,-1.0103028456317347,-1.3534005323993128,0.8243588805198669,0.2613407373428345
4789,1734173504,638058423,-0.6911135261898125,0.14402677685783458,1.0382631045167532,-0.7423458237895642,-0.4750714746563904,0.0810257212333728,0.46547245285688793,0,-1,0.12136761844158173,-1.6280983130084437,-1.015341583882467,-1.3523338476764124,0.8284350633621216,0.2626343071460724
4804,1734173504,654353618,-0.6930974099808443,0.14307895311575766,1.0348070675865535,-0.7426461963158321,-0.47677733770712755,0.08098757406141349,0.4632504832098694,0,-1,0.12199004739522934,-1.6284101645099085,-1.0202849547015589,-1.351267162953512,0.8325598835945129,0.26393944025039673
4821,1734173504,670047760,-0.6950126853764634,0.1421543166280274,1.0314093877714179,-0.7429617267641949,-0.4784431568823966,0.08101344517053187,0.46101717961218475,0,-1,0.12252896279096603,-1.628697697316305,-1.0252278486834925,-1.350140396748678,0.8366599678993225,0.265316903591156
4837,1734173504,685822963,-0.696912149654002,0.14123229771676615,1.0279656957793395,-0.7432742457314221,-0.4800988793736607,0.08099884492848751,0.45878932940598316,0,-1,0.1231270506978035,-1.6290095488177698,-1.0303509871112269,-1.3490975538836878,0.8407368659973145,0.26665836572647095
4853,1734173504,702119588,-0.6987648816646566,0.14035109264326084,1.0244987870756601,-0.7436182552882403,-0.4817341135240242,0.08094564091325453,0.4565215630027113,0,-1,0.1237015500664711,-1.6292737166034144,-1.0354130903827112,-1.3480427900897425,0.8448129892349243,0.26801183819770813
4868,1734173504,718344211,-0.7006746805141951,0.13941467131385535,1.020934309716353,-0.7439258388956339,-0.4834340119715482,0.08081431997890205,0.4542410681332854,0,-1,0.12428802251815796,-1.6295016447650355,-1.0405238310443323,-1.346964184437887,0.8488651514053345,0.26934170722961426
4885,1734173504,734250783,-0.7024992341780998,0.13846035453503544,1.017443851542608,-0.7442324601009815,-0.48509114415392995,0.08075827480497133,0.4519764686861439,0,-1,0.12486252188682556,-1.6298254171954554,-1.045563046132223,-1.345969025288717,0.8529899716377258,0.2705989480018616
4901,1734173504,750104904,-0.7042935181943115,0.13757827133115147,1.014031491858032,-0.7445531175564142,-0.48669483932715685,0.08071683211436607,0.44972611834622056,0,-1,0.12544900178909302,-1.6301129500018519,-1.0504820982562464,-1.3448427359210413,0.8571383953094482,0.2719164490699768
4917,1734173504,766387939,-0.7060958490425251,0.13665144793157497,1.010572190933426,-0.744851335182387,-0.4883274781341791,0.08066942525117964,0.4474653130755192,0,-1,0.12608303129673004,-1.6304248015033167,-1.0554612318622034,-1.343799893056051,0.8612627983093262,0.2731860280036926
4933,1734173504,782151222,-0.7078507151956682,0.13572629080673446,1.0071159119506659,-0.7451622097470887,-0.48994075456887454,0.08062193053198369,0.4451869747584868,0,-1,0.12668150663375854,-1.630676571522848,-1.0604279677020472,-1.342661205922262,0.8653393387794495,0.27447956800460815
4949,1734173504,797870397,-0.7096540142008049,0.13479231963936875,1.0035419665449257,-0.7454629298136255,-0.4915871988183886,0.08050614962178755,0.4428835130196765,0,-1,0.12729157507419586,-1.6309407393084925,-1.0655272642718714,-1.3415706793414515,0.8694761395454407,0.27576112747192383
4964,1734173504,813619136,-0.7113506496707785,0.13385677273706897,1.0000573534865216,-0.7457783499952665,-0.49317698060275494,0.08048758544824842,0.44058241802255166,0,-1,0.12792636454105377,-1.6312640349017542,-1.0706375280963343,-1.3405278364764612,0.8736125826835632,0.2770666778087616
4981,1734173504,829924345,-0.7131444104812202,0.13286784074357552,0.9964367444103921,-0.7460638524873258,-0.4948597502079075,0.08032303578412989,0.43823597017857685,0,-1,0.12854841351509094,-1.6315401236163538,-1.0756648222552698,-1.3394492308246058,0.8776887059211731,0.27838417887687683
4996,1734173504,845628976,-0.7148664551252304,0.1319694807085195,0.9929058847648016,-0.7463975195394584,-0.4964059913738111,0.08022742888108332,0.4359304924052207,0,-1,0.1291588693857193,-1.6319482962237757,-1.0805838743792933,-1.338358227406637,0.8817775845527649,0.27966538071632385
5013,1734173504,861927747,-0.7165446176877311,0.1310065300375119,0.9894399935535181,-0.7466980595048659,-0.4979763672275861,0.08016775266495711,0.43362965425249045,0,-1,0.12972137331962585,-1.6322839895831507,-1.0854914824115198,-1.3372920195208948,0.8858780264854431,0.2809589207172394
5028,1734173504,878237485,-0.7182104815826711,0.13008054747575384,0.9859546587604879,-0.7470172597689926,-0.49950729240755415,0.08013033068051086,0.4313198448297175,0,-1,0.13035541772842407,-1.6325119177447718,-1.0904820601092737,-1.3361528555499476,0.8899908661842346,0.2822648286819458
5045,1734173504,893975973,-0.7198636795385716,0.1291610251241683,0.9823612276784008,-0.747321809725172,-0.5010696453222474,0.07996550222938695,0.4290044774812178,0,-1,0.13097821176052094,-1.6328232924090784,-1.0955331961261194,-1.3350861708270472,0.8940793871879578,0.283618301153183
5060,1734173504,910277843,-0.7215139762802532,0.12820572824257864,0.9787018983930114,-0.7476275445406037,-0.5026760383714682,0.07979050857860535,0.42661848275962144,0,-1,0.1315762996673584,-1.6330755392657679,-1.1007517019854944,-1.3340075651751917,0.8981682658195496,0.2848639190196991
5077,1734173504,925975561,-0.7231137077092058,0.1272653992185825,0.9750703221049147,-0.7479535241447285,-0.5042222347962758,0.07963142489167757,0.42424556547623626,0,-1,0.1321747750043869,-1.6333749930011194,-1.1058509985553187,-1.3329408804522913,0.9022687077522278,0.28619304299354553
5092,1734173504,941716909,-0.7247232525869018,0.12629587611434753,0.9715010517756308,-0.7482480547198619,-0.5057753691089812,0.07950076573897663,0.4218954288180102,0,-1,0.1327732354402542,-1.6336987654315394,-1.1108182112323206,-1.3319581190692347,0.9063456058502197,0.28746262192726135
5109,1734173504,957961559,-0.7262940494701092,0.1253812533073595,0.9679519132643537,-0.7485599285559764,-0.5072763624208436,0.07936135747233475,0.4195598889663985,0,-1,0.13338367640972137,-1.6340583006488245,-1.1157611052142542,-1.3308432737933558,0.9104584455490112,0.2887561619281769
5124,1734173504,973735332,-0.7278302553680631,0.1244564140332281,0.9644029958114457,-0.7488669836778262,-0.5087841088327815,0.07923494163187174,0.4172035419086236,0,-1,0.13397015631198883,-1.6343706289874476,-1.1206687132464808,-1.3297885099994105,0.91451096534729,0.28996580839157104
5141,1734173504,989998340,-0.7293152075430768,0.12356238436410576,0.9608391474920317,-0.7491715837561296,-0.5102915403303957,0.0790675193168087,0.41484070358229147,0,-1,0.13453228771686554,-1.6346104780780237,-1.1257551352130335,-1.3286736647235315,0.9186357855796814,0.29125937819480896
5156,1734173505,6254673,-0.7308006690735083,0.1226214760141362,0.9572163159161027,-0.749494980757058,-0.5117674896451356,0.07893225556104573,0.41245728190242814,0,-1,0.13513074815273285,-1.6348503271686,-1.130890194569723,-1.327595059071676,0.9227126836776733,0.2925173342227936
5173,1734173505,22104978,-0.7322814082923097,0.12170021050267743,0.9535627615443085,-0.7497972341495791,-0.5132722089102992,0.07870795490625701,0.4100741458034851,0,-1,0.13569363951683044,-1.6351259390460413,-1.1359651724444788,-1.3264926115619105,0.9268255233764648,0.29382285475730896
5188,1734173505,37846803,-0.7337577143820111,0.12078390188769356,0.949804925137758,-0.7501354932186621,-0.5147444962924116,0.07846272293625983,0.40764990673333124,0,-1,0.1362917274236679,-1.6354015509234827,-1.1412437597857874,-1.3253901640521448,0.9309503436088562,0.2951280176639557
5204,1734173505,54153919,-0.7351702495095008,0.11987576954512474,0.946258087335805,-0.7504666208467858,-0.5161758608020182,0.07833729812726735,0.40524757795972277,0,-1,0.13690216839313507,-1.6357019583331507,-1.1461032072650355,-1.3243115584002894,0.9350991249084473,0.29643356800079346
5221,1734173505,69895982,-0.736602665427134,0.11889433656760859,0.9426668629499708,-0.7507701713793943,-0.5176349885045894,0.07821980678937653,0.4028397079095371,0,-1,0.13752423226833344,-1.6360014120685022,-1.1510465780841272,-1.3232324759112757,0.9391636848449707,0.29778701066970825
5236,1734173505,85620880,-0.7379409144569217,0.11800306543100929,0.9391043875491294,-0.7511160414153691,-0.5190093185015238,0.07808617218577338,0.4004454636407598,0,-1,0.1381230652332306,-1.6362531820880335,-1.1560495535479944,-1.322118107472555,0.9433367848396301,0.2991285026073456
5253,1734173505,101920604,-0.7393133276009207,0.11703553411428308,0.9354615824879804,-0.7514294710774956,-0.5204448183445707,0.07791426342952203,0.3980204876745885,0,-1,0.1386851966381073,-1.6364930311786097,-1.1611602942096155,-1.3209908644305628,0.9474376440048218,0.30050593614578247
5268,1734173505,118163347,-0.7406299007969908,0.116124490623619,0.9318103937968123,-0.7517558673394582,-0.5218517712622248,0.07772570259680034,0.39559140524916764,0,-1,0.13931961357593536,-1.636744801198141,-1.1662471930133265,-1.319972340260641,0.9515504837036133,0.30176353454589844
5285,1734173505,133925914,-0.7419547032075587,0.1151834014266995,0.9281622657772395,-0.752082619255736,-0.5232512885805009,0.0775398806044026,0.39315059421057974,0,-1,0.13994167745113373,-1.637057129536764,-1.1712029615985315,-1.3188937346087855,0.9556753039360046,0.30308106541633606
5300,1734173505,150162220,-0.7432605704432635,0.11422977295146126,0.9245256856979376,-0.752386856740047,-0.5246671050089834,0.07730955006842682,0.39071943923298946,0,-1,0.14054051041603088,-1.6372969786273401,-1.1761582533465784,-1.3178265730487269,0.959716260433197,0.30436262488365173
5317,1734173505,165969610,-0.7445318415292643,0.11328985512338743,0.9209438832657925,-0.7526873913108765,-0.5260564514403182,0.07715464351351906,0.38829558566116806,0,-1,0.14115095138549805,-1.63759690919985,-1.181101147328512,-1.3167241255389612,0.9638653993606567,0.30568012595176697
5332,1734173505,182161808,-0.7457436031899518,0.11235918261435111,0.9173587081999148,-0.7530168063475783,-0.5274015407304629,0.07697554767216463,0.3858601680062325,0,-1,0.1417250782251358,-1.637848202382223,-1.1861050764666956,-1.3156817595111292,0.9679303169250488,0.3069736957550049
5349,1734173505,197909832,-0.7470053149220252,0.11142137336478314,0.9136705790085551,-0.7533339740968149,-0.528764085772255,0.0767366613969056,0.3834161575450198,0,-1,0.14239543676376343,-1.638160530720846,-1.1913116613971155,-1.3146269957171839,0.9719951748847961,0.3082548677921295
5364,1734173505,214212894,-0.7482245911691525,0.11046390337375663,0.9099016691112889,-0.7536268063028059,-0.5301755993212837,0.07641299870805764,0.3809481911423039,0,-1,0.14300552010536194,-1.6383522192584437,-1.1964581648456019,-1.3135603109942835,0.9761084318161011,0.309584379196167
5381,1734173505,229902744,-0.749405269982381,0.10952790713422773,0.9062363703527336,-0.7539453246092396,-0.5315289098528605,0.07617878300087522,0.37847094804093406,0,-1,0.1436043530702591,-1.638603989277975,-1.2014973799334925,-1.3125293890582483,0.9801732897758484,0.31087830662727356
5396,1734173505,246157407,-0.7505813667996636,0.10861961677134557,0.902539941477773,-0.7542893953481952,-0.5328378529099347,0.07591311757327696,0.37599006523030726,0,-1,0.14422640204429626,-1.6389277617083948,-1.206404987965719,-1.3114150206195276,0.9842501878738403,0.3122197687625885
5413,1734173505,261896133,-0.7517456067641336,0.10768553267885299,0.8989267216119136,-0.7545992031173381,-0.5341382473765884,0.07571704581473249,0.37355495488245705,0,-1,0.14482486248016357,-1.6392272154437464,-1.2113364378558558,-1.3103364149676722,0.9883997440338135,0.3135372996330261
5428,1734173505,278176784,-0.7528557918611405,0.10676274528720509,0.8953228402997282,-0.7549291367525386,-0.5354081621475745,0.07553414753301216,0.37109930065184,0,-1,0.14539936184883118,-1.639468018208639,-1.2163875738727015,-1.309185806904928,0.9924765825271606,0.31480687856674194
