yildirimyigit/pemp/data/ur10/raw/17_2024-12-14_13-53-11.csv
Time,ROS secs,ROS nsecs,________p_x________,________p_y________,________p_z________,________q_x________,________q_y________,________q_z________,________q_w________,gripper_position,gripper_force,shoulder_pan_joint,shoulder_lift_joint,elbow_joint,wrist_1_joint,wrist_2_joint,wrist_3_joint
0,1734173591,850369453,-0.0001451910246048226,0.2561410151183894,1.4272999882093769,-0.7071067781027544,2.1008102804108023e-05,-8.023423902757531e-05,0.7071067794062426,0,-1,-9.519258608037262e-05,-1.5708802382098597,-3.5587941304981996e-05,-1.570796314870016,-8.32716571252945e-05,5.992112710373476e-05
16,1734173591,865861177,-0.0001364541880485885,0.25614101225904123,1.427299989951216,-0.7071067768426205,3.3652157301536253e-05,-7.5682379399346e-05,0.7071067806795168,0,-1,-9.519258608037262e-05,-1.5709040800677698,-7.18275653284195e-05,-1.5707719961749476,-9.519258608037262e-05,4.793690095539205e-05
32,1734173591,882465124,-0.00014827935592329753,0.2561410151007857,1.4272999885174649,-0.707106775185345,2.515565069356011e-05,-0.00010946699485778103,0.7071067782670112,0,-1,-8.32716571252945e-05,-1.5709040800677698,-4.7985707418263246e-05,-1.5707719961749476,-7.135072817021637e-05,7.190534961409867e-05
47,1734173591,897717237,-0.00015937055709190295,0.25614101001518647,1.4272999878278927,-0.7071067769184417,1.2556352855929965e-05,-8.025661920949608e-05,0.7071067807886063,0,-1,-0.00010711351503545075,-1.570916000996725,-9.566942323857575e-05,-1.5707839171039026,-7.135072817021637e-05,8.388957940042019e-05
64,1734173591,914383888,-0.00017050204176664006,0.2561410128256547,1.4272999858198825,-0.707106776427336,2.948222768065682e-05,-7.142293919373493e-05,0.7071067817240219,0,-1,-8.32716571252945e-05,-1.5708802382098597,-3.5587941304981996e-05,-1.570808235798971,-3.5587941304981996e-05,8.388957940042019e-05
80,1734173591,930294036,-0.00016831810335314268,0.2561410171913753,1.4272999854247541,-0.7071067773341548,2.937033570735118e-05,-8.839357075691357e-05,0.7071067789040535,0,-1,-7.135072817021637e-05,-1.57092792192568,-3.5587941304981996e-05,-1.5707839171039026,-7.135072817021637e-05,8.388957940042019e-05
96,1734173591,946227312,-0.00016807973235034805,0.2561410172379319,1.4272999848024608,-0.7071067776700803,3.3966951936287765e-05,-7.570475965613565e-05,0.7071067798346097,0,-1,-9.519258608037262e-05,-1.5708802382098597,-8.374849428349762e-05,-1.5707719961749476,-4.7985707418263246e-05,5.992112710373476e-05
111,1734173591,962378263,-0.0001506330005687117,0.25614101147723195,1.4272999885982562,-0.7071067781770365,3.4135539400105525e-05,-5.867743290384856e-05,0.7071067809375152,0,-1,-8.32716571252945e-05,-1.5708802382098597,-3.5587941304981996e-05,-1.5707357565509241,-8.32716571252945e-05,7.190534961409867e-05
128,1734173591,978138208,-0.00011548471409134803,0.25614100896937614,1.4272999927395467,-0.707106777717209,4.227249214894773e-05,-5.054048011300529e-05,0.7071067815861207,0,-1,-0.00010711351503545075,-1.5708921591388147,-9.566942323857575e-05,-1.5707719961749476,-3.5587941304981996e-05,8.388957940042019e-05
143,1734173591,994237184,-0.00012896805892119928,0.2561410152918265,1.4272999900622596,-0.7071067761384406,5.053327429414194e-05,-7.566000176814907e-05,0.7071067803811907,0,-1,-9.519258608037262e-05,-1.5709403196917933,-7.18275653284195e-05,-1.5707719961749476,-9.519258608037262e-05,7.190534961409867e-05
159,1734173592,9883880,-0.00010162041517147143,0.25614101398222255,1.4272999924812324,-0.7071067764165213,5.487178872981615e-05,-8.008803190651493e-05,0.707106779292088,0,-1,-9.519258608037262e-05,-1.5709040800677698,-4.7985707418263246e-05,-1.5707719961749476,-4.7985707418263246e-05,5.992112710373476e-05
176,1734173592,25969266,-0.0001782371862711517,0.25614101586692134,1.4272999826019934,-0.7071067780053821,4.295570574870655e-06,-8.851740150169984e-05,0.7071067788142502,0,-1,-7.135072817021637e-05,-1.5709040800677698,-1.1746083394825746e-05,-1.5707719961749476,-8.32716571252945e-05,8.388957940042019e-05
191,1734173592,41654109,-0.00013154823682064133,0.25614101369115655,1.4272999896147602,-0.7071067771454701,3.3607399472097706e-05,-8.415650698064586e-05,0.7071067794210233,0,-1,-0.00010711351503545075,-1.5709040800677698,-0.000119511281148732,-1.5707600752459925,-5.990663637334137e-05,7.190534961409867e-05
208,1734173592,57933330,-0.00015336010708452667,0.2561410202349472,1.4272999862928955,-0.7071067771399934,2.1131932236979565e-05,-0.00010573569327550027,0.7071067770118571,0,-1,-0.000119511281148732,-1.5708683172809046,-9.566942323857575e-05,-1.5707719961749476,-3.5587941304981996e-05,8.388957940042019e-05
223,1734173592,73803663,-0.00014322729038285882,0.25614101087958135,1.4272999890651763,-0.7071067766206944,1.2387765416155952e-05,-8.851740148202667e-05,0.707106780103475,0,-1,-0.00010711351503545075,-1.5709040800677698,-3.5587941304981996e-05,-1.5707719961749476,-7.135072817021637e-05,5.992112710373476e-05
240,1734173592,90220451,-0.00012694172057218302,0.25614100807248397,1.427299991739771,-0.707106777489033,2.536899486002392e-05,-6.744397733903651e-05,0.7071067812125685,0,-1,-0.000119511281148732,-1.5708802382098597,-3.5587941304981996e-05,-1.5707600752459925,-5.990663637334137e-05,8.388957940042019e-05
256,1734173592,106091022,-0.00012221501180415738,0.25614101626045976,1.4272999904195212,-0.7071067751103332,5.484941097772482e-05,-9.696914888274123e-05,0.7071067784865247,0,-1,-9.519258608037262e-05,-1.570916000996725,-4.7985707418263246e-05,-1.5707600752459925,-8.32716571252945e-05,9.58738019107841e-05
272,1734173592,122078657,-0.00012902759243634194,0.2561410117691569,1.4272999909212962,-0.7071067786130418,2.95836797695475e-05,-6.322929253778577e-05,0.7071067803142247,0,-1,-9.519258608037262e-05,-1.570916000996725,-1.1746083394825746e-05,-1.5707476774798792,-4.7985707418263246e-05,8.388957940042019e-05
287,1734173592,137837409,-0.0001493695364665812,0.2561410171828728,1.4272999873053323,-0.7071067732602442,5.4747958873704494e-05,-9.673342587849397e-05,0.7071067803767623,0,-1,-0.00010711351503545075,-1.5708921591388147,-8.374849428349762e-05,-1.5707719961749476,-5.990663637334137e-05,5.992112710373476e-05
304,1734173592,154203414,-0.00012663357175466417,0.2561410132233169,1.427299990968273,-0.7071067768396542,3.34611896832841e-05,-8.430271670634116e-05,0.7071067797163567,0,-1,-5.990663637334137e-05,-1.570916000996725,-7.18275653284195e-05,-1.5707719961749476,-4.7985707418263246e-05,9.58738019107841e-05
319,1734173592,169584274,-0.0001490983236882747,0.25614101536179473,1.427299988293914,-0.7071067771453782,1.670390220280722e-05,-0.00010106000417002741,0.7071067778086502,0,-1,-9.519258608037262e-05,-1.5708921591388147,-3.5587941304981996e-05,-1.570796314870016,-4.7985707418263246e-05,9.58738019107841e-05
335,1734173592,185761690,-0.00015592503467948038,0.2561410119141152,1.4272999881184167,-0.707106778718354,1.287115011257708e-05,-7.151245246083178e-05,0.7071067799214312,0,-1,-8.32716571252945e-05,-1.570916000996725,-3.5587941304981996e-05,-1.5707719961749476,-7.135072817021637e-05,7.190534961409867e-05
352,1734173592,201753854,-0.0001245949021525197,0.2561410131577912,1.4272999910251372,-0.7071067784123785,3.80130494677262e-05,-6.322929254751375e-05,0.7071067801119801,0,-1,-0.000119511281148732,-1.5708802382098597,-3.5587941304981996e-05,-1.5707839171039026,-7.135072817021637e-05,7.190534961409867e-05
367,1734173592,217838287,-0.0001498107536872644,0.2561410176529013,1.4272999862357971,-0.7071067779035707,2.1176690162598843e-05,-8.849502129522863e-05,0.7071067786148068,0,-1,-0.00015527406801396637,-1.570916000996725,-4.7985707418263246e-05,-1.5707839171039026,-4.7985707418263246e-05,7.190534961409867e-05
383,1734173592,234108924,-0.0001410379402660396,0.25614101063839617,1.4272999892523395,-0.7071067768453384,4.222773423909704e-05,-6.710680257152321e-05,0.7071067810825267,0,-1,-9.519258608037262e-05,-1.5708921591388147,-9.566942323857575e-05,-1.5707476774798792,-3.5587941304981996e-05,7.190534961409867e-05
399,1734173592,249442338,-0.0002200902320701412,0.2561410190405039,1.427299976374523,-0.7071067738164981,1.6624830209040558e-05,-0.00010956844530354085,0.7071067798721736,0,-1,-7.135072817021637e-05,-1.570916000996725,-2.366701234990387e-05,-1.5707719961749476,-5.990663637334137e-05,0.000107858024421148
415,1734173592,265514612,-0.00014590405137510657,0.25614101317448756,1.4272999888998075,-0.7071067786250389,1.691724755410997e-05,-7.589572469623704e-05,0.707106779472638,0,-1,-7.135072817021637e-05,-1.5709040800677698,-5.990663637334137e-05,-1.5707600752459925,-2.366701234990387e-05,9.58738019107841e-05
432,1734173592,282031536,-0.0001260726243626938,0.2561410168195639,1.4272999901087506,-0.7071067755141509,4.6442418904293096e-05,-9.69467712125038e-05,0.7071067786879188,0,-1,-8.32716571252945e-05,-1.5708802382098597,-3.5587941304981996e-05,-1.570808235798971,-2.366701234990387e-05,8.388957940042019e-05
448,1734173592,297842025,-0.00011449795178714604,0.2561410057973763,1.4272999933435848,-0.7071067781315452,1.2657804876527268e-05,-7.172579773263156e-05,0.7071067804904827,0,-1,-0.00010711351503545075,-1.5708921591388147,-5.990663637334137e-05,-1.5707476774798792,-4.7985707418263246e-05,5.992112710373476e-05
463,1734173592,313909769,-0.00015434105270701768,0.2561410158608637,1.427299986920907,-0.7071067766294772,3.78668421261111e-05,-7.989706424604391e-05,0.7071067802158539,0,-1,-9.519258608037262e-05,-1.5708921591388147,-9.566942323857575e-05,-1.570796314870016,-7.135072817021637e-05,9.58738019107841e-05
479,1734173592,330008029,-0.00013940412898260848,0.2561410142559299,1.4272999890618343,-0.7071067747818301,4.208152682678584e-05,-9.254111871294993e-05,0.7071067802835188,0,-1,-0.000119511281148732,-1.5708921591388147,-7.18275653284195e-05,-1.5707476774798792,-5.990663637334137e-05,8.388957940042019e-05
495,1734173592,345421791,-0.00012849479798467258,0.2561410152411338,1.4272999896147602,-0.7071067758229451,5.477033676512396e-05,-7.14229392694785e-05,0.7071067808218594,0,-1,-8.32716571252945e-05,-1.570916000996725,-9.566942323857575e-05,-1.5707839171039026,-8.32716571252945e-05,7.190534961409867e-05
511,1734173592,361576080,-0.00016039688451205465,0.25614101661363997,1.427299986098275,-0.7071067791438919,4.082226693348721e-06,-8.839357072828706e-05,0.7071067776924949,0,-1,-4.7985707418263246e-05,-1.5708802382098597,-4.7985707418263246e-05,-1.5707719961749476,-8.32716571252945e-05,8.388957940042019e-05
527,1734173592,377585411,-0.00015600044602782543,0.25614101593385213,1.4272999868332328,-0.7071067755366051,3.365215716304318e-05,-9.254111871123546e-05,0.7071067799801518,0,-1,-7.135072817021637e-05,-1.5709040800677698,-9.566942323857575e-05,-1.5707600752459925,-4.7985707418263246e-05,4.793690095539205e-05
543,1734173592,393737554,-0.0001312025299876644,0.2561410134751985,1.427299990266285,-0.7071067756376369,3.358502044670667e-05,-0.00010103762523093826,0.707106778719303,0,-1,-5.990663637334137e-05,-1.5708921591388147,-4.7985707418263246e-05,-1.5707719961749476,-5.990663637334137e-05,7.190534961409867e-05
559,1734173592,409620046,-0.00010527405709495982,0.25614100808661705,1.427299994032282,-0.7071067759829297,5.915360910172768e-05,-5.018092765158398e-05,0.7071067821353094,0,-1,-9.519258608037262e-05,-1.570916000996725,-5.990663637334137e-05,-1.5707600752459925,-5.990663637334137e-05,8.388957940042019e-05
575,1734173592,425648212,-0.00013626106896040308,0.2561410121579864,1.4272999895468674,-0.7071067758875689,3.3652157221712465e-05,-8.411174904650614e-05,0.7071067806821212,0,-1,-0.000119511281148732,-1.5708921591388147,-5.990663637334137e-05,-1.5707719961749476,-8.32716571252945e-05,8.388957940042019e-05
592,1734173592,441932439,-0.00013355501809834185,0.2561410122264924,1.4272999899767476,-0.707106780010808,8.319290546658824e-06,-6.729776763063542e-05,0.7071067791108686,0,-1,-7.135072817021637e-05,-1.5709040800677698,-3.5587941304981996e-05,-1.5707719961749476,-8.32716571252945e-05,7.190534961409867e-05
607,1734173592,457602739,-0.000155346952794712,0.2561410139015209,1.427299987035536,-0.7071067773442742,1.2556352839562738e-05,-8.868598889760044e-05,0.7071067793557975,0,-1,-0.00010711351503545075,-1.5708921591388147,-3.5587941304981996e-05,-1.5707839171039026,-7.135072817021637e-05,7.190534961409867e-05
624,1734173592,474007844,-0.00013188791214632553,0.25614101013975626,1.427299990579275,-0.707106778020724,2.5368994879139627e-05,-6.744397735815223e-05,0.7071067806808775,0,-1,-0.000119511281148732,-1.5708802382098597,-2.366701234990387e-05,-1.5707719961749476,-8.32716571252945e-05,8.388957940042019e-05
640,1734173592,490048408,-0.00013153784190555911,0.2561410133959394,1.427299990331772,-0.7071067743590991,3.7653496724126356e-05,-0.0001053985184818912,0.7071067791563285,0,-1,-9.519258608037262e-05,-1.5708921591388147,-3.5587941304981996e-05,-1.5707600752459925,-8.32716571252945e-05,7.190534961409867e-05
656,1734173592,505707263,-9.869259556506357e-05,0.2561410091145709,1.4272999941993003,-0.7071067767267969,4.6150002124185956e-05,-6.318453463279237e-05,0.7071067813173141,0,-1,-8.32716571252945e-05,-1.5708921591388147,-3.5587941304981996e-05,-1.5707719961749476,-5.990663637334137e-05,4.793690095539205e-05
672,1734173592,521962404,-0.00016015980100841552,0.25614101654330595,1.4272999855801272,-0.7071067781061766,1.2724940274835144e-05,-8.851740151866068e-05,0.7071067786120055,0,-1,-0.00010711351503545075,-1.5708444754229944,-7.18275653284195e-05,-1.5707476774798792,-9.519258608037262e-05,9.58738019107841e-05
687,1734173592,537647247,-0.00016297706240461129,0.25614101464395095,1.4272999855750883,-0.7071067791064726,8.341668120401564e-06,-7.570475963579992e-05,0.7071067791648417,0,-1,-0.000119511281148732,-1.570916000996725,-9.566942323857575e-05,-1.5707600752459925,-5.990663637334137e-05,4.793690095539205e-05
704,1734173592,554270267,-0.00016256026383634753,0.2561410100232217,1.4272999871346952,-0.7071067757182491,2.113193226514464e-05,-8.853977913414129e-05,0.7071067807958644,0,-1,-9.519258608037262e-05,-1.570916000996725,-5.990663637334137e-05,-1.5707600752459925,-4.7985707418263246e-05,8.388957940042019e-05
720,1734173592,569948911,-0.0001118984809213222,0.25614101337847045,1.4272999915125613,-0.707106774916908,6.319970641698273e-05,-7.1422939269403e-05,0.7071067810247403,0,-1,-8.32716571252945e-05,-1.570916000996725,-1.1746083394825746e-05,-1.5707839171039026,-7.135072817021637e-05,7.190534961409867e-05
736,1734173592,585969448,-0.00013126751074149387,0.25614101566666936,1.427299990102682,-0.7071067784127547,2.97298894841695e-05,-7.994182215232167e-05,0.7071067788164488,0,-1,-9.519258608037262e-05,-1.5708921591388147,-8.374849428349762e-05,-1.5707839171039026,-4.7985707418263246e-05,5.992112710373476e-05
751,1734173592,601721763,-0.00015355322617309911,0.2561410203173199,1.4272999866371254,-0.7071067780990644,2.1131932323023778e-05,-9.730632363253765e-05,0.7071067772630109,0,-1,-9.519258608037262e-05,-1.5709040800677698,-3.5587941304981996e-05,-1.5707839171039026,-8.32716571252945e-05,7.190534961409867e-05
767,1734173592,618008852,-0.00011729929369457325,0.25614101246330334,1.4272999916808073,-0.7071067784123785,3.8013049467726204e-05,-6.322929254751375e-05,0.7071067801119801,0,-1,-7.135072817021637e-05,-1.5709040800677698,-5.990663637334137e-05,-1.5707719961749476,-5.990663637334137e-05,8.388957940042019e-05
783,1734173592,633920192,-8.974059786590283e-05,0.25614100854542915,1.4272999951142307,-0.7071067791007111,4.222773439529574e-05,-4.181869354991177e-05,0.7071067807748936,0,-1,-7.135072817021637e-05,-1.5708921591388147,-5.990663637334137e-05,-1.570796314870016,-8.32716571252945e-05,8.388957940042019e-05
799,1734173592,649729490,-0.0001029996666417308,0.25614101414705864,1.4272999924030725,-0.7071067761140636,5.4894168906421456e-05,-8.006565167224371e-05,0.7071067795953432,0,-1,-0.00010711351503545075,-1.5708921591388147,-5.990663637334137e-05,-1.570808235798971,-7.135072817021637e-05,7.190534961409867e-05
816,1734173592,665950775,-0.00015678689729054925,0.2561410205752395,1.4272999859638102,-0.7071067758145768,4.6487176760888394e-05,-8.847264365533726e-05,0.707106779495606,0,-1,-7.135072817021637e-05,-1.5708921591388147,-9.566942323857575e-05,-1.5707839171039026,-7.135072817021637e-05,8.388957940042019e-05
831,1734173592,681736469,-0.0001030710332197044,0.25614101233485564,1.4272999930894998,-0.7071067748185116,6.315495114738832e-05,-7.989706426764787e-05,0.7071067802204092,0,-1,-0.00010711351503545075,-1.570916000996725,-5.990663637334137e-05,-1.5707600752459925,-5.990663637334137e-05,7.190534961409867e-05
848,1734173592,697990894,-0.00013635069013934892,0.25614101589955673,1.4272999890618343,-0.7071067745184441,4.629621163892768e-05,-9.675580355698803e-05,0.70710677971937,0,-1,-4.7985707418263246e-05,-1.5708921591388147,-7.18275653284195e-05,-1.5707719961749476,-7.135072817021637e-05,9.58738019107841e-05
863,1734173592,713713407,-0.00015683702593464788,0.2561410097784377,1.4272999881485566,-0.7071067765746508,1.2680183693863073e-05,-8.856215809865026e-05,0.7071067801387312,0,-1,-0.00010711351503545075,-1.5708683172809046,-4.7985707418263246e-05,-1.5707357565509241,-5.990663637334137e-05,8.388957940042019e-05
880,1734173592,730031013,-0.00010194047648135217,0.2561410093850273,1.4272999939722995,-0.7071067773444926,5.065710398680127e-05,-5.8677432916409576e-05,0.7071067807794682,0,-1,-9.519258608037262e-05,-1.5709040800677698,-5.990663637334137e-05,-1.5707839171039026,-5.990663637334137e-05,4.793690095539205e-05
895,1734173592,745791673,-0.0001462846506875962,0.2561410150939539,1.4272999885365434,-0.7071067769343822,3.8013049344241126e-05,-7.975085709448439e-05,0.7071067799196094,0,-1,-8.32716571252945e-05,-1.5708683172809046,-5.990663637334137e-05,-1.5707719961749476,-5.990663637334137e-05,7.190534961409867e-05
911,1734173592,761986494,-0.00013098192159770566,0.2561410100751132,1.427299991052626,-0.7071067781094399,2.9583679745558314e-05,-6.322929252556326e-05,0.7071067808178266,0,-1,-9.519258608037262e-05,-1.570916000996725,-4.7985707418263246e-05,-1.5707719961749476,-4.7985707418263246e-05,7.190534961409867e-05
927,1734173592,778225183,-0.00012544484088789718,0.2561410096107906,1.4272999916239433,-0.7071067770256118,2.9268885080916562e-05,-7.163628194304706e-05,0.7071067811130277,0,-1,-9.519258608037262e-05,-1.5708921591388147,-4.7985707418263246e-05,-1.570808235798971,-7.135072817021637e-05,9.58738019107841e-05
943,1734173592,793904542,-0.00016101761897873497,0.2561410187940153,1.4272999857999988,-0.7071067776557366,2.110955338599086e-05,-9.699152779729657e-05,0.7071067777502567,0,-1,-4.7985707418263246e-05,-1.5708563963519495,-3.5587941304981996e-05,-1.5707839171039026,-3.5587941304981996e-05,7.190534961409867e-05
960,1734173592,810050964,-0.00011972292604665521,0.2561410108658013,1.4272999921585858,-0.7071067778041881,2.5301859373906035e-05,-8.403267747464711e-05,0.7071067791230004,0,-1,-8.32716571252945e-05,-1.5708802382098597,-2.366701234990387e-05,-1.5707719961749476,-4.7985707418263246e-05,8.388957940042019e-05
976,1734173592,826158761,-0.0001452308647566195,0.25614101093756436,1.4272999890055809,-0.7071067764274858,2.94150922306653e-05,-7.991944444780808e-05,0.7071067808174126,0,-1,-0.00013143221010381012,-1.5709040800677698,-5.990663637334137e-05,-1.5707839171039026,-4.7985707418263246e-05,4.793690095539205e-05
991,1734173592,842184543,-0.00015922900646975178,0.25614102337670835,1.4272999851106252,-0.7071067804119597,1.6917247666521698e-05,-8.432509433806709e-05,0.7071067767307266,0,-1,-7.135072817021637e-05,-1.5708802382098597,-7.18275653284195e-05,-1.5707839171039026,-4.7985707418263246e-05,7.190534961409867e-05
1008,1734173592,858313798,-0.0001399605669724626,0.25614100876742574,1.4272999902066918,-0.7071067767714164,2.9583679671855745e-05,-7.16586621659767e-05,0.7071067813518552,0,-1,-9.519258608037262e-05,-1.570916000996725,-1.1746083394825746e-05,-1.5707600752459925,-7.135072817021637e-05,8.388957940042019e-05
1024,1734173592,873895883,-7.271667672762694e-05,0.256141009335791,1.427299995867171,-0.707106777152318,6.346974594384581e-05,-5.46313354829862e-05,0.7071067802618433,0,-1,-7.135072817021637e-05,-1.5708921591388147,0.0,-1.570796314870016,-7.135072817021637e-05,7.190534961409867e-05
1040,1734173592,890864133,-0.0001209809572859648,0.25614101611297635,1.427299990791595,-0.7071067744133614,6.770681074672718e-05,-8.411174911211172e-05,0.7071067797155766,0,-1,-5.990663637334137e-05,-1.5708921591388147,-5.990663637334137e-05,-1.5707719961749476,-3.5587941304981996e-05,4.793690095539205e-05
1056,1734173592,906025648,-0.0001796667358106459,0.256141023126589,1.4272999823730248,-0.7071067740226447,3.3798364158837603e-05,-0.00011802019527413361,0.7071067776935762,0,-1,-8.32716571252945e-05,-1.5708802382098597,-5.990663637334137e-05,-1.5707719961749476,-8.32716571252945e-05,5.992112710373476e-05
1071,1734173592,922297954,-0.00011235854944957381,0.2561410154418567,1.4272999918829785,-0.7071067786406473,4.239632172972669e-05,-6.727538999773546e-05,0.7071067792611102,0,-1,-8.32716571252945e-05,-1.5709040800677698,-7.18275653284195e-05,-1.5707719961749476,-7.135072817021637e-05,4.793690095539205e-05
1088,1734173592,937908172,-0.00014428862245302517,0.25614101308773357,1.4272999890202316,-0.7071067791428894,2.943747263075774e-05,-5.4608955236927315e-05,0.7071067805087617,0,-1,-9.519258608037262e-05,-1.5709040800677698,-4.7985707418263246e-05,-1.5707719961749476,-4.7985707418263246e-05,4.793690095539205e-05
1104,1734173592,954053878,-8.690912678168684e-05,0.25614100944184426,1.4272999947626577,-0.7071067764261199,5.474795921119454e-05,-6.301594725758173e-05,0.7071067810196087,0,-1,-8.32716571252945e-05,-1.5708802382098597,-8.374849428349762e-05,-1.5707719961749476,-5.990663637334137e-05,5.992112710373476e-05
1119,1734173592,970185995,-0.00012038762496926869,0.2561410124456997,1.4272999917288542,-0.7071067755258519,5.487178868839608e-05,-7.97508570979921e-05,0.707106780220866,0,-1,-8.32716571252945e-05,-1.5709040800677698,-7.18275653284195e-05,-1.5707357565509241,-5.990663637334137e-05,8.388957940042019e-05
1136,1734173592,986552238,-0.00012917530832195007,0.25614101719036964,1.4272999896128686,-0.707106775255714,6.349212595925122e-05,-7.989706428176445e-05,0.7071067797530117,0,-1,-9.519258608037262e-05,-1.5708802382098597,-7.18275653284195e-05,-1.570796314870016,-5.990663637334137e-05,7.190534961409867e-05
1152,1734173593,2039909,-0.00010180208621203283,0.2561410109880841,1.427299993277418,-0.7071067786158257,3.79906718433028e-05,-6.325167020586434e-05,0.7071067799077341,0,-1,-0.00013143221010381012,-1.5708921591388147,-3.5587941304981996e-05,-1.570723835621969,-4.7985707418263246e-05,8.388957940042019e-05
1168,1734173593,18061161,-0.0001605375515252496,0.25614101636575093,1.427299986248831,-0.7071067760265877,3.7844461873821984e-05,-8.83488141397082e-05,0.7071067798144556,0,-1,-8.32716571252945e-05,-1.570916000996725,-5.990663637334137e-05,-1.5707600752459925,-9.519258608037262e-05,0.000107858024421148
1184,1734173593,34024953,-0.0001483921792542384,0.2561410194870025,1.4272999869640581,-0.7071067754274447,4.222773402747194e-05,-0.0001011614560301554,0.7071067784484741,0,-1,-7.135072817021637e-05,-1.5708802382098597,-2.366701234990387e-05,-1.5707476774798792,-4.7985707418263246e-05,8.388957940042019e-05
1200,1734173593,50198316,-0.00010232243509120806,0.2561410077779408,1.4272999940363646,-0.7071067763282655,5.4871788788836484e-05,-6.289211773877638e-05,0.7071067811188892,0,-1,-9.519258608037262e-05,-1.5708921591388147,-5.990663637334137e-05,-1.5707719961749476,-3.5587941304981996e-05,7.190534961409867e-05
1216,1734173593,65782785,-0.00014495072290849324,0.25614101100254955,1.42729998895909,-0.7071067771433414,3.36521573464293e-05,-6.725300972146997e-05,0.7071067812307572,0,-1,-8.32716571252945e-05,-1.5709040800677698,-7.18275653284195e-05,-1.5707600752459925,-7.135072817021637e-05,8.388957940042019e-05
1232,1734173593,81960916,-0.00017357553583151263,0.25614101068310957,1.4272999854600068,-0.7071067743628938,2.5267542669573293e-05,-8.440416837723495e-05,0.707106782521276,0,-1,-8.32716571252945e-05,-1.5709040800677698,-7.18275653284195e-05,-1.570796314870016,-7.135072817021637e-05,5.992112710373476e-05
1247,1734173593,98136663,-0.00013340074922934332,0.25614101386750204,1.427299989951216,-0.7071067763898804,4.210390460026285e-05,-7.566000174828801e-05,0.7071067806819116,0,-1,-8.32716571252945e-05,-1.5708921591388147,-5.990663637334137e-05,-1.570796314870016,-4.7985707418263246e-05,9.58738019107841e-05
1263,1734173593,114197731,-0.00013591283943194048,0.25614100852494004,1.4272999907234258,-0.7071067771901247,4.256490906870917e-05,-5.867743288774963e-05,0.7071067814672567,0,-1,-0.00010711351503545075,-1.5708563963519495,-7.18275653284195e-05,-1.5707719961749476,-7.135072817021637e-05,7.190534961409867e-05
1280,1734173593,129870653,-0.0001416023482203753,0.25614101464823347,1.4272999887205602,-0.7071067760878269,4.2126282199103186e-05,-7.563762407377454e-05,0.7071067809850264,0,-1,-5.990663637334137e-05,-1.5709040800677698,-3.5587941304981996e-05,-1.5707839171039026,-3.5587941304981996e-05,8.388957940042019e-05
1296,1734173593,146018981,-0.00017245288902020985,0.256141019864666,1.4272999835263551,-0.7071067754401464,4.2250114253233566e-05,-9.237253134374743e-05,0.7071067796371928,0,-1,-8.32716571252945e-05,-1.5709040800677698,-9.566942323857575e-05,-1.570796314870016,-8.32716571252945e-05,4.793690095539205e-05
1312,1734173593,162148714,-0.00014633678096242022,0.2561410132105217,1.4272999878572832,-0.707106778574489,8.465498916484973e-06,-8.434747329868065e-05,0.7071067787172229,0,-1,-9.519258608037262e-05,-1.5708802382098597,-7.18275653284195e-05,-1.5707600752459925,-7.135072817021637e-05,7.190534961409867e-05
1327,1734173593,178201198,-0.00014947984096489418,0.2561410154673602,1.42729998737225,-0.7071067773510403,2.9606059855896712e-05,-8.006565163714126e-05,0.7071067798693482,0,-1,-7.135072817021637e-05,-1.5708921591388147,-4.7985707418263246e-05,-1.5707719961749476,-3.5587941304981996e-05,5.992112710373476e-05
1344,1734173593,193936586,-0.00011421333843450733,0.2561410173011161,1.4272999911433644,-0.7071067768386435,5.504037615144286e-05,-8.025661930267757e-05,0.7071067788377488,0,-1,-0.000119511281148732,-1.5709040800677698,-4.7985707418263246e-05,-1.5707839171039026,-9.519258608037262e-05,9.58738019107841e-05
1360,1734173593,210043191,-0.00014112908726964237,0.2561410146031825,1.4272999881917317,-0.7071067767308528,2.9415092205707932e-05,-8.834881413617588e-05,0.7071067795110887,0,-1,-3.5587941304981996e-05,-1.5708921591388147,-2.366701234990387e-05,-1.5708320776568812,-3.5587941304981996e-05,7.190534961409867e-05
1375,1734173593,226153135,-0.00013932871757472594,0.25614101067066314,1.4272999902465902,-0.7071067778590363,2.9774647328987898e-05,-6.30383248921027e-05,0.7071067810772652,0,-1,-7.135072817021637e-05,-1.5709040800677698,-5.990663637334137e-05,-1.5707476774798792,-5.990663637334137e-05,5.992112710373476e-05
1391,1734173593,241756677,-0.00015276677489694287,0.25614101578025184,1.4272999874773942,-0.7071067771436833,2.100810271823176e-05,-8.866360867414487e-05,0.707106779358604,0,-1,-0.000119511281148732,-1.5709040800677698,-3.5587941304981996e-05,-1.5707719961749476,-7.135072817021637e-05,7.190534961409867e-05
1408,1734173593,257936716,-0.00011858344033976685,0.2561410091212247,1.4272999923432097,-0.7071067776348076,4.661100655229491e-05,-5.429416067320474e-05,0.7071067811175883,0,-1,-0.000119511281148732,-1.570916000996725,-2.366701234990387e-05,-1.5707600752459925,-3.5587941304981996e-05,9.58738019107841e-05
1424,1734173593,274098873,-0.00015592503467948038,0.2561410119141152,1.4272999881184167,-0.7071067786285341,1.7108212599694346e-05,-6.72753899649906e-05,0.7071067803372474,0,-1,-9.519258608037262e-05,-1.5708921591388147,-7.18275653284195e-05,-1.5707839171039026,-3.5587941304981996e-05,5.992112710373476e-05
1439,1734173593,290263652,-0.00013460335672168278,0.25614101044056337,1.4272999906508044,-0.7071067794067651,1.677103786683396e-05,-5.884602029746043e-05,0.707106780318836,0,-1,-8.32716571252945e-05,-1.5709040800677698,-7.18275653284195e-05,-1.5707600752459925,-8.32716571252945e-05,7.190534961409867e-05
1456,1734173593,305837869,-0.00015192568556515843,0.25614102006351763,1.4272999864731035,-0.7071067769014426,3.3989332031379465e-05,-9.287829353163829e-05,0.7071067785549798,0,-1,-0.000119511281148732,-1.57092792192568,-4.7985707418263246e-05,-1.5708320776568812,-4.7985707418263246e-05,8.388957940042019e-05
1472,1734173593,322046756,-0.00017304085367526276,0.25614101537492134,1.4272999850234815,-0.707106777603528,2.960605989659916e-05,-7.163628196485271e-05,0.7071067805210746,0,-1,-8.32716571252945e-05,-1.5708802382098597,-4.7985707418263246e-05,-1.5707839171039026,-7.135072817021637e-05,7.190534961409867e-05
1487,1734173593,337964057,-0.00018085789560252626,0.25614101369309294,1.4272999840078757,-0.7071067782076268,4.295570608672693e-06,-8.008803184108291e-05,0.7071067796169722,0,-1,-8.32716571252945e-05,-1.5709040800677698,-3.5587941304981996e-05,-1.5707600752459925,-8.32716571252945e-05,5.992112710373476e-05
1503,1734173593,354396581,-0.00010906122056901395,0.2561410148714827,1.4272999922360883,-0.7071067764154477,5.504037612451913e-05,-7.991944451328137e-05,0.7071067792991335,0,-1,-7.135072817021637e-05,-1.5708802382098597,-5.990663637334137e-05,-1.5707719961749476,-4.7985707418263246e-05,8.388957940042019e-05
1520,1734173593,370177030,-8.535096602199471e-05,0.2561410093627667,1.4272999951088305,-0.7071067773519757,5.5062756448641426e-05,-5.460895524735657e-05,0.7071067807685473,0,-1,-0.00010711351503545075,-1.5709040800677698,-0.00010759035219365387,-1.5707839171039026,-5.990663637334137e-05,8.388957940042019e-05
1535,1734173593,386022806,-0.00019383375166882272,0.25614101724534044,1.427299977091731,-0.7071067826238356,-2.5504957531698915e-05,-6.74386571451789e-05,0.7071067760733821,0,-1,-8.32716571252945e-05,-1.5708563963519495,-0.0002630392657678726,-1.5707600752459925,8.388957940042019e-05,7.190534961409867e-05
1552,1734173593,402000665,-0.0003780018322894389,0.25614101194395555,1.427299913734027,-0.7071067909724977,-0.00017364702385159187,-5.475134240370952e-05,0.7071067479593007,0,-1,-3.5587941304981996e-05,-1.5708683172809046,-0.0006464163409631851,-1.5706399122821253,0.0003954794374294579,0.00016777915880084038
1568,1734173593,418152809,-0.0007150605489179685,0.25614098164463406,1.4272996812260088,-0.7071068209947245,-0.00041921400496596416,2.9914653717951213e-05,0.707106616478354,0,-1,2.3968450477696024e-05,-1.5708444754229944,-0.001244846974508107,-1.5705202261554163,0.0008868326549418271,0.00028762139845639467
1584,1734173593,433967828,-0.0013108968039117575,0.25614078877280644,1.4272988973591025,-0.7071069133576032,-0.0007955892386597544,0.000161721878502677,0.70710618294969,0,-1,0.00017976337403524667,-1.5708563963519495,-0.002263371144429982,-1.570244614277975,0.0017369636334478855,0.000550899829249829
1599,1734173593,450184345,-0.002291879732135849,0.25614008955770123,1.42729668035986,-0.7071071282941315,-0.0014436219855817546,0.0003690443833060768,0.7071048641307968,0,-1,0.0003947304212488234,-1.5709040800677698,-0.0036876837359827164,-1.5698846022235315,0.0029346372466534376,0.0009224108653143048
1616,1734173593,465887069,-0.0036419957985307618,0.2561385107975102,1.427291644503957,-0.7071075761231526,-0.002340648739858774,0.0005980098246152118,0.7071018593788072,0,-1,0.0006340403924696147,-1.57092792192568,-0.005747620259420216,-1.5694893042193812,0.0044558849185705185,0.0014249993255361915
1632,1734173593,482214689,-0.005466638577959285,0.25613550405563934,1.4272813115019996,-0.7071084931597973,-0.0035005770490677737,0.0008352307693784617,0.7070959109280484,0,-1,0.0009456302504986525,-1.5710485617267054,-0.0082019011126917,-1.5689852873431605,0.0064321584068238735,0.002060163300484419
1648,1734173593,497954607,-0.007816239777429528,0.25612987391636033,1.42726245616618,-0.707110380004403,-0.004986571757694034,0.0011787909336266665,0.7070846166082735,0,-1,0.0012568456586450338,-1.571228329335348,-0.01112395921816045,-1.568373982106344,0.008923754096031189,0.0028863258194178343
1664,1734173593,514178037,-0.010511232542876342,0.25612103292871313,1.4272322891758809,-0.7071132459179748,-0.006734834119332817,0.0015814968202608195,0.7070664737664616,0,-1,0.0016515760216861963,-1.5714557806598108,-0.014655892048970998,-1.5677145163165491,0.011750533245503902,0.0037847680505365133
1680,1734173593,529967308,-0.013693832824637434,0.256107900151894,1.4271856230129754,-0.7071177397469599,-0.008745489466736605,0.0019589495197512323,0.7070390237221117,0,-1,0.00214255484752357,-1.5716717878924769,-0.018667046223775685,-1.5669110457049769,0.014936838299036026,0.004778709728270769
1696,1734173593,545890569,-0.017303939746701063,0.2560878279561653,1.4271187604860591,-0.7071237915296743,-0.01105653104156666,0.0024417471246684697,0.7069991049817558,0,-1,0.0026687372010201216,-1.5719836393939417,-0.022977654133931935,-1.5660117308246058,0.018530234694480896,0.005928446538746357
1712,1734173593,562003850,-0.02116111515896059,0.2560617672988493,1.4270303027128,-0.7071319207301309,-0.013418214036882538,0.0029077697638274667,0.7069483312743421,0,-1,0.0032312467228621244,-1.57233173051943,-0.027671162282125294,-1.5650408903705042,0.022267064079642296,0.0070901671424508095
1727,1734173593,578263998,-0.025280365652715468,0.2560262140292734,1.4269160178144813,-0.7071420649428917,-0.016097513778352668,0.0035474467117342693,0.7068793289241709,0,-1,0.0038300834130495787,-1.572667423878805,-0.032616440449849904,-1.5639975706683558,0.026351813226938248,0.008407308720052242
1744,1734173593,593989372,-0.0296724535236694,0.25598238480215063,1.4267723791031552,-0.7071546494188792,-0.018898636784843693,0.004140439587392956,0.7067941709528734,0,-1,0.004524045158177614,-1.5729907194720667,-0.03780061403383428,-1.5629423300372522,0.030592355877161026,0.009652919135987759
1759,1734173593,610188245,-0.03420868649486207,0.2559311623288094,1.4266002954602592,-0.7071695396789589,-0.021784101930487812,0.0047328522129757135,0.7066925039670802,0,-1,0.005122507456690073,-1.573338810597555,-0.043152634297506154,-1.561791721974508,0.03492802381515503,0.010994402691721916
1776,1734173593,626021862,-0.038796582388110804,0.25586935488059737,1.4264002985155577,-0.7071870702356089,-0.024673470080133146,0.005380355849748277,0.7065753458313634,0,-1,0.005828453227877617,-1.57367450395693,-0.048624817525045216,-1.5605557600604456,0.03934795781970024,0.012419402599334717
1791,1734173593,642336368,-0.04338850299143175,0.2557986616602377,1.4261759011101505,-0.707206844577408,-0.027599859150281313,0.0061588233820496895,0.7064409357138777,0,-1,0.006498446222394705,-1.574010197316305,-0.05407268205751592,-1.5592611471759241,0.04392368346452713,0.013880354352295399
1808,1734173593,658041000,-0.048082089229703556,0.2557195142998713,1.425919987245901,-0.7072298078346535,-0.030602243365335274,0.006877036151102054,0.7062876241199079,0,-1,0.007156829349696636,-1.5742743651019495,-0.05965263048280889,-1.5580504576312464,0.04846345633268356,0.015389617532491684
1824,1734173593,673841238,-0.05270344511284213,0.25563339027877396,1.4256407025794435,-0.7072572014165542,-0.03352379550019324,0.007649704713198153,0.70611959907475,0,-1,0.007827197201550007,-1.5746100584613245,-0.0651481787310999,-1.5568631331073206,0.05307513847947121,0.016862554475665092
1840,1734173593,690021991,-0.05724926372389385,0.255542651424156,1.4253391939362035,-0.7072868137484924,-0.03643538992627015,0.008380252328011636,0.7059373887458751,0,-1,0.008425659500062466,-1.5748861471759241,-0.07054740587343389,-1.5557120482074183,0.05750742927193642,0.01835983246564865
1855,1734173593,705849647,-0.0616695453157724,0.2554467489951601,1.4250234367818746,-0.7073177141280984,-0.039278763806923606,0.009110083972351421,0.7057448805088268,0,-1,0.009095652028918266,-1.5751617590533655,-0.07574445406068975,-1.5545490423785608,0.06191575154662132,0.019736895337700844
1872,1734173593,721960783,-0.06600326745682987,0.2553440923563247,1.424691855933676,-0.7073491623857289,-0.042037133633524196,0.0098054377958385,0.7055451050483711,0,-1,0.009694489650428295,-1.5754254500018519,-0.08086806932558233,-1.553434197102682,0.06610798090696335,0.02110234834253788
1888,1734173593,738255023,-0.07022031147889116,0.2552398523859698,1.4243463266468102,-0.7073816771912383,-0.04471010257536775,0.010432635810523208,0.7053391592786094,0,-1,0.010280592367053032,-1.5757129828082483,-0.0857775847064417,-1.55235463777651,0.07014516741037369,0.022383911535143852
1904,1734173593,753927946,-0.07432483142893365,0.25513277789423894,1.4239892452229101,-0.7074156088835876,-0.04733136434256212,0.011025368638046167,0.7051250523869719,0,-1,0.010795165784657001,-1.5759533087359827,-0.09060222307314092,-1.5513117949115198,0.07402580976486206,0.023689068853855133
1919,1734173593,769802570,-0.07819746752581275,0.2550262931420055,1.4236303209274108,-0.7074498941364177,-0.04980385063654332,0.01160544726024557,0.7049110137755219,0,-1,0.011322096921503544,-1.576216999684469,-0.09527188936342412,-1.550328556691305,0.0778113305568695,0.024790868163108826
1936,1734173593,785968542,-0.08193270785002124,0.25491732377205156,1.4232704416338995,-0.7074832554977601,-0.05222151008279162,0.012197661129703288,0.7046925387273012,0,-1,0.011836669407784939,-1.5764215628253382,-0.09968978563417608,-1.5493691603290003,0.08147700130939484,0.025916635990142822
1952,1734173593,802123785,-0.08560827692570178,0.254807294808314,1.4228983031442994,-0.7075195924901974,-0.05454931780304877,0.012742562737076359,0.7044700314879397,0,-1,0.01236285176128149,-1.5766728560077112,-0.10399991670717412,-1.5484464804278772,0.08502283692359924,0.02705438807606697
1967,1734173593,818245649,-0.08918652062456296,0.2546882374762913,1.4225224231739564,-0.7075529471393452,-0.056846592222678044,0.013309169177554288,0.7042443879527182,0,-1,0.012829862534999847,-1.5768769423114222,-0.10829812685121709,-1.5474990049945276,0.08850837498903275,0.02819214016199112
1984,1734173593,834250688,-0.09277258346024102,0.2545707338421338,1.4221272560607645,-0.7075898071024493,-0.05913909601772377,0.013802383689417833,0.7040090385864481,0,-1,0.013368403539061546,-1.5771167914019983,-0.11258441606630498,-1.5465157667743128,0.0920182541012764,0.029329894110560417
2000,1734173593,849954366,-0.09630069694191187,0.2544476776110985,1.4217213143317824,-0.7076291144267077,-0.0613930618085181,0.014392890910746388,0.7037647142821812,0,-1,0.013871366158127785,-1.577308479939596,-0.11706191698183233,-1.5454967657672327,0.09568392485380173,0.030444052070379257
2016,1734173593,866156339,-0.10010969216174159,0.25431151186623924,1.4212699758244507,-0.7076684711149962,-0.06382700548465356,0.01491032556227006,0.7034977829050016,0,-1,0.014433501288294792,-1.577536408101217,-0.1216357390033167,-1.5444415251361292,0.0992896780371666,0.03158142790198326
2031,1734173593,881803512,-0.10391938373888737,0.2541707491400542,1.4207975683049818,-0.7077127075317506,-0.06625548478437253,0.015465063506978247,0.7032167277196921,0,-1,0.015031963586807251,-1.5777762571917933,-0.12628108659853154,-1.5434582869159144,0.10317107290029526,0.032803069800138474
2048,1734173593,898132801,-0.10782784895312998,0.2540136744564448,1.420298216631495,-0.7077591330078559,-0.0687843955229437,0.016119873865916415,0.7029124171922547,0,-1,0.015558520331978798,-1.5780518690692347,-0.13110620180238897,-1.5424030462848108,0.10710039734840393,0.034024711698293686
2063,1734173593,914645433,-0.11198101019758418,0.2538488017723251,1.4197462732588824,-0.7078100956042677,-0.07142929403113875,0.01667272127427783,0.702584332931073,0,-1,0.016156982630491257,-1.5783875624286097,-0.13612252870668584,-1.541407887135641,0.11116080731153488,0.035282306373119354
2080,1734173593,930118322,-0.1162253435984373,0.2536689437366377,1.4191645265935673,-0.707860334783365,-0.07415389286842886,0.017227809239040253,0.702237957676501,0,-1,0.016803381964564323,-1.5787118116961878,-0.14116317430605108,-1.540412727986471,0.11524593085050583,0.03662341833114624
2096,1734173593,945927858,-0.12057922862774274,0.25348065395835107,1.418544116726335,-0.7079167180058791,-0.07691799951967086,0.017807489558428185,0.7018692435441969,0,-1,0.017401844263076782,-1.5790355841266077,-0.1463707129107874,-1.5393460432635706,0.11940295249223709,0.03794093430042267
2112,1734173593,962229013,-0.12494635849576939,0.25328494974986215,1.4178972720851033,-0.7079728560486575,-0.07971493073413462,0.018368962797790735,0.7014859557554182,0,-1,0.018072212114930153,-1.5794075171100062,-0.15155488649477178,-1.5382784048663538,0.12366746366024017,0.039186544716358185
2128,1734173593,978438138,-0.12936731656673497,0.253075912160853,1.4172191647653296,-0.708032951821085,-0.08255125416865743,0.018971531505271616,0.701081101273631,0,-1,0.018706252798438072,-1.5797188917743128,-0.15685826936830694,-1.537163559590475,0.12789639830589294,0.04051566869020462
2144,1734173593,993877172,-0.13378876479640156,0.2528626708271346,1.4165146828173958,-0.7080939098016281,-0.0853863445318607,0.01954781180741083,0.700664020856553,0,-1,0.01936463452875614,-1.5800426642047327,-0.16207820573915654,-1.5360725561725062,0.13217289745807648,0.0418212004005909
2159,1734173594,10328292,-0.13818227758858823,0.2526358350067739,1.4157933785825665,-0.708155785390916,-0.08822815739849978,0.02018189302795932,0.7002312953969199,0,-1,0.019987065345048904,-1.5803545157061976,-0.16737014452089483,-1.5349333922015589,0.1364857256412506,0.04318665340542793
2176,1734173594,26091814,-0.14250905411376968,0.25241314470809023,1.4150535891562446,-0.7082263272811749,-0.09102546945346233,0.020865129829657103,0.6997817371250742,0,-1,0.020645074546337128,-1.5806787649737757,-0.1726015249835413,-1.533830467854635,0.14085808396339417,0.044563714414834976
2191,1734173594,41821956,-0.1469763795274759,0.2521761434994808,1.4142745473246618,-0.7082993231238645,-0.09384988753949661,0.021509074905425408,0.699315112926792,0,-1,0.02125552110373974,-1.5809782187091272,-0.17784530321230108,-1.5326674620257776,0.1452428251504898,0.04596512019634247
2208,1734173594,58131456,-0.15129502004303322,0.2519371208765568,1.4134864301957193,-0.7083711814271135,-0.09664802238339444,0.022151816162175566,0.6988409877315808,0,-1,0.02186596766114235,-1.5812905470477503,-0.18310100237001592,-1.5315163771258753,0.1495792418718338,0.047402478754520416
2223,1734173594,73846578,-0.15565747145194186,0.25169002519845307,1.4126663822340986,-0.7084550070798145,-0.09940475937954364,0.022839273337271093,0.6983470228687602,0,-1,0.022488024085760117,-1.581613842641012,-0.1884406248675745,-1.5303896109210413,0.15386809408664703,0.04881512001156807
2240,1734173594,90221166,-0.1601213031644255,0.25143638925560835,1.411804895282627,-0.7085322459907247,-0.1022363041624861,0.02339005352208582,0.6978414575666659,0,-1,0.02312243916094303,-1.5819380919085901,-0.1938398520099085,-1.529238526021139,0.1580970287322998,0.050168588757514954
2255,1734173594,105830192,-0.16440261207710216,0.2511738201601255,1.4109599976034382,-0.708606824103918,-0.10495279468829695,0.02402072287045442,0.6973408668601433,0,-1,0.023768838495016098,-1.5822494665728968,-0.19897586504091436,-1.5281232039081019,0.1622420698404312,0.05155763402581215
2272,1734173594,122036457,-0.16867335591426583,0.2509124253346142,1.410093814006873,-0.708689262835573,-0.10764544938762914,0.024628597073204087,0.6968252422048968,0,-1,0.024343332275748253,-1.58258563676943,-0.20408803621401006,-1.5269845167743128,0.16637513041496277,0.05288713425397873
2287,1734173594,137864351,-0.17285289868933043,0.25064489653290817,1.4092250094717034,-0.7087705612092676,-0.11030346627846897,0.025260436963160212,0.6963040623280068,0,-1,0.024953778833150864,-1.5828736464129847,-0.20905620256532842,-1.525881592427389,0.17055650055408478,0.054252587258815765
2304,1734173594,154011249,-0.1770355525021016,0.2503718456811587,1.408332559336657,-0.708852173186922,-0.11299257184845499,0.025883111746403818,0.6957667280070046,0,-1,0.025552241131663322,-1.5831854979144495,-0.21410829225649053,-1.524790112172262,0.17468956112861633,0.05552179366350174
2319,1734173594,169816255,-0.1812133319619515,0.2501094257914692,1.4074108360146345,-0.708936535548727,-0.11564600149564112,0.026377931826604386,0.6952260032642548,0,-1,0.026090407744050026,-1.5834968725787562,-0.21919614473451787,-1.5236991087542933,0.17875070869922638,0.0567314513027668
2336,1734173594,186120748,-0.18524969626300192,0.24983082106790552,1.406494512579898,-0.7090234308499834,-0.11827184561669765,0.02699780613971959,0.6946716227857455,0,-1,0.026736807078123093,-1.5837128798114222,-0.22416431108583623,-1.5226081053363245,0.18286018073558807,0.058132853358983994
2351,1734173594,201831102,-0.18936182919951913,0.24953951021609155,1.4055519255604474,-0.7091128473271753,-0.12087888584018136,0.02764952718381572,0.6941057328390928,0,-1,0.02733526937663555,-1.5840008894549769,-0.22920400301088506,-1.5214932600604456,0.18694530427455902,0.059402432292699814
2368,1734173594,218100309,-0.19344186253476942,0.24924930372628262,1.4045872712494456,-0.7092000874138304,-0.1235257258547558,0.028232433346173393,0.6935268998183307,0,-1,0.02790938876569271,-1.584264103566305,-0.2341840902911585,-1.5204623381244105,0.19111469388008118,0.060707591474056244
2384,1734173594,234262704,-0.19750483307860295,0.24894142900795424,1.403609064187098,-0.7092884700355527,-0.12617838491690994,0.028864540054792456,0.6929326949869015,0,-1,0.02854417823255062,-1.584576431904928,-0.23917657533754522,-1.5193832556353968,0.19524773955345154,0.06200113892555237
2400,1734173594,249997615,-0.20159869967993121,0.24863666599223772,1.4025946632905677,-0.7093808099723371,-0.1288620922719434,0.02945271972704752,0.6923192651652618,0,-1,0.029178593307733536,-1.5848520437823694,-0.24425250688661748,-1.5182564894305628,0.19941675662994385,0.06329468637704849
2416,1734173594,266113758,-0.20571717202136558,0.2483250242792951,1.4015546067281144,-0.7094775730077788,-0.1315383768267647,0.030042715720515357,0.6916911623354083,0,-1,0.029764695093035698,-1.585128132496969,-0.24926835695375615,-1.5172246138202112,0.2035621702671051,0.06460021436214447
2431,1734173594,282074689,-0.20978760755763373,0.2480075675844836,1.4005039376959325,-0.7095738929106359,-0.13417958683116432,0.03061446795212141,0.6910596814526745,0,-1,0.030399110168218613,-1.5854161421405237,-0.2543442885028284,-1.5161579290973108,0.20765966176986694,0.06591735780239105
2447,1734173594,297908544,-0.21388523915336724,0.24767284949266746,1.3994244377235965,-0.7096706454773847,-0.1368385843094588,0.0312054861807677,0.6904121916827056,0,-1,0.030961619690060616,-1.58567983308901,-0.2594202200519007,-1.5150907675372522,0.21173280477523804,0.06722289323806763
2464,1734173594,314215421,-0.2180101762452923,0.24734118193901652,1.3983162429593115,-0.709770947530225,-0.13949494881667643,0.03174356924899463,0.6897526419724782,0,-1,0.03158367797732353,-1.586015526448385,-0.264411751423971,-1.5139992872821253,0.21579432487487793,0.06851644068956375
2480,1734173594,330315113,-0.22200834079136436,0.24700806635826644,1.3972223127577847,-0.709870846224647,-0.14206570715997818,0.03233254032695894,0.6890974701487769,0,-1,0.03215854614973068,-1.5863030592547815,-0.2694762388812464,-1.5128849188434046,0.21985585987567902,0.06976205110549927
2496,1734173594,345904111,-0.22611209391425824,0.24666975928842333,1.3960711077953092,-0.7099738655270764,-0.14471699972243113,0.03284266809945841,0.6884151795333884,0,-1,0.032780975103378296,-1.5866149107562464,-0.2744677702533167,-1.5117819944964808,0.22395333647727966,0.07107918709516525
2511,1734173594,361905097,-0.23012093131966027,0.2463232126820496,1.394924602600481,-0.7100789513540867,-0.14731950895405324,0.03341455347198919,0.6877269172728988,0,-1,0.033355094492435455,-1.5868189970599573,-0.27955562273134404,-1.5107267538653772,0.2280747890472412,0.07228884845972061
2527,1734173594,378195285,-0.2341144705445157,0.2459806177636305,1.3937597035668479,-0.7101862604845388,-0.14993163966118894,0.03398072228296549,0.6870234998605376,0,-1,0.03391760587692261,-1.587107006703512,-0.28454763094057256,-1.5096238295184534,0.23217226564884186,0.07358239591121674
2544,1734173594,393898248,-0.23809757681264393,0.2456189213399147,1.3925759136575748,-0.7102927414664788,-0.1525580893442453,0.034560972509927394,0.6863059011656792,0,-1,0.03448011353611946,-1.587334934865133,-0.2895153204547327,-1.508580509816305,0.23630569875240326,0.07485197484493256
2560,1734173594,410127639,-0.24200692249148725,0.24526494155961132,1.391386612506918,-0.7104076363544604,-0.15510621504406494,0.03517387008252825,0.6855843136532446,0,-1,0.03507857769727707,-1.5875986258136194,-0.2945192495929163,-1.5074775854693812,0.24036723375320435,0.0762050673365593
2575,1734173594,426671981,-0.24595648496680866,0.2448928485432778,1.39017173982868,-0.7105229142417655,-0.15768020406328156,0.035771343790857474,0.6848463714931597,0,-1,0.03568902239203453,-1.5878384749041956,-0.2994630972491663,-1.5064104239093226,0.2445126473903656,0.07751059532165527
2592,1734173594,441969156,-0.24989813566469765,0.24451426305924637,1.3889358119864808,-0.7106363333594425,-0.16026842797219787,0.03636705181841411,0.6840960972310867,0,-1,0.036263518035411835,-1.5880902449237269,-0.3045390287982386,-1.5053675810443323,0.2486221194267273,0.07887604832649231
2608,1734173594,458252191,-0.25387750162882816,0.24412804956478626,1.3876589462443416,-0.7107646876526584,-0.162826751541735,0.0369840697139518,0.6833250956578271,0,-1,0.036861978471279144,-1.588330094014303,-0.3096264044391077,-1.5043366591082972,0.252731591463089,0.0802534893155098
2623,1734173594,474324941,-0.2579408643192214,0.2437471436587712,1.386334857205591,-0.710889420093784,-0.16546899131088258,0.03747744207453859,0.6825332861105253,0,-1,0.03748403489589691,-1.588653866444723,-0.31477386156191045,-1.5032694975482386,0.2567934989929199,0.08153467625379562
2640,1734173594,490056991,-0.2619914644606934,0.24334062342292492,1.3849997097613893,-0.7110061222120909,-0.16810152241248175,0.03800244542419304,0.6817389430576138,0,-1,0.03809448331594467,-1.5888937155352991,-0.3198736349688929,-1.5021541754352015,0.26087936758995056,0.0828641727566719
2656,1734173594,506098508,-0.26597749098881396,0.24293532918691169,1.383657055615535,-0.7111330054361115,-0.17070918512327735,0.03855402932267678,0.6809271690253931,0,-1,0.03871653601527214,-1.5891693274127405,-0.32484132448305303,-1.5011470953570765,0.2650487422943115,0.08416970819234848
2671,1734173594,521813154,-0.2699733292081099,0.2425231705593144,1.3822989487736244,-0.7112554066067889,-0.1733222683809164,0.03910444417475895,0.6801073299867368,0,-1,0.03935132548213005,-1.5894578138934534,-0.32988101640810186,-1.500080410634176,0.26912224292755127,0.08542729914188385
2688,1734173594,538102865,-0.2739208784926266,0.24211105559051857,1.3809350638099893,-0.7113753923623263,-0.1759045006190897,0.039633234207000885,0.6792877626967734,0,-1,0.03996177390217781,-1.589757267628805,-0.3347891012774866,-1.4989894072162073,0.2732081413269043,0.08676841109991074
2703,1734173594,554143190,-0.27782566309100576,0.24167908250531217,1.3795601505274697,-0.7114998203067646,-0.17849063693898795,0.04025964424080247,0.6784454725872668,0,-1,0.04053589329123497,-1.5900571982013147,-0.33984071413149053,-1.49785024324526,0.2773175835609436,0.08799005299806595
2720,1734173594,569926261,-0.28178571522306883,0.24125422840518773,1.3781383008077148,-0.7116285891286431,-0.18104425399285926,0.04080401321423231,0.6776007391794658,0,-1,0.041158322244882584,-1.590297047291891,-0.3448684851275843,-1.496734921132223,0.2814633846282959,0.08930719643831253
2736,1734173594,586165428,-0.2856743505766573,0.2408278511241742,1.3767172816523796,-0.711762954394731,-0.1836021772382812,0.0413711591692283,0.6767364069219572,0,-1,0.04174480214715004,-1.5905731360064905,-0.34987193742860967,-1.4956687132464808,0.2855249047279358,0.09055280685424805
2752,1734173594,602378129,-0.289560565207585,0.24039473587131027,1.3752755096904732,-0.7118903195018816,-0.18614609890659134,0.04189086353662317,0.6758749576759908,0,-1,0.04236685857176781,-1.590848747883932,-0.3549116293536585,-1.4945414702044886,0.28955087065696716,0.09189391881227493
2768,1734173594,618129491,-0.29346019515957394,0.23994517896822834,1.3738113261789093,-0.7120228065314684,-0.1887179302020579,0.04247403495657135,0.6749852014331944,0,-1,0.04296569526195526,-1.5911482016192835,-0.35992700258363897,-1.4934385458575647,0.29369667172431946,0.09316349774599075
2784,1734173594,634401082,-0.297369337149856,0.23950996935447116,1.3723140353828807,-0.7121689066086576,-0.19127215392741495,0.04299998569595339,0.6740781948868723,0,-1,0.04355217143893242,-1.591424290333883,-0.3649666945086878,-1.4923833052264612,0.29786643385887146,0.09445704519748688
2800,1734173594,650169372,-0.3012942861571205,0.23904752471353619,1.370798306878191,-0.7123014374619636,-0.1938539938069357,0.04354458649272689,0.6731650319660835,0,-1,0.04415025934576988,-1.5917122999774378,-0.36998254457582647,-1.491232697163717,0.30196428298950195,0.09578654170036316
2816,1734173594,666339635,-0.3052715445033419,0.23859320348887453,1.3692313608298532,-0.7124465482399738,-0.19646211035142866,0.044035350245819595,0.6722227629483679,0,-1,0.04476070776581764,-1.5920122305499476,-0.3750694433795374,-1.4901774565326136,0.3060617446899414,0.09708008915185928
2832,1734173594,682014226,-0.30913906454534795,0.23811898853414915,1.367683215940617,-0.7125881631322284,-0.1990111728445266,0.044565422419157515,0.6712872603971303,0,-1,0.04529962316155434,-1.592299763356344,-0.3800852934466761,-1.4890864531146448,0.31017160415649414,0.09837326407432556
2847,1734173594,698237895,-0.31303881813565915,0.2376465322496541,1.3661038749941232,-0.7127307376040192,-0.20157230884122151,0.045085768064480516,0.670336313726838,0,-1,0.04592130333185196,-1.5925872961627405,-0.3851845900165003,-1.4880312124835413,0.3142814338207245,0.09967879205942154
2863,1734173594,714262008,-0.3169388726477437,0.23717129576563575,1.364504791834562,-0.7128803221979652,-0.20412846612923435,0.04560276762812736,0.6693680625211411,0,-1,0.04652014002203941,-1.5928991476642054,-0.3901637236224573,-1.486964527760641,0.3183557093143463,0.1009363904595375
2879,1734173594,730276584,-0.3207762097539744,0.2366873154236166,1.3628972402493955,-0.7130195688252573,-0.20668330524246065,0.04609333941748203,0.6684014586067574,0,-1,0.047142572700977325,-1.5931990782367151,-0.3951318899737757,-1.4858854452716272,0.32248950004577637,0.10220596939325333
2896,1734173594,745879411,-0.3246391509674646,0.2362011064721155,1.361274446400255,-0.7131689386855886,-0.20924035385212786,0.04661386433453421,0.667409684426072,0,-1,0.04772867634892464,-1.593522850667135,-0.4001353422748011,-1.4848302046405237,0.3265993595123291,0.10345157980918884
2912,1734173594,761947631,-0.3284877565865488,0.23571765753424911,1.3596159152240066,-0.7133149895522818,-0.21181060370366778,0.04709155867789794,0.6664085675769797,0,-1,0.048315152525901794,-1.5938227812396448,-0.405222241078512,-1.4837515989886683,0.33068522810935974,0.10468520224094391
2928,1734173594,777840614,-0.33239102715993923,0.23519889109499248,1.3579203024348678,-0.7134587256421832,-0.21434884911399715,0.047568758744788865,0.6654084691976928,0,-1,0.0489259734749794,-1.5941227118121546,-0.4102256933795374,-1.4826605955706995,0.3348190188407898,0.10601432621479034
2943,1734173594,794093132,-0.3361926261454206,0.23470213631791034,1.3562372966864187,-0.7136152584525728,-0.2168689714584531,0.04808209493787253,0.6643863516573815,0,-1,0.04951207712292671,-1.594410244618551,-0.4152773062335413,-1.4815214315997522,0.33888131380081177,0.10728390514850616
2959,1734173594,809764862,-0.3399604141563842,0.23420729944601792,1.3545454750528376,-0.7137792192710818,-0.21933173003660938,0.04859642865081311,0.6633635545146411,0,-1,0.05012252554297447,-1.5946744124041956,-0.4202211538897913,-1.4804547468768519,0.3429795503616333,0.10858944058418274
2976,1734173594,826037168,-0.3437574042225489,0.2336624690236477,1.352833305795186,-0.7139303970344869,-0.22188136692350147,0.04916423271419894,0.6623102939136326,0,-1,0.05075693875551224,-1.5950101057635706,-0.4252246061908167,-1.4793875853167933,0.3470773994922638,0.10997886210680008
2991,1734173594,841766119,-0.34757609154706726,0.23313341972090768,1.35108906319753,-0.7140927714803598,-0.2243609463576773,0.049680064430373656,0.6612605921020698,0,-1,0.05136701092123985,-1.5953095594989222,-0.43020373979677373,-1.4782846609698694,0.3509119749069214,0.11135592311620712
3007,1734173594,858057975,-0.35132417846132175,0.23263396859781466,1.349323132371423,-0.7142683796447282,-0.22678169840196832,0.0501139135834426,0.6602115863683129,0,-1,0.051977455615997314,-1.595609490071432,-0.43530303636659795,-1.4772055784808558,0.3551056981086731,0.11267343908548355
3023,1734173594,873775959,-0.35512582983607827,0.23208563570112617,1.347523348731352,-0.7144266782756311,-0.22933745162034422,0.050636309059584494,0.6591166959326371,0,-1,0.05257591977715492,-1.5958731810199183,-0.440378491078512,-1.4761384169207972,0.359287828207016,0.11399095505475998
3039,1734173594,890069723,-0.35895973353220406,0.23153996916438213,1.3456881543417107,-0.7145987557706892,-0.2318510605072545,0.05112399679052525,0.6580121890548887,0,-1,0.05316239595413208,-1.5961616675006312,-0.4454415480243128,-1.4750359694110315,0.363314151763916,0.11534404754638672
3055,1734173594,905650854,-0.36267129601512166,0.23099977063622823,1.3438845101977293,-0.7147615965068834,-0.23434184790519355,0.051609098297593706,0.6569141948932292,0,-1,0.05376086011528969,-1.5964730421649378,-0.45034915605653936,-1.473992649708883,0.3674120008945465,0.11663759499788284
3071,1734173594,921790122,-0.3664029101701895,0.2304307603181864,1.3420573151656645,-0.7149265075103024,-0.2368403822398746,0.052134158897380364,0.6557962729961603,0,-1,0.05441924184560776,-1.5967610518084925,-0.4553645292865198,-1.4729741255389612,0.37163007259368896,0.11791878193616867
3088,1734173594,938310384,-0.3701031386767204,0.2298885139235382,1.3402087805315386,-0.7151009003422637,-0.23932842940688537,0.052654543124067206,0.6546602968683171,0,-1,0.05506526678800583,-1.5970848242389124,-0.4603202978717249,-1.4719069639789026,0.37574028968811035,0.11916439235210419
3104,1734173594,953978300,-0.3737812775029448,0.22932347497826805,1.3383608850345727,-0.7152631222713965,-0.24183127730700119,0.05312972121637043,0.6535239337301337,0,-1,0.05562777817249298,-1.597348992024557,-0.4653237501727503,-1.470839802418844,0.37985050678253174,0.12049389630556107
3119,1734173594,969802141,-0.3774871632195822,0.22875652937282426,1.3364526620837902,-0.7154470989647834,-0.24426890503269683,0.05362404189152811,0.6523745954190876,0,-1,0.056262191385030746,-1.5976246039019983,-0.47033864656557256,-1.4697607199298304,0.38390079140663147,0.12179942429065704
3136,1734173594,986069202,-0.3811881537650684,0.22817844963650208,1.3345429509025413,-0.7156157810742031,-0.2467650546152162,0.05408795830108956,0.6512108371834172,0,-1,0.056836310774087906,-1.5978882948504847,-0.47539025941957647,-1.468682114277975,0.3880346119403839,0.12311694025993347
3151,1734173595,1775264,-0.3848461351343831,0.22762818073620608,1.3326063509900654,-0.7157947054930704,-0.24922704461069004,0.05451370638640004,0.6500400569493597,0,-1,0.05744713172316551,-1.5981524626361292,-0.48045283952821904,-1.467590634022848,0.3920968770980835,0.12438651919364929
3167,1734173595,18089771,-0.38844959607348817,0.2270398822708605,1.3306825610638815,-0.7159730263393123,-0.25165715685195805,0.055029497421657976,0.6488628941257429,0,-1,0.058033235371112823,-1.598452393208639,-0.4854205290423792,-1.4664643446551722,0.3961595296859741,0.12571564316749573
3183,1734173595,33831357,-0.39207374359026304,0.2264553758021243,1.3287432982562863,-0.7161414924251801,-0.2540892346375657,0.055491516881817714,0.6476887487230937,0,-1,0.058583762496709824,-1.5987160841571253,-0.4904120604144495,-1.4653609434710901,0.4002457857131958,0.1270211786031723
3199,1734173595,50124645,-0.3957013111920542,0.2258804807821257,1.3267499671973004,-0.7163301098364576,-0.2565238847809943,0.055951768278049166,0.6464797521230771,0,-1,0.059194207191467285,-1.5989678541766565,-0.4954631964312952,-1.4643061796771448,0.4043799638748169,0.12825480103492737
3215,1734173595,65942764,-0.39926257273622917,0.22529467735352451,1.3247658494664034,-0.7165170136473636,-0.2589504239163326,0.05642970702322149,0.6452625320539608,0,-1,0.05973312258720398,-1.599255386983053,-0.5005148092852991,-1.463203255330221,0.4084182679653168,0.12958429753780365
3231,1734173595,81632614,-0.40287083697821807,0.22470268416584316,1.3227444767045011,-0.7167022555600191,-0.26137651956723057,0.05686664930161553,0.6440391106845214,0,-1,0.0603671632707119,-1.5994837919818323,-0.5056255499469202,-1.4621122519122522,0.4124809205532074,0.13087785243988037
3248,1734173595,98098516,-0.4064725440111039,0.2240956487653265,1.3206957753812143,-0.7168877703820596,-0.26381371517908575,0.057299242042663595,0.6427993817836043,0,-1,0.060953643172979355,-1.5997594038592737,-0.5106290022479456,-1.4610217253314417,0.41657915711402893,0.1321234554052353
3263,1734173595,114077091,-0.41004407165612805,0.22350070074750822,1.3186532091479324,-0.7170673478037463,-0.2662672573987969,0.057737503338971985,0.641546995207059,0,-1,0.061492182314395905,-1.5999987761126917,-0.5155604521380823,-1.459954563771383,0.420749306678772,0.1333930343389511
3279,1734173595,130234003,-0.4135406318405687,0.22290512530272705,1.3166114856582614,-0.7172593537377902,-0.26867367274930526,0.05821239379496199,0.6402849320854794,0,-1,0.062126222997903824,-1.600334946309225,-0.5205033461200159,-1.4588516394244593,0.424859881401062,0.13467423617839813
3296,1734173595,146350383,-0.41707853727149424,0.2222892710311511,1.314545044124715,-0.7174408651467131,-0.27109023627627565,0.05865512229215514,0.6390213341056004,0,-1,0.06270109117031097,-1.600574795399801,-0.5255306402789515,-1.4578083197223108,0.42898207902908325,0.13596777617931366
3312,1734173595,162103414,-0.4206200861290798,0.2216660219456375,1.312431562448099,-0.7176366197795274,-0.27351351711190597,0.05909927683429724,0.6377266760816521,0,-1,0.06331116706132889,-1.6008270422564905,-0.5306180159198206,-1.4566815535174769,0.4330686926841736,0.13721339404582977
3328,1734173595,178266286,-0.42423626686061205,0.22102687921351388,1.3102521329198058,-0.7178273148017144,-0.2759984841856165,0.05949191696152746,0.6364035627399057,0,-1,0.06389763951301575,-1.601102654133932,-0.5357049147235315,-1.4556506315814417,0.4372512102127075,0.1385425180196762
3344,1734173595,194311141,-0.42776863410200094,0.22038456104996518,1.3080946300553244,-0.718029317961297,-0.27839854258265156,0.05993006900089036,0.6350878182310211,0,-1,0.06449610739946365,-1.6013663450824183,-0.540755573903219,-1.4545477072345179,0.44126591086387634,0.1398720145225525
3360,1734173595,210318565,-0.4312146947787472,0.21974849036485888,1.3059691509648683,-0.7182245466781192,-0.2807571636896264,0.060378389081439825,0.633784952265275,0,-1,0.06508220732212067,-1.601654354725973,-0.5457709471331995,-1.4534924666034144,0.4453641474246979,0.14124944806098938
3376,1734173595,225950956,-0.4347220586110021,0.2191146571575378,1.3037997764606633,-0.7184416349782938,-0.2831045462347563,0.06085265675206855,0.6324479324000861,0,-1,0.06574059277772903,-1.6019657293902796,-0.5507620016681116,-1.4523776213275355,0.4495226740837097,0.14260292053222656
3392,1734173595,242072582,-0.43819204384524213,0.21846770209046285,1.301610140721743,-0.7186469132487102,-0.28548145621454313,0.061307667220967525,0.6311008811399709,0,-1,0.06630347669124603,-1.602217976246969,-0.5557530562030237,-1.4512508551227015,0.4535973072052002,0.143932044506073
3408,1734173595,258000850,-0.4416684471146818,0.21780762722337835,1.299391774060316,-0.7188496360017255,-0.28784958088777185,0.06172956423950686,0.629751761015181,0,-1,0.0669495016336441,-1.6024816671954554,-0.5607922712909144,-1.4501717726336878,0.4576719403266907,0.14523757994174957
3423,1734173595,274330139,-0.4452009269643396,0.21714778963969775,1.2971226531171873,-0.7190564131257359,-0.29023046202462566,0.06211871770570457,0.6283831781376092,0,-1,0.06754796206951141,-1.6027339140521448,-0.5659030119525355,-1.4490693251239222,0.4617345929145813,0.14656707644462585
3440,1734173595,289963722,-0.4486045671922512,0.21648494406925206,1.2948870141410471,-0.7192571306316721,-0.2926011735776119,0.06253897205402438,0.6270108533597516,0,-1,0.06817039102315903,-1.6030095259295862,-0.5709779898272913,-1.4479783217059534,0.46589311957359314,0.14783665537834167
3456,1734173595,306062936,-0.4520092334178517,0.21582092770835032,1.292642362740787,-0.7194631633124856,-0.2949604009222934,0.06296878749300669,0.6256245282322392,0,-1,0.06875649839639664,-1.6032732168780726,-0.5759571234332483,-1.4469111601458948,0.46997973322868347,0.1491062343120575
3472,1734173595,321993827,-0.45544644915742355,0.21514050970937448,1.2903595780749173,-0.7196688687131252,-0.29732641823475375,0.06336308466556119,0.6242265934150256,0,-1,0.0693909078836441,-1.6036213080035608,-0.5809367338763636,-1.445808235798971,0.47405436635017395,0.15036383271217346
3487,1734173595,337748527,-0.4588923015783855,0.21444686921765233,1.2880625986370995,-0.719867060892389,-0.2997042641460916,0.06377261057193272,0.622817648140805,0,-1,0.07001334428787231,-1.6039207617389124,-0.5858796278582972,-1.4447415510760706,0.4781649708747864,0.1516929566860199
3504,1734173595,354006290,-0.46228732926154703,0.21376228830054833,1.2857510815408975,-0.7200778615831611,-0.3020580550578331,0.06417620058003129,0.6213937720251247,0,-1,0.07059981673955917,-1.604196850453512,-0.5909422079669397,-1.4436505476581019,0.48223960399627686,0.15298649668693542
3519,1734173595,370169401,-0.4656320467455947,0.2130940783113534,1.2834118235351297,-0.7202930380364475,-0.30438968538797645,0.06452863159829854,0.619968478625877,0,-1,0.07116232812404633,-1.6044486204730433,-0.596053425465719,-1.4426558653460901,0.48637452721595764,0.1542557030916214
3535,1734173595,386195659,-0.4690299247832442,0.21242638960808166,1.2810413716849043,-0.7205147831806273,-0.30674050222255256,0.06485464528357869,0.6185164399590126,0,-1,0.07174843549728394,-1.6046999136554163,-0.6010802427874964,-1.4415648619281214,0.490377277135849,0.15552528202533722
3552,1734173595,402394056,-0.4723398653502632,0.21172881966139318,1.2786901999228213,-0.7207227877485243,-0.30904857131478264,0.06524995281464976,0.6170819130763544,0,-1,0.0723828449845314,-1.6050122419940394,-0.6061432997332972,-1.4405096212970179,0.4944998323917389,0.1568547785282135
3568,1734173595,417935848,-0.4757281477555407,0.21104157374200078,1.2762799399706175,-0.7209418313331141,-0.311441784225616,0.06558389852483668,0.6155856099087311,0,-1,0.0729217603802681,-1.6053240934955042,-0.6110628286944788,-1.4394667784320276,0.4987066686153412,0.15816031396389008
3584,1734173595,433942556,-0.4790664425028754,0.21033697171308896,1.273895841633701,-0.7211607809187256,-0.3137803642478855,0.06598530278275852,0.6140968579090971,0,-1,0.07356778532266617,-1.6056478659259241,-0.6160419623004358,-1.4383881727801722,0.5028172731399536,0.15941791236400604
3600,1734173595,450503349,-0.4823356230107423,0.20963569447126826,1.2715074434928755,-0.7213770024780926,-0.31606941043649256,0.06637775338949228,0.6126249602628135,0,-1,0.07410632818937302,-1.6059234778033655,-0.6210568586932581,-1.4373448530780237,0.5068807005882263,0.16071145236492157
3615,1734173595,466259956,-0.4856757071331433,0.20893061068495528,1.2690521082224548,-0.7215995648889695,-0.31837692562730535,0.06670931372050935,0.6111301568758442,0,-1,0.07466883957386017,-1.6061995665179651,-0.6261914412127894,-1.4362176100360315,0.5110391974449158,0.162028968334198
3632,1734173595,482227087,-0.4890381053535799,0.20820990007598517,1.2665215139906174,-0.7218297474851213,-0.320765348775525,0.06706439433296829,0.6095685143470208,0,-1,0.07533883303403854,-1.6064870993243616,-0.6313384214984339,-1.4351032415973108,0.5152336955070496,0.16328656673431396
3648,1734173595,497920751,-0.49231336663093556,0.20748829915145794,1.2640546395209062,-0.7220449780204908,-0.3230672478922744,0.06739379475122742,0.608059766374762,0,-1,0.07588972896337509,-1.6067870298968714,-0.6363652388202112,-1.4340365568744105,0.5193086862564087,0.16455614566802979
3664,1734173595,514196395,-0.49561720154522565,0.20676223020770246,1.2615700579610247,-0.7222661197447238,-0.3253650431906493,0.06774786922825388,0.6065306811312011,0,-1,0.07651178538799286,-1.6070626417743128,-0.6413200537310999,-1.4329331556903284,0.5233477354049683,0.1658017635345459
3680,1734173595,529940366,-0.49885358101054467,0.20602576450420715,1.2590961929116342,-0.7224776826227913,-0.3276488129488183,0.06811335839383623,0.6050064659931695,0,-1,0.07711025327444077,-1.6074469725238245,-0.6462271849261683,-1.4318426291095179,0.5274826884269714,0.16705934703350067
3695,1734173595,546276330,-0.5020890495402983,0.20529438277867101,1.2565892341393268,-0.7227093544125248,-0.32991711921486533,0.06847349248154075,0.6034544426226195,0,-1,0.07775665074586868,-1.607722584401266,-0.6512301603900355,-1.430727783833639,0.5315576791763306,0.1683521419763565
3712,1734173595,562367916,-0.5053164940157803,0.20455287736057642,1.2540559198019665,-0.7229366636860793,-0.3321585025009083,0.0687804996129501,0.6019157352884104,0,-1,0.07829519361257553,-1.6080344359027308,-0.6562932173358362,-1.42961293855776,0.5355244874954224,0.16965767741203308
3728,1734173595,577919006,-0.5085528538981451,0.2038222456308712,1.2514717703798133,-0.7231705144249998,-0.3344541539810443,0.06907813492957326,0.6003274416730895,0,-1,0.07898952811956406,-1.6083224455462855,-0.6613438765155237,-1.4285581747638147,0.5396357774734497,0.17101114988327026
3743,1734173595,594159364,-0.5117594189999704,0.20306857916262513,1.2488927710024678,-0.7234040342748908,-0.3367071158572183,0.06939480725877277,0.5987480956557978,0,-1,0.07962319254875183,-1.6085861364947718,-0.6664069334613245,-1.427467171345846,0.5438306331634521,0.1723766028881073
3759,1734173595,609750747,-0.5148964359914311,0.20230251138532462,1.2463415060760608,-0.72365016523479,-0.33893551205785855,0.06982821839909362,0.5971408350941568,0,-1,0.08022203296422958,-1.6089099089251917,-0.6713860670672815,-1.4264362494098108,0.547989547252655,0.1737780123949051
3776,1734173595,625992298,-0.5180924849007644,0.20154649856291418,1.2437399085899283,-0.7239027325691257,-0.34118484925940756,0.07016437562132945,0.59551212649992,0,-1,0.0808204934000969,-1.6092212835894983,-0.6763771216021937,-1.4253571669207972,0.5521125197410583,0.17510750889778137
3791,1734173595,642427444,-0.5212519271797631,0.2007580243826667,1.2411320535235528,-0.7241248048202372,-0.3434563594037594,0.07052357294534477,0.5938917594041794,0,-1,0.08141858130693436,-1.6094854513751429,-0.6813681761371058,-1.4242666403399866,0.5562594532966614,0.1763531118631363
3808,1734173595,658060789,-0.5244397538616332,0.19998020172678246,1.238470358373558,-0.7243662577730721,-0.3457293176376074,0.07083104902953385,0.5922395849814881,0,-1,0.08200505375862122,-1.609821621571676,-0.6864541212665003,-1.423199478779928,0.5604183077812195,0.17771856486797333
3824,1734173595,674082517,-0.5275285012345136,0.19923863163787475,1.235815586241264,-0.7246174626605926,-0.34793111386948117,0.07112848255817025,0.5906049540749205,0,-1,0.08260389417409897,-1.610049072896139,-0.6915295759784144,-1.4221089521991175,0.5644453763961792,0.17897579073905945
3840,1734173595,690300226,-0.5305920121101976,0.19850733600556775,1.233157228501154,-0.7248633488689556,-0.3501281959827415,0.07140183733972755,0.5889695658256584,0,-1,0.08321396261453629,-1.6103490034686487,-0.6966522375689905,-1.4210055510150355,0.5685567259788513,0.18025735020637512
3856,1734173595,706074714,-0.5337019829037707,0.19770377090548252,1.2304801430539607,-0.7250944846216706,-0.3523672642353999,0.07172087212010374,0.587308620717273,0,-1,0.0838363990187645,-1.6106608549701136,-0.7016194502459925,-1.4199031035052698,0.5726437568664551,0.18152692914009094
3871,1734173595,722301483,-0.5367303809479652,0.19695837976879016,1.2278070439096267,-0.7253341495210551,-0.3545545008964026,0.07201331944633212,0.5856582273433807,0,-1,0.0844108909368515,-1.6109007040606897,-0.7065861860858362,-1.4187644163714808,0.5767310857772827,0.18284407258033752
3887,1734173595,737952709,-0.5397315448602389,0.19618012537123755,1.225175108006388,-0.7255893289363654,-0.35668658139311155,0.07237532980744936,0.5840005308413966,0,-1,0.08502095937728882,-1.6112244764911097,-0.7115410009967249,-1.4176972548114222,0.5808184742927551,0.18416158854961395
3903,1734173595,754017591,-0.5427068205986315,0.1953954839460311,1.2224938881018552,-0.7258234225868246,-0.358845173103668,0.07267680408669593,0.5823474762650651,0,-1,0.08555987477302551,-1.6114404837237757,-0.7165563742267054,-1.4166186491595667,0.5848695039749146,0.18545514345169067
3919,1734173595,769809961,-0.545710091359164,0.19463232816751297,1.2197598470236894,-0.7260723235453727,-0.3610346939152867,0.07292123509654713,0.5806508626041237,0,-1,0.08616995066404343,-1.6117518583880823,-0.7216065565692347,-1.4155400435077112,0.5889928340911865,0.18676066398620605
3936,1734173595,785922288,-0.5486964073230886,0.19383183176660418,1.217018351887986,-0.7263339057980968,-0.3631986655197065,0.07324233018141642,0.5789312115635004,0,-1,0.08678039908409119,-1.6119683424579065,-0.7266934553729456,-1.4144490400897425,0.59310382604599,0.18813811242580414
3951,1734173595,801870822,-0.5515978591958262,0.1930591399491749,1.214284069200478,-0.726589159250678,-0.365340946604972,0.07355701655904112,0.5772205399222284,0,-1,0.08739084005355835,-1.612243954335348,-0.7317207495318812,-1.4133933226214808,0.5972634553909302,0.1894196718931198
3968,1734173595,818074703,-0.5545859021891328,0.1922531926094056,1.2115112332633733,-0.7268391697967075,-0.36754219093981544,0.07383560343594976,0.5754701232849908,0,-1,0.08795297890901566,-1.6125195662127894,-0.7365916411029261,-1.4123271147357386,0.601362407207489,0.19066490232944489
3983,1734173595,833899497,-0.5575164510215871,0.19144677037423513,1.2087715599992805,-0.7270843945584298,-0.36967155275687374,0.07411993405217596,0.5737573194722874,0,-1,0.08856379985809326,-1.612795654927389,-0.7415464560138147,-1.4112361113177698,0.605485737323761,0.19201837480068207
3999,1734173595,850094079,-0.5603897850249988,0.19064998118296023,1.2060060303699134,-0.7273368276647412,-0.37180924518452935,0.0744112553076516,0.5720157247851151,0,-1,0.08918622881174088,-1.6131075064288538,-0.7465975920306605,-1.4101694265948694,0.609609067440033,0.1933358907699585
4015,1734173595,866049528,-0.5633380707757321,0.1898419400467516,1.2031460937073337,-0.7275882910520998,-0.3740033185207911,0.07461852810478943,0.5702358036135535,0,-1,0.08977233618497849,-1.6133230368243616,-0.751779858266012,-1.409114185963766,0.6136361360549927,0.19459348917007446
4031,1734173595,882071495,-0.5662094341567705,0.1890481734696582,1.2002975998571657,-0.7278491296355218,-0.3761130330576461,0.07482901808730409,0.5684850472132764,0,-1,0.0904427021741867,-1.6135991255389612,-0.756878677998678,-1.408095661793844,0.6177478432655334,0.19581513106822968
4047,1734173595,898021221,-0.5692219743853333,0.18820474038223017,1.1973211020778127,-0.7280933726992741,-0.3783588510558753,0.07497066822865121,0.5666604092085694,0,-1,0.09102880209684372,-1.6138628164874476,-0.7621329466449183,-1.4070408979998987,0.6217753291130066,0.19709669053554535
4063,1734173595,914133787,-0.5721260389616201,0.18737360353255864,1.1944299043074587,-0.7283385833856808,-0.3805377890208056,0.07516890418629214,0.5648570924776714,0,-1,0.09162764251232147,-1.6141508261310022,-0.7671359221087855,-1.405961815510885,0.6259346008300781,0.19837825000286102
4079,1734173595,929694175,-0.5749684540702553,0.1865437250779644,1.1915972310100886,-0.7285936631729623,-0.38262605766720914,0.0754529410841391,0.5630767511272393,0,-1,0.09226205945014954,-1.6144865194903772,-0.7721145788775843,-1.4049065748797815,0.63006991147995,0.1996598094701767
4095,1734173595,945963621,-0.577747585096894,0.18573442418322506,1.1887558611271132,-0.7288594659038315,-0.3846964964577747,0.07572458714525707,0.5612827019222801,0,-1,0.09284815937280655,-1.6147263685809534,-0.7770579496966761,-1.4037802855121058,0.6341093182563782,0.20098932087421417
4111,1734173595,962139844,-0.5805089288918248,0.18491139168256232,1.1858743328346297,-0.7291238262561962,-0.3867637621260287,0.07596826938621312,0.5594828507989398,0,-1,0.093434639275074,-1.615014378224508,-0.7821205298053187,-1.4026535193072718,0.6383289098739624,0.2023068368434906
4127,1734173595,978188276,-0.5833355381878442,0.18407443205263407,1.182921888701307,-0.729387055073291,-0.38891765960198854,0.07620660849009804,0.5576110927552111,0,-1,0.09405669569969177,-1.615241829548971,-0.7872551123248499,-1.4016106764422815,0.6424522399902344,0.2036958783864975
4144,1734173595,993979692,-0.5860699615689027,0.1832442201808568,1.1800138822993533,-0.7296703102034934,-0.3909392906732381,0.0764719065922865,0.5557875105807829,0,-1,0.09465515613555908,-1.6154940764056605,-0.7923057715045374,-1.4004715124713343,0.6464676856994629,0.20506133139133453
4159,1734173596,10169744,-0.5887402273073749,0.18245000665700645,1.177142974827665,-0.7299541018986179,-0.39294035968723245,0.07670934970021046,0.5539680121801451,0,-1,0.09521804004907608,-1.6157696882831019,-0.7972009817706507,-1.3993929068194788,0.6506389379501343,0.20637847483158112
4176,1734173596,25886058,-0.5915399508062023,0.18159547561935768,1.1741856249398903,-0.7302218959979611,-0.3949988290176224,0.07694728611613558,0.5521150449310466,0,-1,0.09584009647369385,-1.6160815397845667,-0.8021681944476526,-1.3983262220965784,0.6546907424926758,0.20769599080085754
4191,1734173596,42191267,-0.594239812057303,0.1807742523243256,1.1712450336586704,-0.730485918922087,-0.3970140384150261,0.07711981426914441,0.5502932943486037,0,-1,0.0963786393404007,-1.6163814703570765,-0.8071706930743616,-1.3972108999835413,0.658706545829773,0.20898953080177307
4208,1734173596,57890892,-0.5969159289849232,0.17994325913172954,1.1682940510828927,-0.7307484091740625,-0.39906051808689275,0.07733219749945781,0.5484315787987618,0,-1,0.096965491771698,-1.6166570822345179,-0.8122575918780726,-1.396132771168844,0.6627583503723145,0.21024712920188904
4223,1734173596,73532819,-0.5996520530868088,0.17910478030776827,1.1652547523057293,-0.731022624595098,-0.40111482542090027,0.07747329626860013,0.5465443326235602,0,-1,0.09758754819631577,-1.6169212500201624,-0.817416016255514,-1.3950656096087855,0.666833758354187,0.21154029667377472
4239,1734173596,89772701,-0.6023106037658745,0.1782720814442513,1.162243895215402,-0.7312915860088897,-0.40310349398824846,0.0775827141628535,0.544702773841105,0,-1,0.09818600863218307,-1.6171849409686487,-0.8224666754352015,-1.3940108458148401,0.6708971261978149,0.21279789507389069
4255,1734173596,105589389,-0.6050106597013301,0.17743069365442307,1.1591844307489467,-0.7315671081868043,-0.40520647824136824,0.0777586246049641,0.542743836915693,0,-1,0.09876012802124023,-1.6174848715411585,-0.8274338881122034,-1.3929560820208948,0.6749609112739563,0.21411541104316711
4272,1734173596,121973037,-0.607688672154292,0.1765715566502415,1.1561270200078801,-0.7318365627765017,-0.4072338933685744,0.07790233944334797,0.5408391877301435,0,-1,0.09934660792350769,-1.6178086439715784,-0.8323887030230921,-1.3918889204608362,0.6791206002235413,0.21543292701244354
4287,1734173596,137719869,-0.6102835391551323,0.1756953421458175,1.1531420963312309,-0.7321098419155408,-0.40924239551806657,0.0781420537576365,0.5389152628341257,0,-1,0.0999813973903656,-1.618120018635885,-0.8373435179339808,-1.3907502333270472,0.6832682490348816,0.2166905254125595
4304,1734173596,153960704,-0.6128620765517684,0.17483369556968426,1.1501322607129894,-0.7323777895616568,-0.4112259244557881,0.07836053548294808,0.5370061814272622,0,-1,0.10060345381498337,-1.6183841864215296,-0.8423708120929163,-1.3896954695331019,0.6873799562454224,0.2179960459470749
4319,1734173596,169630289,-0.6154587235516134,0.17396354306338435,1.1470492046531406,-0.7326466604418624,-0.4132543388670799,0.0785267324026991,0.5350544595170419,0,-1,0.10118992626667023,-1.6186836401568812,-0.8475168387042444,-1.388580624257223,0.6914796829223633,0.21934951841831207
4336,1734173596,185902833,-0.6180769152614705,0.17312696511540854,1.1438935071510516,-0.7329359771723027,-0.4152428178802368,0.07862700952419142,0.5331004116849329,0,-1,0.101811982691288,-1.6189716498004358,-0.8526156584369105,-1.3874419371234339,0.6955075263977051,0.22059513628482819
4351,1734173596,202192306,-0.6206440372880151,0.17224050083211706,1.140779734209991,-0.7332084960247245,-0.41724082737004925,0.07877071053173001,0.531140817952306,0,-1,0.1024104505777359,-1.6192591826068323,-0.8575704733477991,-1.3863747755633753,0.6996671557426453,0.22190028429031372
4368,1734173596,217990159,-0.6231898934552772,0.17135805705585017,1.1377061539088764,-0.7334809632873668,-0.41920861836259266,0.07894360816690409,0.529185900714629,0,-1,0.10302127152681351,-1.6195715109454554,-0.8625376860248011,-1.3853204886065882,0.7037429213523865,0.2232297956943512
4383,1734173596,234283924,-0.6257322898243134,0.17049118565785176,1.1346135433064115,-0.7337526764893435,-0.4211459209798372,0.07907310144313012,0.527248108213708,0,-1,0.10366729646921158,-1.6199072043048304,-0.8674448172198694,-1.3842170874225062,0.7077591419219971,0.22448737919330597
4400,1734173596,250021934,-0.6282164304732933,0.16961671683917134,1.1315111378311733,-0.7340309306804059,-0.42307277938017745,0.07922583142353246,0.5252916178535869,0,-1,0.10421781986951828,-1.6202433745013636,-0.8724830786334437,-1.3831027189837855,0.7118465304374695,0.2257809340953827
4415,1734173596,266248226,-0.630746162627505,0.168729617060605,1.1283100924926515,-0.7343111260124643,-0.4250626354177787,0.07931442206597161,0.5232763597166799,0,-1,0.10483987629413605,-1.62050706544985,-0.8776181379901331,-1.38202411333193,0.7159582376480103,0.22696661949157715
4432,1734173596,282104015,-0.6332344897460751,0.16788854262475156,1.1251033177939993,-0.7345913125875576,-0.4270279908013238,0.0793668118119761,0.5212711460707141,0,-1,0.10545032471418381,-1.6208303610431116,-0.8827403227435511,-1.381005589162008,0.7200703024864197,0.22826054692268372
4447,1734173596,297840356,-0.6357398006902715,0.16696600411670098,1.1218784649865516,-0.7348583545970242,-0.4290368268341779,0.07943715056465338,0.5192305258834293,0,-1,0.10606076568365097,-1.6211302916156214,-0.8877313772784632,-1.3799379507647913,0.7242059707641602,0.22955408692359924
4464,1734173596,314136028,-0.638185611866066,0.16604607679647018,1.1187064385642957,-0.735131752949506,-0.4309795598505037,0.07956845589016133,0.5172105815078694,0,-1,0.10663526505231857,-1.6213939825641077,-0.8927224318133753,-1.3788955847369593,0.7282701134681702,0.23083564639091492
4480,1734173596,329903841,-0.6405097569604873,0.16518932598254046,1.1156174215237469,-0.7354135795625689,-0.4328822819913397,0.07974012903071027,0.5151905557704889,0,-1,0.10725769400596619,-1.6217306295977991,-0.8976176420794886,-1.3778050581561487,0.7324534058570862,0.23209324479103088
4496,1734173596,345986604,-0.6429007338628038,0.16431848987754824,1.1124322758396887,-0.7356988769132714,-0.43478460374994504,0.07984741117204994,0.5131606978127572,0,-1,0.10783218592405319,-1.6220420042621058,-0.9026926199542444,-1.3767378965960901,0.7365415096282959,0.23342236876487732
4512,1734173596,362390995,-0.6453046303903663,0.1634357506395811,1.1091640258471673,-0.7360049576995088,-0.43668133731156933,0.0799178674984282,0.511096122407544,0,-1,0.10843027383089066,-1.6222580114947718,-0.9077428022967737,-1.3756707350360315,0.7406052947044373,0.23478782176971436
4528,1734173596,378186464,-0.6476203481217044,0.16256647801119956,1.1059464641006407,-0.7363185464183467,-0.43853221613971366,0.08001402966228703,0.5090405177047964,0,-1,0.10899315774440765,-1.6225336233722132,-0.9127700964557093,-1.3746045271502894,0.7447533011436462,0.23618923127651215
4544,1734173596,393927097,-0.649941551093483,0.1616581236720876,1.1027223239038528,-0.7366149151290663,-0.4403959757713749,0.08017239584686112,0.5069736070822142,0,-1,0.10955529659986496,-1.6227739492999476,-0.9179042021380823,-1.3734772841082972,0.7489133477210999,0.23751872777938843
4560,1734173596,410155773,-0.6522403441141824,0.16081305024944537,1.099483097319855,-0.7369149368766114,-0.4422553930983898,0.0802240389738126,0.5049065722034694,0,-1,0.11018970608711243,-1.6230972448932093,-0.9228351751910608,-1.3724468390094202,0.7530134320259094,0.23878830671310425
4575,1734173596,425937891,-0.6545389350236959,0.15988098039570733,1.0962614967359994,-0.737201679793147,-0.4441133337993865,0.0803365950003784,0.5028350241933257,0,-1,0.11078854650259018,-1.6234090963946741,-0.9278143087970179,-1.371307675038473,0.7570652365684509,0.24008186161518097
4592,1734173596,442024230,-0.6567866745136068,0.15898430918467216,1.0930261041712739,-0.7374905700759316,-0.4459372096760301,0.08042175333858598,0.5007793982038213,0,-1,0.11138663440942764,-1.6236971060382288,-0.93280536333193,-1.3702166716205042,0.7611656785011292,0.24135106801986694
4607,1734173596,457835674,-0.659052867093284,0.15806660527015293,1.089745685472378,-0.737766816882368,-0.4478185115114296,0.08050413242508313,0.49867603643791714,0,-1,0.11200906336307526,-1.6239727179156702,-0.9378917852984827,-1.3690903822528284,0.7652894258499146,0.24266858398914337
4624,1734173596,474332809,-0.6613198013100888,0.15718052549816436,1.0864152069517983,-0.7380652046326494,-0.4496646112124184,0.08051692494847013,0.49656672857793477,0,-1,0.11260715126991272,-1.6242368857013147,-0.9430025259601038,-1.3680599371539515,0.7693296074867249,0.24395014345645905
4639,1734173596,489709854,-0.6634991856672373,0.15627531740399903,1.0831035110127627,-0.7383567096876954,-0.45151495598058605,0.08055799253637509,0.494443144985871,0,-1,0.11321759968996048,-1.6244648138629358,-0.9481132666217249,-1.366993252431051,0.7734536528587341,0.24524368345737457
4656,1734173596,505866289,-0.6657334009331348,0.15536213252235911,1.0797655248011748,-0.7386477581197407,-0.45334154408895244,0.08059235129744285,0.49232693074833406,0,-1,0.1138400286436081,-1.6247161070453089,-0.9530800024615687,-1.3658660093890589,0.7775537371635437,0.2465851753950119
4671,1734173596,521699666,-0.6678627389628421,0.15445475096715366,1.0765301313033617,-0.7389471226327489,-0.4551252007458946,0.08068782666195011,0.49021186871327527,0,-1,0.11440254002809525,-1.6250641981707972,-0.9579752127276819,-1.364847485219137,0.7816299200057983,0.24785475432872772
4688,1734173596,538089275,-0.6699618903782925,0.15355645350323455,1.0732928081832185,-0.7392352762676688,-0.4569004017370452,0.08077165561167009,0.48810774308930993,0,-1,0.11508488655090332,-1.6253159681903284,-0.9629300276385706,-1.363720719014303,0.7856940627098083,0.2491602748632431
4703,1734173596,553821325,-0.6720374595256863,0.15263794239822087,1.0700302660961551,-0.7395227434556988,-0.45864587213859326,0.08085887088316895,0.4860163771741492,0,-1,0.11568297445774078,-1.6255200544940394,-0.9680412451373499,-1.3626297155963343,0.7897945046424866,0.25053733587265015
4720,1734173596,570070266,-0.6742127954670022,0.1517029658476721,1.0666021472249847,-0.7398456018474202,-0.46046191384894253,0.08085760838924795,0.48380301620305005,0,-1,0.11626945436000824,-1.6257956663714808,-0.9731400648700159,-1.3616111914264124,0.79396653175354,0.25185486674308777
4735,1734173596,585811138,-0.6762771608358003,0.1507896854814292,1.0632433084730815,-0.7401402123616883,-0.4622750673598864,0.08090432794380636,0.48161054583819957,0,-1,0.11692746728658676,-1.6259992758380335,-0.9782865683185022,-1.3605440298663538,0.7981149554252625,0.2531004846096039
4752,1734173596,602068662,-0.6782890524214913,0.1498903622960434,1.0599096149879896,-0.7404313132769653,-0.4640232950688974,0.08091896186341634,0.47947468500776813,0,-1,0.11751393973827362,-1.6263111273394983,-0.9832175413714808,-1.3595016638385218,0.8021907210350037,0.2543700635433197
4767,1734173596,617759227,-0.6803679104079294,0.14897187035448178,1.0565629611536174,-0.7407311312252014,-0.46578948222703065,0.08095151748881728,0.4772885933025909,0,-1,0.11814872920513153,-1.6265628973590296,-0.988112751637594,-1.3583748976336878,0.8063151240348816,0.25566360354423523
4783,1734173596,634140729,-0.6824142364700817,0.14803022693143714,1.0532252172827863,-0.7410190789763492,-0.467531886240596,0.08103635931062032,0.475118688762117,0,-1,0.11873483657836914,-1.6268871466266077,-0.9930318037616175,-1.3572362104998987,0.8104631900787354,0.25695714354515076
4799,1734173596,650313138,-0.684379419055966,0.14713583674158626,1.0499082681471739,-0.7413185854537379,-0.46924797033773435,0.08108200123183805,0.4729469381135965,0,-1,0.1193213164806366,-1.627138916646139,-0.9981182257281702,-1.356133762990133,0.8145400881767273,0.25820276141166687
4816,1734173596,666090965,-0.6863973561488477,0.14623336163292663,1.0464641631148122,-0.7416091314126985,-0.47100976662079197,0.08103277049644673,0.4707434397405876,0,-1,0.11993138492107391,-1.6274026075946253,-1.00330096880068,-1.3550546805011194,0.8186641335487366,0.25948432087898254
4831,1734173596,681762218,-0.688442801595759,0.14528660299153925,1.0429439351502667,-0.7419037345199455,-0.4727748427106796,0.08095552881228375,0.4685178749631372,0,-1,0.12050625681877136,-1.6276667753802698,-1.008387867604391,-1.353999439870016,0.8228005766868591,0.26075389981269836
4848,1734173596,698193550,-0.690417316321857,0.14437081448288797,1.0394741679899608,-0.7422110077594369,-0.47451584813997816,0.08091449170473228,0.4662728545142672,0,-1,0.12109272927045822,-1.6279662291156214,-1.0134504477130335,-1.3528731505023401,0.8269126415252686,0.2619995176792145
4863,1734173596,713603496,-0.6923375563533569,0.14346192759754878,1.0360990975591275,-0.742518790196858,-0.476189105055614,0.08092790888588565,0.4640694516926165,0,-1,0.12166684865951538,-1.628230396901266,-1.0183456579791468,-1.3517945448504847,0.8309888243675232,0.26332899928092957
4880,1734173596,729910373,-0.6942267063822213,0.14256387787680658,1.0327663844630668,-0.7428198416114106,-0.4778399086709796,0.08093746243171047,0.4618840024993551,0,-1,0.12227729707956314,-1.628589932118551,-1.0232885519610804,-1.3506916205035608,0.8350417017936707,0.2646465301513672
4895,1734173596,745687246,-0.6961236561427542,0.14164506905234298,1.0293440579964706,-0.743145929419149,-0.4794740556446411,0.08092742760139655,0.45966238590214176,0,-1,0.12285178899765015,-1.6287935415851038,-1.028315846120016,-1.349576775227682,0.8392017483711243,0.26600000262260437
4911,1734173596,762551307,-0.6980038716595879,0.1407498089629956,1.0258652364193872,-0.7434645582406321,-0.4811556292982005,0.08089426496362553,0.4573902370303821,0,-1,0.1234382688999176,-1.629129711781637,-1.033318821583883,-1.3485820929156702,0.8433142304420471,0.26736506819725037
4927,1734173596,777634382,-0.6998650225948542,0.13979470839286595,1.0224009394233007,-0.7437788143350337,-0.4828098128664383,0.08086840086061638,0.45513521253413575,0,-1,0.12400078028440475,-1.629345719014303,-1.0384658018695276,-1.3475154081927698,0.8474146723747253,0.2687305212020874
4944,1734173596,793929815,-0.7017024380042887,0.13890548645425987,1.018885751734543,-0.7441121364946489,-0.4844472971858812,0.08076746181526286,0.4528626300354044,0,-1,0.12462283670902252,-1.6296575705157679,-1.043527905141012,-1.3464248816119593,0.8515151739120483,0.27002406120300293
4959,1734173596,809661149,-0.7035121631863003,0.13798043902787538,1.0154289188590593,-0.7444136670811878,-0.4861103744684637,0.0807097148541676,0.4505895449575226,0,-1,0.12518571317195892,-1.6299451033221644,-1.0484831968890589,-1.345382038746969,0.8556755781173706,0.27136555314064026
4976,1734173596,825925588,-0.7053432081367674,0.13705342642113186,1.011936683693684,-0.7447374139659828,-0.48774355921352547,0.08068227322373846,0.4482887188770564,0,-1,0.1258557140827179,-1.6302569548236292,-1.0533908049212855,-1.3443153540240687,0.8597280979156494,0.27264711260795593
4991,1734173596,841637611,-0.7071375094521317,0.13611175132369377,1.0085015834767066,-0.745034849374814,-0.48935652916971345,0.0806415642799391,0.4460383376869123,0,-1,0.12641821801662445,-1.6305807272540491,-1.0583456198321741,-1.3432243506061,0.863864541053772,0.2739047110080719
5008,1734173596,857964038,-0.7088970503451394,0.135178348186344,1.0050250769319893,-0.7453421826379015,-0.49095779524337535,0.08058745007063298,0.4437692384127658,0,-1,0.12705226242542267,-1.6308205763446253,-1.0633962790118616,-1.3421338240252894,0.8679649829864502,0.2752458155155182
5023,1734173596,873633623,-0.7106766565386996,0.13424435319293127,1.0014214609153018,-0.7456444354758043,-0.49261403522241426,0.08045560905011301,0.4414438617969837,0,-1,0.1275791972875595,-1.631096665059225,-1.0686033407794397,-1.3410432974444788,0.8721377849578857,0.2765038013458252
5040,1734173596,889951467,-0.7124295479052561,0.13329168659541885,0.997863944563238,-0.7459646412529604,-0.49422827329350527,0.08037087937494662,0.4391078337107642,0,-1,0.12826155126094818,-1.6314199606524866,-1.0736420790301722,-1.33995229402651,0.8761903047561646,0.2778332829475403
5055,1734173596,905699253,-0.7141431104533535,0.1323413223474289,0.9943127799860043,-0.7462730336308121,-0.49583971462994375,0.08028874358016783,0.4367759772760847,0,-1,0.1288236826658249,-1.6317084471331995,-1.0786574522601526,-1.3388975302325647,0.880303144454956,0.27909088134765625
5071,1734173596,921545028,-0.7158334222910474,0.13141160882846425,0.9908648854620912,-0.746572516515698,-0.4973975674117142,0.08023926287960845,0.4344960278401451,0,-1,0.1294461041688919,-1.632092301045553,-1.0835045019732874,-1.3377826849566858,0.8843916058540344,0.2803844213485718
5087,1734173596,937817573,-0.7174845104264781,0.13049227491871696,0.9873970622653935,-0.7468850857929656,-0.4989414454442513,0.08016552376378094,0.432196241813501,0,-1,0.13010412454605103,-1.6323559919940394,-1.0884001890765589,-1.3367160002337855,0.8885763883590698,0.2817019522190094
5103,1734173596,953639984,-0.7191617126329279,0.12952563043631043,0.9838458636839698,-0.74718665788464,-0.5005037875331454,0.08007396862514815,0.42987930456440543,0,-1,0.13067898154258728,-1.632679287587301,-1.0934985319720667,-1.33563739458193,0.8926169276237488,0.2829591631889343
5120,1734173596,969905853,-0.7207982574005393,0.12859253586106836,0.9802603009044072,-0.7475023474656012,-0.5020675827503659,0.07992990799371859,0.4275273005232951,0,-1,0.1313014179468155,-1.6329196135150355,-1.098621670399801,-1.334522549306051,0.8966694474220276,0.2842647135257721
5135,1734173596,986321449,-0.7224440938179567,0.12765082840062045,0.9765932422069362,-0.7477940691899583,-0.503659285022965,0.07972663768365847,0.42517645506088203,0,-1,0.1318635493516922,-1.633219067250387,-1.1037562529193323,-1.3334921042071741,0.9007463455200195,0.2855582535266876
5151,1734173597,1703262,-0.7239864280445875,0.12675087138544683,0.9730264856363523,-0.7481248965905403,-0.5051703814797182,0.07957867037041043,0.42282296531658153,0,-1,0.13252194225788116,-1.6335309187518519,-1.1087468306170862,-1.3324492613421839,0.9048228859901428,0.28685179352760315
5167,1734173597,17851352,-0.7255851881836333,0.12578200336902906,0.9694713006219612,-0.748418808649418,-0.5067073526500334,0.0794556773654971,0.4204803692975099,0,-1,0.13308444619178772,-1.6338546911822718,-1.1136663595782679,-1.3313105742083948,0.9088754057884216,0.28810974955558777
5183,1734173597,34031152,-0.7271308763146371,0.12483271743871542,0.9659404383129522,-0.7487248145905614,-0.5082036600054974,0.0793673941709533,0.41813993915417674,0,-1,0.13371886312961578,-1.6341784636126917,-1.1186097303973597,-1.3302081266986292,0.9130241870880127,0.2893793284893036
5199,1734173597,49629211,-0.728667674499246,0.12391522202073055,0.962348076620754,-0.7490262692009121,-0.5097251054032725,0.07919994777271333,0.4157731752306599,0,-1,0.13425703346729279,-1.634514633809225,-1.1236370245562952,-1.3291290442096155,0.9171250462532043,0.2906605303287506
5215,1734173597,65804481,-0.7302210685464606,0.12298296314702349,0.9586591779640402,-0.749351766094806,-0.5112396105497086,0.07899789362616118,0.4133585901589649,0,-1,0.13483189046382904,-1.6347182432757776,-1.1288555304156702,-1.32802659669985,0.9212618470191956,0.2919061481952667
5232,1734173597,81899404,-0.7316718825303935,0.12209580901063616,0.9550241000286807,-0.7496735161782769,-0.5127285534468302,0.07880582006142836,0.41096069440478783,0,-1,0.1354423463344574,-1.6350181738482874,-1.1339424292193812,-1.327019993458883,0.9253866672515869,0.2932356297969818
5247,1734173597,98021268,-0.7331359078278776,0.12118290429397377,0.9513562351378869,-0.7499883490584421,-0.5142088414583221,0.07859171442852687,0.4085707846455339,0,-1,0.1360044777393341,-1.6352580229388636,-1.1390412489520472,-1.325869385396139,0.9294391870498657,0.2944932281970978
5263,1734173597,113624572,-0.7345335293449687,0.12024978152391025,0.9478201348722132,-0.7503104930956243,-0.5156235340745331,0.07848419772075411,0.40621024823017404,0,-1,0.1365789771080017,-1.6355698744403284,-1.143996540700094,-1.3247788588153284,0.9335764050483704,0.2958586812019348
5279,1734173597,129804372,-0.7359600131517986,0.11932088272511372,0.9442225079690209,-0.7506331867455822,-0.5170750581247021,0.07833330813931542,0.40379090635805426,0,-1,0.13718904554843903,-1.6358936468707483,-1.1488917509662073,-1.323700253163473,0.9376768469810486,0.29718855023384094
5296,1734173597,145909547,-0.7373241580275566,0.11840603557125187,0.9406962247865279,-0.7509735942632146,-0.5184257728408667,0.07823661689749407,0.40143792863925243,0,-1,0.13779985904693604,-1.6361215750323694,-1.1538594404803675,-1.3225730101214808,0.9417780637741089,0.2985536456108093
5311,1734173597,162040948,-0.7387124401917263,0.1174443355183496,0.9370717761271391,-0.7512968707604707,-0.5198592380009501,0.07807158031877817,0.39900402629187165,0,-1,0.1384103149175644,-1.6363971869098108,-1.1588862578021448,-1.3215301672564905,0.9458909034729004,0.2999071180820465
5327,1734173597,177629232,-0.7400336560448049,0.11650407520033706,0.9334258504011884,-0.7516273590029459,-0.5212783453832469,0.07791052439921364,0.39655409469655023,0,-1,0.13900840282440186,-1.6366127173053187,-1.1640213171588343,-1.3203795591937464,0.950027346611023,0.30122461915016174
5343,1734173597,193723201,-0.7413545281355373,0.115578757960513,0.9297718408779627,-0.7519336524775327,-0.522694614583538,0.07768825754834174,0.39414547669136835,0,-1,0.13961884379386902,-1.6368535200702112,-1.169084374104635,-1.3193491140948694,0.9541525840759277,0.30249419808387756
5360,1734173597,210203647,-0.7426828078662049,0.11464465508595537,0.9260839364117619,-0.7522678217713376,-0.5240932279483229,0.077469200656423,0.391686016722284,0,-1,0.14024090766906738,-1.6372130552874964,-1.1739915052997034,-1.3183186689959925,0.958217442035675,0.3037637770175934
5375,1734173597,225644111,-0.7439692902739754,0.11369171190764846,0.9225287008917866,-0.7525546419973498,-0.5254972427203043,0.07728275287300886,0.3892833605613882,0,-1,0.1408517211675644,-1.6374648253070276,-1.1789348761187952,-1.3171799818622034,0.9620426893234253,0.30505695939064026
5392,1734173597,241901874,-0.7452412756297284,0.1127693651211859,0.9189175204339803,-0.7528688942942025,-0.5268410383531742,0.07707546964065351,0.3868931639236431,0,-1,0.14147378504276276,-1.6377523581134241,-1.1839259306537073,-1.3161490599261683,0.9662637114524841,0.30633851885795593
