yildirimyigit/pemp/data/ur10/raw/18_2024-12-14_13-54-33.csv
Time,ROS secs,ROS nsecs,________p_x________,________p_y________,________p_z________,________q_x________,________q_y________,________q_z________,________q_w________,gripper_position,gripper_force,shoulder_pan_joint,shoulder_lift_joint,elbow_joint,wrist_1_joint,wrist_2_joint,wrist_3_joint
0,1734173673,782338380,-0.00010415700876608646,0.2561409987747022,1.427299995089821,-0.7071067830668608,-2.941016518703689e-05,2.990872181291466e-05,0.7071067780620873,0,-1,-4.7985707418263246e-05,-1.5708444754229944,-3.5587941304981996e-05,-1.5707719961749476,7.190534961409867e-05,0.000107858024421148
10,1734173673,798448801,-5.4108737860857345e-05,0.2561410014892967,1.4272999985511272,-0.7071067799519926,4.2671483079650364e-05,5.9832885838013185e-05,0.7071067786021391,0,-1,-1.1746083394825746e-05,-1.5708563963519495,-3.5587941304981996e-05,-1.5707357565509241,5.992112710373476e-05,0.00011984225420746952
25,1734173673,814731359,-8.819433026611902e-05,0.2561410030074626,1.4272999965754543,-0.7071067820254301,1.2865834633033965e-05,6.396850027049473e-05,0.7071067773371588,0,-1,-1.1746083394825746e-05,-1.5708563963519495,-1.1746083394825746e-05,-1.5707600752459925,5.992112710373476e-05,0.00011984225420746952
41,1734173673,830182075,-0.00011334046671272583,0.25614100283154617,1.4272999943615572,-0.7071067827701383,9.794544025560355e-08,2.5733475657276732e-05,0.7071067791346956,0,-1,-1.1746083394825746e-05,-1.5708563963519495,-4.7985707418263246e-05,-1.5707719961749476,9.58738019107841e-05,9.58738019107841e-05
58,1734173673,845731496,-6.72875643203092e-05,0.2561410008125849,1.4272999982159922,-0.7071067810350538,1.710289448725949e-05,5.9641919507028977e-05,0.7071067786159152,0,-1,-3.5587941304981996e-05,-1.5708444754229944,-5.990663637334137e-05,-1.5707600752459925,8.388957940042019e-05,0.00013182648399379104
73,1734173673,862125635,-5.4773568797500953e-05,0.2561410013726121,1.4272999987017927,-0.7071067798265384,3.3922196821476e-05,6.803185218589753e-05,0.7071067784601524,0,-1,-1.1746083394825746e-05,-1.5708683172809046,-4.7985707418263246e-05,-1.5707476774798792,4.793690095539205e-05,0.00011984225420746952
90,1734173673,878160715,-9.344209191912241e-05,0.2561409997066064,1.4272999961430646,-0.7071067830739471,-2.5240237241449595e-05,5.102690296263202e-05,0.707106777007546,0,-1,0.0,-1.5708444754229944,-3.5587941304981996e-05,-1.5707357565509241,7.190534961409867e-05,8.388957940042019e-05
106,1734173673,894324064,-8.148087156071608e-05,0.2561410011117198,1.4272999970982005,-0.7071067815984957,8.67352609168774e-06,3.426429855490062e-05,0.7071067798912305,0,-1,-2.366701234990387e-05,-1.5708563963519495,-2.366701234990387e-05,-1.5707476774798792,4.793690095539205e-05,0.00013182648399379104
122,1734173673,910382986,-9.791364358000538e-05,0.2561409999184771,1.4272999963391584,-0.7071067825560455,-1.2551427430514e-05,4.676746286110299e-05,0.7071067781590723,0,-1,-3.5587941304981996e-05,-1.5708320776568812,-5.990663637334137e-05,-1.5707357565509241,5.992112710373476e-05,0.000107858024421148
138,1734173673,926095724,-8.404885416693153e-05,0.25614100329029593,1.4272999966105808,-0.7071067812242534,2.983646612084719e-05,3.8568499134556705e-05,0.7071067794675229,0,-1,-3.5587941304981996e-05,-1.5708444754229944,-4.7985707418263246e-05,-1.5707357565509241,5.992112710373476e-05,9.58738019107841e-05
154,1734173673,942413806,-8.966575075888873e-05,0.2561410058357432,1.4272999956269359,-0.7071067826518486,1.2888209764401372e-05,2.1372581093491764e-05,0.7071067792807945,0,-1,-2.366701234990387e-05,-1.5708320776568812,1.1920928955078125e-05,-1.5707476774798792,7.190534961409867e-05,0.000107858024421148
170,1734173673,958118677,-9.530840474648004e-05,0.2561410012145506,1.4272999958985662,-0.707106782728889,-8.522389325236211e-06,2.5542510611927164e-05,0.7071067791315175,0,-1,-1.1746083394825746e-05,-1.5708683172809046,-7.18275653284195e-05,-1.5707476774798792,7.190534961409867e-05,0.00011984225420746952
186,1734173673,974312782,-8.888384791812484e-05,0.25614100324387173,1.4272999955880246,-0.7071067829928092,4.45884007119049e-06,3.861325567783811e-05,0.7071067783119431,0,-1,-2.366701234990387e-05,-1.5708683172809046,-4.7985707418263246e-05,-1.5707600752459925,5.992112710373476e-05,0.00011984225420746952
202,1734173673,990267753,-9.807011657070985e-05,0.2561410020993689,1.42729999596351,-0.7071067821286998,4.414084696597072e-06,6.394612004710306e-05,0.707106777339183,0,-1,-3.5587941304981996e-05,-1.5708683172809046,0.0,-1.5707719961749476,4.793690095539205e-05,9.58738019107841e-05
218,1734173674,6600141,-0.0001332284208629058,0.2561410015871317,1.4272999911427153,-0.7071067834793041,-1.6783171570017953e-05,2.5755853255675994e-05,0.7071067782255476,0,-1,0.0,-1.5708444754229944,0.0,-1.570711914693014,7.190534961409867e-05,0.00011984225420746952
234,1734173674,22314071,-8.28193124297175e-05,0.2561410021092016,1.4272999969747107,-0.7071067821498394,1.2764380190454534e-05,3.839991043479991e-05,0.7071067790653807,0,-1,-2.366701234990387e-05,-1.5708320776568812,-1.1746083394825746e-05,-1.5707476774798792,0.000107858024421148,0.00011984225420746952
250,1734173674,38575887,-7.877212314356946e-05,0.2561410000773801,1.4272999976032188,-0.707106781695615,8.757719704894582e-06,5.112835491286585e-05,0.7071067787747926,0,-1,-1.1746083394825746e-05,-1.5708444754229944,-7.18275653284195e-05,-1.5707719961749476,7.190534961409867e-05,0.00014381069922819734
266,1734173674,54335594,-9.337170814349789e-05,0.2561410022000422,1.4272999953987116,-0.70710678336129,4.335008020604631e-06,4.691879321857868e-05,0.707106777441911,0,-1,-3.5587941304981996e-05,-1.5708563963519495,1.1920928955078125e-05,-1.5707600752459925,8.388957940042019e-05,0.000107858024421148
282,1734173674,70621490,-0.00011701239229014145,0.256141001529076,1.4272999943477955,-0.7071067815338284,1.2910588596138507e-05,3.850136104866184e-05,0.7071067796732206,0,-1,-3.5587941304981996e-05,-1.5708444754229944,-2.366701234990387e-05,-1.5707476774798792,7.190534961409867e-05,0.000107858024421148
298,1734173674,86442947,-0.0001091209760292397,0.2561410054496231,1.4272999938783844,-0.7071067832563064,1.2932965142738122e-05,3.832083616463204e-05,0.7071067779601401,0,-1,-2.366701234990387e-05,-1.5708320776568812,-5.990663637334137e-05,-1.5707600752459925,8.388957940042019e-05,0.00011984225420746952
314,1734173674,102763414,-8.294671988747042e-05,0.25614099902889115,1.4272999975776213,-0.7071067818479488,2.835937370223421e-07,5.9602480846139174e-05,0.7071067780131238,0,-1,-2.366701234990387e-05,-1.5708444754229944,-5.990663637334137e-05,-1.5707476774798792,3.5952674807049334e-05,0.000107858024421148
330,1734173674,118373870,-5.0402271789811526e-05,0.2561410012691566,1.4272999986853492,-0.7071067808971637,2.998267197818832e-05,6.409232724305483e-05,0.7071067779355982,0,-1,0.0,-1.5708563963519495,-3.5587941304981996e-05,-1.5707476774798792,5.992112710373476e-05,0.00013182648399379104
346,1734173674,134968996,-8.598443963986962e-05,0.2561410031406878,1.4272999966266493,-0.7071067817393278,1.710289454168459e-05,5.1257310248795046e-05,0.7071067785691421,0,-1,-2.366701234990387e-05,-1.5708444754229944,-1.1746083394825746e-05,-1.5707600752459925,5.992112710373476e-05,0.000107858024421148
362,1734173674,150566816,-7.243140441290285e-05,0.2561410017044478,1.4272999969212679,-0.7071067833249673,-8.376182097434773e-06,3.42076032000676e-05,0.7071067781710887,0,-1,-2.366701234990387e-05,-1.5708444754229944,-2.366701234990387e-05,-1.5707839171039026,8.388957940042019e-05,0.00011984225420746952
378,1734173674,166183710,-9.522907913079411e-05,0.2561410000045496,1.4272999962845765,-0.7071067821107486,8.611515139926138e-06,5.945627525961327e-05,0.7071067777102518,0,-1,-3.5587941304981996e-05,-1.5708444754229944,-7.18275653284195e-05,-1.5707357565509241,7.190534961409867e-05,9.58738019107841e-05
394,1734173674,182316064,-0.0001035937892934043,0.2561410039858599,1.4272999947266762,-0.7071067826657743,4.166421837389643e-06,1.2898454791287147e-05,0.7071067795774045,0,-1,-2.366701234990387e-05,-1.5708563963519495,-4.7985707418263246e-05,-1.5707357565509241,7.190534961409867e-05,0.00014381069922819734
410,1734173674,198008775,-9.721211265452089e-05,0.2561410001369687,1.4272999959779054,-0.7071067824630995,4.272999503522055e-06,3.816950705484248e-05,0.707106778866893,0,-1,-2.366701234990387e-05,-1.5708320776568812,-5.990663637334137e-05,-1.5707476774798792,4.793690095539205e-05,0.000107858024421148
426,1734173674,214174509,-9.350510830645e-05,0.25614100228927195,1.4272999960696915,-0.7071067830602473,-4.139117042444153e-06,2.9970538142990496e-05,0.7071067786655867,0,-1,0.0,-1.570808235798971,1.1920928955078125e-05,-1.5707476774798792,0.000107858024421148,0.000107858024421148
442,1734173674,230286836,-8.80786675538452e-05,0.2561410000045496,1.4272999969278004,-0.707106782096553,8.780102533175232e-06,5.962486265384092e-05,0.7071067777081785,0,-1,-1.1746083394825746e-05,-1.5708320776568812,-4.7985707418263246e-05,-1.570723835621969,8.388957940042019e-05,7.190534961409867e-05
458,1734173674,245874643,-0.00013884984214351307,0.25614100336244633,1.4272999905294423,-0.7071067839327179,-8.309041354350247e-06,2.580061367170531e-05,0.7071067779208574,0,-1,3.5952674807049334e-05,-1.5708444754229944,-4.7985707418263246e-05,-1.570711914693014,3.5952674807049334e-05,0.000107858024421148
474,1734173674,261917352,-3.456831544457684e-05,0.2561410005010924,1.4272999995134779,-0.7071067799037013,3.417497911655016e-05,6.823987916739766e-05,0.7071067783507723,0,-1,1.1984225238848012e-05,-1.5708320776568812,-7.18275653284195e-05,-1.570723835621969,8.388957940042019e-05,9.58738019107841e-05
490,1734173674,278123855,-8.006808261065526e-05,0.25614100293013686,1.427299996889031,-0.7071067819770434,2.136233473372599e-05,5.5516750362082604e-05,0.7071067778939834,0,-1,-4.7985707418263246e-05,-1.5708563963519495,-5.990663637334137e-05,-1.5707357565509241,7.190534961409867e-05,0.00011984225420746952
506,1734173674,294047117,-4.467019404298059e-05,0.256141001206326,1.427299998201999,-0.7071067818086483,1.6979065022916235e-05,4.2614595290679695e-05,0.7071067790764874,0,-1,-4.7985707418263246e-05,-1.5708563963519495,-2.366701234990387e-05,-1.5707476774798792,8.388957940042019e-05,0.000107858024421148
522,1734173674,310054302,-6.507767335659424e-05,0.25614100091904646,1.4272999982144992,-0.7071067807850355,2.5577020775107616e-05,5.11677932431401e-05,0.7071067792741749,0,-1,-5.990663637334137e-05,-1.570820156727926,-9.566942323857575e-05,-1.5707357565509241,9.58738019107841e-05,0.00011984225420746952
537,1734173674,326730251,-0.00010383355499331447,0.2561410026661346,1.427299995035521,-0.7071067822527383,4.312631538776114e-06,2.147403424789586e-05,0.7071067797811343,0,-1,-2.366701234990387e-05,-1.5708320776568812,-4.7985707418263246e-05,-1.5707357565509241,7.190534961409867e-05,8.388957940042019e-05
554,1734173674,342407464,-9.488438918398554e-05,0.2561410023947459,1.4272999956273467,-0.7071067818086483,1.6979065022916235e-05,4.261459529067969e-05,0.7071067790764873,0,-1,-4.7985707418263246e-05,-1.5708320776568812,-3.5587941304981996e-05,-1.5707600752459925,8.388957940042019e-05,0.000107858024421148
570,1734173674,358226776,-9.517929551862009e-05,0.2561410011402035,1.4272999962388802,-0.7071067827692964,9.794801268752618e-08,4.2636972896316084e-05,0.7071067783183344,0,-1,0.0,-1.5708802382098597,-1.1746083394825746e-05,-1.5707476774798792,9.58738019107841e-05,0.000107858024421148
585,1734173674,374319791,-4.2005849987454765e-05,0.25614100147626595,1.4272999991950348,-0.7071067807833598,2.5470449517844505e-05,6.80989902547384e-05,0.7071067778518159,0,-1,-3.5587941304981996e-05,-1.5708683172809046,-1.1746083394825746e-05,-1.5707357565509241,7.190534961409867e-05,0.00014381069922819734
602,1734173674,389765977,-0.00014283884493028947,0.2561409997066065,1.427299990910505,-0.7071067847940464,-3.800812113810565e-05,3.825901875240169e-05,0.7071067755225208,0,-1,-7.135072817021637e-05,-1.5708444754229944,-5.990663637334137e-05,-1.5707476774798792,7.190534961409867e-05,0.000107858024421148
618,1734173674,405776500,-8.190504462143417e-05,0.2561410000045496,1.4272999974999516,-0.7071067821159437,8.549697899559916e-06,5.939445801888752e-05,0.7071067777110019,0,-1,-2.366701234990387e-05,-1.5708444754229944,-5.990663637334137e-05,-1.5707600752459925,7.190534961409867e-05,0.00013182648399379104
634,1734173674,421806573,-7.354067073054595e-05,0.25614100173070087,1.4272999976679588,-0.7071067814755477,1.2865829436140721e-05,5.5449614878906496e-05,0.7071067786063875,0,-1,0.0,-1.570820156727926,-2.366701234990387e-05,-1.5707357565509241,5.992112710373476e-05,0.00013182648399379104
650,1734173674,437761545,-0.00012225509236793807,0.25614100153106856,1.4272999939547728,-0.7071067822979441,1.7214787993095737e-05,5.12796878388359e-05,0.707106778006188,0,-1,-2.366701234990387e-05,-1.5708444754229944,-3.5587941304981996e-05,-1.570711914693014,9.58738019107841e-05,0.00011984225420746952
666,1734173674,453861236,-8.652711471365404e-05,0.2561410042661263,1.427299996043335,-0.707106782856983,-4.060042838244682e-06,2.9801953368990976e-05,0.7071067788764347,0,-1,-2.366701234990387e-05,-1.5708563963519495,-3.5587941304981996e-05,-1.570711914693014,8.388957940042019e-05,0.000107858024421148
682,1734173674,469827651,-0.0001251804538593647,0.25614100453559324,1.4272999930499441,-0.7071067828885955,1.2932965096640883e-05,4.708738064473933e-05,0.7071067777984154,0,-1,-1.1746083394825746e-05,-1.5708563963519495,-3.5587941304981996e-05,-1.5707476774798792,3.5952674807049334e-05,9.58738019107841e-05
698,1734173674,485975980,-6.977176178367623e-05,0.256141000755692,1.4272999981172456,-0.7071067814751401,1.2888209659663338e-05,6.390136476959709e-05,0.7071067778931115,0,-1,-4.7985707418263246e-05,-1.5708320776568812,-3.5587941304981996e-05,-1.5707600752459925,7.190534961409867e-05,0.000107858024421148
713,1734173674,501901865,-0.00010188506193947855,0.25614100386546124,1.4272999949698806,-0.7071067825175944,5.3190113913703944e-08,1.72593506910007e-05,0.707106779644862,0,-1,-2.366701234990387e-05,-1.5708320776568812,-4.7985707418263246e-05,-1.5707357565509241,8.388957940042019e-05,9.58738019107841e-05
729,1734173674,517950534,-8.05748809712633e-05,0.25614100110107796,1.4272999973104765,-0.7071067808201755,2.983646608475095e-05,5.5427238516720483e-05,0.7071067787510842,0,-1,-3.5587941304981996e-05,-1.5708320776568812,-2.366701234990387e-05,-1.5707476774798792,5.992112710373476e-05,0.00011984225420746952
746,1734173674,534122228,-5.6468338871937546e-05,0.25614100059942885,1.4272999987005863,-0.7071067819322454,4.436459752934348e-06,5.544961485992743e-05,0.7071067782528193,0,-1,-2.366701234990387e-05,-1.5708683172809046,-4.7985707418263246e-05,-1.5707476774798792,4.793690095539205e-05,9.58738019107841e-05
761,1734173674,549777984,-8.04912346992418e-05,0.25614100000454953,1.4272999972460914,-0.7071067820422479,-1.2405217722995702e-05,3.8439542506328146e-05,0.7071067791772111,0,-1,-1.1746083394825746e-05,-1.5708444754229944,-2.366701234990387e-05,-1.5707719961749476,5.992112710373476e-05,0.000107858024421148
778,1734173674,565880060,-0.00011353995972631608,0.2561410000045496,1.4272999947279421,-0.7071067830720038,-4.201126747736318e-06,4.6643633289123616e-05,0.7071067777502095,0,-1,-5.990663637334137e-05,-1.5708320776568812,-7.18275653284195e-05,-1.5707357565509241,7.190534961409867e-05,0.00013182648399379104
794,1734173674,582200288,-5.356012586448556e-05,0.2561410013438935,1.4272999986756747,-0.707106779990832,2.9915536387869306e-05,6.40251917608692e-05,0.7071067788508554,0,-1,-2.366701234990387e-05,-1.5708563963519495,-5.990663637334137e-05,-1.5707357565509241,9.58738019107841e-05,0.00011984225420746952
810,1734173674,597918272,-4.720363617895938e-05,0.2561410018466313,1.4272999983463828,-0.7071067810831784,2.5554644433167948e-05,5.1234930042244706e-05,0.7071067789719797,0,-1,0.0,-1.5708921591388147,-4.7985707418263246e-05,-1.570723835621969,5.992112710373476e-05,0.00013182648399379104
826,1734173674,614404678,-9.542009325833538e-05,0.2561410034764833,1.427299995399277,-0.7071067825526369,1.274200258508929e-05,4.689641819930844e-05,0.7071067781505316,0,-1,-3.5587941304981996e-05,-1.5708683172809046,-4.7985707418263246e-05,-1.5707600752459925,9.58738019107841e-05,0.00011984225420746952
842,1734173674,630226850,-6.59557611539146e-05,0.256141001028675,1.4272999980990748,-0.7071067809508342,2.5475569238032225e-05,2.5643960929203218e-05,0.7071067804983427,0,-1,-1.1746083394825746e-05,-1.5708444754229944,-4.7985707418263246e-05,-1.570723835621969,7.190534961409867e-05,9.58738019107841e-05
858,1734173674,646704196,-8.395216045137316e-05,0.2561410017652391,1.427299996970213,-0.7071067820250226,1.2888209711695008e-05,7.242024500052731e-05,0.7071067765220606,0,-1,-2.366701234990387e-05,-1.5708683172809046,-4.7985707418263246e-05,-1.570723835621969,7.190534961409867e-05,9.58738019107841e-05
874,1734173674,661996603,-6.390531245691346e-05,0.25614099925708766,1.4272999987017927,-0.7071067800126275,2.9791705904842287e-05,8.911059300395119e-05,0.7071067761179567,0,-1,-2.366701234990387e-05,-1.5708563963519495,-2.366701234990387e-05,-1.5707357565509241,8.388957940042019e-05,0.00011984225420746952
889,1734173674,678473472,-8.328378722752997e-05,0.25614100212019436,1.4272999969382703,-0.7071067803718593,2.97075094288864e-05,5.534303978911749e-05,0.707106779211425,0,-1,-2.366701234990387e-05,-1.5708683172809046,-4.7985707418263246e-05,-1.5707600752459925,7.190534961409867e-05,0.000107858024421148
906,1734173674,694190263,-9.780871864615522e-05,0.2561410011710889,1.4272999960403026,-0.7071067817301427,1.2910589899979941e-05,5.5449614861115456e-05,0.7071067783509766,0,-1,-1.1746083394825746e-05,-1.570820156727926,-1.1746083394825746e-05,-1.5707476774798792,7.190534961409867e-05,0.000107858024421148
922,1734173674,709895610,-0.00012174155879270124,0.2561410000045496,1.427299993763799,-0.7071067832743378,-1.2652876666423368e-05,3.819188337233387e-05,0.7071067779541527,0,-1,1.1984225238848012e-05,-1.5708802382098597,-5.990663637334137e-05,-1.5707600752459925,9.58738019107841e-05,0.00014381069922819734
938,1734173674,726191282,-0.00012303751818170186,0.2561410043600162,1.427299992490519,-0.7071067842968433,-1.699651675076649e-05,2.5632023735430062e-05,0.707106777407412,0,-1,-1.1746083394825746e-05,-1.5708563963519495,-2.366701234990387e-05,-1.5707719961749476,8.388957940042019e-05,7.190534961409867e-05
954,1734173674,741933107,-0.00013533505877410523,0.25614100152580394,1.427299992114473,-0.7071067838926615,-1.695175892207234e-05,3.406139596545322e-05,0.7071067774568676,0,-1,-1.1746083394825746e-05,-1.5708563963519495,-3.5587941304981996e-05,-1.5707600752459925,7.190534961409867e-05,8.388957940042019e-05
970,1734173674,758194923,-0.00011950837499929793,0.25614100124058803,1.427299993799572,-0.7071067834765566,-1.682792944469805e-05,4.2659350512786235e-05,0.7071067774094932,0,-1,-2.366701234990387e-05,-1.5708563963519495,-3.5587941304981996e-05,-1.5707600752459925,9.58738019107841e-05,9.58738019107841e-05
986,1734173674,773983478,-0.00010774172455970692,0.2561410053834387,1.427299994060745,-0.7071067830070925,4.436459849138573e-06,2.982433099619185e-05,0.7071067787231201,0,-1,-1.1746083394825746e-05,-1.5708563963519495,-5.990663637334137e-05,-1.5707600752459925,7.190534961409867e-05,0.000107858024421148
1002,1734173674,790309906,-0.00015565095042730857,0.2561410035746915,1.4272999892423566,-0.707106784689854,-1.6783168860046475e-05,3.427474119082907e-05,0.7071067766533875,0,-1,-2.366701234990387e-05,-1.5708563963519495,-3.5587941304981996e-05,-1.5707357565509241,9.58738019107841e-05,0.00011984225420746952
1018,1734173674,806046485,-8.479570850741664e-05,0.2561410009321645,1.427299997021408,-0.7071067819461347,1.9939724624836379e-07,5.1212552374373154e-05,0.7071067785723851,0,-1,-3.5587941304981996e-05,-1.5708563963519495,-3.5587941304981996e-05,-1.5707839171039026,5.992112710373476e-05,9.58738019107841e-05
1034,1734173674,822368621,-9.993496397205189e-05,0.25614099958080816,1.4272999955974612,-0.7071067831424053,-1.2382837400269416e-05,7.23584328268637e-05,0.7071067754200366,0,-1,-1.1746083394825746e-05,-1.5708563963519495,-3.5587941304981996e-05,-1.5707600752459925,8.388957940042019e-05,0.000107858024421148
1050,1734173674,837994575,-0.00010896777608557143,0.2561410012160916,1.4272999952517795,-0.7071067825433958,-1.2467034929050359e-05,3.854612017562096e-05,0.7071067786691742,0,-1,0.0,-1.5708563963519495,-2.366701234990387e-05,-1.5707357565509241,8.388957940042019e-05,0.000107858024421148
1065,1734173674,854278087,-7.982731425201331e-05,0.25614100103270837,1.427299997235343,-0.707106780782173,2.557702206107044e-05,5.964192207941666e-05,0.7071067786130527,0,-1,-3.5587941304981996e-05,-1.5708320776568812,-2.366701234990387e-05,-1.5707719961749476,7.190534961409867e-05,0.00014381069922819734
1082,1734173674,870033264,-7.303950679652612e-05,0.25614100193733147,1.4272999975318987,-0.7071067814037021,2.5453193875705388e-05,4.261459658053389e-05,0.7071067792271746,0,-1,-5.990663637334137e-05,-1.5708320776568812,-1.1746083394825746e-05,-1.5707476774798792,9.58738019107841e-05,9.58738019107841e-05
1097,1734173674,885770320,-0.00014342148814291332,0.25614100534365714,1.4272999899350434,-0.7071067836761283,-1.2714696425499498e-05,4.491463987752969e-06,0.7071067785683887,0,-1,-3.5587941304981996e-05,-1.5708444754229944,-2.366701234990387e-05,-1.5707357565509241,9.58738019107841e-05,0.000107858024421148
1113,1734173674,902247428,-0.00013794385161885217,0.2561410033410042,1.4272999912880686,-0.7071067836293962,-8.331421615923698e-06,2.5778233479095754e-05,0.707106778224732,0,-1,-1.1746083394825746e-05,-1.5708683172809046,-4.7985707418263246e-05,-1.5707357565509241,8.388957940042019e-05,8.388957940042019e-05
1130,1734173674,917986631,-8.083627923828729e-05,0.25614100190336614,1.4272999972732,-0.7071067812705826,2.1339959587683175e-05,6.39237449930063e-05,0.7071067778910887,0,-1,0.0,-1.5708683172809046,-2.366701234990387e-05,-1.5707476774798792,7.190534961409867e-05,0.000107858024421148
1145,1734173674,934221744,-6.760681344767183e-05,0.2561410007302623,1.4272999982670806,-0.7071067804311069,2.549282714387955e-05,7.650598228228599e-05,0.7071067773436378,0,-1,-1.1746083394825746e-05,-1.5708320776568812,-3.5587941304981996e-05,-1.5707357565509241,9.58738019107841e-05,0.00014381069922819734
1162,1734173674,949926853,-8.976193544479196e-05,0.2561410034936127,1.4272999953001335,-0.7071067828719962,1.203243938641819e-07,8.852357328131659e-06,0.7071067794456767,0,-1,-5.990663637334137e-05,-1.5708320776568812,-2.366701234990387e-05,-1.5707476774798792,8.388957940042019e-05,0.00011984225420746952
1178,1734173674,966218233,-8.188368383842744e-05,0.2561410055019649,1.4272999961679167,-0.7071067804075424,3.83896627271234e-05,2.9925781626429703e-05,0.7071067802901915,0,-1,-2.366701234990387e-05,-1.5708444754229944,-4.7985707418263246e-05,-1.5707719961749476,3.5952674807049334e-05,0.000107858024421148
1194,1734173674,982008934,-9.169752091520195e-05,0.2561410033440046,1.4272999951999092,-0.7071067837281395,9.794812000262626e-08,3.42523636172807e-05,0.7071067778153538,0,-1,-1.1746083394825746e-05,-1.5708563963519495,-4.7985707418263246e-05,-1.5707476774798792,7.190534961409867e-05,0.000107858024421148
1209,1734173674,998449563,-9.487555568641821e-05,0.2561410036160073,1.427299994788291,-0.707106782760001,2.441551825283474e-07,1.7450315721191843e-05,0.7071067793977283,0,-1,1.1984225238848012e-05,-1.5708563963519495,2.384185791015625e-05,-1.5707600752459925,7.190534961409867e-05,0.000107858024421148
1225,1734173675,14335155,-2.692651127948801e-05,0.2561410018918595,1.4272999995172062,-0.7071067803451608,2.5802303415208493e-05,5.123493006225745e-05,0.7071067797010036,0,-1,0.0,-1.5708683172809046,-2.366701234990387e-05,-1.5707600752459925,9.58738019107841e-05,0.00011984225420746952
1242,1734173675,30209779,-6.94974556162593e-05,0.2561410006531556,1.427299998217485,-0.7071067809141522,2.1339956987531666e-05,8.082723705594171e-05,0.7071067765173722,0,-1,-1.1746083394825746e-05,-1.5708563963519495,-7.18275653284195e-05,-1.5707476774798792,5.992112710373476e-05,0.00011984225420746952
1258,1734173675,46276807,-9.571499959852269e-05,0.2561410021561866,1.427299995912067,-0.7071067834760237,-1.6850307095844498e-05,3.420760320183297e-05,0.7071067778688723,0,-1,-1.1746083394825746e-05,-1.5708563963519495,-1.1746083394825746e-05,-1.5707719961749476,8.388957940042019e-05,8.388957940042019e-05
1274,1734173675,62464237,-6.77027758395031e-05,0.2561410008902925,1.427299997608233,-0.7071067815419294,1.7147652395156293e-05,5.121255237674919e-05,0.7071067787686995,0,-1,0.0,-1.5708802382098597,-4.7985707418263246e-05,-1.5707476774798792,4.793690095539205e-05,0.000107858024421148
1290,1734173675,78515291,-8.377454834021849e-05,0.2561410032209453,1.4272999966778444,-0.7071067812872704,2.5577022100153524e-05,4.2783182699954165e-05,0.7071067793289578,0,-1,-2.366701234990387e-05,-1.5708563963519495,-1.1746083394825746e-05,-1.5707476774798792,5.992112710373476e-05,0.00014381069922819734
1306,1734173675,94142675,-7.556864689624797e-05,0.256141001778697,1.427299997593738,-0.7071067817636573,1.6894870132060335e-05,5.947865550443556e-05,0.7071067779060646,0,-1,-2.366701234990387e-05,-1.5708444754229944,-2.366701234990387e-05,-1.5707719961749476,7.190534961409867e-05,9.58738019107841e-05
1321,1734173675,110433578,-8.827762294874955e-05,0.2561409999184771,1.4272999971572649,-0.7071067819317122,4.5206572171939975e-06,6.383954750605315e-05,0.7071067775451271,0,-1,-3.5587941304981996e-05,-1.5708320776568812,-1.1746083394825746e-05,-1.5707719961749476,9.58738019107841e-05,0.00011984225420746952
1338,1734173675,126274824,-0.00013148628598997643,0.25614100138128154,1.4272999932821955,-0.7071067828382762,4.481217710368631e-06,6.396849763534779e-05,0.7071067766271604,0,-1,0.0,-1.5708563963519495,-2.366701234990387e-05,-1.5707719961749476,7.190534961409867e-05,0.000107858024421148
1354,1734173675,141999244,-0.00010870740953176527,0.2561410041082545,1.4272999941920257,-0.7071067824661791,8.527315133985377e-06,2.573347567540933e-05,0.7071067793872442,0,-1,0.0,-1.5708444754229944,-2.366701234990387e-05,-1.5707357565509241,7.190534961409867e-05,0.00011984225420746952
1370,1734173675,158558130,-8.721849418305756e-05,0.25614100318460525,1.4272999962452801,-0.7071067819962592,2.1193747341010052e-05,5.5348162967809074e-05,0.7071067778930568,0,-1,-2.366701234990387e-05,-1.5708444754229944,-4.7985707418263246e-05,-1.570723835621969,4.793690095539205e-05,0.000107858024421148
1386,1734173675,173978567,-9.995719881340989e-05,0.25614100363794956,1.42729999528703,-0.7071067817575282,1.6934307148771668e-05,5.108872285461444e-05,0.7071067785672,0,-1,-1.1746083394825746e-05,-1.5708444754229944,-2.366701234990387e-05,-1.5707357565509241,5.992112710373476e-05,0.000107858024421148
1401,1734173675,190245151,-0.00012534149479468285,0.25614099714671346,1.427299994036009,-0.707106782458881,-2.0980796501213843e-05,3.833809250895963e-05,0.7071067785636378,0,-1,-1.1746083394825746e-05,-1.5708444754229944,0.0,-1.5707476774798792,5.992112710373476e-05,0.00014381069922819734
1418,1734173675,206270933,-7.12061833209837e-05,0.2561410007725408,1.427299997996331,-0.7071067819474258,4.2678723597224366e-06,5.528102746573827e-05,0.7071067782518767,0,-1,0.0,-1.5708444754229944,-3.5587941304981996e-05,-1.5707600752459925,7.190534961409867e-05,9.58738019107841e-05
1434,1734173675,222650289,-0.00012381862278557158,0.25614100160902253,1.4272999934670922,-0.7071067826780486,-2.58827990050051e-08,2.556488953649738e-05,0.7071067792329067,0,-1,-3.5587941304981996e-05,-1.5708444754229944,-2.366701234990387e-05,-1.570723835621969,7.190534961409867e-05,0.00011984225420746952
1450,1734173675,238178968,-3.086184970429697e-05,0.2561410002986529,1.4272999996331295,-0.7071067805448761,2.1486166706718712e-05,7.249932186387695e-05,0.7071067777851188,0,-1,-1.1746083394825746e-05,-1.5708444754229944,-7.18275653284195e-05,-1.5707719961749476,8.388957940042019e-05,0.00013182648399379104
1466,1734173675,253950834,-6.843884692755825e-05,0.2561410016099559,1.4272999977574707,-0.7071067822858136,4.436459780281324e-06,4.7020245170002024e-05,0.7071067785100191,0,-1,0.0,-1.5708802382098597,-2.366701234990387e-05,-1.5707476774798792,8.388957940042019e-05,0.00011984225420746952
1482,1734173675,270124435,-0.00016046236214624528,0.25614100378787763,1.4272999889367015,-0.7071067840326324,-8.33142157007597e-06,3.425236358344295e-05,0.7071067774617856,0,-1,-1.1746083394825746e-05,-1.5708802382098597,-4.7985707418263246e-05,-1.5707476774798792,4.793690095539205e-05,0.00011984225420746952
1498,1734173675,285909652,-9.918797012326746e-05,0.2561410011872897,1.4272999959210975,-0.7071067820327922,1.2932970148776422e-05,5.54719950628331e-05,0.7071067780461628,0,-1,-3.5587941304981996e-05,-1.5708444754229944,-4.7985707418263246e-05,-1.5707357565509241,9.58738019107841e-05,9.58738019107841e-05
1514,1734173675,302043914,-0.00010549483430178764,0.2561410023876461,1.427299995114699,-0.7071067824516812,4.267874976726261e-06,5.5325785315913633e-05,0.7071067777441208,0,-1,-2.366701234990387e-05,-1.5708320776568812,-2.366701234990387e-05,-1.5707719961749476,9.58738019107841e-05,0.00014381069922819734
1529,1734173675,317900180,-5.631862882568343e-05,0.25614100140917906,1.4272999985536738,-0.7071067807618848,2.572323180279831e-05,5.983288712446844e-05,0.7071067786119043,0,-1,-3.5587941304981996e-05,-1.5708563963519495,-2.366701234990387e-05,-1.5707357565509241,4.793690095539205e-05,9.58738019107841e-05
1546,1734173675,334184408,-6.094338013239596e-05,0.2561410042475017,1.4272999977052354,-0.7071067798966938,4.686379286403373e-05,3.8399911762541494e-05,0.7071067798807761,0,-1,-2.366701234990387e-05,-1.5708563963519495,-2.366701234990387e-05,-1.5707719961749476,8.388957940042019e-05,0.00011984225420746952
1562,1734173675,349957227,-0.00010718293171787048,0.256141003981171,1.4272999943389237,-0.7071067835754812,-1.2759451749375749e-05,1.2920833706556304e-05,0.7071067785644444,0,-1,-1.1746083394825746e-05,-1.5708563963519495,-7.18275653284195e-05,-1.5707600752459925,5.992112710373476e-05,0.000107858024421148
1578,1734173675,366209983,-7.640172660700016e-05,0.2561410039656392,1.4272999964985,-0.7071067823335749,1.3056797124872652e-05,2.997053818354671e-05,0.7071067792838258,0,-1,-2.366701234990387e-05,-1.5708320776568812,-4.7985707418263246e-05,-1.5707357565509241,4.793690095539205e-05,0.00013182648399379104
1594,1734173675,381989479,-0.00011822581691596998,0.2561410030531031,1.4272999937119046,-0.7071067819602459,1.704620313743111e-05,2.573347824429463e-05,0.7071067797391284,0,-1,-1.1746083394825746e-05,-1.570820156727926,-5.990663637334137e-05,-1.5707357565509241,3.5952674807049334e-05,0.00013182648399379104
1610,1734173675,398366212,-6.444541542022805e-05,0.2561409998191627,1.427299998303828,-0.7071067811824837,8.712964374905747e-06,7.65059796890987e-05,0.7071067769981181,0,-1,-4.7985707418263246e-05,-1.5708683172809046,-4.7985707418263246e-05,-1.5707476774798792,9.58738019107841e-05,0.000107858024421148
1626,1734173675,414083242,-0.00010286089869922027,0.25614100374128623,1.4272999952517795,-0.7071067826393818,4.4364598118431525e-06,3.8590875477609524e-05,0.7071067786667331,0,-1,-1.1746083394825746e-05,-1.5708444754229944,-3.5587941304981996e-05,-1.5707476774798792,5.992112710373476e-05,9.58738019107841e-05
1642,1734173675,430453777,-8.111058473183382e-05,0.2561410019959306,1.4272999971828624,-0.7071067815253179,2.136233983104612e-05,5.547199508453917e-05,0.7071067783492212,0,-1,-3.5587941304981996e-05,-1.5708444754229944,-2.366701234990387e-05,-1.5707719961749476,3.5952674807049334e-05,0.00014381069922819734
1658,1734173675,446162223,-8.75878884766083e-05,0.25614100007738005,1.4272999965504416,-0.7071067822402075,4.565415110287754e-06,4.69360502625981e-05,0.707106778560398,0,-1,-2.366701234990387e-05,-1.5708683172809046,-3.5587941304981996e-05,-1.5707719961749476,7.190534961409867e-05,8.388957940042019e-05
1674,1734173675,462555170,-9.031826944722655e-05,0.25614100329491984,1.4272999953987116,-0.7071067833228906,8.549692884554547e-06,4.270410838900055e-05,0.7071067777090081,0,-1,-3.5587941304981996e-05,-1.570820156727926,-2.366701234990387e-05,-1.5707600752459925,7.190534961409867e-05,0.00013182648399379104
1690,1734173675,478402614,-0.00014526355135198191,0.2561410090803479,1.4272999893606848,-0.7071067843257733,-1.244465709725044e-05,4.513844245615368e-06,0.7071067779234053,0,-1,-1.1746083394825746e-05,-1.5708563963519495,-1.1746083394825746e-05,-1.5707476774798792,8.388957940042019e-05,0.000107858024421148
1706,1734173675,494534730,-0.00011671745655416069,0.256141002971058,1.4272999941456312,-0.707106781847307,1.7170031357322273e-05,3.43314340563273e-05,0.7071067794838963,0,-1,1.1984225238848012e-05,-1.5708802382098597,-7.18275653284195e-05,-1.5707357565509241,7.190534961409867e-05,9.58738019107841e-05
1722,1734173675,510066270,-0.00012472461333762032,0.2561410016196644,1.4272999929132517,-0.707106782880088,-3.502552482890332e-09,2.558726973936073e-05,0.7071067790300583,0,-1,-1.1746083394825746e-05,-1.5708444754229944,-2.366701234990387e-05,-1.5707476774798792,9.58738019107841e-05,0.000107858024421148
1738,1734173675,526438713,-7.740033643172072e-05,0.25614100517379396,1.4272999964305635,-0.7071067804839095,4.248051680129491e-05,4.249076321423873e-05,0.707106779336488,0,-1,-1.1746083394825746e-05,-1.5708444754229944,-1.1746083394825746e-05,-1.5707357565509241,8.388957940042019e-05,9.58738019107841e-05
1753,1734173675,542525291,-7.090776646616743e-05,0.25614100562979536,1.427299996889031,-0.7071067816730838,2.9769329364960828e-05,3.863563594347834e-05,0.707106779017857,0,-1,-3.5587941304981996e-05,-1.5708444754229944,-7.18275653284195e-05,-1.5707719961749476,0.000107858024421148,8.388957940042019e-05
1770,1734173675,557985305,-0.00015002895578769987,0.25614099912396204,1.427299988437244,-0.7071067846910054,-5.0595484236768785e-05,5.956816586390913e-05,0.7071067733628909,0,-1,2.3968450477696024e-05,-1.570808235798971,-0.00023919740785771637,-1.5706999937640589,0.0002037318336078897,0.0001917476038215682
1786,1734173675,574363946,-0.00033503373933356734,0.25614098671801383,1.4272999380678082,-0.7071067984542737,-0.00013099972313722184,0.00013169819361871882,0.7071067395198588,0,-1,8.388957940042019e-05,-1.5707839171039026,-0.0006225744830530289,-1.5706160704242151,0.0005748682888224721,0.00027563716867007315
1802,1734173675,590097427,-0.0006708593357062661,0.2561409246931563,1.4272997151169975,-0.7071068434803757,-0.0003681543976846066,0.0002335085144759447,0.7071065844972261,0,-1,9.58738019107841e-05,-1.570808235798971,-0.0012691656695764664,-1.5704243818866175,0.0010901900241151452,0.00047899450873956084
1818,1734173675,606251716,-0.0013456286617580862,0.25614065009329756,1.4272988644385813,-0.7071069777076157,-0.0007786513875782649,0.00038177377827714224,0.7071060528859872,0,-1,0.0002393100003246218,-1.5708320776568812,-0.0022991339312952164,-1.570136849080221,0.0018807743908837438,0.0007905843667685986
1834,1734173675,622009038,-0.0023062129927669825,0.2561399247204098,1.4272966608342412,-0.7071072467193886,-0.0013962541107971022,0.000551468283774472,0.7071047220844419,0,-1,0.00044266731129027903,-1.5708444754229944,-0.0037954489337366226,-1.5697405974017542,0.003042495111003518,0.0012220165226608515
1850,1734173675,638242483,-0.0037110757858214004,0.25613825407892266,1.4272913969750791,-0.7071078511918245,-0.0022984048671599645,0.0007761030526452509,0.707101549837079,0,-1,0.0007059457711875439,-1.5709040800677698,-0.005795303975240529,-1.569381062184469,0.004575727041810751,0.0017246048664674163
1866,1734173675,653962612,-0.005538421370836534,0.2561350383310691,1.4272809419685066,-0.7071088810224498,-0.0034880195328878976,0.0010175322399786312,0.7070953462773303,0,-1,0.0009815829107537866,-1.571024243031637,-0.00828582445253545,-1.5688536802874964,0.006587953306734562,0.0023597688414156437
1882,1734173675,670618534,-0.00785254744006601,0.2561293864874656,1.427261976703674,-0.7071109378182265,-0.004935779127893413,0.0013482161120643328,0.707084112404984,0,-1,0.0013403607299551368,-1.5711920897113245,-0.01127940813173467,-1.5682662169085901,0.009031611494719982,0.003149978816509247
1898,1734173675,686012268,-0.01061568949774935,0.25611968958552467,1.4272311496160193,-0.7071137843888509,-0.006738955877149265,0.001721158259493898,0.7070655698131606,0,-1,0.0017474498599767685,-1.5714200178729456,-0.014775578175679982,-1.5675948301898401,0.011834422126412392,0.0040120938792824745
1913,1734173675,702465772,-0.013754516124891944,0.25610604068471643,1.427184788249257,-0.7071184331559722,-0.00873703280388332,0.002145077785263663,0.707037894592731,0,-1,0.0021904916502535343,-1.571683708821432,-0.018739048634664357,-1.5668147245990198,0.01502072811126709,0.005042362958192825
1930,1734173675,718197345,-0.017388139973005166,0.2560861660785421,1.4271170489736502,-0.7071246287999148,-0.011035250561198246,0.0025477445260288344,0.7069982260143687,0,-1,0.002716674003750086,-1.5719593206988733,-0.023049179707662404,-1.5659516493426722,0.018590154126286507,0.006120194215327501
1946,1734173675,734485149,-0.02124679407566224,0.2560592827324427,1.4270279014896137,-0.7071328204424913,-0.013502948104708304,0.0030771977109767448,0.7069451007679284,0,-1,0.0032671994995325804,-1.5723078886615198,-0.0277789274798792,-1.5649684111224573,0.022398890927433968,0.007281540427356958
1962,1734173675,750130891,-0.02539355141661117,0.2560237946289658,1.4269127121486478,-0.7071429042121626,-0.016139402811995877,0.0036408188774033567,0.7068770594220485,0,-1,0.003925582859665155,-1.5726192633258265,-0.032759968434469044,-1.5639727751361292,0.026471655815839767,0.008503181859850883
1978,1734173675,766402006,-0.02981675770261509,0.25597937083810174,1.4267681468120996,-0.7071555289364544,-0.018949459320836682,0.004233593993155516,0.7067913783910726,0,-1,0.004559623077511787,-1.5729787985431116,-0.03794461885561162,-1.5628584066974085,0.030735792592167854,0.00980871357023716
1994,1734173675,782110452,-0.034337952717828565,0.25592669736319607,1.4265955064494795,-0.7071699931267035,-0.02184323889222919,0.004817404326104104,0.7066896534911447,0,-1,0.005182428285479546,-1.57335073152651,-0.04326039949526006,-1.5617073217975062,0.03502427414059639,0.011149823665618896
2009,1734173675,798407793,-0.038929522472651475,0.25586586022428137,1.4263937230996766,-0.7071881427495014,-0.024753686404657454,0.00545224851481485,0.7065709155845743,0,-1,0.0058763897977769375,-1.573662583027975,-0.04882842699159795,-1.5604961554156702,0.039431847631931305,0.012539244256913662
2026,1734173675,814156532,-0.04356222258028431,0.25579461677967374,1.4261660738359418,-0.7072088791242497,-0.027676114598052467,0.006209172424083217,0.706435474864043,0,-1,0.006522414740175009,-1.5739381949054163,-0.054407898579732716,-1.5592368284808558,0.044007573276758194,0.013976228423416615
2041,1734173675,830413818,-0.04822399087766806,0.25571580453134607,1.425909102877793,-0.7072313417479624,-0.03069959835681738,0.006898048165153945,0.7062816582933596,0,-1,0.007228734903037548,-1.5742624441729944,-0.05999976793398076,-1.5580022970782679,0.04858329892158508,0.015461523085832596
2058,1734173675,846118450,-0.05289428091150721,0.2556300044217692,1.4256269829416686,-0.7072589817978897,-0.03363789163925754,0.007662383529442488,0.7061122522594587,0,-1,0.007875134237110615,-1.5745742956744593,-0.06545907655824834,-1.5568516890155237,0.05315902829170227,0.016946444287896156
2073,1734173675,862393140,-0.0574764393891616,0.2555388023140446,1.4253219946582347,-0.7072889680579797,-0.03654950851890383,0.008375882508191471,0.7059293829291381,0,-1,0.00850917398929596,-1.5748379866229456,-0.07088309923280889,-1.5556405226336878,0.057615287601947784,0.018431738018989563
2090,1734173675,878102779,-0.06194823646901237,0.25544157181570354,1.4250007783772527,-0.7073196498998098,-0.03942238038039091,0.009067356388880942,0.705735482910468,0,-1,0.009095652028918266,-1.5751617590533655,-0.07607967058290654,-1.5544889608966272,0.06204720214009285,0.019820785149931908
2106,1734173675,894400835,-0.06624628049294365,0.255338903843483,1.4246708510798074,-0.7073501262424157,-0.042172257557054796,0.00977124741293458,0.7055365492455903,0,-1,0.009694489650428295,-1.575437370930807,-0.08117992082704717,-1.5533621946917933,0.06620385497808456,0.021174253895878792
2122,1734173675,910096883,-0.07042563058771881,0.2552371303016964,1.4243252799901005,-0.7073843071059603,-0.04481975601428901,0.010398420711873232,0.7053300676830238,0,-1,0.010256999172270298,-1.575677220021383,-0.08614856401552373,-1.5523188749896448,0.07022906094789505,0.022443832829594612
2138,1734173675,926439523,-0.0744795259058479,0.25512839186882286,1.4239721777725056,-0.7074169056214641,-0.04744103537385075,0.011042266909154844,0.7051161167815673,0,-1,0.010831117630004883,-1.5759051481830042,-0.09099752107729131,-1.5512760321246546,0.07418160885572433,0.02367708459496498
2154,1734173675,942237854,-0.07843248131559875,0.2550216107563937,1.4236056921141795,-0.7074514994223817,-0.04995583003631546,0.011580091280357266,0.7048990654670675,0,-1,0.011322096921503544,-1.5761449972735804,-0.0956195036517542,-1.5502808729754847,0.07797911018133163,0.02487475797533989
2170,1734173675,958003759,-0.08213029664477832,0.2549141566855685,1.4232466923204505,-0.7074869723725052,-0.052322541653082456,0.012180560756093719,0.7046816085990996,0,-1,0.011872622184455395,-1.5763610045062464,-0.10000163713564092,-1.5493090788470667,0.08160845190286636,0.026000525802373886
2186,1734173675,974235057,-0.0857518968628947,0.2547989740704607,1.4228784851024243,-0.707519339333016,-0.054671547130804014,0.012729794663443633,0.7044610413159293,0,-1,0.012374836020171642,-1.5766132513629358,-0.10432368913759404,-1.5483625570880335,0.08511871099472046,0.02716224640607834
2202,1734173675,990498781,-0.08935499812996556,0.2546864746462791,1.422500316706014,-0.707556487674435,-0.05693075227495897,0.01327480285952876,0.7042346809155774,0,-1,0.012889782898128033,-1.5768168608294886,-0.10862142244447881,-1.547438923512594,0.08862821757793427,0.028240077197551727
2218,1734173676,6207942,-0.09294341921339944,0.25456417511448476,1.4221050645813575,-0.7075920887444777,-0.05923603364259494,0.013823190425632596,0.7039981872639853,0,-1,0.01339237205684185,-1.5770567099200647,-0.11295587221254522,-1.5464556852923792,0.09217404574155807,0.029413782060146332
2234,1734173676,21985530,-0.09650239722542603,0.2544432757132276,1.4216940053051286,-0.707632197867443,-0.06152765391935769,0.014392472991394232,0.7037498682526795,0,-1,0.01393091306090355,-1.5772126356707972,-0.11737329164613897,-1.545436207448141,0.09576781839132309,0.03052719309926033
2250,1734173676,38253784,-0.10020624472339976,0.2543086379623598,1.4212492598448132,-0.7076724998692512,-0.06390696268589574,0.014947980699829133,0.7034856721512285,0,-1,0.014493422582745552,-1.5774644056903284,-0.12198335329164678,-1.544405762349264,0.09943311661481857,0.031700897961854935
2266,1734173676,53999423,-0.10406402317547622,0.2541610492609576,1.4207723269717614,-0.7077150238230862,-0.06637320380371682,0.01550703058502039,0.70320237120928,0,-1,0.014996010810136795,-1.5777042547809046,-0.12667638460268194,-1.5433982054339808,0.10329054296016693,0.03288695961236954
2282,1734173676,70322751,-0.10804158240030076,0.2540079990593769,1.4202639981834961,-0.7077632348227105,-0.0688977463406674,0.016098306378801094,0.7028976799749762,0,-1,0.015582488849759102,-1.5780280272113245,-0.1315253416644495,-1.5423434416400355,0.10723184794187546,0.03416852280497551
2298,1734173676,86004734,-0.11217112882637918,0.2538423520234373,1.4197135872167481,-0.7078137172339628,-0.07152597783797386,0.01665092875609522,0.7025713648885222,0,-1,0.01621652953326702,-1.578327480946676,-0.13646966615785772,-1.5413602034198206,0.11132895946502686,0.035414133220911026
2313,1734173676,102288484,-0.11642647801958213,0.25366160840819413,1.4191291216306634,-0.7078660673362821,-0.0742499526494768,0.01723959820794972,0.702221739551721,0,-1,0.016803381964564323,-1.578627888356344,-0.14158183733095342,-1.5403531233416956,0.1153777539730072,0.03673127666115761
2330,1734173676,118212461,-0.12068674259389778,0.2534749897528214,1.4185188579321055,-0.7079209202536061,-0.07699323153483593,0.017815538996835602,0.7018565519644046,0,-1,0.017497343942523003,-1.5790112654315394,-0.14666968980898076,-1.5393098036395472,0.1194988265633583,0.03802482411265373
2346,1734173676,133943319,-0.12508764196984404,0.25327572482656024,1.4178699355584872,-0.7079790796880977,-0.07976896683192455,0.01840633349401591,0.7014725522369841,0,-1,0.01812014915049076,-1.5793116728412073,-0.15190202394594365,-1.5382550398456019,0.12375135719776154,0.03934234008193016
2361,1734173676,150192737,-0.12948962209491116,0.25306820350667825,1.4171900112314382,-0.7080383994815272,-0.08261354307800782,0.018992192259942337,0.7010677028596431,0,-1,0.018742205575108528,-1.5796468893634241,-0.15716964403261358,-1.5371516386615198,0.1279802918434143,0.040659479796886444
2378,1734173676,165944576,-0.1339571931387024,0.25285019850664664,1.416480898837591,-0.7080948429724893,-0.08552889612502425,0.01953848138820145,0.7006459512681447,0,-1,0.019376618787646294,-1.5799830595599573,-0.1624372641192835,-1.5360248724566858,0.1322687715291977,0.04191707447171211
2393,1734173676,182650804,-0.13830620175115774,0.25263656116671074,1.4157613739132633,-0.7081644739562449,-0.0882862707363998,0.020189289838193687,0.7002149704209154,0,-1,0.020058222115039825,-1.5803187529193323,-0.16769344011415654,-1.5349214712726038,0.13660556077957153,0.043318480253219604
2410,1734173676,197968959,-0.14271504671438306,0.2524068531807688,1.4150074046002654,-0.7082326055988926,-0.09112570166131669,0.020796274522551266,0.6997643873685763,0,-1,0.020621106028556824,-1.580606762562887,-0.17291289964784795,-1.533806625996725,0.14098991453647614,0.04465958848595619
2425,1734173676,214256048,-0.1470840437174996,0.2521675291098025,1.4142411190688675,-0.708304049912991,-0.09394602667251496,0.02150368117437508,0.699297582324759,0,-1,0.02125552110373974,-1.5809186140643519,-0.178169075642721,-1.5326555410968226,0.14538662135601044,0.046060994267463684
2442,1734173676,229962348,-0.15153193842686472,0.25193022419517064,1.4134352995842052,-0.7083800132144353,-0.0967605166804652,0.022129189321474032,0.6988171851564757,0,-1,0.02193787321448326,-1.5812423864947718,-0.18348437944521123,-1.5315526167498987,0.14973503351211548,0.04747363552451134
2458,1734173676,246183872,-0.15588048465484639,0.2516740651949157,1.412619766000646,-0.7084563275921056,-0.099568012885663,0.022816857101016004,0.6983231585281554,0,-1,0.022535961121320724,-1.5815542379962366,-0.18882352510561162,-1.5304134527789515,0.15404784679412842,0.04892297834157944
2474,1734173676,261928558,-0.16025988854612153,0.25142544579913073,1.4117740765761888,-0.7085381674987304,-0.10233191407727074,0.023426659850751538,0.6978202033239367,0,-1,0.02312243916094303,-1.5818541685687464,-0.19409162202943975,-1.5291908423053187,0.15825282037258148,0.05027644708752632
2489,1734173676,278167486,-0.1645488376049142,0.25117327716571836,1.4109227965956315,-0.7086150857915295,-0.10505643665984399,0.024023798631752035,0.6973167590158007,0,-1,0.023756854236125946,-1.5821893850909632,-0.19921523729433233,-1.528039280568258,0.1624218374490738,0.05164152383804321
2506,1734173676,293843269,-0.16883251030696672,0.2509080182122892,1.4100574979847917,-0.708696764814651,-0.10772824903083486,0.024652676048639292,0.6968039648750848,0,-1,0.02435494214296341,-1.5825017134295862,-0.20421964326967412,-1.5269482771502894,0.1665668785572052,0.052983008325099945
2522,1734173676,310078144,-0.1729612699145639,0.2506390680718072,1.4091953863686733,-0.7087757724719054,-0.11041149803232998,0.025293267553896374,0.6962804435538583,0,-1,0.025013700127601624,-1.5828374067889612,-0.20925981203188115,-1.5258458296405237,0.17074787616729736,0.05427655577659607
2537,1734173676,326189041,-0.17712900042362423,0.2503603648124971,1.408309991281148,-0.7088571052736511,-0.1130668236141089,0.025966588624355507,0.6957465299777567,0,-1,0.02558819390833378,-1.5831249395953577,-0.21431142488588506,-1.524790112172262,0.174845352768898,0.055605679750442505
2553,1734173676,342319250,-0.18123495206150375,0.25009470775427506,1.4073967735421735,-0.7089388637288228,-0.11573723480938773,0.026486669274768303,0.6952043126479376,0,-1,0.026186281815171242,-1.5834010283099573,-0.21937543550600225,-1.523675266896383,0.1789424568414688,0.056875258684158325
2570,1734173676,358043909,-0.18529540138987025,0.24981512743073903,1.4064780586413563,-0.7090256578567856,-0.11835070980696777,0.027119336918661915,0.6946511840874032,0,-1,0.0267847441136837,-1.5836647192584437,-0.22438031831850225,-1.522536579762594,0.18305155634880066,0.058144837617874146
2585,1734173676,374347209,-0.1893683607952186,0.24952691982805372,1.4055350280043053,-0.7091107977902396,-0.12098712786685951,0.027725192426302114,0.6940859493266972,0,-1,0.02738320641219616,-1.5839408079730433,-0.22937184969057256,-1.5214932600604456,0.18723292648792267,0.05943838506937027
2602,1734173676,390486001,-0.19347450963482882,0.24923082924943424,1.4045719502660001,-0.70919746539066,-0.12365077126547308,0.02832450300263623,0.6935035431622328,0,-1,0.028005260974168777,-1.5842164198504847,-0.2344000975238245,-1.5204022566424769,0.19134201109409332,0.0607435442507267
2618,1734173676,406043052,-0.19755468539565632,0.2489359851491182,1.403584051981436,-0.7092911170359164,-0.1262780440812691,0.028922759115414268,0.6929094030839116,0,-1,0.028579754754900932,-1.5845044294940394,-0.23936778703798467,-1.51931077638735,0.19541552662849426,0.062049075961112976
2634,1734173676,422214508,-0.2016694401687666,0.24862248884859517,1.4025681327798145,-0.7093822903422229,-0.12894500328524738,0.02951038645567349,0.6922998550973606,0,-1,0.029178593307733536,-1.5847800413714808,-0.24441987672914678,-1.5182321707354944,0.19958454370498657,0.06333063542842865
2649,1734173676,438331842,-0.20575688260558497,0.248316220898115,1.4015327295418023,-0.7094781237445107,-0.13161321816498975,0.030092475308369553,0.6916741976263382,0,-1,0.029812632128596306,-1.5850680510150355,-0.24949580827821904,-1.517200771962301,0.20374193787574768,0.06461220234632492
2666,1734173676,453849792,-0.20987906890588004,0.2479873282271941,1.400471827773397,-0.7095715248235454,-0.13429166196388262,0.030659837364024473,0.6910383311071671,0,-1,0.030423078685998917,-1.5853679815875452,-0.2545359770404261,-1.5161336104022425,0.20780310034751892,0.06591735780239105
2682,1734173676,469957351,-0.21392313687037068,0.2476644460127495,1.3994037154276662,-0.7096693626551118,-0.1369130442078473,0.031230278806027034,0.6903976272555731,0,-1,0.031009556725621223,-1.5856555143939417,-0.2596352736102503,-1.515055004750387,0.21185263991355896,0.06722289323806763
2697,1734173676,485859870,-0.21805983329700213,0.24732837282954662,1.3983017080825422,-0.7097697856152436,-0.13952808642196313,0.03178521474526869,0.6897452172003177,0,-1,0.031595662236213684,-1.5859797636615198,-0.264627758656637,-1.513951603566305,0.2159261554479599,0.06851644068956375
2714,1734173676,502007961,-0.22214557041016553,0.24699801324904208,1.3971779838880876,-0.7098736735751688,-0.14216908448779805,0.032343529322857736,0.689072721192573,0,-1,0.03223007544875145,-1.5862672964679163,-0.2696312109576624,-1.512824837361471,0.21997569501399994,0.06976205110549927
2729,1734173676,518139362,-0.22611622697850225,0.24665256485073472,1.3960655247944636,-0.7099682558255999,-0.14476303752029557,0.032896941619023186,0.6884086939601849,0,-1,0.03279295936226845,-1.586543385182516,-0.27467090288271123,-1.5117581526385706,0.22403723001480103,0.0710672065615654
2745,1734173676,533726692,-0.2302111024762295,0.24631026408032763,1.3948952042235905,-0.7100792766386655,-0.14738548544925567,0.0334387895902177,0.6877112671157409,0,-1,0.03340303152799606,-1.5867589155780237,-0.2797592321978968,-1.5106666723834437,0.22788304090499878,0.07234876602888107
2762,1734173676,549844264,-0.23413274120854366,0.2459709414372257,1.3937414196396387,-0.7101859041705513,-0.14992329138279828,0.033963100387940946,0.6870265613718611,0,-1,0.03394157439470291,-1.5870111624347132,-0.2846792379962366,-1.5096119085894983,0.23212432861328125,0.07360636442899704
2778,1734173676,565922021,-0.23811258059513593,0.24561091914422523,1.3925650399354135,-0.7102933292554883,-0.15254145095056112,0.03457727098231437,0.6863081702037851,0,-1,0.03454003483057022,-1.5872748533831995,-0.2896950880633753,-1.5085085074054163,0.23628173768520355,0.07491189241409302
2793,1734173676,582221269,-0.24206140353792666,0.2452526342148189,1.3913648853411769,-0.7104068802316863,-0.1551269372050718,0.035160082136377904,0.6855811159133682,0,-1,0.035114530473947525,-1.5875385443316858,-0.2946508566485804,-1.5074294249164026,0.2403552532196045,0.0762290358543396
2810,1734173676,597831726,-0.24592060387924616,0.24488612043409042,1.390173295314207,-0.7105214923438816,-0.1576599000199551,0.035800582744628766,0.6848509933688248,0,-1,0.03570100665092468,-1.587790314351217,-0.29948693910707647,-1.5063627401935022,0.24442875385284424,0.07753456383943558
2825,1734173676,613734006,-0.24985947468186837,0.24452143361107248,1.388935514418695,-0.7106467252977773,-0.16021355545754778,0.03640415224145022,0.6840961819589245,0,-1,0.03627550229430199,-1.5880182425128382,-0.30455094972719365,-1.505319897328512,0.2485502064228058,0.07892398536205292
2842,1734173676,629880905,-0.2538287752845522,0.24414239656056974,1.38766265070293,-0.71077091720677,-0.16276833002240304,0.03698455319749653,0.6833325082414465,0,-1,0.036945492029190063,-1.5882819334613245,-0.30967456499208623,-1.5042765776263636,0.25269562005996704,0.08028906583786011
2858,1734173676,646075248,-0.25791597993588894,0.24373940094566796,1.3863374142239309,-0.7108900915324053,-0.1654485800213861,0.03751454864656686,0.6825354963441825,0,-1,0.037508003413677216,-1.5885699431048792,-0.31483346620668584,-1.5031970183001917,0.2567814886569977,0.08161856234073639
2873,1734173676,662251234,-0.26194658241802976,0.24334345345274505,1.3850011945385432,-0.7110135261245195,-0.1680388661723778,0.038031285970867794,0.6817450596893834,0,-1,0.038106463849544525,-1.588773552571432,-0.31994516054262334,-1.5021303335772913,0.26087936758995056,0.08296004682779312
2890,1734173676,677857637,-0.2659464642170583,0.2429281580486123,1.383662340806528,-0.7111352971292715,-0.170659599874257,0.038604091292491906,0.6809343685577209,0,-1,0.03876447305083275,-1.589121166859762,-0.3249009291278284,-1.5011232534991663,0.2650008201599121,0.0842655822634697
2906,1734173676,694346189,-0.2698568339698909,0.24252518234256848,1.382329277549165,-0.7112573905426341,-0.1732521191554628,0.039168337316323756,0.6801194519777382,0,-1,0.039375293999910355,-1.58942157426943,-0.3298447767840784,-1.5000203291522425,0.26907432079315186,0.08554639667272568
2921,1734173676,710134029,-0.2738602659633727,0.24209227904306194,1.3809531668132629,-0.7113798183547451,-0.17584210984506143,0.03972825982372031,0.6792937301449103,0,-1,0.04000971093773842,-1.5897091070758265,-0.3348010222064417,-1.4989293257342737,0.27314820885658264,0.0868399441242218
2937,1734173676,725760936,-0.27771996308070973,0.24167782983410324,1.379582661872139,-0.7115062580114473,-0.17841167730574523,0.040330635215507026,0.6784552734518408,0,-1,0.04059581458568573,-1.589961353932516,-0.3398526350604456,-1.497838322316305,0.27728164196014404,0.08810952305793762
2954,1734173676,741859912,-0.28169115125109706,0.24125544754989234,1.3781577924667248,-0.7116355249068964,-0.1809861833817367,0.04085353800665855,0.6776059839964055,0,-1,0.04118229076266289,-1.5902250448810022,-0.3448565641986292,-1.4966872374164026,0.281343549489975,0.08940307050943375
2970,1734173676,758004903,-0.2855344414269677,0.24083912125580997,1.3767533346948504,-0.7117721744970034,-0.18348246010500066,0.04142614997986793,0.6767558145619952,0,-1,0.041780754923820496,-1.5905125776873987,-0.34988385835756475,-1.4955843130694788,0.2854290306568146,0.09072058647871017
2985,1734173676,774134159,-0.28944785727689754,0.24039037658690343,1.3753065521139254,-0.711897836718279,-0.18604718407604312,0.041991020212177356,0.6758880599587109,0,-1,0.04239082708954811,-1.590752903615133,-0.3549116293536585,-1.49449330965151,0.28950291872024536,0.09198979288339615
3001,1734173676,790284872,-0.2933922504337587,0.23996812004476656,1.3738182932621517,-0.7120361847188967,-0.18861822356431474,0.042448976941779654,0.6750005346271925,0,-1,0.04297767952084541,-1.5910761992083948,-0.35993892351259404,-1.4934266249286097,0.2936491072177887,0.09325937181711197
3018,1734173676,805831670,-0.2973054972762932,0.23950682080716007,1.3723288085149241,-0.712172794238172,-0.19122684061759898,0.04303702989924839,0.6740845797315472,0,-1,0.043623704463243484,-1.5913403669940394,-0.3649066130267542,-1.492359463368551,0.2978065013885498,0.09458886831998825
3034,1734173676,821914196,-0.30117737518254495,0.2390435103036576,1.3708289174834674,-0.7123105526106286,-0.19375890519511899,0.04363180681080511,0.6731771154247256,0,-1,0.04419819638133049,-1.5916402975665491,-0.37004214922060186,-1.491220776234762,0.3018803894519806,0.09593035280704498
3049,1734173676,838082551,-0.3051856137692384,0.23857109969532914,1.3692643384366239,-0.7124434802022642,-0.19638979946772203,0.04411852079242714,0.6722416903952045,0,-1,0.044784676283597946,-1.5919759909259241,-0.37510520616640264,-1.4901416937457483,0.3060021996498108,0.09721191227436066
3065,1734173676,854187488,-0.3090567969250801,0.238120463943739,1.3677068431591775,-0.7125938635389489,-0.19892501081022368,0.044628668284844,0.6713025455693636,0,-1,0.04539512097835541,-1.592180077229635,-0.3801210562335413,-1.4890626112567347,0.3101356327533722,0.09848111867904663
3081,1734173676,869795322,-0.31300932867662923,0.23764301539086924,1.3661073537042234,-0.7127367332622289,-0.20150218120551708,0.04511456011037792,0.6703490855473381,0,-1,0.045957256108522415,-1.5925515333758753,-0.38514835039247686,-1.4879830519305628,0.314209520816803,0.09972672909498215
3098,1734173676,885942935,-0.3168435062445702,0.23717009755441965,1.3645330737437802,-0.7128834757197618,-0.20404328018806855,0.04566587048334401,0.6693863743226355,0,-1,0.04657968878746033,-1.592851463948385,-0.39015180269350225,-1.4869044462787073,0.31834372878074646,0.10103226453065872
3114,1734173676,902088880,-0.32072108654016485,0.23668050901159104,1.3629182092964904,-0.7130205054740757,-0.2066146198627133,0.046147963511815715,0.6684179254749173,0,-1,0.04715455695986748,-1.5931509176837366,-0.3951075712787073,-1.485849682484762,0.32239362597465515,0.10232581198215485
3129,1734173676,917675733,-0.3245577915908968,0.23619956386633395,1.3613000441533236,-0.713172173741142,-0.20915516221745878,0.04666894788741181,0.6674290808933971,0,-1,0.047776613384485245,-1.5934870878802698,-0.4001711050616663,-1.4848302046405237,0.326575368642807,0.10349951684474945
3146,1734173676,933805465,-0.3284038745503884,0.235708996710434,1.3596423487547593,-0.7133155886798012,-0.21172981731878204,0.04715025790343468,0.6664294475667948,0,-1,0.04835110530257225,-1.5937750975238245,-0.405222241078512,-1.4836795965777796,0.3306732475757599,0.10475710779428482
3162,1734173676,949917793,-0.3322583603652662,0.23520150586361982,1.3579600805826297,-0.7134614849871413,-0.21428800224147868,0.04764075557746828,0.66541995757815,0,-1,0.04897353798151016,-1.5940869490252894,-0.410285774861471,-1.4825885931598108,0.3347591161727905,0.1060742512345314
3177,1734173676,966091871,-0.3360931433411283,0.2346926979130984,1.3562723353919748,-0.713613785837388,-0.21680908286204295,0.048153399581184204,0.6644023151375417,0,-1,0.04958361014723778,-1.5943144003497522,-0.41531306902040654,-1.481473747883932,0.3387974202632904,0.10735581070184708
3193,1734173676,982155323,-0.3398828006683288,0.23418474309617382,1.354570875979114,-0.7137726093615432,-0.21929678259887447,0.04866751021307522,0.6633770094875583,0,-1,0.05017046257853508,-1.594626251851217,-0.4202211538897913,-1.4804065863238733,0.3429076373577118,0.10866134613752365
3209,1734173676,997739315,-0.34365172694640567,0.23365824643715843,1.3528637236716066,-0.7139298947250723,-0.2218093982513975,0.04921489816066885,0.6623311785385276,0,-1,0.050804875791072845,-1.5949981848346155,-0.42520076433290654,-1.4793394247638147,0.34701746702194214,0.11003877967596054
3226,1734173677,13885736,-0.34747655975368397,0.23313927828284373,1.3511157925151343,-0.7141051642018538,-0.22427831906550244,0.04974607512200056,0.6612702761105721,0,-1,0.05142693221569061,-1.5952256361590784,-0.4302280584918421,-1.4782488981830042,0.3510913550853729,0.11142782866954803
3242,1734173677,30095577,-0.35126447182154236,0.23262141417944998,1.3493389373894247,-0.7142757912833855,-0.2267680477916672,0.05022493557847145,0.6601998200040561,0,-1,0.05200142413377762,-1.5955618063556116,-0.4353387991534632,-1.4771578947650355,0.35523751378059387,0.11275732517242432
3257,1734173677,46158790,-0.3550926552662288,0.23206372588408242,1.3475316492581184,-0.7144273555250352,-0.2293494256948419,0.05073020674695225,0.6591045749608803,0,-1,0.05267179384827614,-1.595837418233053,-0.4404385725604456,-1.476126495991842,0.3593837022781372,0.11406286060810089
3273,1734173677,62253236,-0.3589180388654253,0.23151879424865568,1.3457048188355456,-0.7145977481210753,-0.2318550316413964,0.051218656469964687,0.6580045227141429,0,-1,0.05325789749622345,-1.5961135069476526,-0.4454415480243128,-1.4750121275531214,0.36343398690223694,0.11536801606416702
3290,1734173677,77896595,-0.36262981980897374,0.23099161782679958,1.3439037729459278,-0.7147715769224556,-0.23430804229816526,0.051698832079162885,0.6569083382785134,0,-1,0.05385635793209076,-1.5964134375201624,-0.45039683977235967,-1.473992649708883,0.3675198554992676,0.1166735514998436
3306,1734173677,93982696,-0.36637768412427363,0.23041500729485342,1.342061906612338,-0.7149336302591085,-0.23685873216289485,0.05222708709474286,0.6557744861584022,0,-1,0.054455194622278214,-1.5967252890216272,-0.45535260835756475,-1.4729016462909144,0.3716900050640106,0.11799068748950958
3322,1734173677,110102415,-0.37004692991136134,0.2298548965881267,1.3402294885177066,-0.7150971974217039,-0.23935298421335963,0.05274322935249923,0.6546482253433927,0,-1,0.05507725104689598,-1.5970009008990687,-0.46034413972963506,-1.4718230406390589,0.37588411569595337,0.1192123293876648
3337,1734173677,126228332,-0.3737317589983417,0.2292973991819927,1.338369272598778,-0.7152620211830152,-0.24183538453029235,0.05323207565028191,0.653515289770818,0,-1,0.05569968372583389,-1.5973127524005335,-0.4653714338885706,-1.4708035627948206,0.37994638085365295,0.12054183334112167
3354,1734173677,141885757,-0.37747161110032834,0.22872350941783354,1.336453557581747,-0.7154380841110334,-0.24433042422742762,0.05368386024768428,0.652356524263601,0,-1,0.0562981441617012,-1.5975764433490198,-0.470374886189596,-1.4697487990008753,0.3840322494506836,0.12187132984399796
3370,1734173677,158021688,-0.3811770876421715,0.22816125288283096,1.3345327114847927,-0.7156127401483278,-0.24680927184672374,0.05415751378220361,0.6511916408929266,0,-1,0.056896232068538666,-1.597828213368551,-0.475473705922262,-1.4686339537249964,0.3881664276123047,0.12316487729549408
3386,1734173677,174026012,-0.3848024238886751,0.2276037713164031,1.332610979969033,-0.7157940990930339,-0.2492430428454464,0.05462847817660376,0.650024955420054,0,-1,0.057459115982055664,-1.5981047789203089,-0.4805248419391077,-1.4675305525409144,0.3922290802001953,0.1244584247469902
3401,1734173677,190243721,-0.3884679082237613,0.22703007410945453,1.3306592020252392,-0.7159761133659776,-0.2516918591109298,0.05508185676213887,0.6488415848281212,0,-1,0.05802125111222267,-1.5984161535846155,-0.4855402151690882,-1.4663556257831019,0.39632731676101685,0.1258234977722168
3418,1734173677,206267118,-0.3921128141177243,0.22644578381639738,1.32869856782859,-0.7161581157412407,-0.2541246329712677,0.05558697693773554,0.6476482935746048,0,-1,0.05863169953227043,-1.5986560026751917,-0.490579907094137,-1.4652650992022913,0.40040159225463867,0.12709307670593262
3434,1734173677,221989393,-0.39572047227201135,0.22587198200925204,1.326721070946215,-0.7163434909473654,-0.25655601234435804,0.05605228546122562,0.6464434675993538,0,-1,0.0592661127448082,-1.5989559332477015,-0.4956310431109827,-1.464210335408346,0.4045717120170593,0.12835067510604858
3450,1734173677,237950325,-0.39937670915571905,0.22526889700814168,1.3247034176305097,-0.7165212036223136,-0.2590158432566356,0.05647904973826046,0.6452273046317462,0,-1,0.059840232133865356,-1.5992196241961878,-0.5006578604327601,-1.463106934224264,0.40863436460494995,0.12968017160892487
3465,1734173677,254201889,-0.40294785763562535,0.22468164906107171,1.3226862306889529,-0.7167115641818481,-0.2614366823631162,0.05694496370064007,0.6439974114793541,0,-1,0.06037914752960205,-1.5994957129107874,-0.5057690779315394,-1.46198016801943,0.4126966595649719,0.1309737265110016
3482,1734173677,270254135,-0.4065531791315028,0.22407933831612747,1.3206372400675714,-0.7169001619312135,-0.26386123826948155,0.05737367302809439,0.6427594156487799,0,-1,0.06096562743186951,-1.5997470060931605,-0.5107844511615198,-1.4609134832965296,0.4168068468570709,0.1322193294763565
3498,1734173677,286011457,-0.41014391927373345,0.22346272067480422,1.3185936853747826,-0.7170738470568158,-0.2663394294750378,0.057843574211424574,0.6415002159754095,0,-1,0.06156371533870697,-1.60002309480776,-0.5157511870013636,-1.459834400807516,0.42096537351608276,0.13347692787647247
3514,1734173677,302030324,-0.4136702814933512,0.22286017095159433,1.3165427545547792,-0.7172660201235167,-0.2687496738873205,0.05832143268848558,0.6402356438459141,0,-1,0.06217416003346443,-1.6002510229693812,-0.5207069555865687,-1.458731476460592,0.42509958148002625,0.13472217321395874
3529,1734173677,318285465,-0.417167449430166,0.22225428195352415,1.3144862359784741,-0.7174494216966181,-0.2711615125097766,0.05878677735486821,0.6389693860028253,0,-1,0.06277262419462204,-1.600562874470846,-0.5256865660296839,-1.4576528708087366,0.42918580770492554,0.13601571321487427
3546,1734173677,334246397,-0.4206988879280867,0.22163569088393212,1.3123711131177214,-0.7176443460920446,-0.2735692566359676,0.05917198776828615,0.6376873295035079,0,-1,0.06334711611270905,-1.600778881703512,-0.5308330694781702,-1.456597630177633,0.43326082825660706,0.13730888068675995
3562,1734173677,350107908,-0.4242990935906868,0.22099714350017727,1.3102077834208692,-0.7178360355981855,-0.2760272198008227,0.05959448149119052,0.6363716663251947,0,-1,0.06399351358413696,-1.6010544935809534,-0.5358603636371058,-1.455494228993551,0.43744295835494995,0.13857845962047577
3577,1734173677,365859985,-0.42779395433853007,0.2203555553487207,1.3080659677028468,-0.7180283964115678,-0.27845680120900435,0.0600308015760315,0.6350538045466863,0,-1,0.06459198147058487,-1.6012943426715296,-0.5409234205829065,-1.4544637838946741,0.44146928191185,0.1398959755897522
3594,1734173677,382117033,-0.4312722555928833,0.21972779047658858,1.3059188422948942,-0.7182406638181198,-0.28077975901781876,0.06048422688980294,0.6337465850492174,0,-1,0.06516610085964203,-1.6016061941729944,-0.5459144751178187,-1.4533970991717737,0.4455319344997406,0.14130936563014984
3609,1734173677,398390054,-0.43477338288536593,0.2190845891372679,1.303761375031108,-0.7184508068705525,-0.2831366530822815,0.0609587035805949,0.6324129270074965,0,-1,0.0658244788646698,-1.601893726979391,-0.5508697668658655,-1.4522936979876917,0.44966647028923035,0.14272238314151764
3626,1734173677,414123296,-0.43825652479706995,0.218416697120206,1.3015678588667827,-0.7186495472947251,-0.2855420079122536,0.0614068819551084,0.6310608407586994,0,-1,0.06641095876693726,-1.6021698156939905,-0.5558846632586878,-1.451202694569723,0.4537770748138428,0.1440039426088333
3641,1734173677,430387020,-0.4417145394165629,0.2177569319749284,1.2993621556200663,-0.7188522964431767,-0.287906393382647,0.06184145340860419,0.6297117746938509,0,-1,0.06700941920280457,-1.602445427571432,-0.5609958807574671,-1.4501240889178675,0.45783933997154236,0.14532145857810974
3658,1734173677,445943355,-0.4452624266033185,0.21709916611128688,1.2970738241546638,-0.7190620252172852,-0.2903168846818134,0.06221244090644785,0.6283275599204006,0,-1,0.06764383614063263,-1.602673355733053,-0.5660703817950647,-1.4490330854998987,0.4619622826576233,0.14662699401378632
3674,1734173677,462095975,-0.4486085636651352,0.216440854535357,1.2948642879595762,-0.7192583107814211,-0.2926694396999075,0.06263898807840125,0.6269676535596657,0,-1,0.06825390458106995,-1.602985684071676,-0.5711219946490687,-1.4478943983661097,0.46603694558143616,0.147908553481102
3689,1734173677,478146076,-0.45210903847257283,0.21574894111985266,1.292576877669719,-0.7194615388851799,-0.29505990212515293,0.06306468041762764,0.6255698156934095,0,-1,0.0688403844833374,-1.603213135396139,-0.5761011282550257,-1.4468749205218714,0.4701235592365265,0.14925004541873932
3706,1734173677,494244575,-0.4554808168174927,0.21509839206688625,1.2903168990525233,-0.7196759545478606,-0.2973965639296026,0.06345740967423336,0.6241754251538008,0,-1,0.06951075047254562,-1.6035731474505823,-0.5810802618609827,-1.445796314870016,0.4742461144924164,0.1504952758550644
3722,1734173677,510456562,-0.45888915345107456,0.21439226461125227,1.2880327187514908,-0.7198591459003241,-0.29978978059550954,0.06386456615726226,0.6227762155892732,0,-1,0.07007288932800293,-1.6038606802569788,-0.586095158253805,-1.4447177092181605,0.47839266061782837,0.15180081129074097
3738,1734173677,525978803,-0.4623261660032073,0.21370799089472614,1.2857025558065993,-0.7200835322829513,-0.30213935204760084,0.0642809216075951,0.6213368503448365,0,-1,0.07068371027708054,-1.6041486899005335,-0.5911100546466272,-1.4436381498919886,0.48245570063591003,0.1531059741973877
3754,1734173677,542104482,-0.46572700538394174,0.21302808873370832,1.2833422939256878,-0.7202965234182211,-0.30451307449772064,0.06462654648723765,0.619893632247261,0,-1,0.07128217071294785,-1.6044004599200647,-0.5962451140033167,-1.442667309437887,0.4865662753582001,0.15433959662914276
3769,1734173677,558148384,-0.4691058507531313,0.21234597359305155,1.2809824299902661,-0.7205081101594698,-0.306859211359152,0.064970403732268,0.6184531786945028,0,-1,0.0718323215842247,-1.604652229939596,-0.6012838522540491,-1.4415767828570765,0.4906529188156128,0.15569306910037994
3786,1734173677,574347972,-0.4725024394883123,0.21165781460778496,1.2785799840301835,-0.7207308273632389,-0.3091927259793038,0.06530267053084633,0.6169947276203648,0,-1,0.07244277000427246,-1.6049521605121058,-0.6062987486468714,-1.440521542225973,0.494751900434494,0.15697462856769562
3802,1734173677,590014219,-0.4757914642389355,0.21097140151421037,1.2762294336134563,-0.720948496941984,-0.31154119717273293,0.06570505471248257,0.6155145757872061,0,-1,0.07302924990653992,-1.6052640120135706,-0.6112778822528284,-1.4394429365741175,0.4989224076271057,0.1582561880350113
3818,1734173677,606175184,-0.47919350040133735,0.2102576467778429,1.273812106898716,-0.7211673545127103,-0.31388329963994555,0.06608380406496964,0.6140259374265729,0,-1,0.07361572235822678,-1.6055877844439905,-0.6162450949298304,-1.4384000937091272,0.5030210018157959,0.15951378643512726
3833,1734173677,622128486,-0.4824383755100967,0.20957475667466857,1.271425290051033,-0.7213928311293972,-0.316142988319003,0.0664730793398865,0.6125580167256951,0,-1,0.07422617077827454,-1.6058877150165003,-0.6212480703936976,-1.4373210112201136,0.507095992565155,0.16081932187080383
3849,1734173677,638425588,-0.4857462542892323,0.2088818250387548,1.268980062628434,-0.7216194415160175,-0.31844135729517864,0.0668141484990379,0.6110616606779252,0,-1,0.07477632164955139,-1.6061638037311,-0.6263950506793421,-1.4362056891070765,0.5112908482551575,0.16214881837368011
3866,1734173677,653881072,-0.4891085578004907,0.20815340520572237,1.2664683667071546,-0.7218427003367944,-0.3208168338617317,0.06714460882300671,0.6095172488022176,0,-1,0.075398750603199,-1.606415096913473,-0.6315296331988733,-1.4350913206683558,0.5153658986091614,0.1634303778409958
3882,1734173677,669924974,-0.49242200645886164,0.20742687552601968,1.2639647320702003,-0.7220606713839135,-0.32312883874694304,0.06748480395735885,0.6079983072719044,0,-1,0.07602118700742722,-1.6067512671100062,-0.6365445295916956,-1.434000317250387,0.5194644927978516,0.16464003920555115
3898,1734173677,686022758,-0.49567519511910124,0.2067109059617302,1.261495730233533,-0.7222813404487949,-0.3254157201298038,0.0678280957173385,0.606476400005188,0,-1,0.07657171040773392,-1.6070626417743128,-0.6414874235736292,-1.432885471974508,0.5235035419464111,0.16592159867286682
3913,1734173677,701720237,-0.4989040259538271,0.20599428000545408,1.2590388456247859,-0.7224937767473004,-0.3276694043166422,0.06817261367874901,0.6049694197068202,0,-1,0.07721810787916183,-1.6073625723468226,-0.6463707129107874,-1.4317825476275843,0.5275785326957703,0.16719043254852295
3930,1734173677,718190908,-0.5021020997041709,0.20524810351620199,1.2565584209622498,-0.7227191103135381,-0.32993611577205084,0.06856120902968729,0.6034224123391899,0,-1,0.07780458778142929,-1.6076987425433558,-0.6513741652118128,-1.4306920210467737,0.5316416025161743,0.16844801604747772
3946,1734173677,733954906,-0.5053488062401046,0.20448739722882064,1.2540205394621826,-0.7229345942994273,-0.33220298452538066,0.06886793899137765,0.6018836734923385,0,-1,0.07841465622186661,-1.6079743544207972,-0.6564729849444788,-1.4295533339129847,0.5356802344322205,0.16978950798511505
3962,1734173677,750046730,-0.5086421181087529,0.20376056780627821,1.251400722541311,-0.7231740965736911,-0.33448586989143153,0.06912679974768925,0.6002998537767944,0,-1,0.07906106114387512,-1.6082504431353968,-0.6615236441241663,-1.4284618536578577,0.5397436618804932,0.17111900448799133
3977,1734173677,766258001,-0.5117901663814168,0.2030136563602704,1.2488554318209604,-0.7234037770461261,-0.3367401863208649,0.06948831453553854,0.5987189627989062,0,-1,0.07967112958431244,-1.6085618177997034,-0.6665986219989222,-1.427347485219137,0.5438666343688965,0.17246049642562866
3993,1734173677,781747817,-0.5149492891844489,0.20223524328617165,1.2462860717693034,-0.7236498169911255,-0.3389758819265525,0.06990154537848274,0.5971097619320306,0,-1,0.0802939310669899,-1.6088860670672815,-0.6715534369098108,-1.4263280073748987,0.5480854511260986,0.17386189103126526
4010,1734173677,797893047,-0.518187782513439,0.20147286775833387,1.2436671729997533,-0.7239008202568722,-0.34123281359833957,0.07026347568975141,0.5954752835669874,0,-1,0.0808923989534378,-1.609173599873678,-0.6765206495868128,-1.4252617994891565,0.5521844029426575,0.1751794070005417
4026,1734173677,814019918,-0.5212773906739581,0.2007348814276771,1.241086171029232,-0.7241381706348043,-0.34344792562394794,0.07058618966029279,0.5938729005801893,0,-1,0.08146651834249496,-1.6094496885882776,-0.6815956274615687,-1.4241703192340296,0.5563433170318604,0.17649692296981812
4041,1734173677,830255508,-0.524474884029967,0.1999427659481957,1.2384139661925646,-0.7243780663395906,-0.34573258193438544,0.07091162804648517,0.592213593058194,0,-1,0.08207695931196213,-1.6097853819476526,-0.6866343657123011,-1.4231036345111292,0.5604782700538635,0.17779047787189484
4058,1734173677,845844745,-0.527552797570957,0.19919516464133763,1.235776485522188,-0.7246149471933016,-0.3479680083436983,0.07119514940142782,0.5905782709980761,0,-1,0.08272336423397064,-1.6100252310382288,-0.6917088667498987,-1.4220007101642054,0.5645772218704224,0.17908327281475067
4074,1734173677,861975193,-0.5306613943546239,0.19841690090799172,1.2331018615002727,-0.7248552680628246,-0.3501958438323776,0.07148464210197333,0.5889292464020212,0,-1,0.0832858681678772,-1.610265080128805,-0.6967957655536097,-1.4209578672992151,0.5686286687850952,0.18038880825042725
4089,1734173677,878126621,-0.5337190460976251,0.19763756741674432,1.2304416336157322,-0.7250851734631207,-0.3524099249832713,0.07178870732622965,0.5872862313196778,0,-1,0.0838843360543251,-1.610612694417135,-0.7017992178546351,-1.4198067823993128,0.5727635622024536,0.1816224306821823
4106,1734173677,894122123,-0.5367780908787189,0.19689021293943304,1.2277630756402185,-0.72533120694999,-0.35459135062903774,0.07206572256842232,0.5856331154521888,0,-1,0.08449440449476242,-1.6108887831317347,-0.7067659536944788,-1.4187524954425257,0.5765873193740845,0.18298788368701935
4121,1734173677,910351514,-0.5398105833998533,0.196137618304332,1.2250887700230781,-0.725585910202369,-0.35672341503584365,0.07234911220785444,0.5839855289677135,0,-1,0.08506889641284943,-1.6111882368670862,-0.7117088476764124,-1.417661492024557,0.580746591091156,0.18424548208713531
4138,1734173677,926072597,-0.5427965591458743,0.19534692958578975,1.2224109186072418,-0.7258262065794076,-0.3588652086051365,0.0726555301261511,0.5823343144941975,0,-1,0.08569133281707764,-1.6114404837237757,-0.716771427785055,-1.4165943304644983,0.5848215818405151,0.18553902208805084
4153,1734173677,942264080,-0.5458332664590132,0.1945665052452228,1.219646668418802,-0.726076032862955,-0.3610758874741493,0.07290341723602488,0.5806228463831395,0,-1,0.08626582473516464,-1.611704174672262,-0.7218344847308558,-1.4155033270465296,0.5889688730239868,0.18680860102176666
4170,1734173677,958104610,-0.5487835230206727,0.19378027173388102,1.2169224605853592,-0.726324583511205,-0.363262119966091,0.07321117642365435,0.5789070350511216,0,-1,0.0868523046374321,-1.6119683424579065,-0.7269094626056116,-1.4143889586078089,0.59310382604599,0.1881740540266037
4185,1734173677,973851442,-0.5517428847712498,0.1929830022371741,1.2141546575100572,-0.7265762428269238,-0.3654342028470315,0.07351200269266882,0.5771834995988526,0,-1,0.0874028280377388,-1.6121962706195276,-0.7319119612323206,-1.4133456389056605,0.5971675515174866,0.18943165242671967
4202,1734173677,990094184,-0.5546297743051881,0.19220341503844102,1.2114516695991058,-0.7268253025814502,-0.3675716413881823,0.07379032744937501,0.5754746350183431,0,-1,0.08808480203151703,-1.6125319639789026,-0.7368434111224573,-1.41227895418276,0.6013504266738892,0.19074879586696625
4217,1734173678,5787849,-0.5575278435060885,0.19142194135560398,1.2087236597437157,-0.7270802180376418,-0.3696905602203992,0.07410164352494812,0.5737527277923516,0,-1,0.08865967392921448,-1.612795654927389,-0.7417262236224573,-1.411224667225973,0.6054374575614929,0.19204233586788177
4233,1734173678,22197723,-0.560478735842218,0.19061726674506596,1.2059186714838521,-0.7273313722160122,-0.3718566485297237,0.07436651322903143,0.5719976657686378,0,-1,0.08929333835840225,-1.6130474249469202,-0.7468131224261683,-1.4101336638080042,0.6095851063728333,0.1933119148015976
4250,1734173678,37867307,-0.5634038369094345,0.18979211724440004,1.2030597970129817,-0.7275803417650104,-0.3740516777770717,0.074586757045226,0.5702183829926432,0,-1,0.0898682102560997,-1.6133230368243616,-0.7519596258746546,-1.4090784231769007,0.6136001944541931,0.19459348917007446
4265,1734173678,54140090,-0.5663034799442561,0.18897385948093545,1.2002023658153993,-0.7278238999077333,-0.376210036001654,0.07479711322056376,0.5684573610998475,0,-1,0.09047865122556686,-1.613563362752096,-0.7571061293231409,-1.4080718199359339,0.617699921131134,0.19583909213542938
4281,1734173678,69838523,-0.5692029035481927,0.18816871017538545,1.197311468167645,-0.7280721585517337,-0.3783843210025754,0.0749740600787509,0.5666702108603794,0,-1,0.09111269563436508,-1.6138628164874476,-0.7621687094317835,-1.4069808165179651,0.6218352317810059,0.19709669053554535
4298,1734173678,86094141,-0.5720694040921309,0.1873654900123434,1.194471143573574,-0.7283301925392568,-0.3805131477711735,0.07522265933842129,0.564877355300297,0,-1,0.09168718755245209,-1.6141145865069788,-0.7671836058246058,-1.4059136549579065,0.6259705424308777,0.19840222597122192
4313,1734173678,101792573,-0.5749127496972376,0.18653679759223588,1.1916201401934088,-0.7285807596816194,-0.3826170011898633,0.07547420054007165,0.5630967519663629,0,-1,0.09228602796792984,-1.6144269148456019,-0.7721264998065394,-1.404835049306051,0.6299740076065063,0.19964782893657684
4330,1734173678,118019104,-0.5777410346530374,0.18569538776054273,1.1887564956981538,-0.7288472901453421,-0.384704673466634,0.07575808881545475,0.5612883874086044,0,-1,0.09294403344392776,-1.6147025267230433,-0.7771294752704065,-1.4036720434771937,0.634121298789978,0.20097732543945312
4345,1734173678,133735656,-0.5805134558430411,0.18487046908371246,1.1858718130314738,-0.7291068921071162,-0.3867774019993122,0.07600791809661069,0.5594901049805828,0,-1,0.09353051334619522,-1.6149423758136194,-0.782180134450094,-1.4026292006122034,0.6382689476013184,0.2023307979106903
4362,1734173678,150036573,-0.5832847884503968,0.18404248783369165,1.1829679682863032,-0.7293723514682641,-0.3888790937015593,0.07626166382172439,0.5576496947247898,0,-1,0.09409264475107193,-1.6152060667621058,-0.7872431913958948,-1.4015143553363245,0.6424042582511902,0.2036958783864975
4377,1734173678,165747165,-0.5860751851699812,0.18320816358296557,1.1800181568804105,-0.7296581191218601,-0.3909063026143443,0.07650032106085175,0.555822806884999,0,-1,0.09471507370471954,-1.6154215971576136,-0.7923415342914026,-1.4003875891314905,0.6464077830314636,0.20506133139133453
4394,1734173678,182027578,-0.588778710687421,0.18239625183415703,1.1771203061672997,-0.7299355908052471,-0.39293745721478635,0.0767264698602423,0.5539920909328565,0,-1,0.09531354159116745,-1.6157458464251917,-0.7972968260394495,-1.3993333021747034,0.650519073009491,0.20642641186714172
4409,1734173678,198326349,-0.5914929683032327,0.1815813612267655,1.1742013184021498,-0.7302110218266925,-0.3949896083287709,0.07696548401303464,0.5521334867454979,0,-1,0.095876045525074,-1.6160333792315882,-0.8021801153766077,-1.3982060591327112,0.6546308398246765,0.2076839953660965
4426,1734173678,213959932,-0.5941932932509856,0.18073035099167709,1.171282518753502,-0.7304700667126323,-0.3970037718430007,0.07719654829896334,0.5503109845441931,0,-1,0.09643855690956116,-1.616333309804098,-0.8072064558612269,-1.3970916906939905,0.658706545829773,0.20898953080177307
4442,1734173678,230715990,-0.5968897940666599,0.17990685442714638,1.1683025799737912,-0.7307440875328387,-0.39902843937766397,0.0773853470659844,0.548453180465846,0,-1,0.09708495438098907,-1.6165850798236292,-0.8122695128070276,-1.3960488478290003,0.6627224087715149,0.2103070467710495
4458,1734173678,246182918,-0.5996248071678908,0.1790622462165723,1.1652766569587247,-0.7310178458866926,-0.4010728557603171,0.07753817977878708,0.5465723227936413,0,-1,0.09765945374965668,-1.616873566304342,-0.8173201719867151,-1.3949697653399866,0.6667978167533875,0.21163617074489594
4473,1734173678,261834144,-0.6022366455005429,0.17823537938786463,1.1623055170444057,-0.7312925867872583,-0.40310002081894475,0.07772870052180836,0.5446831875879389,0,-1,0.09823394566774368,-1.6171372572528284,-0.8223708311664026,-1.3939269224749964,0.6709574460983276,0.2128937691450119
4490,1734173678,278080463,-0.6049440627037846,0.17737045668586385,1.1592480823202649,-0.7315538336021608,-0.40519240563277464,0.07789315703370822,0.5427529447610845,0,-1,0.09883203357458115,-1.617448631917135,-0.8274100462542933,-1.3928597609149378,0.6750687956809998,0.21417532861232758
4505,1734173678,294375181,-0.6075743659152093,0.1765349273983827,1.1562458277397414,-0.7318401270088349,-0.40717900655834566,0.07807951054275,0.5408501411216008,0,-1,0.09938255697488785,-1.6177604834186,-0.8323171774493616,-1.3918288389789026,0.6791805028915405,0.2155168205499649
4522,1734173678,310096025,-0.6101939936146434,0.17567191691491182,1.153234103643921,-0.7321082034964089,-0.4091934373243433,0.0782870626687732,0.5389336184008612,0,-1,0.10000498592853546,-1.6180723349200647,-0.8372481505023401,-1.390714470540182,0.6833041906356812,0.21673846244812012
4537,1734173678,326393127,-0.612768286632874,0.1748011459582898,1.150233566027245,-0.7323694597856203,-0.41120003893219165,0.07851376564823637,0.537014982062155,0,-1,0.10065139085054398,-1.6183484236346644,-0.8422625700580042,-1.389587704335348,0.6874278783798218,0.21807993948459625
4554,1734173678,342101335,-0.6153767242766064,0.17393461306164704,1.147132914968126,-0.7326471353271579,-0.4132014136422009,0.07864794049458672,0.5350768807535569,0,-1,0.10127381980419159,-1.618647877370016,-0.8473375479327601,-1.3884967009173792,0.6915276050567627,0.21940943598747253
4569,1734173678,357872486,-0.6179781060009979,0.17308382552847124,1.144006274048427,-0.7329291852461478,-0.41520312211355825,0.07876820589466046,0.5331198238123471,0,-1,0.10187190771102905,-1.618887726460592,-0.8524716536151331,-1.3874056974994105,0.695591390132904,0.22065505385398865
4586,1734173678,374105453,-0.6205495373531642,0.17222565588782313,1.140878335568569,-0.7332165355950948,-0.4171717517075062,0.0789100562519949,0.5311632936579154,0,-1,0.10249433666467667,-1.619223419819967,-0.8574989477740687,-1.3863509337054651,0.699691116809845,0.22197219729423523
4601,1734173678,389882087,-0.6231278477023677,0.17131005325279852,1.1377868728870422,-0.7334728754054753,-0.41919939635818393,0.07905288606328681,0.529188102986474,0,-1,0.10305684804916382,-1.6195476690875452,-0.8624179998980921,-1.3852604071246546,0.703778862953186,0.2232537567615509
4618,1734173678,406163692,-0.6256452304826482,0.17045896484475953,1.1346960104861001,-0.7337575752171208,-0.4211177668661364,0.07919728071578659,0.5272451402985092,0,-1,0.10369126498699188,-1.6198833624469202,-0.8674090544330042,-1.384181324635641,0.7078310251235962,0.22453531622886658
4634,1734173678,421916484,-0.6281685998324781,0.16956710435879546,1.131573130244375,-0.7340206067999416,-0.4230742154518194,0.07932231234915912,0.5252903271301075,0,-1,0.1043136939406395,-1.620195213948385,-0.8724234739886683,-1.383054558430807,0.7119303941726685,0.22579291462898254
4650,1734173678,438168048,-0.6306814180949487,0.16868651576017485,1.1284080065984392,-0.7343029262495553,-0.425047173968746,0.07945141051743822,0.5232796439470125,0,-1,0.10489979386329651,-1.62050706544985,-0.8775222937213343,-1.381939713154928,0.7160061597824097,0.2270505130290985
4666,1734173678,454052209,-0.6331663980280267,0.16781538974890559,1.1251880107504282,-0.7345733881444166,-0.4270398015535769,0.0795104942200293,0.5212648334848615,0,-1,0.10548627376556396,-1.6207707563983362,-0.8825967947589319,-1.3809331099139612,0.7201541662216187,0.22830811142921448
4682,1734173678,470191717,-0.6356440867227172,0.16691844561632296,1.1219998143732492,-0.7348490848310018,-0.4289995884052814,0.0796127799943882,0.5192475141324256,0,-1,0.10613267123699188,-1.621082607899801,-0.8876836935626429,-1.379902187977926,0.7242299318313599,0.22959004342556
4698,1734173678,486065626,-0.6380470256462439,0.16606388784800785,1.1188465916382462,-0.7351374661745426,-0.4309099438036878,0.07970541165886187,0.5172393773775033,0,-1,0.10668320208787918,-1.6213939825641077,-0.8925669828998011,-1.378775421773092,0.7283660173416138,0.23085962235927582
4714,1734173678,502282381,-0.6404491270315801,0.16517868666890645,1.1156909275505795,-0.7354119721477014,-0.4328415823689665,0.07983825553491541,0.5152118484150954,0,-1,0.1073056310415268,-1.6216700712787073,-0.8974974791156214,-1.3777087370501917,0.732465386390686,0.23211722075939178
4730,1734173678,518004179,-0.6428604377481515,0.16428091629426855,1.1125280381322242,-0.7357029168274398,-0.4347383632301014,0.07999047543472504,0.5131718012004713,0,-1,0.10785578191280365,-1.6219938437091272,-0.9025247732745569,-1.3766182104693812,0.7366014122962952,0.23348228633403778
4746,1734173678,534221887,-0.6451860789053577,0.16340877483579885,1.1093316690281996,-0.7360065526348288,-0.43658913296835455,0.08010530502861783,0.5111432515047103,0,-1,0.10851415991783142,-1.6222460905658167,-0.9076111952411097,-1.375587288533346,0.7406532168388367,0.23481179773807526
4762,1734173678,549931049,-0.6475567994350487,0.16252460294217,1.106064689141541,-0.7363110868208529,-0.43848216386276834,0.08017507749885179,0.5090690840612618,0,-1,0.10904109477996826,-1.6224616209613245,-0.9126504103290003,-1.3744843641864222,0.7448012232780457,0.2362491488456726
4778,1734173678,566174268,-0.6498083815885226,0.16166138779965167,1.1028808177189138,-0.7366227351381845,-0.4403106454443824,0.08033528969263051,0.5070105746588451,0,-1,0.10966315120458603,-1.6227615515338343,-0.9177606741534632,-1.3733575979815882,0.7488774061203003,0.23754270374774933
4794,1734173678,581891775,-0.652152628659564,0.16072845575042954,1.0996164285109533,-0.7369016663017596,-0.4422089251936326,0.08041595521954746,0.5049361096484489,0,-1,0.11023764312267303,-1.623061482106344,-0.9226315657245081,-1.372314755116598,0.7530254125595093,0.23886021971702576
4809,1734173678,598177909,-0.6544432916296947,0.15985191947202293,1.0963993469309299,-0.7371928958199401,-0.44404602860824227,0.08049437229820715,0.5028821083098668,0,-1,0.1108480915427208,-1.6233370939837855,-0.9276350180255335,-1.371199909840719,0.7570652365684509,0.24016574025154114
4826,1734173678,613915681,-0.6567168452076175,0.15897985010649335,1.0931342142725868,-0.7374938729244988,-0.4458735840582932,0.08056834689547085,0.5008076236603896,0,-1,0.11143457144498825,-1.6236251036273401,-0.9326975981341761,-1.370049778615133,0.7611536979675293,0.24139900505542755
4841,1734173678,630155801,-0.6589773776234634,0.15805662839785958,1.0898666688001613,-0.7377750152513392,-0.44774024941972124,0.08065541609956846,0.4987097349904628,0,-1,0.11205700039863586,-1.6239007155047815,-0.9377840201007288,-1.3689826170550745,0.7653253674507141,0.24271652102470398
4858,1734173678,645831108,-0.6611887725219923,0.15715751242972317,1.0865799742607414,-0.7380765031992891,-0.44957895375918916,0.08072966746130633,0.4965929525813769,0,-1,0.11267905682325363,-1.624152962361471,-0.9429190794574183,-1.3679035345660608,0.7694377899169922,0.24399808049201965
4874,1734173678,661920547,-0.6634126897958279,0.1562332723398904,1.0832518574345709,-0.7383512091454334,-0.45144737854519584,0.08076174785107759,0.49447982410022157,0,-1,0.11325354874134064,-1.6244285742389124,-0.9480298201190394,-1.3668492476092737,0.7735375761985779,0.24532757699489594
4890,1734173678,678202152,-0.665610849523527,0.1553302717563859,1.079935840393983,-0.7386483406241934,-0.45327447346349864,0.08079847528039691,0.49235402607460893,0,-1,0.11388759315013885,-1.6247161070453089,-0.9529722372638147,-1.3657706419574183,0.7776616215705872,0.2466331124305725
4906,1734173678,693931818,-0.6678209425700001,0.15441379265547467,1.0766087503450332,-0.7389547165593604,-0.45507909228472276,0.08085263270795266,0.4902160732005643,0,-1,0.11451002210378647,-1.6249802748309534,-0.957855526600973,-1.3647154013263147,0.7817856669425964,0.24792665243148804
4922,1734173678,710211753,-0.6698886760892595,0.1535023232829615,1.07342616012329,-0.7392499569855134,-0.4568175965727311,0.08100291049083595,0.4881246900643765,0,-1,0.11514443904161453,-1.6252921263324183,-0.9628108183490198,-1.3635886351214808,0.7858258485794067,0.24929173290729523
4938,1734173678,725909709,-0.6720029996715434,0.15260268838217408,1.0701054107194792,-0.7395527476548399,-0.458573522743635,0.08103528986123429,0.4860096084150759,0,-1,0.11573091149330139,-1.6255081335650843,-0.967933479939596,-1.3625219503985804,0.7899263501167297,0.25063320994377136
4954,1734173678,742527008,-0.674122688664946,0.15165673749804867,1.066725662851645,-0.7398474964583113,-0.4604166985634754,0.08106113445226992,0.48380909266940186,0,-1,0.11634135991334915,-1.6257718245135706,-0.9729960600482386,-1.3614791075335901,0.7941103577613831,0.2519267797470093
4970,1734173678,758039236,-0.676242768681708,0.15075419115791241,1.0633091824485572,-0.7401592469520627,-0.4622177323731981,0.08107346422391741,0.4816078803652067,0,-1,0.11692746728658676,-1.6259873549090784,-0.9781187216388147,-1.3604243437396448,0.798234760761261,0.2531963586807251
4985,1734173678,774187326,-0.6782617449432684,0.14985472337254327,1.059988676590556,-0.7404528162158686,-0.46395594428029885,0.08109172586513723,0.47947746633306837,0,-1,0.11754989624023438,-1.6262396017657679,-0.9831216971026819,-1.3593457380877894,0.8023465275764465,0.2545258402824402
5002,1734173678,789923667,-0.6802942879203813,0.14891697783490213,1.056703103064192,-0.740740710741509,-0.46571936449827556,0.08117175477796751,0.4773047445896089,0,-1,0.11817269772291183,-1.6265152136432093,-0.9879806677447718,-1.3582428137408655,0.8064349889755249,0.25580739974975586
5018,1734173678,806137800,-0.6823098454549434,0.14798841612306501,1.053381436237204,-0.7410364503956515,-0.46744015263651206,0.08125661446158121,0.47514423651603893,0,-1,0.1188187226653099,-1.6268037001239222,-0.9929240385638636,-1.3571160475360315,0.810559093952179,0.25711295008659363
5034,1734173678,821834802,-0.6843384211034333,0.14707116111838092,1.0500148319658251,-0.7413313317031093,-0.4691855955657999,0.08126604363852012,0.47295725356548074,0,-1,0.11939322203397751,-1.6270912329303187,-0.9979746977435511,-1.3560259977923792,0.8146839141845703,0.25832220911979675
5049,1734173678,838101863,-0.6863386768554015,0.14614819856422753,1.0465756447330186,-0.7416128161874782,-0.47095199820175887,0.08122320107236046,0.4707626130692698,0,-1,0.12003923952579498,-1.6273906866656702,-1.0032056013690394,-1.3549345175372522,0.8187360763549805,0.25961577892303467
5065,1734173678,853946924,-0.6883245971957089,0.14522924048865798,1.043108714921522,-0.7419107276852307,-0.47271312699204954,0.08116448250311054,0.46853292146333997,0,-1,0.12055419385433197,-1.6276186148272913,-1.0082204977618616,-1.353879753743307,0.8228724598884583,0.2608737349510193
5081,1734173678,870108366,-0.6902847310193967,0.14430969558708218,1.0396928649709338,-0.7422187537739587,-0.4744128818169812,0.08116855210312268,0.4663211396257103,0,-1,0.12111669778823853,-1.627918545399801,-1.0132468382464808,-1.3527773062335413,0.8269126415252686,0.2621912658214569
5097,1734173678,886002540,-0.6922279774103032,0.14340896463260275,1.0362968088285116,-0.7425229805578285,-0.4760885222857976,0.08114484710341288,0.4641280600004785,0,-1,0.12175074219703674,-1.628230396901266,-1.018214527760641,-1.3516748587237757,0.8310247659683228,0.26348480582237244
5113,1734173678,902134895,-0.6941753973899025,0.14254007505603322,1.0328538857044833,-0.742856082332644,-0.4777483658397258,0.08110535082836386,0.46189096326500634,0,-1,0.12232523411512375,-1.6285298506366175,-1.0231450239764612,-1.3506320158587855,0.8351256251335144,0.2648142874240875
5130,1734173678,917896747,-0.6960462840565935,0.1416050897574358,1.029483155670703,-0.7431622877258381,-0.47940549932229687,0.08113397378266292,0.4596710341318797,0,-1,0.12289935350418091,-1.6287816206561487,-1.0282195250140589,-1.3494694868670862,0.839225709438324,0.26619136333465576
5146,1734173678,933838129,-0.6978997281161251,0.14070228333997628,1.0260211180572116,-0.7434907745079594,-0.4810526121124353,0.08109372219305146,0.4574206606857999,0,-1,0.12349818646907806,-1.6290939489947718,-1.0332706610309046,-1.348450009022848,0.8433741331100464,0.26754483580589294
5162,1734173678,950046062,-0.6998137572584848,0.13978957779374646,1.0224637629849314,-0.7438126758912428,-0.4827314726567589,0.08098270605529292,0.4551426477601366,0,-1,0.12409665435552597,-1.6293094793902796,-1.0383933226214808,-1.347419563923971,0.8474506139755249,0.2688983082771301
5177,1734173678,965833187,-0.7016409738586471,0.13884614422040994,1.0189860908164754,-0.7441241811113606,-0.4843755420056178,0.08092699459849269,0.45289111156807516,0,-1,0.12467077374458313,-1.6295855681048792,-1.043515984212057,-1.3463171164142054,0.851539134979248,0.2701559066772461
5194,1734173678,982131958,-0.7035160056458333,0.1379371585986253,1.015466707647179,-0.7444297803349949,-0.48605343588629035,0.08082225715018954,0.4506041748171799,0,-1,0.12524564564228058,-1.629897419606344,-1.0484355131732386,-1.3453219572650355,0.8556755781173706,0.2714494466781616
5209,1734173678,997834920,-0.7052866842443357,0.13702673420174905,1.012026759206466,-0.7447527543024239,-0.48767308515339913,0.08080501996687048,0.4483177954577227,0,-1,0.1258077770471573,-1.6302092711078089,-1.0533669630633753,-1.3442190329181116,0.8597880005836487,0.27269506454467773
5226,1734173679,14110565,-0.7070711929738688,0.1361085140012157,1.0085870529405276,-0.7450542509053787,-0.4892955116186751,0.0807514196627876,0.44605299431803885,0,-1,0.1264541745185852,-1.6304729620562952,-1.0583694616900843,-1.3431647459613245,0.8638765215873718,0.2740122079849243
5241,1734173679,29830694,-0.7088484706110123,0.13516456222285742,1.0050734020595382,-0.745359282538885,-0.49091212114015015,0.08068077968380924,0.44377408784246264,0,-1,0.12705226242542267,-1.6307604948626917,-1.0634081999408167,-1.3420379797564905,0.8679290413856506,0.27530574798583984
5258,1734173679,46115636,-0.7106097520368,0.13420965657573916,1.0015089749418606,-0.7456575626233866,-0.49255677622751587,0.08057437876957474,0.4414639180961499,0,-1,0.12765109539031982,-1.6310365835772913,-1.0684950987445276,-1.3409951368915003,0.8721377849578857,0.27658766508102417
5274,1734173679,61840534,-0.7123476446405613,0.1332864131052142,0.9979770071584371,-0.7459677450092937,-0.494168507287413,0.08046988631363822,0.43915169043025387,0,-1,0.12827353179454803,-1.6313241163836878,-1.0735819975482386,-1.3399041334735315,0.8762022852897644,0.2778812348842621
5290,1734173679,78149557,-0.7140487852919476,0.13235694923523422,0.9944524365104077,-0.7462807696844703,-0.49575285919777196,0.08039103655757511,0.43684253071053786,0,-1,0.1288955807685852,-1.6317084471331995,-1.078585449849264,-1.338801685963766,0.8802911639213562,0.2791987359523773
5306,1734173679,93849658,-0.715809311489692,0.13139220713773464,0.9908165720919186,-0.74658395287419,-0.4973770243080538,0.08024528086986933,0.4344987823910794,0,-1,0.12956595420837402,-1.6320317427264612,-1.0836241880999964,-1.3377230803119105,0.8844395875930786,0.28046831488609314
5322,1734173679,110114097,-0.7174763889483747,0.1304487758852716,0.9873571427393668,-0.746891550208337,-0.49893501636458626,0.08021679920123244,0.4321829783767132,0,-1,0.13011610507965088,-1.6323440710650843,-1.0885675589190882,-1.3365963141070765,0.8885763883590698,0.28176185488700867
5337,1734173679,125825643,-0.71915291006196,0.1294998050936314,0.9837569367310397,-0.7472030064086516,-0.5005022309000416,0.08008040712465155,0.42985150048906884,0,-1,0.13072654604911804,-1.6326077620135706,-1.093677822743551,-1.3354938665973108,0.8926408886909485,0.2830910086631775
5354,1734173679,142124652,-0.720797872163182,0.12856320151853992,0.9801852563137603,-0.7475133046819169,-0.502077122011095,0.07995133659523762,0.4274929316997073,0,-1,0.13136133551597595,-1.6329196135150355,-1.0988009611712855,-1.3344510237323206,0.8966814279556274,0.28432461619377136
5369,1734173679,157879114,-0.7224481054837897,0.12758030046648516,0.9765260637052481,-0.7477953565192557,-0.5036747079090844,0.07976304242020031,0.42514909201927187,0,-1,0.13195942342281342,-1.6331952253924769,-1.1039236227618616,-1.3333843390094202,0.9007463455200195,0.2856661081314087
5386,1734173679,174077510,-0.7240156359485683,0.12667656530475974,0.972969186280988,-0.7481256586494347,-0.5051778696559129,0.0796299265183413,0.42280301995485614,0,-1,0.13258185982704163,-1.6335189978228968,-1.1089146772967737,-1.33234149614443,0.9048588275909424,0.28692370653152466
