yildirimyigit/pemp/data/ur10/raw/19_2024-12-14_13-55-59.csv
Time,ROS secs,ROS nsecs,________p_x________,________p_y________,________p_z________,________q_x________,________q_y________,________q_z________,________q_w________,gripper_position,gripper_force,shoulder_pan_joint,shoulder_lift_joint,elbow_joint,wrist_1_joint,wrist_2_joint,wrist_3_joint
0,1734173759,242194890,-7.28801522931613e-06,0.25614100446232824,1.427299998747097,-0.7071067780116131,6.776862835365328e-05,-4.2026717955611995e-05,0.7071067798651086,0,-1,-0.00014335313905888825,-1.570808235798971,-3.5587941304981996e-05,-1.5707719961749476,0.0,4.793690095539205e-05
14,1734173759,258359193,3.2037107675744845e-05,0.25614099834953546,1.4272999999087845,-0.7071067771372884,7.632182656672776e-05,-2.499939278638618e-05,0.7071067806749745,0,-1,-0.00013143221010381012,-1.570796314870016,1.1920928955078125e-05,-1.5707476774798792,-1.1746083394825746e-05,5.992112710373476e-05
30,1734173759,274445772,4.884605409025938e-05,0.256140996473863,1.4272999996665898,-0.7071067763942931,8.464994036860065e-05,6.035124883417591e-07,0.7071067809116913,0,-1,-0.00014335313905888825,-1.570808235798971,-4.7985707418263246e-05,-1.5707600752459925,-2.366701234990387e-05,7.190534961409867e-05
46,1734173759,289942502,1.1159756105767822e-05,0.25614100049045146,1.4272999995060074,-0.7071067788664077,5.9316879114051737e-05,5.24440197349403e-07,0.7071067810185431,0,-1,-0.00013143221010381012,-1.570820156727926,-2.366701234990387e-05,-1.570796314870016,-3.5587941304981996e-05,7.190534961409867e-05
62,1734173759,306242227,1.9507205303907102e-05,0.25614099945736674,1.4272999997835878,-0.7071067761991143,8.471175759201341e-05,-3.3389323855214735e-05,0.7071067803114087,0,-1,-0.00013143221010381012,-1.570796314870016,-3.5587941304981996e-05,-1.570820156727926,-1.1746083394825746e-05,8.388957940042019e-05
78,1734173759,322844982,-2.976344036970684e-05,0.2561410056033732,1.427299998223356,-0.707106778936954,5.080331384775169e-05,-5.043902828763802e-05,0.7071067798121676,0,-1,-0.00015527406801396637,-1.570796314870016,-1.1746083394825746e-05,-1.5707600752459925,-1.1746083394825746e-05,4.793690095539205e-05
94,1734173759,338405132,4.860817771937411e-06,0.25614100181638044,1.4272999992809456,-0.7071067784070062,6.35091856458977e-05,-2.9427421294472024e-05,0.7071067805016971,0,-1,-0.00013143221010381012,-1.570808235798971,-1.1746083394825746e-05,-1.5707600752459925,-4.7985707418263246e-05,4.793690095539205e-05
110,1734173759,354635477,-9.97393517143659e-06,0.2561410054842399,1.4272999983492356,-0.7071067778246202,6.766205321649262e-05,-5.886839795949026e-05,0.7071067788607612,0,-1,-0.00014335313905888825,-1.570808235798971,-2.366701234990387e-05,-1.5707476774798792,-1.1746083394825746e-05,7.190534961409867e-05
126,1734173759,370444297,-9.449903174020257e-06,0.25614100473962764,1.4272999984717758,-0.7071067771607598,7.185435908723898e-05,-6.310546174511141e-05,0.7071067787455975,0,-1,-0.000119511281148732,-1.570820156727926,-3.5587941304981996e-05,-1.5707600752459925,-1.1746083394825746e-05,7.190534961409867e-05
142,1734173759,386139154,5.697304718301031e-05,0.256140994239014,1.4272999997820637,-0.7071067729878412,0.00011019083411357315,-3.319835622504177e-05,0.707106780020225,0,-1,-0.00013143221010381012,-1.5707724730121058,-2.366701234990387e-05,-1.5707719961749476,-4.7985707418263246e-05,5.992112710373476e-05
157,1734173759,402597427,3.502921602957989e-05,0.2561409978273986,1.427299999819791,-0.7071067753298711,9.314112724914756e-05,-2.495995415404812e-05,0.7071067804683548,0,-1,-0.00013143221010381012,-1.5707839171039026,-7.18275653284195e-05,-1.5707719961749476,-3.5587941304981996e-05,8.388957940042019e-05
174,1734173759,418263912,-1.0459391424835166e-05,0.25614100382358895,1.4272999984369963,-0.7071067782628546,6.346974604145345e-05,-3.7772596098989665e-05,0.7071067802528473,0,-1,-0.00013143221010381012,-1.5707839171039026,-4.7985707418263246e-05,-1.5707600752459925,-5.990663637334137e-05,4.793690095539205e-05
190,1734173759,433990716,5.8882052831974916e-05,0.25614099416201064,1.4272999994692612,-0.7071067757755397,8.890406477092128e-05,-3.7626386346821866e-05,0.707106780007548,0,-1,-0.0001671949969690445,-1.5707839171039026,-5.990663637334137e-05,-1.570808235798971,-3.5587941304981996e-05,4.793690095539205e-05
206,1734173759,450280666,1.1630149631687265e-05,0.2561410026886996,1.4272999988862833,-0.7071067765511878,8.030610770554117e-05,-6.30830827935761e-05,0.7071067784478114,0,-1,-0.0001671949969690445,-1.5707839171039026,-7.18275653284195e-05,-1.5707719961749476,1.1984225238848012e-05,4.793690095539205e-05
222,1734173759,466583728,5.70898829791177e-06,0.25614100241840876,1.4272999994287543,-0.7071067755704128,8.894882262256619e-05,-3.7581628480685956e-05,0.7071067802094263,0,-1,-0.000119511281148732,-1.5707839171039026,-7.18275653284195e-05,-1.5707719961749476,-2.366701234990387e-05,9.58738019107841e-05
238,1734173759,482202053,1.9916565767525016e-05,0.25614099983120975,1.4272999997922087,-0.7071067775398233,7.206770310928539e-05,-2.917463901032998e-05,0.7071067805588724,0,-1,-0.00013143221010381012,-1.570820156727926,-3.5587941304981996e-05,-1.5707719961749476,-3.5587941304981996e-05,2.3968450477696024e-05
254,1734173759,498481512,1.892095369793884e-05,0.2561410003669331,1.4272999996048024,-0.7071067769529745,7.626001027055642e-05,-5.027044088847045e-05,0.7071067795209363,0,-1,-0.00013143221010381012,-1.570796314870016,2.384185791015625e-05,-1.5707719961749476,0.0,8.388957940042019e-05
270,1734173759,514256715,1.4000208778433647e-05,0.25614100060880957,1.4272999997431897,-0.7071067775916097,7.204532546334168e-05,-2.9197016659892326e-05,0.7071067805084428,0,-1,-0.00013143221010381012,-1.5707839171039026,-7.18275653284195e-05,-1.5707357565509241,-4.7985707418263246e-05,7.190534961409867e-05
286,1734173759,530598640,-1.680108717295211e-05,0.25614100463763056,1.4272999987687935,-0.7071067777099257,6.785301825329718e-05,-4.1818693553549815e-05,0.7071067801710363,0,-1,-0.00014335313905888825,-1.570808235798971,-2.366701234990387e-05,-1.5707600752459925,-1.1746083394825746e-05,2.3968450477696024e-05
302,1734173759,546336412,-2.9080319547208585e-07,0.25614100370618514,1.4272999992521207,-0.7071067763351335,7.20005674609102e-05,-8.858453709097746e-05,0.7071067768234394,0,-1,-0.00013143221010381012,-1.5707724730121058,-2.366701234990387e-05,-1.5707600752459925,-3.5587941304981996e-05,3.5952674807049334e-05
318,1734173759,562668085,1.7678140958717954e-06,0.25614100146455343,1.4272999995714828,-0.7071067774621939,7.189911570818118e-05,-2.900605161754722e-05,0.7071067806605997,0,-1,-0.00014335313905888825,-1.570820156727926,-3.5587941304981996e-05,-1.5707839171039026,-1.1746083394825746e-05,5.992112710373476e-05
334,1734173759,578271627,1.2783086169005714e-05,0.2561410002846689,1.4272999996257967,-0.7071067759789926,8.894882266385207e-05,-1.195634459880346e-05,0.7071067806984653,0,-1,-0.00014335313905888825,-1.5707839171039026,-1.1746083394825746e-05,-1.5707600752459925,-2.366701234990387e-05,3.5952674807049334e-05
350,1734173759,594127178,2.4589021562205442e-05,0.2561409995062906,1.4272999997806128,-0.7071067775077742,7.187673805932076e-05,-4.622434343670296e-05,0.7071067797013515,0,-1,-0.00017911592592412262,-1.570796314870016,-3.5587941304981996e-05,-1.5707719961749476,-3.5587941304981996e-05,5.992112710373476e-05
366,1734173759,610486030,3.0876667752482046e-05,0.25614099839069926,1.4272999998467384,-0.7071067767815317,8.047469512678643e-05,-2.0767646960348558e-05,0.7071067807072433,0,-1,-0.000119511281148732,-1.570796314870016,-7.18275653284195e-05,-1.5707476774798792,-2.366701234990387e-05,7.190534961409867e-05
382,1734173759,625849485,-2.880472316207976e-05,0.25614100777749316,1.4272999976285965,-0.707106777813716,6.346974598867529e-05,-6.306070515778952e-05,0.7071067788989459,0,-1,-0.00013143221010381012,-1.570820156727926,-3.5587941304981996e-05,-1.5707839171039026,-1.1746083394825746e-05,4.793690095539205e-05
398,1734173759,641871213,-9.201968198762432e-06,0.25614100366468345,1.427299998870223,-0.7071067783918444,6.367777303927678e-05,-2.925883390059091e-05,0.7071067805086929,0,-1,-0.00013143221010381012,-1.5707839171039026,-2.366701234990387e-05,-1.5707476774798792,-2.366701234990387e-05,5.992112710373476e-05
414,1734173759,657922506,2.14863375787079e-05,0.25614099998805695,1.4272999997211266,-0.7071067767345721,8.045231618520886e-05,-3.764876528629927e-05,0.707106780059447,0,-1,-0.00015527406801396637,-1.5708320776568812,-4.7985707418263246e-05,-1.5707719961749476,-1.1746083394825746e-05,7.190534961409867e-05
430,1734173759,673907279,-1.3105070557644506e-05,0.25614100309020427,1.4272999991198525,-0.7071067785297194,5.491654680340363e-05,-3.7559250829641444e-05,0.7071067807133502,0,-1,-0.000119511281148732,-1.5707839171039026,-3.5587941304981996e-05,-1.570796314870016,0.0,7.190534961409867e-05
445,1734173759,690301179,4.852409793247108e-06,0.2561410013860593,1.427299999361161,-0.7071067762735006,8.051945295055301e-05,-3.791880327204378e-05,0.7071067804984474,0,-1,-0.000119511281148732,-1.5707839171039026,-5.990663637334137e-05,-1.5707600752459925,-4.7985707418263246e-05,9.58738019107841e-05
462,1734173759,706083774,5.15575352563036e-06,0.25614100213567514,1.427299999215726,-0.7071067775928415,7.200569083555013e-05,-2.9360285768875462e-05,0.7071067805044878,0,-1,-9.519258608037262e-05,-1.5708320776568812,-3.5587941304981996e-05,-1.5707839171039026,-1.1746083394825746e-05,5.992112710373476e-05
477,1734173759,722010374,2.0520058791324575e-05,0.2561409995143204,1.4272999997399036,-0.7071067787569507,5.9485465854736044e-05,-1.6255226916412682e-05,0.7071067809271919,0,-1,-0.00014335313905888825,-1.5707724730121058,-1.1746083394825746e-05,-1.5707600752459925,-3.5587941304981996e-05,9.58738019107841e-05
493,1734173759,738313436,2.0060439485355302e-05,0.2561409999732197,1.4272999995468836,-0.7071067757554937,8.909502981497858e-05,-2.900605161114849e-05,0.707106780409716,0,-1,-0.00014335313905888825,-1.570820156727926,-1.1746083394825746e-05,-1.5707719961749476,2.3968450477696024e-05,5.992112710373476e-05
509,1734173759,754191160,-2.7727525520746285e-06,0.2561410037028393,1.4272999991720634,-0.7071067757406486,8.473413776129532e-05,-5.0225683020516e-05,0.7071067797717475,0,-1,-0.00015527406801396637,-1.570796314870016,-4.7985707418263246e-05,-1.5707719961749476,2.3968450477696024e-05,5.992112710373476e-05
525,1734173759,770278930,-1.6320253882041983e-05,0.25614100583831684,1.4272999981928731,-0.7071067795179886,5.505743643791042e-05,-3.778965608697399e-05,0.7071067797018489,0,-1,-0.000119511281148732,-1.5707724730121058,-5.990663637334137e-05,-1.5707476774798792,-2.366701234990387e-05,4.793690095539205e-05
541,1734173759,786331176,2.6157875344378416e-05,0.2561409989396065,1.4272999997452869,-0.7071067783890254,6.37621642554359e-05,-2.9050808203210548e-05,0.7071067805124844,0,-1,-0.00010711351503545075,-1.570808235798971,-1.1746083394825746e-05,-1.570796314870016,0.0,7.190534961409867e-05
557,1734173759,802225828,3.225356289905391e-05,0.256140998251119,1.4272999998697868,-0.7071067766797141,8.047469511704486e-05,-2.0891281445237596e-05,0.7071067808054189,0,-1,-0.00013143221010381012,-1.570808235798971,-2.366701234990387e-05,-1.5707476774798792,-4.7985707418263246e-05,4.793690095539205e-05
574,1734173759,817717790,3.094199810929018e-05,0.2561409983884732,1.4272999997090803,-0.7071067775503319,7.242193855259769e-05,-2.0514668353986833e-05,0.7071067808164455,0,-1,-0.00015527406801396637,-1.570808235798971,-3.5587941304981996e-05,-1.5707600752459925,-5.990663637334137e-05,7.190534961409867e-05
589,1734173759,833773136,1.7210514884075825e-05,0.2561409999585407,1.4272999997066518,-0.7071067739664312,9.740056984809476e-05,-4.598862052323218e-05,0.7071067802029353,0,-1,-0.00014335313905888825,-1.5707724730121058,0.0,-1.5707476774798792,-2.366701234990387e-05,7.190534961409867e-05
606,1734173759,849684953,-1.2122706442624007e-05,0.2561410058240422,1.4272999985629005,-0.7071067738401432,0.00010180621975506552,-3.315360093872005e-05,0.7071067804269145,0,-1,-0.00013143221010381012,-1.570796314870016,-1.1746083394825746e-05,-1.5707719961749476,-1.1746083394825746e-05,9.58738019107841e-05
622,1734173759,865803480,-2.7409899087033815e-05,0.25614100454211547,1.4272999979816519,-0.7071067781706349,5.937889197992775e-05,-5.029281983407659e-05,0.7071067799207725,0,-1,-0.00010711351503545075,-1.5707839171039026,-4.7985707418263246e-05,-1.5707719961749476,-7.135072817021637e-05,7.190534961409867e-05
638,1734173759,881960630,-2.256998206170018e-05,0.25614100672907025,1.427299998184093,-0.7071067765357634,7.640621868684362e-05,-6.73201465857706e-05,0.7071067785046962,0,-1,-0.00014335313905888825,-1.5707839171039026,-2.366701234990387e-05,-1.5707719961749476,-4.7985707418263246e-05,4.793690095539205e-05
654,1734173759,897902011,7.472796948335992e-06,0.25614100179715915,1.4272999995359419,-0.7071067774903173,7.206770310367871e-05,-3.76040087042439e-05,0.7071067802103467,0,-1,-0.000119511281148732,-1.570808235798971,-3.5587941304981996e-05,-1.5707476774798792,-3.5587941304981996e-05,3.5952674807049334e-05
670,1734173759,913932800,6.762774454666938e-06,0.25614100150801633,1.427299999334135,-0.7071067768650894,7.611380051903301e-05,-4.198728094739583e-05,0.7071067801649353,0,-1,-0.00014335313905888825,-1.5707839171039026,0.0,-1.5707719961749476,-2.366701234990387e-05,7.190534961409867e-05
685,1734173759,930122852,-2.5661663104421626e-05,0.25614100654708805,1.427299997680569,-0.707106778478209,5.927744141060482e-05,-5.039427040716518e-05,0.7071067796144875,0,-1,-0.00014335313905888825,-1.570808235798971,-3.5587941304981996e-05,-1.5707719961749476,-3.5587941304981996e-05,7.190534961409867e-05
702,1734173759,946494817,2.0557379076697685e-05,0.25614100038591725,1.427299999223751,-0.707106776667577,8.058127023160957e-05,-3.7643445717891074e-05,0.7071067801120416,0,-1,-0.00013143221010381012,-1.5707839171039026,-1.1746083394825746e-05,-1.570796314870016,-1.1746083394825746e-05,9.58738019107841e-05
718,1734173759,962372064,3.202498698772693e-05,0.25614099823977315,1.4272999996814955,-0.7071067757277928,8.928599743065052e-05,-1.1956344599940741e-05,0.7071067809071706,0,-1,-0.000119511281148732,-1.570796314870016,-1.1746083394825746e-05,-1.570808235798971,-1.1746083394825746e-05,9.58738019107841e-05
734,1734173759,978563785,7.996829003855749e-06,0.2561410013458218,1.4272999995714828,-0.7071067770053276,7.626001027787621e-05,-4.184107120090309e-05,0.7071067800176104,0,-1,-0.00013143221010381012,-1.570808235798971,-3.5587941304981996e-05,-1.5707476774798792,-1.1746083394825746e-05,8.388957940042019e-05
750,1734173759,994239330,3.421796104279057e-05,0.256140997851755,1.4272999997648186,-0.707106774949714,9.752439947509533e-05,-2.9343226390441875e-05,0.7071067800892459,0,-1,-0.00014335313905888825,-1.570796314870016,-1.1746083394825746e-05,-1.5707839171039026,-4.7985707418263246e-05,8.388957940042019e-05
766,1734173760,10819673,8.57190658343718e-06,0.2561410016201369,1.4272999995614042,-0.7071067759855976,8.47565154418169e-05,-3.334456598553541e-05,0.7071067805216741,0,-1,-0.00010711351503545075,-1.570808235798971,-3.5587941304981996e-05,-1.5707839171039026,-1.1746083394825746e-05,7.190534961409867e-05
782,1734173760,26420831,1.590789118350445e-05,0.2561410003580787,1.4272999995612525,-0.7071067756947531,8.913978768361185e-05,-1.2102554344423392e-05,0.7071067809561696,0,-1,-0.00013143221010381012,-1.5707839171039026,-4.7985707418263246e-05,-1.5707600752459925,0.0,7.190534961409867e-05
798,1734173760,42052745,-3.553744939863593e-05,0.25614100711965354,1.4272999970686246,-0.7071067791362171,5.082569151325109e-05,-5.0416650630628895e-05,0.7071067796128923,0,-1,-0.000119511281148732,-1.570808235798971,-3.5587941304981996e-05,-1.5707719961749476,2.3968450477696024e-05,9.58738019107841e-05
814,1734173760,58404684,-2.0941118361847062e-05,0.2561410057705924,1.4272999979563081,-0.7071067765786717,7.206770300555901e-05,-6.322929256226948e-05,0.7071067792949117,0,-1,-0.00017911592592412262,-1.5708320776568812,0.0,-1.5707719961749476,-2.366701234990387e-05,4.793690095539205e-05
830,1734173760,74131965,5.5388259860896025e-05,0.2561409957536429,1.4272999995726863,-0.7071067764996358,8.464994037802984e-05,-7.825857210958307e-06,0.7071067807633,0,-1,-0.00014335313905888825,-1.570808235798971,-1.1746083394825746e-05,-1.5707839171039026,-1.1746083394825746e-05,8.388957940042019e-05
846,1734173760,90562343,1.5159536507659877e-06,0.25614100308867915,1.427299999201879,-0.7071067772334754,7.636658445371005e-05,-2.4954634908796634e-05,0.707106780575536,0,-1,-0.00015527406801396637,-1.570796314870016,-3.5587941304981996e-05,-1.5707719961749476,0.0,7.190534961409867e-05
862,1734173760,106239080,1.1770542184529524e-05,0.25614100147720664,1.4272999993081485,-0.7071067764985035,8.03284853525334e-05,-4.62019657892445e-05,0.7071067798024624,0,-1,-0.000119511281148732,-1.570808235798971,-3.5587941304981996e-05,-1.570796314870016,-1.1746083394825746e-05,7.190534961409867e-05
878,1734173760,122493505,7.053589363862758e-06,0.2561410026436834,1.4272999992512079,-0.7071067775847849,7.208476376623619e-05,-4.6139952216117994e-05,0.7071067796086762,0,-1,-0.000119511281148732,-1.570820156727926,-4.7985707418263246e-05,-1.5707476774798792,-1.1746083394825746e-05,8.388957940042019e-05
894,1734173760,138216257,-4.1471995413410745e-06,0.25614100568329334,1.4272999983537247,-0.7071067766678992,7.609142283595772e-05,-7.572713730737711e-05,0.7071067775561408,0,-1,-0.00013143221010381012,-1.5707724730121058,-3.5587941304981996e-05,-1.5707600752459925,-3.5587941304981996e-05,8.388957940042019e-05
910,1734173760,154523849,3.066675248823384e-05,0.2561409985431151,1.4272999997760862,-0.7071067741735,0.00010153105985778185,-2.4999391171222115e-05,0.7071067804684248,0,-1,-0.00015527406801396637,-1.570808235798971,-5.990663637334137e-05,-1.5707719961749476,-3.5587941304981996e-05,8.388957940042019e-05
926,1734173760,170141696,3.7163072140728385e-07,0.2561410024000437,1.4272999991463002,-0.7071067788813401,5.487178896423752e-05,-4.6370553182064695e-05,0.7071067798422768,0,-1,-0.0001671949969690445,-1.5707839171039026,-3.5587941304981996e-05,-1.5707600752459925,0.0,8.388957940042019e-05
942,1734173760,186572313,4.524179046827419e-06,0.25614100220039143,1.427299999212118,-0.7071067782912004,5.90640961254272e-05,-5.90369853632562e-05,0.7071067791505792,0,-1,-0.00014335313905888825,-1.570808235798971,0.0,-1.5707719961749476,1.1984225238848012e-05,4.793690095539205e-05
958,1734173760,202395677,8.918793957039465e-06,0.25614100099987125,1.427299999737811,-0.7071067775582881,7.185967869887715e-05,-2.0953293724882796e-05,0.707106780852991,0,-1,-0.00013143221010381012,-1.570808235798971,0.0,-1.5707719961749476,-1.1746083394825746e-05,8.388957940042019e-05
974,1734173760,218726158,7.616670698564544e-06,0.2561410021221951,1.4272999992559319,-0.7071067761769176,8.485796733370378e-05,-4.16724838016519e-05,0.7071067798764312,0,-1,-0.00013143221010381012,-1.5707839171039026,-1.1746083394825746e-05,-1.570796314870016,-2.366701234990387e-05,7.190534961409867e-05
990,1734173760,234266281,-1.35078827160082e-05,0.25614100540229057,1.4272999986889228,-0.7071067782829626,5.9210304582101996e-05,-6.732014658050082e-05,0.7071067784065054,0,-1,-0.000119511281148732,-1.5707724730121058,-4.7985707418263246e-05,-1.5707839171039026,-3.5587941304981996e-05,8.388957940042019e-05
1006,1734173760,250568389,3.451289674791211e-05,0.2561409978210853,1.4272999999050493,-0.7071067751139547,9.330971462089654e-05,-4.198728093813226e-05,0.7071067798559907,0,-1,-0.00013143221010381012,-1.570808235798971,-7.18275653284195e-05,-1.5707719961749476,1.1984225238848012e-05,7.190534961409867e-05
1022,1734173760,266300201,-2.4029893131686487e-06,0.2561410027647182,1.4272999992525655,-0.7071067786697014,5.9378892017448153e-05,-4.18634501371126e-05,0.7071067799710002,0,-1,-0.00010711351503545075,-1.570796314870016,-4.7985707418263246e-05,-1.5707839171039026,0.0,5.992112710373476e-05
1038,1734173760,282241582,7.820184754207082e-06,0.25614100188172484,1.4272999994181264,-0.7071067736687923,9.737819215780513e-05,-6.28697375477226e-05,0.7071067792042408,0,-1,-0.00013143221010381012,-1.570796314870016,-5.990663637334137e-05,-1.5707600752459925,-2.366701234990387e-05,7.190534961409867e-05
1054,1734173760,298336029,4.943390323833754e-06,0.2561410014229515,1.4272999995714828,-0.7071067774473121,7.204532545037914e-05,-3.76263863560628e-05,0.7071067802544418,0,-1,-0.00015527406801396637,-1.570808235798971,-5.990663637334137e-05,-1.5707719961749476,-1.1746083394825746e-05,9.58738019107841e-05
1070,1734173760,314536333,1.9061346381305226e-05,0.2561409997356965,1.4272999998169285,-0.707106777002914,7.628238792881787e-05,-3.3389323858834554e-05,0.7071067804672089,0,-1,-0.000119511281148732,-1.570808235798971,0.0,-1.570796314870016,0.0,5.992112710373476e-05
1086,1734173760,330011367,2.8903861664956147e-05,0.2561409986499895,1.4272999998816878,-0.7071067762411152,8.467232057942136e-05,-1.6570021479643004e-05,0.7071067808682999,0,-1,-0.00014335313905888825,-1.570820156727926,-4.7985707418263246e-05,-1.5707719961749476,-1.1746083394825746e-05,8.388957940042019e-05
1102,1734173760,346290588,1.248005193975209e-05,0.2561410008086072,1.4272999992488398,-0.7071067779073136,6.785301827336535e-05,-3.3389323858330055e-05,0.7071067804219233,0,-1,-0.00014335313905888825,-1.5707839171039026,-4.7985707418263246e-05,-1.570796314870016,1.1984225238848012e-05,7.190534961409867e-05
1118,1734173760,362303972,3.432359241378088e-05,0.25614099792855194,1.427299999364744,-0.7071067757727258,8.892644242182398e-05,-2.9174639005174663e-05,0.7071067804067702,0,-1,-0.00013143221010381012,-1.5708320776568812,-1.1746083394825746e-05,-1.5707600752459925,0.0,7.190534961409867e-05
1134,1734173760,378319978,2.4698335395991626e-06,0.256141002940827,1.4272999988862833,-0.7071067778741262,6.766205322299475e-05,-5.043902827986889e-05,0.7071067794627782,0,-1,-0.00013143221010381012,-1.570796314870016,-1.1746083394825746e-05,-1.5707719961749476,-3.5587941304981996e-05,7.190534961409867e-05
1150,1734173760,394016742,2.3064060513605145e-05,0.2561409992898908,1.4272999997519558,-0.7071067781018006,6.363833342174971e-05,-3.760400870779542e-05,0.7071067804077344,0,-1,-0.00014335313905888825,-1.570820156727926,-3.5587941304981996e-05,-1.570808235798971,-2.366701234990387e-05,7.190534961409867e-05
1166,1734173760,410172224,-2.617785350974756e-05,0.2561410099111612,1.4272999958476054,-0.7071067795809916,5.493360790042421e-05,-7.167572056608562e-05,0.7071067770255697,0,-1,-0.00014335313905888825,-1.5708320776568812,-5.990663637334137e-05,-1.5707719961749476,-4.7985707418263246e-05,4.793690095539205e-05
1182,1734173760,426492214,-2.1178201803954477e-05,0.25614100585234456,1.4272999983232495,-0.707106776562696,7.613618070477878e-05,-5.0394270416122084e-05,0.7071067799157443,0,-1,-0.00013143221010381012,-1.570796314870016,-2.366701234990387e-05,-1.5707839171039026,0.0,9.58738019107841e-05
1198,1734173760,442394971,2.3733802170922885e-05,0.25614099941406776,1.4272999998325857,-0.7071067773107517,7.185435910425213e-05,-5.4676092063258055e-05,0.7071067792976383,0,-1,-0.00013143221010381012,-1.5707839171039026,-7.18275653284195e-05,-1.5707600752459925,-1.1746083394825746e-05,9.58738019107841e-05
1214,1734173760,458323001,2.4554057444894574e-05,0.2561409992964816,1.4272999995831408,-0.7071067753702099,8.89712002498522e-05,-3.755925083320708e-05,0.707106780408003,0,-1,-0.00015527406801396637,-1.5707839171039026,-1.1746083394825746e-05,-1.5707719961749476,0.0,9.58738019107841e-05
1230,1734173760,474147081,-2.6429859805971518e-05,0.2561410059226229,1.427299998218867,-0.7071067789214653,5.501799871319689e-05,-4.622434343907273e-05,0.7071067798003635,0,-1,-0.00014335313905888825,-1.570796314870016,-3.5587941304981996e-05,-1.5707719961749476,1.1984225238848012e-05,7.190534961409867e-05
1246,1734173760,498304367,-7.11541564045038e-05,0.25614101437272346,1.4272999944165188,-0.7071067795100148,4.205914701457632e-05,-7.604193443072456e-05,0.7071067775234711,0,-1,-0.00013143221010381012,-1.5707839171039026,-1.1746083394825746e-05,-1.5707600752459925,-1.1746083394825746e-05,7.190534961409867e-05
1270,1734173760,514074802,2.3494036508579382e-05,0.2561409993089896,1.4272999997851024,-0.7071067766882139,8.04746951178581e-05,-3.762638635154311e-05,0.7071067801044499,0,-1,-0.00015527406801396637,-1.5708320776568812,-1.1746083394825746e-05,-1.5707719961749476,-4.7985707418263246e-05,4.793690095539205e-05
1285,1734173760,530350923,-2.4264156697779477e-05,0.2561410042854932,1.4272999984014267,-0.7071067790487954,5.06347264655366e-05,-4.1841071205219524e-05,0.7071067802734515,0,-1,-0.00010711351503545075,-1.570820156727926,-3.5587941304981996e-05,-1.5707719961749476,-2.366701234990387e-05,4.793690095539205e-05
1302,1734173760,546023607,-5.555696836402356e-05,0.2561410108132125,1.4272999959284263,-0.7071067789279576,4.658862896989026e-05,-7.151245248020127e-05,0.707106778294196,0,-1,-0.00014335313905888825,-1.570808235798971,-4.7985707418263246e-05,-1.5707719961749476,-1.1746083394825746e-05,5.992112710373476e-05
1318,1734173760,562029838,-3.578110118901611e-05,0.2561410079782799,1.4272999977666887,-0.7071067768625796,7.613618073885196e-05,-4.1964900723917666e-05,0.7071067801663644,0,-1,-9.519258608037262e-05,-1.5707724730121058,-1.1746083394825746e-05,-1.5707719961749476,-1.1746083394825746e-05,7.190534961409867e-05
1333,1734173760,578474283,2.759085861619192e-05,0.25614099964597636,1.4272999997331004,-0.7071067761901669,8.466700100268143e-05,-5.0416454297452094e-05,0.7071067793166951,0,-1,-0.0001671949969690445,-1.5707839171039026,-2.366701234990387e-05,-1.5707600752459925,0.0,9.58738019107841e-05
1350,1734173760,594149112,2.287987025677649e-05,0.2561409993897108,1.4272999995677569,-0.7071067760406325,8.473413779885469e-05,-3.336694363534385e-05,0.7071067804682654,0,-1,-0.00013143221010381012,-1.570808235798971,-8.374849428349762e-05,-1.5707719961749476,-1.1746083394825746e-05,3.5952674807049334e-05
1366,1734173760,609737634,-6.611855772654384e-05,0.2561410099144531,1.4272999907644617,-0.7071067819785772,2.9982672109326465e-05,-2.9102185190447362e-05,0.7071067791599815,0,-1,-9.519258608037262e-05,-1.5707839171039026,-0.0002511183368127945,-1.5706880728351038,0.00011984225420746952,9.58738019107841e-05
1382,1734173760,626147270,-0.0002625084461923554,0.2561410269106557,1.4272999375778244,-0.707106799266947,-0.00011013433194268781,-7.918357323826269e-06,0.7071067544849096,0,-1,-5.990663637334137e-05,-1.5707362333880823,-0.0006106535540979507,-1.5706399122821253,0.00047899450873956084,0.00014381069922819734
1397,1734173760,642489910,-0.0006784764671059674,0.25614099486065833,1.4272996724293816,-0.7071068320204527,-0.00040633935119951985,5.995072063868153e-05,0.7071066110596351,0,-1,1.1984225238848012e-05,-1.5707481543170374,-0.001328770314351857,-1.5704720656024378,0.0009583635255694389,0.0002996056282427162
1414,1734173760,658173084,-0.0012032307471013211,0.25614082838755736,1.4272989529307814,-0.7071069149572068,-0.0007871926911865953,0.0002294373257635936,0.7071061720179523,0,-1,0.00015579492901451886,-1.570808235798971,-0.0023348967181604507,-1.5701964537249964,0.0017729162937030196,0.0005748682888224721
1430,1734173760,673951625,-0.0022250833160199967,0.2561401976599953,1.4272966819131658,-0.7071071438345746,-0.0014346439119666862,0.0003947058575942817,0.7071048530043066,0,-1,0.0003827461914625019,-1.570796314870016,-0.003831211720601857,-1.569824520741598,0.002958605531603098,0.000946379266679287
1446,1734173760,690248250,-0.0036164339076069823,0.25613888104504234,1.4272914335882971,-0.7071077229473902,-0.0023192946442057907,0.0005854673321896134,0.707101793413447,0,-1,0.0005984622403047979,-1.5708563963519495,-0.005819145833150685,-1.5694530645953577,0.0044678691774606705,0.0014609519857913256
1462,1734173760,706000804,-0.005428205745325656,0.2561357609497086,1.4272810900119206,-0.7071086926419096,-0.00348356986877313,0.0008525021766196405,0.7070957748220942,0,-1,0.0008857091306708753,-1.5709646383868616,-0.008321587239400685,-1.5689132849322718,0.006492079701274633,0.002108100103214383
1478,1734173760,722287654,-0.007737085935547682,0.2561303744682512,1.427262423469762,-0.7071105862686258,-0.004948403851389728,0.0012084850712733937,0.7070846283508052,0,-1,0.0012208929983898997,-1.5711081663714808,-0.011291329060689748,-1.568362061177389,0.00895970594137907,0.0028623573016375303
1494,1734173760,738047122,-0.010509993035097538,0.2561213765298028,1.4272315776565168,-0.7071134364711253,-0.006751814678660045,0.001556039855745976,0.7070661777376346,0,-1,0.0016276076203212142,-1.5713241736041468,-0.014799420033590138,-1.5676782766925257,0.011786485090851784,0.003760799765586853
1509,1734173760,754315614,-0.013652179172225484,0.2561077164683482,1.4271852052792582,-0.7071178883246819,-0.008766840349707377,0.0020053852549396017,0.707038480530943,0,-1,0.002106602070853114,-1.571587864552633,-0.01879913011659795,-1.56683856645693,0.01502072811126709,0.004838631022721529
1526,1734173760,770071029,-0.017270219361337488,0.2560876526907612,1.4271182167809169,-0.7071239428099098,-0.011056383401286512,0.0024757866626082562,0.7069988376026175,0,-1,0.0026327844243496656,-1.5718877951251429,-0.023121182118551076,-1.5659759680377405,0.0185422170907259,0.005964399315416813
1542,1734173760,786410570,-0.021110923908514063,0.25606132899457246,1.4270301756120087,-0.7071323948031446,-0.013498617834849309,0.003047658165334504,0.7069457371794708,0,-1,0.0031836843118071556,-1.572235409413473,-0.0277789274798792,-1.5649922529803675,0.022398890927433968,0.007126119919121265
1558,1734173760,802078485,-0.025272367067144128,0.25602647690932623,1.4269146004001159,-0.7071425091346493,-0.016143911531342005,0.0035942378577300113,0.7068775900744362,0,-1,0.0038180991541594267,-1.572559658681051,-0.032772366200582326,-1.5639727751361292,0.02642371878027916,0.008407308720052242
1573,1734173760,817796468,-0.02961934451828277,0.2559829757599416,1.4267725152848318,-0.7071547449595788,-0.018919756527982064,0.004187106265473962,0.7067932354198055,0,-1,0.00444015534594655,-1.5729072729693812,-0.03800422350038701,-1.562918488179342,0.030735792592167854,0.00960498210042715
1590,1734173760,834115266,-0.034198606826005534,0.2559312796532689,1.4265975599231362,-0.7071697262184554,-0.021847656082684585,0.004737043542661906,0.7066903272737519,0,-1,0.005074570421129465,-1.5732668081866663,-0.04334432283510381,-1.5617554823504847,0.035072211176157,0.010994402691721916
1605,1734173760,849880456,-0.038739833116414456,0.2558708002943877,1.4263993177483234,-0.7071877704750998,-0.024719944943743837,0.005435253966244186,0.7065726003934475,0,-1,0.0057569220662117004,-1.5735786596881312,-0.04873258272279912,-1.5605199972735804,0.03946780040860176,0.012431386858224869
1622,1734173760,866077899,-0.04339221935677033,0.25580098730251716,1.4261720090249375,-0.7072083363835079,-0.027659272576803395,0.0061670986061550075,0.7064370463707118,0,-1,0.006474477704614401,-1.5739262739764612,-0.054264370595113576,-1.5592730681048792,0.044007573276758194,0.013868744485080242
1638,1734173760,881927013,-0.04799865048303689,0.25572147581258853,1.4259200675355077,-0.7072305874304737,-0.030589577918274404,0.006906912601809705,0.7062871006069982,0,-1,0.007132860831916332,-1.5742023626910608,-0.0598676840411585,-1.558038059865133,0.04860726743936539,0.015341680496931076
1654,1734173760,898082494,-0.05272915361703234,0.25563479061523076,1.4256343835485406,-0.7072588700504345,-0.03359954901103256,0.007666969879986289,0.7061141399335501,0,-1,0.007791244424879551,-1.574526611958639,-0.06532794633974248,-1.5568273703204554,0.05317101255059242,0.016874538734555244
1669,1734173760,913898229,-0.05726440155667581,0.25554504045323967,1.425334047095666,-0.7072882843706013,-0.03648602471143242,0.008397270031012009,0.7059330978562166,0,-1,0.008413675241172314,-1.574789826069967,-0.07073909441103154,-1.555664364491598,0.05766322463750839,0.018311895430088043
1686,1734173760,930182218,-0.06172560452635266,0.2554477830039569,1.4250160635025155,-0.7073192406502365,-0.03932525064889979,0.0091142585711456,0.7057407078793686,0,-1,0.008988169021904469,-1.5751259962665003,-0.07589990297426397,-1.5544889608966272,0.062023233622312546,0.01968933269381523
1702,1734173760,945848941,-0.06601171490359589,0.25534780971661686,1.4246862290600875,-0.7073512869985451,-0.04206659065910222,0.00981820323892888,0.7055410417665158,0,-1,0.009574647061526775,-1.575317684804098,-0.08096391359438115,-1.5534098784076136,0.06619187444448471,0.02110234834253788
1718,1734173760,962061643,-0.0701309832019889,0.25524647359282415,1.4243468410846234,-0.7073843387054971,-0.0447055136942731,0.010453844263571621,0.7053364669004649,0,-1,0.010185093618929386,-1.5756171385394495,-0.085944954548971,-1.5523069540606897,0.07025302946567535,0.022335974499583244
1733,1734173760,977763175,-0.07424939747646714,0.255138939235375,1.4239894352792186,-0.7074177772862801,-0.04732271881417877,0.01104246940736037,0.70512318961495,0,-1,0.010759213007986546,-1.575869385396139,-0.09073430696596319,-1.5512760321246546,0.07409771531820297,0.02367708459496498
1750,1734173760,994051694,-0.07815162160016832,0.25503052887849176,1.423628861579426,-0.7074507308406862,-0.049825084358025094,0.011618604997378167,0.7049084567655644,0,-1,0.011286144144833088,-1.5761211554156702,-0.09533149400819951,-1.5502927939044397,0.07794315367937088,0.02475491538643837
1765,1734173761,10324001,-0.081952548194925,0.25491931861607664,1.423263116517188,-0.7074841911102662,-0.05225502888646792,0.01219789035215249,0.7046891107120101,0,-1,0.011764763854444027,-1.5763371626483362,-0.09979755083192998,-1.5493329207049769,0.0815725028514862,0.025928620249032974
1782,1734173761,26039123,-0.08557368563447282,0.2548091378848381,1.4228961464308163,-0.707519550347229,-0.05458702244666167,0.012738654952300853,0.7044672238840277,0,-1,0.012326898984611034,-1.5765650908099573,-0.10408336320985967,-1.5483983198748987,0.08509474247694016,0.027066372334957123
1798,1734173761,42196989,-0.0891302855667,0.25469520024535525,1.4225208603259445,-0.70755580829513,-0.05687611701235389,0.013304563073096926,0.7042392165044887,0,-1,0.012793909758329391,-1.5767810980426233,-0.10850173631776983,-1.547438923512594,0.08865218609571457,0.028180155903100967
1814,1734173761,58055400,-0.09277247018399669,0.25457557138254727,1.4221204471534825,-0.707593696258857,-0.05918103294507086,0.013844711280024544,0.7040007743773125,0,-1,0.013308482244610786,-1.5770323912249964,-0.11276370683778936,-1.5465157667743128,0.09221000224351883,0.029317909851670265
1829,1734173761,74434518,-0.09633723172183441,0.2544500814332798,1.4217128750817682,-0.7076298538308118,-0.06147734060404496,0.01440115098812858,0.7037564446666583,0,-1,0.01384739764034748,-1.577200714741842,-0.11720592180360967,-1.5454729239093226,0.09580376744270325,0.030479256063699722
1846,1734173761,90215444,-0.10000460360495544,0.2543149592546752,1.4212724510480728,-0.7076722792050677,-0.06381833964016947,0.015011870810437013,0.7034925788557029,0,-1,0.014373579993844032,-1.5774524847613733,-0.1218035856830042,-1.544417683278219,0.09945708513259888,0.03164134919643402
1862,1734173761,106482744,-0.10382881300061214,0.25417291428180877,1.4207984370225326,-0.7077155654614165,-0.06627227471147128,0.015549545818075314,0.7032104063742561,0,-1,0.014972042292356491,-1.5776799360858362,-0.12642461458315069,-1.5434344450580042,0.10331451147794724,0.03279108554124832
1878,1734173761,122165441,-0.1077816761561835,0.25402065251354855,1.4202938033209498,-0.7077624473747307,-0.06879696909553258,0.016141194277526305,0.7029073601668253,0,-1,0.015558520331978798,-1.5779441038714808,-0.13129789033998662,-1.5424030462848108,0.10725581645965576,0.034132570028305054
1893,1734173761,138348340,-0.11192157012404247,0.2538523791652081,1.4197429821671155,-0.707812651867439,-0.07144630779140637,0.01671493782255794,0.7025790246036008,0,-1,0.0161210298538208,-1.5782678763019007,-0.13626605669130498,-1.541407887135641,0.1112930029630661,0.03537818044424057
1910,1734173761,154113292,-0.1161744680151711,0.2536759664695005,1.4191593423674835,-0.7078664885567129,-0.07417855535181408,0.017278342810635283,0.7022279082847855,0,-1,0.016767429187893867,-1.5785682837115687,-0.1413787047015589,-1.5403888861285608,0.11536577343940735,0.036683339625597
1926,1734173761,170404911,-0.1204709149511106,0.25348221675441196,1.4185471383655495,-0.7079209361798923,-0.07692633203992694,0.017900156428630104,0.701861718543545,0,-1,0.017425812780857086,-1.5789397398578089,-0.1465385595904749,-1.5393579641925257,0.11954639106988907,0.037988871335983276
1942,1734173761,186213016,-0.12492698299999284,0.253287344376502,1.4178905015987466,-0.7079795431488659,-0.07974386572929604,0.01845748078305904,0.7014735944883557,0,-1,0.01804824359714985,-1.579287354146139,-0.1517704168902796,-1.5382550398456019,0.12377532571554184,0.03927043452858925
1957,1734173761,202331066,-0.12929943507190345,0.25308147177062107,1.4172162789957727,-0.7080380122475827,-0.08255914880060959,0.019030764426053108,0.701073455614439,0,-1,0.018670300021767616,-1.5795992056476038,-0.1570380369769495,-1.5371516386615198,0.12806381285190582,0.04058757424354553
1974,1734173761,218050718,-0.1337645350625121,0.2528642154746322,1.416507280569037,-0.7080973992762789,-0.08544080071580462,0.01959397699968251,0.7006525663811901,0,-1,0.019328683614730835,-1.5799468199359339,-0.16229373613466436,-1.5360844771014612,0.13235266506671906,0.0418451689183712
1989,1734173761,234330177,-0.13817337348583572,0.25264626802166884,1.4157784309218828,-0.7081644332685019,-0.08826936387924499,0.02021527648552538,0.700216393303148,0,-1,0.01995111256837845,-1.5802467505084437,-0.16756135622133428,-1.534957234059469,0.136665478348732,0.04324657469987869
2006,1734173761,250192165,-0.14256374139662362,0.25241303437136553,1.4150344328997007,-0.7082303778724411,-0.09111306440341838,0.02088600886373866,0.6997656150365076,0,-1,0.020585153251886368,-1.580606762562887,-0.1727812925921839,-1.5338543097125452,0.1410977691411972,0.04457569867372513
2022,1734173761,266473531,-0.14689093698640457,0.25218606670704097,1.4142702802008524,-0.7083025731536992,-0.09390858741110923,0.021508836796156297,0.6993039482327945,0,-1,0.021219568327069283,-1.5809066931353968,-0.1780012289630335,-1.5326913038836878,0.14539861679077148,0.04591718316078186
2038,1734173761,282168865,-0.15125359042221173,0.251937163318909,1.413479305320155,-0.7083758268074313,-0.09670624972164973,0.022219039947553275,0.698826089612767,0,-1,0.021841999143362045,-1.5811823050128382,-0.18329269090761358,-1.5315402189837855,0.14974701404571533,0.047402478754520416
2054,1734173761,298363208,-0.15561181207212446,0.2516886984859897,1.4126666316368433,-0.7084552267103433,-0.09945928127341458,0.02290251762348035,0.6983369657993754,0,-1,0.022464055567979813,-1.581494156514303,-0.1885603109942835,-1.5304372946368616,0.15403586626052856,0.04882710427045822
2070,1734173761,314227819,-0.15999020225478097,0.25144033252327813,1.4118242251885207,-0.7085363965969613,-0.10222319601449399,0.02352104873987317,0.6978347606419104,0,-1,0.02311045490205288,-1.5818422476397913,-0.19376784959901983,-1.5292146841632288,0.15821686387062073,0.05021652579307556
2086,1734173761,330498456,-0.16425342340117066,0.251192232020609,1.4109754416332647,-0.7086167312333218,-0.1049099951336785,0.024088520668551102,0.6973349011122665,0,-1,0.02372090145945549,-1.5821297804461878,-0.19885617891420537,-1.5280755201922815,0.16234992444515228,0.05160557106137276
2102,1734173761,346335649,-0.1684520415203938,0.2509231927794998,1.4101305349832811,-0.7086929494319524,-0.10757823176926895,0.02477262714741129,0.6968267678692122,0,-1,0.024343332275748253,-1.5824654738055628,-0.20390826860536748,-1.5269845167743128,0.16653092205524445,0.05291110277175903
2118,1734173761,362061262,-0.17265706303905698,0.25065960184759395,1.4092564697220316,-0.7087750786718451,-0.1102445370134266,0.02536278339780883,0.6963050761919883,0,-1,0.024893857538700104,-1.5827654043780726,-0.20899659792055303,-1.5258577505694788,0.1706879436969757,0.05424060299992561
2133,1734173761,378396987,-0.1768129328324033,0.2503884089779166,1.4083676897969954,-0.7088571496251211,-0.11290827922161832,0.025977112427803293,0.6957718387075429,0,-1,0.02554025687277317,-1.5830891768084925,-0.2140124479876917,-1.524790112172262,0.17478543519973755,0.05554576218128204
2150,1734173761,394093513,-0.18093297978023226,0.2501185238420419,1.4074558387833929,-0.7089390367983556,-0.1155828639432285,0.02652647527561205,0.695228300470826,0,-1,0.026150329038500786,-1.583365265523092,-0.2190764586078089,-1.523663345967428,0.17885856330394745,0.05680335685610771
2166,1734173761,409936904,-0.1850385461216748,0.249842371349038,1.4065323596407164,-0.7090240474382246,-0.11823439835032934,0.02711272595727961,0.6946728922969567,0,-1,0.02672482281923294,-1.5836527983294886,-0.2240689436541956,-1.5225961844073694,0.18295568227767944,0.05812086910009384
2181,1734173761,425730466,-0.18915164454666733,0.24954255386715898,1.4055876113230321,-0.7091100599270137,-0.12087893864243071,0.027760315516974093,0.6941041492351018,0,-1,0.027311675250530243,-1.583905045186178,-0.22904855409731084,-1.5214808622943323,0.1871010959148407,0.059354495257139206
2198,1734173761,442041158,-0.19317747572830413,0.249258785007078,1.4046347689715186,-0.7092012483743111,-0.1234715927743818,0.028364345449948404,0.6935299697844873,0,-1,0.027921373024582863,-1.5842044989215296,-0.2340768019305628,-1.5204384962665003,0.1912221759557724,0.06069560721516609
2213,1734173761,458293914,-0.19723732627374002,0.24896275885515612,1.403656492316984,-0.7092894864908847,-0.12611583924423406,0.02895517053954624,0.6929392596355364,0,-1,0.02848425693809986,-1.584468189870016,-0.23903257051576787,-1.5193832556353968,0.1953076720237732,0.061977170407772064
2230,1734173761,474060535,-0.20133456136184238,0.24865673719863907,1.4026471239671305,-0.7093837338012204,-0.12875776277787634,0.029568392817110295,0.692330749634081,0,-1,0.029094703495502472,-1.5847199598895472,-0.24406081834901983,-1.5182564894305628,0.19941675662994385,0.06323476135730743
2245,1734173761,490308046,-0.20546071607153216,0.24833940861517684,1.4016096179710702,-0.7094754515784134,-0.13144754516757012,0.03012036397501912,0.6917072286387055,0,-1,0.029728742316365242,-1.5850322882281702,-0.24911290804018194,-1.5172846953021448,0.20362210273742676,0.06454029679298401
2262,1734173761,506059169,-0.20957616353276876,0.24801544325662372,1.4005465087773596,-0.7095716827272313,-0.13413821056081043,0.03068319867292119,0.6910669351505592,0,-1,0.030351173132658005,-1.585320297871725,-0.2541888395892542,-1.516181770955221,0.2076956182718277,0.06586942076683044
2277,1734173761,522388696,-0.21363258257626278,0.24769026174855824,1.399479908128755,-0.709668466107866,-0.13674749809327472,0.03127488990286237,0.6904293383387631,0,-1,0.030913682654500008,-1.585583511983053,-0.25926429430116826,-1.515066925679342,0.21175676584243774,0.06717495620250702
2294,1734173761,538087368,-0.21776458324081724,0.24736404973302734,1.3983708458093125,-0.7097727390541222,-0.1393787594418228,0.031805111421966306,0.6897714514239509,0,-1,0.031535740941762924,-1.5859077612506312,-0.26426822343935186,-1.5139992872821253,0.21580630540847778,0.06845651566982269
2309,1734173761,554383039,-0.22182634764719417,0.24703198077264904,1.3972593404252334,-0.7098715647854471,-0.14199563924277472,0.03233851981218641,0.689110890990306,0,-1,0.03209862485527992,-1.5861714521991175,-0.26932031313051397,-1.5128968397723597,0.21984386444091797,0.06972609460353851
2326,1734173761,570020198,-0.22587620023289745,0.24669284438729225,1.3961252144831886,-0.7099777075192865,-0.14460063570071488,0.03292053269287599,0.6884319498017396,0,-1,0.032721053808927536,-1.5864952246295374,-0.27433616319765264,-1.511805836354391,0.22395333647727966,0.07105521857738495
2341,1734173761,586404085,-0.22993046735685777,0.24633624847660054,1.394972726810277,-0.7100807921051645,-0.1472449674438726,0.033508615763306736,0.6877364036572313,0,-1,0.03333112597465515,-1.5867231527911585,-0.2794116179095667,-1.5107386747943323,0.22806280851364136,0.07226487994194031
2358,1734173761,602023124,-0.2338770941812929,0.245988348884052,1.3938174005730917,-0.7101822234965198,-0.1498578453544816,0.034066794074942376,0.6870395106227202,0,-1,0.0338936373591423,-1.5869868437396448,-0.2844036261187952,-1.5096476713763636,0.23217226564884186,0.07354643940925598
2373,1734173761,618284463,-0.23784938587295804,0.24563266278074095,1.3926390368554893,-0.7102911042449361,-0.15245490452542737,0.03466036992735048,0.6863255117458122,0,-1,0.03448011353611946,-1.5872510115252894,-0.2894194761859339,-1.5085566679583948,0.2362937182188034,0.0748399868607521
2390,1734173761,634025812,-0.2418439609991427,0.24527384361015722,1.3914312784955143,-0.7104055280269274,-0.15504477835830083,0.03521336421297991,0.6855983674378258,0,-1,0.03506659343838692,-1.5874908606158655,-0.2943514029132288,-1.5074775854693812,0.2403792142868042,0.07618109881877899
2405,1734173761,650368213,-0.24574403915759338,0.24490756863125807,1.3902287230754562,-0.7105218971075544,-0.15761050790465914,0.035861771537892356,0.6848587408151269,0,-1,0.03562910109758377,-1.5877421537982386,-0.29933149019350225,-1.506434742604391,0.24450066685676575,0.07748662680387497
2422,1734173761,666065216,-0.24966745825040917,0.2445451274398751,1.388992505211068,-0.7106417081650253,-0.16015667955004648,0.03643271812562215,0.6841131906795672,0,-1,0.036263518035411835,-1.588006321583883,-0.30433494249452764,-1.5053556601153772,0.2485981434583664,0.07886406779289246
2437,1734173761,682296276,-0.2537055347488537,0.24415057889042047,1.3877050152478496,-0.7107669905747567,-0.16276905738642308,0.03703654052416702,0.6833336035443016,0,-1,0.036802057176828384,-1.5882700125323694,-0.30949527422060186,-1.5042884985553187,0.25271961092948914,0.0802534893155098
2454,1734173761,698006629,-0.25775722748408364,0.2437569535103749,1.3863882270917955,-0.7108881886183172,-0.16539957581735729,0.037542037906727596,0.6825478437386027,0,-1,0.037448082119226456,-1.588546101246969,-0.3145945707904261,-1.5032570997821253,0.2568294405937195,0.08155864477157593
2470,1734173761,714112758,-0.2616885805958953,0.24335784886651923,1.3850824609979617,-0.7110101395970653,-0.16796155278682529,0.03813920045371892,0.6817616149097508,0,-1,0.03808249905705452,-1.5888336340533655,-0.31965810457338506,-1.502190415059225,0.2608913481235504,0.08287616074085236
2486,1734173761,730124950,-0.26578707745586755,0.2429552290441075,1.3837121484039805,-0.7111385662694597,-0.17059365532561116,0.038631624974993145,0.6809459169997683,0,-1,0.03866935148835182,-1.5890973250018519,-0.3246977964984339,-1.5011351744281214,0.2650247812271118,0.08420565724372864
2501,1734173761,745950460,-0.2697723327915683,0.24253384678316786,1.3823597039702935,-0.7112549748928666,-0.1732365046537374,0.03919467429995579,0.6801244383581755,0,-1,0.03929140418767929,-1.5893858114825647,-0.32965356508363897,-1.5000923315631312,0.26912224292755127,0.08549920469522476
2518,1734173761,762212276,-0.2735875172609987,0.24213376372758005,1.3810269606233951,-0.7113847609060865,-0.1757393632599071,0.0397783425265312,0.6793122121804043,0,-1,0.03987788408994675,-1.5896733442889612,-0.3346217314349573,-1.4989774862872522,0.27322012186050415,0.08680398762226105
2534,1734173761,778493404,-0.27757528112058816,0.24171285284660454,1.3796264163761456,-0.7115117016764498,-0.17833730968397296,0.04032495288400731,0.6784694543802748,0,-1,0.040511924773454666,-1.589985195790426,-0.33967334428896123,-1.4978259245501917,0.2772936224937439,0.08807356655597687
2550,1734173761,794086217,-0.28147196465044644,0.24128689426134758,1.3782249485390756,-0.7116392444173911,-0.18087539529773505,0.040920148866578264,0.6776276400779928,0,-1,0.04113435372710228,-1.5902131239520472,-0.3446887175189417,-1.4967110792743128,0.2813675105571747,0.0893910825252533
2566,1734173761,810423135,-0.28538866294087994,0.24084661200517865,1.3768051626418325,-0.7117701743492747,-0.1834299494772575,0.04152489526772282,0.6767661011121777,0,-1,0.041708849370479584,-1.5905006567584437,-0.3496921698199671,-1.4956324736224573,0.28551292419433594,0.09064868092536926
2582,1734173761,826276540,-0.28928503607445233,0.2404163673978716,1.3753559581003798,-0.7118970556180537,-0.186002527334192,0.04201520325350502,0.675899670604451,0,-1,0.04230730980634689,-1.5907405058490198,-0.3547557036029261,-1.4945052305804651,0.289562851190567,0.0919538363814354
2598,1734173761,842440605,-0.2932298509980581,0.23997345639243375,1.3738763618837777,-0.7120352253285889,-0.18856140904918256,0.04255167809903551,0.6750109536886112,0,-1,0.04289378970861435,-1.5910285154925745,-0.3597834745990198,-1.4934385458575647,0.29344499111175537,0.09321143478155136
2614,1734173761,858165740,-0.2971273262082283,0.23953021280187028,1.3723885915853071,-0.7121716265736255,-0.19112133189935251,0.043065934108072045,0.6741138895734853,0,-1,0.043528202921152115,-1.5913522879229944,-0.36482268968691045,-1.492347542439596,0.29767468571662903,0.09456489980220795
2630,1734173761,873899698,-0.30103279065872146,0.23907716341504465,1.3708768313757682,-0.7123105063275095,-0.19365366321215435,0.043610834694850185,0.6732088059414991,0,-1,0.044102322310209274,-1.5916522184955042,-0.3698623816119593,-1.4911964575396937,0.30179649591445923,0.09581051021814346
2646,1734173761,890210866,-0.3049886238862979,0.23861746745335297,1.36932565192398,-0.7124542684545088,-0.19625406470553255,0.044118082906884036,0.6722699251105383,0,-1,0.044712770730257034,-1.5919159094439905,-0.3749020735370081,-1.4901774565326136,0.3059063255786896,0.09711603820323944
2661,1734173761,905898571,-0.30886058975308517,0.23815053922276297,1.3677723304782499,-0.7125946193255805,-0.19879928971296645,0.04463672664491454,0.6713384493325839,0,-1,0.045287638902664185,-1.5921919981585901,-0.37997752824892217,-1.4890740553485315,0.3100277781486511,0.09845715016126633
2678,1734173761,922156810,-0.3127669581062542,0.2376813443571927,1.3661898198317344,-0.7127375476657413,-0.20137278842086417,0.045145098133163745,0.6703850448403349,0,-1,0.045897334814071655,-1.5925152937518519,-0.3850048224078577,-1.4879830519305628,0.314125657081604,0.0997147485613823
2694,1734173761,937918901,-0.3166521010730688,0.23720037031554778,1.364598176503998,-0.7128797206832473,-0.20394712267747042,0.04565370865062525,0.6694205060174061,0,-1,0.04649617150425911,-1.5928152243243616,-0.3899725119220179,-1.4869287649737757,0.3182235062122345,0.1009363904595375
2710,1734173761,954122543,-0.32047096011326714,0.23672503904091907,1.3630042516663479,-0.713024974529104,-0.206472537932791,0.046157361530929655,0.6684564120074441,0,-1,0.04710661992430687,-1.5931151548968714,-0.3949998060809534,-1.4858611265765589,0.32227379083633423,0.10221794992685318
2726,1734173761,970395803,-0.32438781604540284,0.2362326228770953,1.361358887422512,-0.7131674834140144,-0.2090795321101217,0.04664472636411898,0.6674594814338549,0,-1,0.04764478653669357,-1.5934389273272913,-0.39993173280824834,-1.4847944418536585,0.3264315724372864,0.1034635603427887
2742,1734173761,986125230,-0.32824998774798286,0.23574619450831513,1.359699581289744,-0.7133169156241822,-0.2116247702039215,0.04713007708462627,0.6664628199341189,0,-1,0.04827919974923134,-1.593715016041891,-0.40503102937807256,-1.483727757130758,0.330517441034317,0.10472115874290466
2757,1734173762,2436876,-0.33214226629004806,0.23523310948983622,1.358010770777201,-0.7134659079303437,-0.21419474992496818,0.047623182588438256,0.6654464965764408,0,-1,0.048890020698308945,-1.5940511862384241,-0.41004640260805303,-1.482600514088766,0.3346632421016693,0.1060263141989708
2774,1734173762,18000364,-0.3359313126796259,0.2347225525475649,1.3563319958077675,-0.7136139094418631,-0.21670890477010457,0.048162214192672234,0.6644342254644182,0,-1,0.049476124346256256,-1.5943024794207972,-0.41509801546205694,-1.481473747883932,0.33866560459136963,0.10731986165046692
2789,1734173762,34362792,-0.3397195272675696,0.23422054817285481,1.3546327736792727,-0.7137738174781153,-0.21918844004366383,0.04864277082774053,0.6634133297425846,0,-1,0.05009855702519417,-1.594614330922262,-0.42013723054994756,-1.4804065863238733,0.34282374382019043,0.10861340910196304
2806,1734173762,50080299,-0.34354651932371655,0.23369749028214348,1.3529086592473634,-0.7139334848381358,-0.22173293554098616,0.04918159891332594,0.6623553841040177,0,-1,0.050732970237731934,-1.594938103352682,-0.4250453154193323,-1.4793513456927698,0.34694555401802063,0.10996687412261963
2821,1734173762,65830230,-0.3473336176262675,0.23316569359903494,1.3511764784161806,-0.7141012593916587,-0.2241913981906457,0.04974253553866716,0.6613042329145903,0,-1,0.0513310581445694,-1.5952375570880335,-0.4300482908831995,-1.4782488981830042,0.35099586844444275,0.11131996661424637
2838,1734173762,82078933,-0.3511068092987841,0.23264888267869505,1.3494119857180116,-0.7142688322321453,-0.2266776758518693,0.05022691498644463,0.6602382324457335,0,-1,0.051929522305727005,-1.595501724873678,-0.4350994269000452,-1.4772298971759241,0.35511767864227295,0.11267343908548355
2853,1734173762,97814798,-0.35496572574817475,0.23209889314934745,1.3475931591771864,-0.7144286706492863,-0.22924153545045844,0.05071456487147145,0.6591418860067284,0,-1,0.05250401422381401,-1.5958135763751429,-0.44019872346986944,-1.4760907332049769,0.35925185680389404,0.11400293558835983
2870,1734173762,114080190,-0.3587209312813805,0.23155053963733568,1.3457893877249874,-0.714594031401182,-0.23172848180742597,0.051225027068001056,0.6580526404528092,0,-1,0.053174007683992386,-1.5961015860186976,-0.4452860991107386,-1.474999729787008,0.36327818036079407,0.11530847102403641
2885,1734173762,130362272,-0.36241951061057,0.23102361393710247,1.3439819419846435,-0.7147668158469275,-0.2341979509891956,0.05170508638935959,0.6569522834711632,0,-1,0.053736891597509384,-1.5964134375201624,-0.4502294699298304,-1.473992649708883,0.3674359619617462,0.11661362648010254
2902,1734173762,146106719,-0.3661957592797544,0.2304680861813797,1.342136344267534,-0.7149356202947003,-0.236723416729636,0.0521932041110536,0.65582387288837,0,-1,0.054395273327827454,-1.596701447163717,-0.45513707796205694,-1.4729135672198694,0.3715701401233673,0.11791878193616867
2917,1734173762,162410974,-0.3698978969852841,0.22989708393152614,1.3403030264557974,-0.715095012490854,-0.2392268777426241,0.052742742317289,0.6546967444619477,0,-1,0.05501732975244522,-1.5969770590411585,-0.46017629304994756,-1.471834961568014,0.37570396065711975,0.11915241181850433
2934,1734173762,178153753,-0.3736140625039028,0.22933436750269384,1.3384254152240362,-0.7152621335771367,-0.24174048677213764,0.05319588186208307,0.6535532231415948,0,-1,0.055591825395822525,-1.59727651277651,-0.4652159849749964,-1.4707916418658655,0.3798145651817322,0.12049389630556107
2950,1734173762,193835735,-0.37731586364364933,0.2287713125752509,1.3365223790966505,-0.715439243292297,-0.2442114646197329,0.05366666605204691,0.6524012098858252,0,-1,0.05620227009057999,-1.5975287596331995,-0.47027904192079717,-1.469736401234762,0.3838648498058319,0.12178744375705719
2966,1734173762,210169315,-0.38096267181010257,0.22820128505353432,1.3346272212899921,-0.7156102978916684,-0.2466837121943596,0.05413950337225668,0.6512433967911024,0,-1,0.0568123422563076,-1.5977805296527308,-0.4753182570086878,-1.4686458746539515,0.38797467947006226,0.12309297174215317
2981,1734173762,225931406,-0.38462499773351216,0.22763804900516366,1.3326946814947664,-0.7157872026956633,-0.2491342634516672,0.05459413062025116,0.6500771339874457,0,-1,0.05743514746427536,-1.598044220601217,-0.4804170767413538,-1.467590634022848,0.3920729160308838,0.12436255067586899
2998,1734173762,242151498,-0.3883565304075104,0.22704780938677277,1.330712890798635,-0.7159683302961375,-0.25161503275622776,0.055027922087087636,0.6488845452735182,0,-1,0.05799728259444237,-1.598356072102682,-0.48538428941835576,-1.4664762655841272,0.3961116075515747,0.12566770613193512
3013,1734173762,257823228,-0.3919740300073017,0.22647070608700676,1.3287752384370641,-0.7161405937984054,-0.2540580732449402,0.05550255182794311,0.6477010205903047,0,-1,0.05857177823781967,-1.5986078421222132,-0.49038821855653936,-1.465325180684225,0.40020984411239624,0.1269972026348114
3030,1734173762,274075031,-0.39558311380517575,0.2258970456680872,1.326786275339237,-0.7163303139145552,-0.2564730230717144,0.05598413605626981,0.6464969035606928,0,-1,0.05918222293257713,-1.598919693623678,-0.4954870382892054,-1.4642460981952112,0.40429607033729553,0.12827877700328827
3045,1734173762,289803266,-0.3992023145554539,0.22530882486305642,1.324787338630581,-0.7165143310387109,-0.2589197730271442,0.056424510594727036,0.6452782649027211,0,-1,0.05974510684609413,-1.5991833845721644,-0.5005386511432093,-1.4631794134723108,0.4084426164627075,0.1295962929725647
3062,1734173762,306164979,-0.402811561516129,0.22472230669751517,1.322759324340101,-0.716707109328001,-0.2613207141542971,0.05686074577169967,0.6440568758913107,0,-1,0.06031922623515129,-1.5994117895709437,-0.5056136290179651,-1.462064568196432,0.4124809205532074,0.13088983297348022
3078,1734173762,322207212,-0.4063918958008866,0.22412542152991388,1.3207132963665305,-0.7168911390089722,-0.263758175335118,0.05729535936279954,0.6428187625993778,0,-1,0.06090570613741875,-1.5996993223773401,-0.5106051603900355,-1.460961643849508,0.41662710905075073,0.1321713924407959
3094,1734173762,338618516,-0.40996282217557567,0.22350908181990364,1.3186735947784272,-0.71707197029559,-0.26624274902474526,0.05777984311897181,0.6415481881646102,0,-1,0.06150379404425621,-1.5999749342547815,-0.5155842939959925,-1.4599183241473597,0.4207732677459717,0.1333930343389511
3110,1734173762,354154825,-0.4134390799547435,0.22290228480149749,1.3166513774484916,-0.7172561302199837,-0.2686240145316431,0.05827697111475131,0.6403035039076764,0,-1,0.062126222997903824,-1.600239102040426,-0.5205391089068812,-1.4588034788714808,0.424859881401062,0.13463827967643738
3126,1734173762,370492219,-0.416968448479943,0.22230143853816317,1.3145811337079507,-0.7174458355103617,-0.27102271231416264,0.058711861185811794,0.6390391849290713,0,-1,0.06271307915449142,-1.6005027929889124,-0.5255067984210413,-1.4577248732196253,0.4289461374282837,0.1359078586101532
3142,1734173762,386129856,-0.4205076286314758,0.22168122444448513,1.312468121251551,-0.7176343043604577,-0.2734483714477205,0.05910726185877893,0.637756477782256,0,-1,0.06328719854354858,-1.6007550398456019,-0.5305941740619105,-1.4566453138934534,0.4330686926841736,0.13721339404582977
3158,1734173762,402400493,-0.4240603658559546,0.2210471985193788,1.3103275435054267,-0.717827043272962,-0.27588659185327097,0.05953470673780037,0.6364483820980521,0,-1,0.0639335960149765,-1.6010187307940882,-0.5356810728656214,-1.455578629170553,0.437179297208786,0.13850656151771545
3174,1734173762,418261528,-0.42759966091502205,0.22039731362245146,1.3081739338019218,-0.7180214005807546,-0.2783198675287116,0.05999037490874316,0.6351255581104891,0,-1,0.06449610739946365,-1.6012585798846644,-0.5407317320453089,-1.4544876257525843,0.44119399785995483,0.1398480385541916
3190,1734173762,434063911,-0.43109287131380036,0.21977376237631285,1.3060151701204128,-0.7182323889077883,-0.28066646844850746,0.060411181858197126,0.6338131097720765,0,-1,0.06514213234186172,-1.6015823523150843,-0.545722786580221,-1.453444782887594,0.44534018635749817,0.14126142859458923
3206,1734173762,450348377,-0.4347202463699808,0.21912724608187084,1.303762310588471,-0.7184449687231883,-0.2831037264018085,0.06079394028771211,0.6324501591730696,0,-1,0.06570501625537872,-1.6018222014056605,-0.5508459250079554,-1.4523657003985804,0.4494507610797882,0.14262688159942627
3222,1734173762,466682672,-0.4381386245376409,0.2184598648652763,1.3016130694342816,-0.7186453766920666,-0.28544701321256066,0.061302954038358885,0.6311186679486803,0,-1,0.06635141372680664,-1.602109734212057,-0.5559328238116663,-1.451191250477926,0.4535733461380005,0.14394402503967285
3238,1734173762,482307434,-0.4416084042557279,0.21779887631546574,1.2994011440095883,-0.718848216857597,-0.2878116633471201,0.06175397212896101,0.6297683181046128,0,-1,0.06696148216724396,-1.6023977438556116,-0.5609720388995569,-1.450184170399801,0.4576120376586914,0.14524956047534943
3254,1734173762,498779296,-0.44507350866359957,0.21716030037729003,1.2971479364177687,-0.7190581050922793,-0.2901803199956071,0.06210734763977326,0.6284055225389891,0,-1,0.06759589910507202,-1.6026371161090296,-0.5660703817950647,-1.449080769215719,0.4617345929145813,0.14661501348018646
3270,1734173762,514604806,-0.4485918428628206,0.2164711997929025,1.2948602429431333,-0.7192592329676623,-0.2926118386960147,0.06253088020230793,0.6270042716495896,0,-1,0.06817039102315903,-1.6029136816607874,-0.5711577574359339,-1.4479783217059534,0.465905100107193,0.14788459241390228
3286,1734173762,530742645,-0.45203256726498664,0.21578938694783825,1.2925983174517053,-0.7194621717060135,-0.29499493155972256,0.06294928386256783,0.6256113502002113,0,-1,0.06880443543195724,-1.6032374540912073,-0.5761249701129358,-1.446935002003805,0.46997973322868347,0.1492021083831787
3302,1734173762,546582460,-0.4554329025913965,0.2151251016110006,1.2903284395752959,-0.719664305675002,-0.2973618091525408,0.06335630567020087,0.6242156839800401,0,-1,0.06942686438560486,-1.6035130659686487,-0.5811517874347132,-1.445820156727926,0.4740663766860962,0.15042337775230408
3318,1734173762,562790393,-0.45886817440372196,0.21445539429909,1.2880297937225065,-0.7198764525002432,-0.2997012979566361,0.06373659078656416,0.62281190750794,0,-1,0.07002495229244232,-1.6037886778460901,-0.5861070791827601,-1.4447296301471155,0.4781649708747864,0.15175287425518036
3334,1734173762,578474283,-0.4622636583422072,0.21375477122212536,1.285723325245478,-0.7200872009257577,-0.30205116866489606,0.06416706710291215,0.6213872400287024,0,-1,0.07061180472373962,-1.604089085255758,-0.5911815802203577,-1.4436982313739222,0.48226356506347656,0.1530580371618271
3350,1734173762,594329595,-0.4656421128034014,0.213092847978196,1.2833646327470722,-0.720301865750728,-0.30441714369235656,0.06449877811414595,0.619947846551619,0,-1,0.07119828462600708,-1.6043646971331995,-0.5962212721454065,-1.4426797072040003,0.48635056614875793,0.154303640127182
3366,1734173762,610632658,-0.4690221284505878,0.21240484233678686,1.2810048420641864,-0.7205142916133266,-0.30678174768511646,0.06484472750407336,0.618497595939656,0,-1,0.07177240401506424,-1.604652229939596,-0.6012838522540491,-1.4416006247149866,0.49036529660224915,0.15559719502925873
3382,1734173762,626186132,-0.4723855076104996,0.21172213949278434,1.2786241030303607,-0.7207279555830701,-0.30909191750721043,0.06516897291795525,0.6170627241549944,0,-1,0.07232292741537094,-1.6049159208880823,-0.6063225905047815,-1.440545384083883,0.4944998323917389,0.156926691532135
3398,1734173762,642498016,-0.4757406364823162,0.21103567374973117,1.27623225481758,-0.7209538219565051,-0.3114415158124992,0.0655742496288132,0.6155727305691334,0,-1,0.0729457288980484,-1.6052520910846155,-0.6112301985370081,-1.4395268599139612,0.4986707270145416,0.15817229449748993
3414,1734173762,658178806,-0.47904304825613975,0.21032363162759904,1.273862814416504,-0.7211667168846313,-0.31378208780871336,0.06597523683131941,0.6140900878155405,0,-1,0.07356778532266617,-1.6055520216571253,-0.6162331740008753,-1.4384239355670374,0.502781331539154,0.1594778299331665
3430,1734173762,674465417,-0.4823698552168061,0.20963584146902,1.2714433059642174,-0.7213945930161592,-0.3160562672415514,0.06633767242962021,0.6126153689885748,0,-1,0.07411831617355347,-1.6058157126056116,-0.6212723890887659,-1.4373567740069788,0.5068922638893127,0.16078336536884308
3446,1734173762,690128087,-0.48568416574355916,0.2089372313918185,1.2689935220661956,-0.7216236347204561,-0.3183652740469516,0.06667203105633997,0.6111118738567184,0,-1,0.07468082010746002,-1.6061156431781214,-0.626383129750387,-1.436242405568258,0.5109912753105164,0.16211286187171936
3461,1734173762,706297636,-0.4890160562819232,0.20820528113251865,1.266494547534821,-0.7218366270624309,-0.3207406182639986,0.06702668562799517,0.6095775283263705,0,-1,0.0753508135676384,-1.6063793341266077,-0.6315177122699183,-1.4351633230792444,0.5151258111000061,0.16335846483707428
3478,1734173762,722032070,-0.49237218034388225,0.20747813361745998,1.2639758391740188,-0.7220583735658509,-0.32309245033578665,0.06736064824074034,0.6080341411204166,0,-1,0.07590171694755554,-1.6066668669330042,-0.6365445295916956,-1.4340484778033655,0.5192487835884094,0.1646040827035904
3494,1734173762,738380908,-0.4955656332832391,0.20677688340525724,1.2615435678212754,-0.7222769321334929,-0.325331647945244,0.06769578564996975,0.6065415342400674,0,-1,0.076499804854393,-1.6070030371295374,-0.641463581715719,-1.4329217115985315,0.5232518911361694,0.1658496856689453
3510,1734173762,754121780,-0.49881398810093014,0.20605229233234978,1.259071378509486,-0.7224982571914064,-0.32759404357857613,0.06804774500881385,0.6050189380229629,0,-1,0.07708628475666046,-1.6073268095599573,-0.6463468710528772,-1.431866470967428,0.5273385047912598,0.1671188920736313
3526,1734173762,770441055,-0.5019783527012777,0.2053166274865596,1.2566135011782087,-0.72271828988341,-0.3298365182229059,0.06843744181751367,0.603491889980358,0,-1,0.07772069424390793,-1.607626740132467,-0.6513498465167444,-1.4307640234576624,0.5314258337020874,0.16840007901191711
3542,1734173762,786069154,-0.5052245432534437,0.2045721466309412,1.2540514546482546,-0.7229469044000632,-0.3321069628666983,0.06873371359368868,0.6019372186943122,0,-1,0.07834313064813614,-1.6078904310809534,-0.6564729849444788,-1.4296487013446253,0.5354166030883789,0.1697295904159546
3558,1734173762,802238702,-0.508470534986923,0.2038250613824198,1.25147209942776,-0.7231758932864978,-0.3343896673093198,0.0690473085782758,0.6003604308614408,0,-1,0.0789775401353836,-1.6082022825824183,-0.6615474859820765,-1.4285700956927698,0.5395039916038513,0.17105908691883087
3574,1734173762,817989826,-0.5116970521560446,0.20305548811362456,1.2488943846943978,-0.723405774107882,-0.33665506887952945,0.0694005294119391,0.5987745962400526,0,-1,0.07956402003765106,-1.6084540526019495,-0.6666105429278772,-1.4274428526507776,0.5436509251594543,0.1724245399236679
3590,1734173762,834273338,-0.5149326970963889,0.20229398560786327,1.2462708427977915,-0.7236557081701459,-0.3389294894954342,0.06975212987153653,0.5971464289112957,0,-1,0.08022203296422958,-1.608837906514303,-0.6716254393206995,-1.4264362494098108,0.5478932857513428,0.1738019734621048
3606,1734173762,850169181,-0.5181040215420787,0.2015358566218063,1.2436887738316276,-0.7239066520076805,-0.34117954493122976,0.07014797959353504,0.5955123325830415,0,-1,0.08083247393369675,-1.6090896765338343,-0.6765325705157679,-1.425333325062887,0.5520285964012146,0.17510750889778137
3622,1734173762,866338014,-0.5212341308654959,0.2007719381263658,1.2410921376807855,-0.7241356733234193,-0.3434123405398643,0.07046795764820421,0.5939105639153603,0,-1,0.0814065933227539,-1.6094616095172327,-0.6816075483905237,-1.4242304007159632,0.5561156272888184,0.1764250248670578
3638,1734173762,882069587,-0.5244045549717584,0.20000113615555054,1.2384462090238084,-0.7243745364388631,-0.3456717837602398,0.07079569240319253,0.592267269742427,0,-1,0.08201704174280167,-1.609713379536764,-0.6866582075702112,-1.423187557850973,0.5602868795394897,0.17777849733829498
3654,1734173762,898419857,-0.5275200660175703,0.19921896483002613,1.2357777122883153,-0.7246105423917848,-0.3479403519998055,0.07109219628494935,0.5906123711304371,0,-1,0.08265183120965958,-1.6099651495562952,-0.6917927900897425,-1.4220846335040491,0.5643615126609802,0.1790117472410202
3670,1734173762,914077997,-0.5306323442121827,0.1984405667562176,1.233093000910133,-0.7248488591750187,-0.3501760340828968,0.07137364029407148,0.5889623756895005,0,-1,0.08322595059871674,-1.6102173964129847,-0.6968672911273401,-1.4210179487811487,0.568496823310852,0.1803528517484665
3686,1734173762,930397987,-0.5336762715187612,0.19768413031185833,1.230436281991594,-0.7250863327301361,-0.352402458696887,0.0716702866990426,0.5873037435576485,0,-1,0.08378846198320389,-1.6105530897723597,-0.7018349806415003,-1.4199031035052698,0.5725957751274109,0.1815984696149826
3702,1734173762,946108579,-0.5367198436746627,0.19693855544164535,1.2277748787060743,-0.7253443652466612,-0.3545361708188057,0.07199581856030358,0.5856588234594341,0,-1,0.0844348594546318,-1.610816780720846,-0.7067540327655237,-1.4188244978534144,0.5766951441764832,0.18290399014949799
3718,1734173762,961971044,-0.5397348223719309,0.19616528361292898,1.2251191277620288,-0.7255916064820053,-0.3566998034725977,0.07231859262342555,0.5839966540712712,0,-1,0.08505691587924957,-1.6111167112933558,-0.7116969267474573,-1.4177454153644007,0.5807225704193115,0.18424548208713531
3734,1734173762,978150367,-0.5427477982932649,0.1953779718912267,1.2224246067182893,-0.725826304674806,-0.3588756839853887,0.07258901432949803,0.5823360317589897,0,-1,0.08558384329080582,-1.6113799254046839,-0.7167475859271448,-1.416654411946432,0.5847736597061157,0.18549108505249023
3750,1734173762,994296789,-0.5456851429421512,0.1946336670342811,1.2197341063470597,-0.7260886589294528,-0.36099291162043345,0.07288949038220446,0.5806603993089706,0,-1,0.08619391918182373,-1.6116083304034632,-0.7218106428729456,-1.415623966847555,0.5888490080833435,0.18678463995456696
3766,1734173763,9969472,-0.5486933120540659,0.19384280397043718,1.216954924654732,-0.7263369055712438,-0.3632292331542837,0.07313489466869828,0.5789218522124895,0,-1,0.08684031665325165,-1.6118720213519495,-0.7268851439105433,-1.4145086447345179,0.5930199027061462,0.188150092959404
3782,1734173763,26256084,-0.5516614309717786,0.19305732448174936,1.2141890715915455,-0.7265929509249207,-0.36538888979759576,0.07344215317230136,0.5772000459252516,0,-1,0.08741480857133865,-1.6121600309955042,-0.7318881193744105,-1.413405720387594,0.597131609916687,0.18943165242671967
3798,1734173763,42422771,-0.5545563849552051,0.19223170188059713,1.2114896920171878,-0.7268287061372913,-0.3675457388265294,0.07376542553447904,0.5754900727214753,0,-1,0.08796495944261551,-1.6124356428729456,-0.7367594877826136,-1.4123628775226038,0.6012665629386902,0.1907128393650055
3814,1734173763,57916879,-0.5574800998709099,0.19143075792937464,1.2087316557070318,-0.7270837778828039,-0.3697138075079144,0.07408721434323784,0.5737351001538336,0,-1,0.08862371742725372,-1.6127236525165003,-0.7417505423175257,-1.4112361113177698,0.6053774952888489,0.19205433130264282
3830,1734173763,74262619,-0.5603408895938862,0.19065623792657949,1.2059741441424279,-0.7273370056578848,-0.37181951208317815,0.0743726163269623,0.5720138499857602,0,-1,0.08919821679592133,-1.6129873434649866,-0.7468131224261683,-1.4102409521686,0.6095491647720337,0.19332391023635864
3846,1734173763,90003252,-0.5633258974158473,0.1898324857629068,1.2031010472412993,-0.7275907718932356,-0.37401274256970646,0.07458390386462437,0.5702309868251677,0,-1,0.08980828523635864,-1.613251034413473,-0.7519715468036097,-1.4091265837298792,0.6136481165885925,0.19461745023727417
3862,1734173763,106306076,-0.5662502138074856,0.1890141472978749,1.2002222480335347,-0.7278390799648754,-0.3761727592327595,0.07476230980378204,0.5684671722447124,0,-1,0.0903947651386261,-1.6134913603412073,-0.7571418921100062,-1.4081075827227991,0.6177119016647339,0.19588702917099
3878,1734173763,122008323,-0.5691677388384769,0.18819837441531312,1.197331405304096,-0.7280947586420528,-0.3783408316276897,0.0749807435344854,0.5666693265567272,0,-1,0.09105277061462402,-1.6137908140765589,-0.7622044722186487,-1.4070528189288538,0.6218352317810059,0.19712065160274506
3894,1734173763,138766765,-0.5720178948121196,0.18736420506682938,1.1944800114544578,-0.7283422175702453,-0.3805085527374574,0.07521498331751458,0.5648659678924277,0,-1,0.09165161103010178,-1.6141145865069788,-0.767196003590719,-1.4059737364398401,0.6259705424308777,0.19842618703842163
3910,1734173763,154436826,-0.5748590993607792,0.18656093790700606,1.191621624755189,-0.7286071267597933,-0.3825965969835833,0.07546271911713737,0.5630780379617625,0,-1,0.09226205945014954,-1.6144025961505335,-0.7721026579486292,-1.40493089357485,0.6300339698791504,0.1997077465057373
3926,1734173763,170267820,-0.5776561155214206,0.18573685317189909,1.1887824907939302,-0.7288612597853135,-0.3846818447989943,0.07574009788375485,0.5612883214879565,0,-1,0.09284815937280655,-1.6146424452411097,-0.7771175543414515,-1.4037802855121058,0.6341336965560913,0.20100130140781403
3942,1734173763,186446428,-0.5804562251101175,0.18487993011080944,1.185891320310641,-0.7291129870253975,-0.38679547559121424,0.07600519741180096,0.5594700368915766,0,-1,0.093434639275074,-1.6148703734027308,-0.7821920553790491,-1.402701203023092,0.6383049488067627,0.20235438644886017
3958,1734173763,202362537,-0.5832510005093446,0.18405856551304317,1.1829658241052752,-0.7293874012747886,-0.3888762276463124,0.07624508468444302,0.5576342757530656,0,-1,0.09408066421747208,-1.615110222493307,-0.7872551123248499,-1.4015982786761683,0.64241623878479,0.20373183488845825
3974,1734173763,218683242,-0.5859320249335043,0.18326409032939575,1.1800933884384697,-0.7296781095431392,-0.39088478007217503,0.07652897437305127,0.555807755651976,0,-1,0.09464316815137863,-1.6153977552997034,-0.7922819296466272,-1.4004834334002894,0.6464437246322632,0.20508529245853424
3990,1734173763,234195947,-0.5887429412841659,0.18241000406241337,1.1771218468750295,-0.7299492265963563,-0.39294921698017565,0.07672565647303904,0.5539658952542379,0,-1,0.09523002803325653,-1.6157096068011683,-0.7972729841815394,-1.399428669606344,0.650579035282135,0.20639045536518097
4006,1734173763,250544071,-0.5914469177598102,0.18161949697334245,1.1742137654584035,-0.7302310523301836,-0.3949781188214363,0.07693495589791097,0.5521194693415716,0,-1,0.0958041399717331,-1.6159732977496546,-0.802215878163473,-1.3983386198626917,0.6546667814254761,0.207755908370018
4022,1734173763,266232728,-0.5941251209506994,0.18078257650674318,1.171293725515302,-0.7304999678911813,-0.3969745720204496,0.07719155659966394,0.5502930579880914,0,-1,0.09639061987400055,-1.6162975470172327,-0.8072784582721155,-1.3972228209124964,0.6587185859680176,0.20909738540649414
4038,1734173763,281953334,-0.5968643811848282,0.1799579297334514,1.1683005680021632,-0.7307645158382355,-0.39902335720042464,0.07732417686350886,0.548438286840545,0,-1,0.096965491771698,-1.616549317036764,-0.812317196522848,-1.3961203734027308,0.662794291973114,0.21031902730464935
4054,1734173763,298142910,-0.5995458244750649,0.17912007152609144,1.1652970803252067,-0.7310445208859953,-0.4010754343905067,0.07752126329005232,0.5465371516639528,0,-1,0.09757556021213531,-1.6168492476092737,-0.8174875418292444,-1.395029369984762,0.6669056415557861,0.21161220967769623
4070,1734173763,313986063,-0.6022942469876771,0.17825856351203026,1.1622046723320665,-0.7313072280114938,-0.40317799427489814,0.07765107621271035,0.5446168869523079,0,-1,0.09818600863218307,-1.6170771757708948,-0.8224905172931116,-1.3940108458148401,0.6710173487663269,0.21290574967861176
4086,1734173763,330239534,-0.6049353294252451,0.17742486914528033,1.1591961221268334,-0.7315786345513001,-0.4052118979812862,0.07782120549189472,0.5427152837153633,0,-1,0.09876012802124023,-1.6173885504352015,-0.8274815718280237,-1.39296800294985,0.6750807762145996,0.21419930458068848
4102,1734173763,346029996,-0.6075356393357103,0.17656068375733328,1.1562196637359239,-0.7318509728668147,-0.40718800323457593,0.07802730897085314,0.5408362252942223,0,-1,0.0993945449590683,-1.6177247206317347,-0.8323887030230921,-1.391841236745016,0.6792048215866089,0.21552880108356476
4118,1734173763,362476110,-0.6102039981936541,0.17571400732355674,1.1531811211578042,-0.7321292535194582,-0.4091943936129688,0.07821510474843182,0.538914744431758,0,-1,0.09993346035480499,-1.6180241743670862,-0.8373554388629358,-1.3908103148089808,0.6832922101020813,0.21677440404891968
4134,1734173763,377963542,-0.6127093851254645,0.1748526835773448,1.1502136416789515,-0.7323995470509226,-0.4111669619793727,0.07845248298293477,0.5370082315663969,0,-1,0.10057948529720306,-1.6182645002948206,-0.8423827330218714,-1.3896835486041468,0.6874278783798218,0.21807993948459625
4150,1734173763,394208908,-0.6153306999609462,0.17397509403667327,1.147119905437609,-0.7326704335061099,-0.41318444242584346,0.07861258268933997,0.5350632805997115,0,-1,0.10126183182001114,-1.6185639540301722,-0.8474448362933558,-1.388580624257223,0.6915395855903625,0.21942143142223358
4166,1734173763,409936428,-0.6179280187925702,0.17311699583998238,1.1439915763555693,-0.7329504847757132,-0.4151968769528345,0.07873517179309117,0.5331002841477127,0,-1,0.10178801417350769,-1.6188400427447718,-0.8525798956500452,-1.3874781767474573,0.6956033706665039,0.22070299088954926
4182,1734173763,426229476,-0.6204913236981766,0.17224027132768924,1.1408812784768247,-0.7332147239400187,-0.41719544057246355,0.07885604166936105,0.5311552105132265,0,-1,0.10245838761329651,-1.6191633383380335,-0.857558552418844,-1.3864472548114222,0.6997390389442444,0.22194822132587433
4198,1734173763,442033290,-0.6230757059206817,0.17137203811491836,1.1377677703478128,-0.7334863463240511,-0.41919338822809704,0.0790116700297414,0.5291803464048467,0,-1,0.10305684804916382,-1.6194637457477015,-0.8625138441668909,-1.3853204886065882,0.7038148045539856,0.22324177622795105
4214,1734173763,458131551,-0.6256403228394634,0.17048133402453375,1.1346514260212301,-0.7337563700106304,-0.42115098667143164,0.07913331342555788,0.527229887810616,0,-1,0.10363133996725082,-1.6197994391070765,-0.8675044218646448,-1.384205166493551,0.7078310251235962,0.22452333569526672
4229,1734173763,473830938,-0.6281329382270752,0.16959985754037463,1.131548783944429,-0.7340316885125242,-0.42307902952355564,0.07927734448102686,0.5252777528973557,0,-1,0.10427773743867874,-1.6201351324664515,-0.8725431601153772,-1.3831384817706507,0.7119423747062683,0.22579291462898254
4246,1734173763,490122318,-0.6306645737149659,0.1687117787109927,1.1283367965420432,-0.734299392601026,-0.42509402448988465,0.0793538803777066,0.5232613439169362,0,-1,0.10486384481191635,-1.6204350630389612,-0.8776539007769983,-1.38202411333193,0.7160181403160095,0.2270265370607376
4262,1734173763,505986928,-0.6332138029989365,0.16782958751341093,1.1250935295647395,-0.7345769752871747,-0.4271092870829852,0.07942285075116522,0.5212162075798948,0,-1,0.10548627376556396,-1.6207225958453577,-0.8827760855304163,-1.381005589162008,0.720130205154419,0.22829648852348328
4278,1734173763,522094964,-0.6356484101027181,0.16693800176052997,1.1219252419780208,-0.7348548529214708,-0.42905801792866727,0.07952932663789164,0.5192038603413985,0,-1,0.10606076568365097,-1.6210225264178675,-0.8878153006183069,-1.3799379507647913,0.7242659330368042,0.22957806289196014
4294,1734173763,537922143,-0.6380693100728494,0.16606002902528738,1.1187772420591924,-0.7351372656446598,-0.4309613697298088,0.07964917168764406,0.517205479389548,0,-1,0.10667121410369873,-1.6212862173663538,-0.8927701155291956,-1.3788593451129358,0.7283540368080139,0.23082366585731506
4309,1734173763,554216146,-0.6404360539536667,0.1652002570298667,1.115646078248187,-0.7354242365817891,-0.4328581286974788,0.07980608766657099,0.5151854239397352,0,-1,0.10725769400596619,-1.621634308491842,-0.8976176420794886,-1.3778169790851038,0.7325013279914856,0.2321651577949524
4326,1734173763,569914102,-0.6427976244001085,0.1643079368029064,1.1125060084316956,-0.7357121880405849,-0.43474990491058774,0.07996912351257895,0.5131520591729123,0,-1,0.10779623687267303,-1.6218860785113733,-0.902656380330221,-1.37671405473818,0.736613392829895,0.23347030580043793
4342,1734173763,586365938,-0.6452160109310966,0.16341080196757554,1.1092412496017365,-0.7360022062772087,-0.4366702780243307,0.0800126470900222,0.5110947044833106,0,-1,0.10843027383089066,-1.6221497694598597,-0.9077189604388636,-1.3756468931781214,0.7406651973724365,0.23483575880527496
4358,1734173763,602262735,-0.6475099160523811,0.16254105561101084,1.1060291695121596,-0.7363188830769906,-0.43851647681210293,0.08014537038527825,0.5090329278095476,0,-1,0.10905308276414871,-1.6224258581744593,-0.9127700964557093,-1.3746045271502894,0.7448731660842896,0.23621319234371185
4373,1734173763,617898464,-0.6498307826821751,0.16165666405794551,1.1028029584039896,-0.7366234672446611,-0.44037938435567925,0.0802593635324096,0.5069618327885634,0,-1,0.10963918268680573,-1.6226776281939905,-0.9179399649249476,-1.373441521321432,0.7489732503890991,0.23754270374774933
4390,1734173763,634004831,-0.6521580114457176,0.16076208199691364,1.0995496710526282,-0.7369212858644585,-0.44224968742960047,0.0803426677403498,0.5048834401608531,0,-1,0.11023764312267303,-1.6230133215533655,-0.9228594938861292,-1.3723986784564417,0.7530373930931091,0.238824263215065
4405,1734173763,649719953,-0.6544310712360146,0.1598830353408811,1.0963554123815065,-0.7372027376113898,-0.44406928848508426,0.08043152844481156,0.5028571963437086,0,-1,0.11080052703619003,-1.623300854359762,-0.9277666250811976,-1.371307675038473,0.7570891976356506,0.24016574025154114
4422,1734173763,665963172,-0.6567254761827359,0.15897199666175843,1.0930803947989391,-0.73749835675674,-0.4459086509763153,0.08050803561741342,0.5007794973504969,0,-1,0.1114225834608078,-1.62360126176943,-0.9328292051898401,-1.370180908833639,0.7612016797065735,0.2414349466562271
4437,1734173763,682204484,-0.6590193714141246,0.15806114389097856,1.0897847568898822,-0.7377904292837307,-0.44776346465698463,0.08057734181963552,0.49867870834935724,0,-1,0.11203303188085556,-1.6239007155047815,-0.9378917852984827,-1.369150463734762,0.7652774453163147,0.2427404820919037
4454,1734173763,697906970,-0.661204078272602,0.15718200465707605,1.0864997953050262,-0.7380807032346317,-0.44961379774300275,0.0806202366486061,0.49657294110181677,0,-1,0.11259516328573227,-1.624141041432516,-0.9430025259601038,-1.368035618458883,0.7693898677825928,0.2439860999584198
4469,1734173763,714158296,-0.6634316319766445,0.15627446710254367,1.0831650836636124,-0.738366461887179,-0.4514731680066578,0.08062186369301662,0.49445632934052514,0,-1,0.11322958022356033,-1.6244047323810022,-0.94812518755068,-1.3669455687152308,0.7734776139259338,0.24529162049293518
4486,1734173763,729883193,-0.6656295359670943,0.15535533231858525,1.0798444452580658,-0.7386528719370546,-0.45331763592441426,0.08066707288362787,0.4923290353934334,0,-1,0.1138639971613884,-1.6246326605426233,-0.9530800024615687,-1.3658660093890589,0.7775657176971436,0.24662111699581146
4501,1734173763,746110677,-0.667754223003243,0.15444327911774458,1.0766129818366976,-0.7389536026402337,-0.45507322881710627,0.08078359107875113,0.4902345774947074,0,-1,0.11446208506822586,-1.6249445120440882,-0.9579632917987269,-1.3647754828082483,0.7816778421401978,0.24792665243148804
4517,1734173763,761807441,-0.6698776678052436,0.15356694452653302,1.0733584382164982,-0.7392554615893531,-0.4568323214278204,0.08083870100210222,0.4881297952691208,0,-1,0.11506091803312302,-1.6251962820636194,-0.9629419485675257,-1.363720719014303,0.7857300043106079,0.24924416840076447
4534,1734173763,778208494,-0.6719772302692458,0.15264019328824074,1.0700520178030373,-0.7395566952892263,-0.4586015606781511,0.08092967380082866,0.4859947436906433,0,-1,0.11570694297552109,-1.6254118124591272,-0.9680650869952601,-1.3626058737384241,0.7898305058479309,0.25060924887657166
4550,1734173763,793969631,-0.6741101972151735,0.15170227958739785,1.0666872257404199,-0.7398583428044342,-0.4604076780529503,0.08097981669776812,0.4838147081891611,0,-1,0.11628144234418869,-1.6256879011737269,-0.9731276671039026,-1.3615992704974573,0.7940623760223389,0.25189080834388733
4566,1734173763,810141324,-0.6762129460251698,0.1507861287787841,1.063254298452048,-0.7401541865132587,-0.46224688759719906,0.08096754414509193,0.48160549403916814,0,-1,0.11690349876880646,-1.6259034315692347,-0.9782865683185022,-1.3604963461505335,0.7981748580932617,0.2531963586807251
4582,1734173763,825955152,-0.6782518534660578,0.14986298087629393,1.059912229812076,-0.7404476575859941,-0.4640303639379782,0.08098655943611482,0.4794311889204773,0,-1,0.11754989624023438,-1.6261795202838343,-0.9832175413714808,-1.3594897429095667,0.8020468950271606,0.25453782081604004
4598,1734173763,842219352,-0.6802812448542589,0.14895196311811318,1.0566248495626542,-0.7407514887928026,-0.46571915061105007,0.08103758090711563,0.4773110255232862,0,-1,0.11813674867153168,-1.6265032927142542,-0.9881485144244593,-1.3583629767047327,0.8062552213668823,0.255795419216156
4614,1734173763,857941389,-0.6822673375812243,0.1480310504218188,1.0533601652594766,-0.7410336390261644,-0.46742004279503435,0.08113125392115711,0.4751898242411229,0,-1,0.11875880509614944,-1.6268037001239222,-0.9930556456195276,-1.3571761290179651,0.8103313446044922,0.2570769786834717
4630,1734173763,874288558,-0.6843017598971778,0.14712519182621397,1.049975694214301,-0.7413384991818648,-0.4691722840107395,0.0811464325141837,0.4729797607056217,0,-1,0.11935726553201675,-1.6270793120013636,-0.9980829397784632,-1.356133762990133,0.8144913911819458,0.258334219455719
4645,1734173763,889950752,-0.6863172594713152,0.1461974313933541,1.0465615096668222,-0.7416269647190695,-0.47090847955123544,0.08109599058676362,0.4708057873466246,0,-1,0.11991940438747406,-1.6272948423968714,-1.0032170454608362,-1.3549941221820276,0.8185323476791382,0.2596037983894348
4662,1734173763,906272649,-0.6882793566861694,0.14531204332922243,1.0431061742064127,-0.7419328928765851,-0.47264174603732867,0.08106430017640183,0.4685871761022459,0,-1,0.12053022533655167,-1.627559010182516,-1.0082677046405237,-1.3539636770831507,0.8226563930511475,0.2608377933502197
4678,1734173763,921881675,-0.6902600674762012,0.14436582921804167,1.0396726596308337,-0.7422214624057081,-0.47438146280696597,0.08105144580597352,0.46636915809497587,0,-1,0.12110471725463867,-1.6278346220599573,-1.0133188406573694,-1.352861229573385,0.8267568945884705,0.2621433138847351
4694,1734173763,938091039,-0.6921588292375076,0.14350002375638052,1.036280718214867,-0.7425355157077872,-0.4760578762467664,0.08102320190370306,0.46416069106427005,0,-1,0.12166684865951538,-1.6280983130084437,-1.018261734639303,-1.3517468611346644,0.83085697889328,0.2634488344192505
4709,1734173763,953823566,-0.6940697284888694,0.14258324998438515,1.0329457910857875,-0.7428477462219193,-0.477682911264947,0.08106909591560801,0.46197842363673836,0,-1,0.12226531654596329,-1.6284578482257288,-1.0231688658343714,-1.3506796995746058,0.8349218964576721,0.26480230689048767
4726,1734173763,970093727,-0.6959537839561227,0.14166449537496417,1.0295223361595536,-0.7431573664208417,-0.47935251353325364,0.08104478631147169,0.45974997456826305,0,-1,0.1228637769818306,-1.62870961824526,-1.0281956831561487,-1.3495410124408167,0.8390699028968811,0.2660958766937256
4742,1734173763,985906362,-0.6978598001064614,0.14070834986934228,1.0260289610611193,-0.7434629559518058,-0.48104107977208854,0.08098946481350704,0.45749646915394665,0,-1,0.12347421795129776,-1.6289499441729944,-1.0332706610309046,-1.348546330128805,0.8431584239006042,0.2674849033355713
4757,1734173764,2197027,-0.6997491144746358,0.13984365845120705,1.0225054374514382,-0.7438114914749273,-0.4826828753704331,0.08090711479194264,0.4552095624545012,0,-1,0.12408466637134552,-1.6292379538165491,-1.0384176413165491,-1.3474553267108362,0.8472229242324829,0.2688024342060089
4774,1734173764,17996072,-0.7016170639080341,0.13888714018717677,1.0189850754692389,-0.7441095737194738,-0.4843684011473438,0.08081011910308285,0.452943615607433,0,-1,0.12461084872484207,-1.6295016447650355,-1.0435403029071253,-1.3464248816119593,0.8513110280036926,0.2700839936733246
4790,1734173764,34180879,-0.7034330627050858,0.13798080485994216,1.0155254939021283,-0.7444216059514082,-0.4860004332337857,0.08074333177430569,0.45068899017313857,0,-1,0.12524564564228058,-1.6298254171954554,-1.0484231154071253,-1.3454178015338343,0.855435848236084,0.2714134752750397
4805,1734173764,49934625,-0.7052391091925195,0.13704554028266136,1.012063656178273,-0.7447203469588919,-0.4876508449640065,0.08068866897262572,0.4484167670044733,0,-1,0.12581975758075714,-1.630136791859762,-1.0534265677081507,-1.3442915121661585,0.8595240116119385,0.2726590931415558
4822,1734173764,66089868,-0.7070044599128037,0.13611987858114089,1.008642778370899,-0.7450216854258463,-0.4892679945237951,0.080667131671483,0.44615281199135176,0,-1,0.12641821801662445,-1.630449120198385,-1.0583575407611292,-1.3432124296771448,0.8635888695716858,0.27392831444740295
4838,1734173764,81935167,-0.7088231555501735,0.13517988978630904,1.0051101467715418,-0.745332689420268,-0.49088150091248306,0.08057837894056166,0.44387121892590575,0,-1,0.12705226242542267,-1.6307123343097132,-1.06342059770693,-1.3421099821673792,0.8677372932434082,0.27523383498191833
4853,1734173764,98151683,-0.7105093870065753,0.1342736233177118,1.0016059107642816,-0.7456367137627987,-0.4925095452360286,0.08049050205362612,0.4415671160985265,0,-1,0.12765109539031982,-1.6309407393084925,-1.068519417439596,-1.3410432974444788,0.8718740940093994,0.27649179100990295
4870,1734173764,113940238,-0.7122549485004401,0.13333123828418303,0.9980336553233877,-0.7459506008261381,-0.49412781667927447,0.08039690000408344,0.4392399576320786,0,-1,0.12826155126094818,-1.6312764326678675,-1.0736058394061487,-1.3399880568133753,0.8759745955467224,0.2778332829475403
4885,1734173764,130486726,-0.7140208392480463,0.1323794226315379,0.99445628468945,-0.7462700305508041,-0.4957194893485151,0.08028025576433197,0.4369191114109828,0,-1,0.1288716197013855,-1.631563965474264,-1.0786212126361292,-1.3388617674456995,0.880074679851532,0.27911484241485596
4901,1734173764,145833969,-0.7156726211027655,0.13144219113508598,0.9910240739860678,-0.7465675583642453,-0.49729020000561164,0.08026075411074661,0.43462345671397246,0,-1,0.12945809960365295,-1.6319482962237757,-1.0833724180804651,-1.3377826849566858,0.8841875195503235,0.2804203927516937
4918,1734173764,162171363,-0.7173595515728944,0.13047636019514708,0.9875460662844748,-0.746876867974312,-0.49883372563642503,0.08022027143499504,0.43232460756179697,0,-1,0.13008014857769012,-1.6322601477252405,-1.0883520285235804,-1.3366683165179651,0.8882760405540466,0.28176185488700867
4934,1734173764,177906513,-0.7189949388133794,0.12958077976893775,0.9840192139478801,-0.7471995270270974,-0.5003627144843213,0.08012694053851462,0.4300112721363254,0,-1,0.13066700100898743,-1.632547680531637,-1.093426529561178,-1.3355777899371546,0.8923528790473938,0.2830430567264557
4950,1734173764,194059610,-0.7206881465586217,0.1286337880446392,0.9803622214054815,-0.7475100124981184,-0.5019541032069953,0.07993247061511498,0.4276466527754985,0,-1,0.13127745687961578,-1.6328113714801233,-1.0986092726336878,-1.334522549306051,0.8964414000511169,0.28434857726097107
4966,1734173764,210539340,-0.7222771601975038,0.1276725923643811,0.976747256608347,-0.7478138250687452,-0.5035233898875788,0.07978118576661397,0.4252924185426381,0,-1,0.1319114863872528,-1.633099381123678,-1.1037676970111292,-1.3334320227252405,0.9004943370819092,0.28565412759780884
4982,1734173764,226355314,-0.7239185581420363,0.12673676600475645,0.973116292562349,-0.7481297948345362,-0.5050676427886016,0.07959171953023741,0.4229345628711612,0,-1,0.13250994682312012,-1.6334589163409632,-1.108711067830221,-1.3323896566974085,0.9046311378479004,0.28694766759872437
4998,1734173764,242550849,-0.7254926198003425,0.12581192671641014,0.9695451113269961,-0.7484342131542803,-0.5066121979308076,0.07942863602865836,0.4205727062785653,0,-1,0.13309642672538757,-1.633758846913473,-1.1136663595782679,-1.3313468138324183,0.9086716771125793,0.28826555609703064
5014,1734173764,258266210,-0.7270536258568312,0.12485131522142871,0.9659791051568307,-0.7487438560026157,-0.5081118449892388,0.0793418732317427,0.418222259369398,0,-1,0.13371886312961578,-1.6340826193438929,-1.1186817328082483,-1.3302319685565394,0.9128084778785706,0.2894991934299469
5030,1734173764,274384975,-0.7286141410003417,0.12395278917132098,0.9623615454276686,-0.7490563762356517,-0.5096449634027065,0.07915215287253068,0.4158262776624525,0,-1,0.13426901400089264,-1.6343825499164026,-1.123720947896139,-1.3291409651385706,0.9169692397117615,0.2907683849334717
5046,1734173764,290356159,-0.7300758815292736,0.12303301539181047,0.9587843870439768,-0.7493828673472673,-0.5111153348363104,0.07902963442924106,0.41344981497581373,0,-1,0.13486747443675995,-1.634646240864889,-1.1288436094867151,-1.3280623594867151,0.9210697412490845,0.29207390546798706
5062,1734173764,306517362,-0.731606351932691,0.12208822925785279,0.9550831126878288,-0.7496892106876979,-0.5126374116699,0.078793741842605,0.4110480723483359,0,-1,0.1354663074016571,-1.6348984877215784,-1.1339424292193812,-1.3269837538348597,0.9251350164413452,0.293331503868103
5078,1734173764,322318077,-0.7330449248544846,0.12118152468171783,0.9514519181067197,-0.7499964773188702,-0.5141069221709651,0.07858894891957276,0.4086846384351868,0,-1,0.13605241477489471,-1.6351621786700647,-1.1390412489520472,-1.325869385396139,0.929187536239624,0.2946130633354187
5094,1734173764,338723897,-0.7344928345844199,0.12024565537095114,0.9478363976509799,-0.7503157844187137,-0.5155781839981362,0.07842022758008367,0.4062703874805574,0,-1,0.13661491870880127,-1.6354859511004847,-1.1439722220050257,-1.3248265425311487,0.9333487153053284,0.2959425747394562
5110,1734173764,354244947,-0.7358858622742305,0.11934459200423377,0.9443000853817279,-0.7506652744453204,-0.5169621002474845,0.07835517211171199,0.40387163759415634,0,-1,0.13723698258399963,-1.635749642048971,-1.1489041487323206,-1.323712174092428,0.9374611377716064,0.2972840666770935
5126,1734173764,370018482,-0.7372713387969169,0.1184059673107126,0.9407292170372924,-0.7509926307670154,-0.5183698981968039,0.07822092703964717,0.40147752583442387,0,-1,0.13781185448169708,-1.6360490957843226,-1.1539071241961878,-1.3226092497455042,0.941573977470398,0.29867348074913025
5142,1734173764,386496782,-0.7386595516527154,0.1174574868590012,0.9371024663561692,-0.7513145473589794,-0.5197889600842734,0.07803896359266689,0.3990686758725419,0,-1,0.13848184049129486,-1.6363251844989222,-1.1588862578021448,-1.3215668837176722,0.945699155330658,0.29999101161956787
5158,1734173764,401991844,-0.739974038915076,0.11651407504301976,0.9334903243929921,-0.751639738568316,-0.5211838340203047,0.07789763422310121,0.39665737500176784,0,-1,0.13906832039356232,-1.6365531126605433,-1.1640213171588343,-1.320427719746725,0.9498116374015808,0.3012845516204834
5174,1734173764,418290615,-0.7412976120431775,0.11557611827789674,0.9298309594214891,-0.7519473920502505,-0.5226148415919939,0.07768384993734294,0.39422590781874584,0,-1,0.13964281976222992,-1.6368172804461878,-1.1690481344806116,-1.3193848768817347,0.9538769125938416,0.3025780916213989
5190,1734173764,434016466,-0.7426072418650764,0.11466481453813335,0.9261901050303953,-0.7522682754011936,-0.5240246699758894,0.07743587882151902,0.3917834500750554,0,-1,0.1402648687362671,-1.6371410528766077,-1.1739915052997034,-1.3183425108539026,0.9579657912254333,0.30384767055511475
5206,1734173764,450346708,-0.7438837878032486,0.11372486769818238,0.9226007039521078,-0.752573105063486,-0.5253924388329654,0.07725354442883578,0.38939491088794925,0,-1,0.1408756971359253,-1.6373565832721155,-1.179018799458639,-1.3172276655780237,0.9620546698570251,0.30512887239456177
5222,1734173764,465998172,-0.7451626254159034,0.11275292715493904,0.9189814016280535,-0.7528792059882694,-0.5267995860470733,0.07708604138623373,0.38692743448158984,0,-1,0.14147378504276276,-1.6376565138446253,-1.1839140097247522,-1.3161729017840784,0.9661678671836853,0.30641043186187744
5238,1734173764,482253551,-0.7463751158362011,0.11181383896376422,0.9153663648288318,-0.7531920667482772,-0.5281499942251275,0.0769042535474542,0.3845062157804023,0,-1,0.14207224547863007,-1.6378606001483362,-1.1890252272235315,-1.3150704542743128,0.9702208042144775,0.3077522814273834
5254,1734173764,498468399,-0.747623368254077,0.1108899282993222,0.9115807438616095,-0.7535068631965747,-0.5295394208736927,0.07655517445528207,0.3820401996132528,0,-1,0.142730250954628,-1.6381242910968226,-1.1942198912249964,-1.3140395323382776,0.9742856621742249,0.3090578019618988
5270,1734173764,514222860,-0.7488375696187608,0.1099711155563064,0.9078680076481075,-0.7538383015537744,-0.5308862112123451,0.0762835078850514,0.3795635286482003,0,-1,0.143341064453125,-1.638399902974264,-1.1993191877948206,-1.313033405934469,0.9784108996391296,0.3103753328323364
5286,1734173764,530428171,-0.7499757090520053,0.10904371764676778,0.9042150610810475,-0.7541555917000005,-0.5322176764513716,0.07604693744833348,0.3771081432229415,0,-1,0.1439635008573532,-1.6386755148517054,-1.2042625586139124,-1.3119538466082972,0.9824517965316772,0.3116685152053833
5302,1734173764,546053647,-0.7511620757339622,0.10809306187812934,0.9005723209162123,-0.7544746545856972,-0.5335476550963328,0.07583862571622343,0.3746243427468004,0,-1,0.14452563226222992,-1.6389997641192835,-1.2092059294330042,-1.3108513990985315,0.9865766167640686,0.3129979968070984
5318,1734173764,562638521,-0.7522755438636796,0.10718152522973945,0.897022396099254,-0.7548031385585533,-0.5348014958974916,0.07568199403748405,0.37219862679283616,0,-1,0.14512409269809723,-1.6392634550677698,-1.214149300252096,-1.309748951588766,0.9906542301177979,0.3142915368080139
5334,1734173764,578234434,-0.7533907899761446,0.10620213092217526,0.8933191640096104,-0.7550901711674751,-0.5361585560939103,0.07544317240816692,0.3697041572265019,0,-1,0.14569859206676483,-1.6395157019244593,-1.2192242781268519,-1.3086102644549769,0.9948030710220337,0.3155495226383209
5350,1734173764,594416618,-0.7545202143490868,0.1053406278166779,0.8895993713857855,-0.7554386485813739,-0.5374237547391116,0.0751773345264996,0.3672009319775123,0,-1,0.14634498953819275,-1.6397913138019007,-1.2243474165545862,-1.3075316588031214,0.9990001320838928,0.3168071210384369
5366,1734173764,610254287,-0.7555833767955886,0.10440033576176766,0.8858295165628629,-0.7557431106968625,-0.5387615173360556,0.0748571740121289,0.36467078518973667,0,-1,0.14693109691143036,-1.640043083821432,-1.2294705549823206,-1.3065012137042444,1.0031253099441528,0.31812426447868347
5382,1734173764,626545906,-0.7566901713576577,0.1034506433221758,0.8820435477419168,-0.7560582280881171,-0.5400856880717839,0.0745204701706546,0.36211890976007993,0,-1,0.14752955734729767,-1.6403430143939417,-1.234462086354391,-1.3054221312152308,1.0072381496429443,0.3193938434123993
5398,1734173764,642237424,-0.7577328498495544,0.10254436599907016,0.8784143776837569,-0.7563602383076733,-0.5413575228476547,0.0742704322546624,0.35963193025107815,0,-1,0.14814038574695587,-1.6406424681292933,-1.2393453756915491,-1.3042953650103968,1.0113273859024048,0.3206634223461151
5414,1734173764,657877445,-0.758756193704734,0.10162485536237828,0.8747700308722707,-0.7566737452682253,-0.542583612266155,0.07403784635270405,0.35716419785502185,0,-1,0.1487264782190323,-1.6409786383258265,-1.2442534605609339,-1.3032048384295862,1.0154166221618652,0.32188543677330017
5430,1734173764,674154520,-0.7597511518769131,0.10070655687245533,0.8711123630201397,-0.7569881781587788,-0.5438147855820614,0.0737725026384038,0.3546716720639755,0,-1,0.1493489146232605,-1.6412423292743128,-1.2493045965777796,-1.3021143118487757,1.0194939374923706,0.32319095730781555
