yildirimyigit/pemp/data/ur10/raw/1_2024-12-14_13-26-56.csv
Time,ROS secs,ROS nsecs,________p_x________,________p_y________,________p_z________,________q_x________,________q_y________,________q_z________,________q_w________,gripper_position,gripper_force,shoulder_pan_joint,shoulder_lift_joint,elbow_joint,wrist_1_joint,wrist_2_joint,wrist_3_joint
0,1734172016,630508661,-0.00010104359644371656,0.25614101901377845,1.4272999917927476,-0.7071067801450209,-2.1233579531928582e-05,-0.00013933466030124293,0.707106768181389,0,-1,-0.00014335313905888825,-1.570916000996725,-1.1746083394825746e-05,-1.570820156727926,2.3968450477696024e-05,-2.366701234990387e-05
10,1734172016,646530866,-7.532230007143532e-05,0.25614101366583586,1.4272999950171714,-0.7071067816650597,-1.3946429726530866e-08,-9.290579593772158e-05,0.7071067746046523,0,-1,-0.000119511281148732,-1.5709040800677698,1.1920928955078125e-05,-1.5708320776568812,-3.5587941304981996e-05,-3.5587941304981996e-05
26,1734172016,661971569,-0.00013523390843298404,0.25614102022271906,1.4272999888213767,-0.7071067816547839,-2.102555342306111e-05,-0.00010548803311068365,0.7071067725372278,0,-1,-0.00014335313905888825,-1.5708802382098597,2.384185791015625e-05,-1.570820156727926,-1.1746083394825746e-05,-2.366701234990387e-05
42,1734172016,678305625,-0.00014264981057609188,0.25614102119740745,1.427299987888059,-0.7071067813520597,-2.9516740369702618e-05,-0.00011397921994184604,0.707106771218767,0,-1,-0.00014335313905888825,-1.5708921591388147,-3.5587941304981996e-05,-1.570820156727926,-1.1746083394825746e-05,-3.5587941304981996e-05
57,1734172016,694776773,-0.00015159662030849477,0.2561410201832741,1.4272999871074137,-0.7071067797037746,-3.387763405573354e-05,-0.0001266906059595408,0.7071067705083539,0,-1,-0.00014335313905888825,-1.5708921591388147,1.1920928955078125e-05,-1.5708320776568812,0.0,-2.366701234990387e-05
74,1734172016,710033655,-9.659340616212652e-05,0.2561410183227793,1.4272999927232835,-0.707106780606122,-8.819929599537326e-06,-0.0001269210105889937,0.7071067703212235,0,-1,-0.00013143221010381012,-1.57092792192568,-2.366701234990387e-05,-1.570808235798971,0.0,-1.1746083394825746e-05
90,1734172016,726476907,-0.0001771392090324472,0.25614102324226207,1.4272999823886272,-0.7071067797327587,-4.645987132256844e-05,-0.00013096710791757842,0.7071067689854658,0,-1,-0.00013143221010381012,-1.5708921591388147,-1.1746083394825746e-05,-1.570808235798971,2.3968450477696024e-05,-3.5587941304981996e-05
106,1734172016,742484807,-4.6822253152445946e-05,0.2561410095805251,1.4272999966916862,-0.7071067804408451,2.9617996257681862e-05,-8.005371551595707e-05,0.7071067767803949,0,-1,-0.00014335313905888825,-1.5708921591388147,-1.1746083394825746e-05,-1.570796314870016,-1.1746083394825746e-05,-1.1746083394825746e-05
122,1734172016,758657693,-0.0001336557019974639,0.25614102002191286,1.427299988898443,-0.7071067808093846,-2.5217859698981945e-05,-0.00011815446617054897,0.7071067712424839,0,-1,-0.00010711351503545075,-1.5708802382098597,-2.366701234990387e-05,-1.5708320776568812,1.1984225238848012e-05,-3.5587941304981996e-05
138,1734172016,774568557,-9.821242352430486e-05,0.2561410169474674,1.4272999929074943,-0.7071067807003704,4.161299739014031e-06,-0.00010551041181925552,0.7071067737886513,0,-1,-0.00010711351503545075,-1.5708921591388147,2.384185791015625e-05,-1.570796314870016,-3.5587941304981996e-05,-1.1746083394825746e-05
154,1734172016,790213823,-0.00014247678945818472,0.2561410276377939,1.4272999863451596,-0.7071067817558032,-2.1025553407367783e-05,-0.0001307761418338508,0.7071067682114757,0,-1,-0.000119511281148732,-1.5708802382098597,-7.18275653284195e-05,-1.570796314870016,1.1984225238848012e-05,-2.366701234990387e-05
170,1734172016,806429624,-9.813261589664842e-05,0.25614101856151816,1.4272999924787624,-0.7071067818166838,-8.381498873823797e-06,-0.00010970271790891478,0.7071067719969288,0,-1,-0.00014335313905888825,-1.5709040800677698,0.0,-1.570808235798971,1.1984225238848012e-05,-3.5587941304981996e-05
186,1734172016,822552680,-6.544651369592888e-05,0.256141013486214,1.4272999954676513,-0.7071067815522624,1.2630108131426547e-05,-8.869111112423797e-05,0.7071067751458533,0,-1,-0.0001671949969690445,-1.5709040800677698,-1.1746083394825746e-05,-1.5708320776568812,2.3968450477696024e-05,-1.1746083394825746e-05
202,1734172016,838288068,-0.00010300647004997945,0.256141021018691,1.4272999915457893,-0.7071067823610618,-1.261856230065085e-05,-0.00011389502402261562,0.7071067707267986,0,-1,-0.00014335313905888825,-1.5708683172809046,-2.366701234990387e-05,-1.5708444754229944,-1.1746083394825746e-05,-3.5587941304981996e-05
218,1734172016,854562044,-9.953249742028241e-05,0.25614101711658077,1.4272999927355696,-0.707106782259205,-4.189192611547722e-06,-8.86069152238939e-05,0.7071067745498543,0,-1,-0.00014335313905888825,-1.5708802382098597,0.0,-1.5708320776568812,-1.1746083394825746e-05,-4.7985707418263246e-05
234,1734172016,870279312,-0.0001357203961289049,0.2561410202667963,1.4272999882003408,-0.7071067818690077,-3.3860573951891566e-05,-0.00010984892662113736,0.7071067711608554,0,-1,-0.00017911592592412262,-1.570916000996725,-3.5587941304981996e-05,-1.5708563963519495,1.1984225238848012e-05,-5.990663637334137e-05
250,1734172016,886623144,-7.87803682394655e-05,0.25614101406203055,1.427299994877213,-0.7071067789125812,2.125044367921399e-05,-0.0001140465516858506,0.7071067739441312,0,-1,-0.000119511281148732,-1.5708921591388147,-2.366701234990387e-05,-1.5708320776568812,2.3968450477696024e-05,-4.7985707418263246e-05
266,1734172016,902318954,-8.063666811757279e-05,0.25614101170911974,1.4272999950738487,-0.7071067812590589,7.024940480212953e-08,-8.443698771445503e-05,0.7071067760726405,0,-1,-0.0001671949969690445,-1.5708921591388147,0.0,-1.570820156727926,1.1984225238848012e-05,-3.5587941304981996e-05
282,1734172016,918807506,-0.00012520410984406905,0.256141020796687,1.427299989725791,-0.7071067823743153,-1.6895064385153523e-05,-0.00010131278687815501,0.7071067725389982,0,-1,-0.00014335313905888825,-1.5708921591388147,0.0,-1.5708320776568812,-1.1746083394825746e-05,-3.5587941304981996e-05
298,1734172016,934215784,-0.00015106059175741394,0.256141022309476,1.4272999866476737,-0.7071067806394765,-2.960113194126435e-05,-0.00012253773835174168,0.7071067704964724,0,-1,-0.00014335313905888825,-1.57092792192568,0.0,-1.5708444754229944,2.3968450477696024e-05,-1.1746083394825746e-05
314,1734172016,950411558,-8.421638276342578e-05,0.2561410178972058,1.4272999936245834,-0.7071067806629974,8.437801827818239e-06,-0.00011809264898283922,0.7071067717985321,0,-1,-0.00013143221010381012,-1.5708683172809046,-1.1746083394825746e-05,-1.570820156727926,1.1984225238848012e-05,-3.5587941304981996e-05
330,1734172016,966098546,-7.955603539276666e-05,0.25614101291147406,1.4272999949497045,-0.7071067812590625,8.43216413837123e-09,-9.292817458958965e-05,0.7071067750077089,0,-1,-0.00013143221010381012,-1.5708444754229944,0.0,-1.5708320776568812,1.1984225238848012e-05,-1.1746083394825746e-05
346,1734172016,982486009,-0.0001205319784395357,0.2561410201470457,1.4272999904308261,-0.7071067806502279,-4.268069963684779e-06,-0.00011393978142642507,0.7071067725301322,0,-1,-0.00013143221010381012,-1.5709040800677698,0.0,-1.5708320776568812,1.1984225238848012e-05,-4.7985707418263246e-05
362,1734172016,998337268,-0.00012698409516007455,0.25614102302154185,1.427299988363186,-0.7071067817019687,-4.262711840557531e-05,-0.00013547421006922358,0.7071067664085471,0,-1,-0.0001671949969690445,-1.5708802382098597,-5.990663637334137e-05,-1.5708563963519495,1.1984225238848012e-05,-2.366701234990387e-05
378,1734172017,14552116,-0.0001096825897223776,0.25614101686445273,1.4272999919067986,-0.707106781359334,-2.5408825688749345e-05,-0.0001098713053019767,0.7071067720212633,0,-1,-0.0001671949969690445,-1.5708802382098597,1.1920928955078125e-05,-1.570808235798971,-1.1746083394825746e-05,-4.7985707418263246e-05
394,1734172017,30313014,-0.00014887860345661442,0.2561410220160715,1.4272999868655296,-0.7071067813538966,-2.9454923129128134e-05,-0.00011391740270205947,0.7071067712294695,0,-1,-0.000119511281148732,-1.5708802382098597,-1.1746083394825746e-05,-1.570808235798971,1.1984225238848012e-05,-4.7985707418263246e-05
410,1734172017,46067714,-5.062169162224646e-05,0.2561410101057251,1.4272999970069868,-0.707106780345186,1.259066943417206e-05,-0.0001055104118486146,0.707106774043986,0,-1,-0.000119511281148732,-1.5708802382098597,-1.1746083394825746e-05,-1.5708320776568812,4.793690095539205e-05,-5.990663637334137e-05
426,1734172017,62489032,-9.791380484640015e-05,0.25614101531791583,1.4272999932726993,-0.707106780812353,8.432142731113952e-09,-0.00010123390976857955,0.7071067743140963,0,-1,-0.00015527406801396637,-1.5708921591388147,-1.1746083394825746e-05,-1.5708444754229944,2.3968450477696024e-05,-2.366701234990387e-05
442,1734172017,78185319,-0.0001282332360035584,0.2561410173908256,1.4272999901055894,-0.7071067812458345,-2.9623510535267254e-05,-0.00010565662050267849,0.7071067726130769,0,-1,-0.00014335313905888825,-1.5708921591388147,0.0,-1.570808235798971,4.793690095539205e-05,-2.366701234990387e-05
458,1734172017,94453334,-7.499874899207782e-05,0.25614101228601605,1.4272999952094039,-0.7071067822244212,-8.634282103308694e-06,-8.462263504344984e-05,0.7071067750323735,0,-1,-0.00015527406801396637,-1.5708683172809046,-3.5587941304981996e-05,-1.570808235798971,0.0,-1.1746083394825746e-05
474,1734172017,110301733,-0.00010641799985649631,0.25614102341288664,1.427299990913983,-0.7071067812469171,-4.1444354466957754e-06,-0.0001307985205264401,0.7071067690166707,0,-1,-0.00013143221010381012,-1.5709040800677698,-4.7985707418263246e-05,-1.570808235798971,2.3968450477696024e-05,-3.5587941304981996e-05
490,1734172017,126585960,-0.00010181179332381225,0.25614101746344836,1.4272999923812002,-0.7071067804469141,-1.2804209825451559e-05,-0.00012247592117015975,0.7071067712034022,0,-1,-0.00013143221010381012,-1.5708921591388147,-1.1746083394825746e-05,-1.5708683172809046,-3.5587941304981996e-05,-1.1746083394825746e-05
506,1734172017,142294168,-0.00010289478218553155,0.25614101762505864,1.4272999921996392,-0.7071067810557393,-1.6957077393719953e-05,-0.00011832305356221834,0.7071067712142936,0,-1,-0.00015527406801396637,-1.5708802382098597,-3.5587941304981996e-05,-1.570808235798971,-1.1746083394825746e-05,-2.366701234990387e-05
522,1734172017,158602237,-0.00010151553073763786,0.25614101742733864,1.427299992422647,-0.7071067811442506,-1.2742392543133967e-05,-0.00011410836876849133,0.7071067719069931,0,-1,-0.00015527406801396637,-1.5708563963519495,0.0,-1.570820156727926,0.0,-2.366701234990387e-05
538,1734172017,174432992,-9.01530173835752e-05,0.25614101574010095,1.427299993782426,-0.7071067793273215,-1.303461448326174e-05,-0.00013956506505046097,0.7071067691523212,0,-1,-0.00013143221010381012,-1.5708921591388147,-3.5587941304981996e-05,-1.570808235798971,3.5952674807049334e-05,-2.366701234990387e-05
554,1734172017,190636873,-7.64617856567205e-05,0.25614101519660015,1.427299994499386,-0.7071067818049371,-4.397218660336718e-06,-0.0001057184377434362,0.7071067726515858,0,-1,-0.00014335313905888825,-1.5708802382098597,1.1920928955078125e-05,-1.5708320776568812,0.0,-3.5587941304981996e-05
570,1734172017,206336259,-9.880500130446851e-05,0.2561410170129539,1.4272999926510648,-0.7071067799098557,-8.420937608702815e-06,-0.00012652201862215726,0.7071067710938578,0,-1,-0.00013143221010381012,-1.5708921591388147,-1.1746083394825746e-05,-1.5708320776568812,-1.1746083394825746e-05,-2.366701234990387e-05
586,1734172017,222330570,-0.0001094661347341383,0.2561410151545662,1.4272999924006142,-0.707106781246552,-4.206252687358439e-06,-8.871348977370323e-05,0.7071067755490432,0,-1,-0.00015527406801396637,-1.5708683172809046,-3.5587941304981996e-05,-1.5708320776568812,-1.1746083394825746e-05,-1.1746083394825746e-05
602,1734172017,238443374,-0.00012830612839255496,0.25614101544899553,1.4272999901312433,-0.7071067812021657,-3.400678276184462e-05,-0.00010127334831056819,0.7071067731008946,0,-1,-0.00014335313905888825,-1.570916000996725,-3.5587941304981996e-05,-1.570820156727926,-2.366701234990387e-05,-2.366701234990387e-05
618,1734172017,254176616,-9.318617858302203e-05,0.25614101779372517,1.4272999931290273,-0.7071067806496496,1.2652486682417687e-05,-0.0001054485945783544,0.7071067737476404,0,-1,-0.00014335313905888825,-1.570916000996725,-1.1746083394825746e-05,-1.570820156727926,1.1984225238848012e-05,-4.7985707418263246e-05
634,1734172017,270476341,-9.083341514727283e-05,0.25614102392789356,1.4272999919953946,-0.7071067797588251,1.686717145217016e-05,-0.00014338075774832947,0.7071067678763661,0,-1,-0.00014335313905888825,-1.5708802382098597,-2.366701234990387e-05,-1.5708320776568812,3.5952674807049334e-05,-1.1746083394825746e-05
650,1734172017,286244630,-0.00013032795718115214,0.2561410215510695,1.4272999889492501,-0.7071067818046753,-1.2596183721551784e-05,-0.00010548803311037874,0.7071067725877375,0,-1,-0.00019103685487920075,-1.5709040800677698,-1.1746083394825746e-05,-1.570820156727926,0.0,-4.7985707418263246e-05
666,1734172017,302539825,-0.00013538013609085944,0.25614102643140607,1.4272999874342664,-0.7071067826630144,-1.2680379494357407e-05,-0.00011395684125874185,0.7071067704137804,0,-1,-0.00015527406801396637,-1.570916000996725,-1.1746083394825746e-05,-1.5708320776568812,1.1984225238848012e-05,0.0
682,1734172017,318332910,-0.0001577674614351817,0.25614101636333836,1.4272999866247722,-0.7071067778800605,-3.404622151453146e-05,-0.00012652201865803167,0.7071067723541561,0,-1,-0.000119511281148732,-1.5708563963519495,-3.5587941304981996e-05,-1.570820156727926,1.1984225238848012e-05,-3.5587941304981996e-05
698,1734172017,334593534,-8.781260527147906e-05,0.25614101540459555,1.4272999939440307,-0.7071067797421708,3.992712309120648e-06,-0.0001225377384957834,0.7071067720020916,0,-1,-0.00014335313905888825,-1.5709040800677698,0.0,-1.5708320776568812,-1.1746083394825746e-05,-3.5587941304981996e-05
714,1734172017,350349426,-0.00011826423635397531,0.25614102168769726,1.4272999902261865,-0.7071067804984004,-1.2804209818373836e-05,-0.00013090529074351133,0.7071067696416462,0,-1,-0.000119511281148732,-1.570916000996725,1.1920928955078125e-05,-1.570820156727926,4.793690095539205e-05,-1.1746083394825746e-05
730,1734172017,366111516,-9.339968546787001e-05,0.25614101472435463,1.4272999937186723,-0.7071067817155694,-1.39464242839471e-08,-8.447642630640737e-05,0.707106775611423,0,-1,-0.00015527406801396637,-1.5708802382098597,-3.5587941304981996e-05,-1.570820156727926,1.1984225238848012e-05,-1.1746083394825746e-05
746,1734172017,382453918,-0.00011315656236252788,0.2561410208943474,1.42729999062915,-0.7071067818046752,-1.259618372155176e-05,-0.0001139174027023567,0.7071067712799792,0,-1,-0.0001671949969690445,-1.5708921591388147,1.1920928955078125e-05,-1.5708320776568812,1.1984225238848012e-05,-4.7985707418263246e-05
762,1734172017,398285150,-8.947479604435029e-05,0.25614101722380417,1.427299993370856,-0.7071067812590444,-1.6015522992248988e-07,-0.00010995550121061446,0.7071067725649614,0,-1,-0.00013143221010381012,-1.5709040800677698,-2.366701234990387e-05,-1.5708320776568812,1.1984225238848012e-05,-1.1746083394825746e-05
778,1734172017,414479017,-8.657733791339717e-05,0.2561410138276784,1.4272999943318094,-0.7071067816651603,-8.44331613256854e-06,-9.290579593592346e-05,0.7071067745541425,0,-1,-0.00014335313905888825,-1.5708921591388147,0.0,-1.570808235798971,1.1984225238848012e-05,-2.366701234990387e-05
794,1734172017,430395126,-0.00014129219082311529,0.2561410251637666,1.4272999870296026,-0.7071067834895689,-3.3967148291536354e-05,-0.00010986598647619186,0.7071067695325324,0,-1,-0.000119511281148732,-1.5708802382098597,-1.1746083394825746e-05,-1.570808235798971,-1.1746083394825746e-05,-3.5587941304981996e-05
810,1734172017,446417570,-0.00013032795718115214,0.2561410215510695,1.4272999889492501,-0.7071067818046753,-1.2596183721551784e-05,-0.00010548803311037874,0.7071067725877375,0,-1,-0.00014335313905888825,-1.5708802382098597,-5.990663637334137e-05,-1.570808235798971,2.3968450477696024e-05,-3.5587941304981996e-05
826,1734172017,462263345,-0.0001184372572049146,0.2561410162203561,1.4272999913834177,-0.7071067806997341,-4.268069957465104e-06,-9.70810421979692e-05,0.7071067749961905,0,-1,-0.00015527406801396637,-1.5708921591388147,0.0,-1.5708320776568812,-1.1746083394825746e-05,-1.1746083394825746e-05
842,1734172017,478570938,-0.00014693011006306473,0.2561410239111773,1.4272999866808145,-0.707106781864967,-3.3860573952422994e-05,-0.00011827829619584359,0.707106769805152,0,-1,-0.00010711351503545075,-1.5708802382098597,-1.1746083394825746e-05,-1.5708563963519495,-1.1746083394825746e-05,-1.1746083394825746e-05
858,1734172017,494285345,-0.00011694465988714269,0.25614102138322636,1.4272999902278107,-0.7071067830774128,-3.390533111025429e-05,-0.00010980416924143392,0.7071067699572572,0,-1,-0.0001671949969690445,-1.5709040800677698,0.0,-1.570820156727926,1.1984225238848012e-05,-2.366701234990387e-05
874,1734172017,510080575,-0.00012006617700944204,0.25614101823581154,1.4272999906823969,-0.707106780632399,-2.9769719335176645e-05,-0.00012270632574323307,0.707106770467237,0,-1,-0.00014335313905888825,-1.57092792192568,-5.990663637334137e-05,-1.570820156727926,2.3968450477696024e-05,-2.366701234990387e-05
890,1734172017,526199817,-9.653690947982144e-05,0.25614101671363765,1.42729999309508,-0.7071067812464514,4.223117015634889e-06,-9.714285940217464e-05,0.707106774441253,0,-1,-0.00013143221010381012,-1.5708802382098597,1.1920928955078125e-05,-1.570820156727926,-2.366701234990387e-05,-4.7985707418263246e-05
905,1734172017,542140722,-8.84384540324125e-05,0.25614101552687674,1.4272999939420121,-0.7071067801456882,1.2590669411486417e-05,-0.0001055104118545276,0.707106774243484,0,-1,-0.0001671949969690445,-1.5708802382098597,0.0,-1.570820156727926,-2.366701234990387e-05,-3.5587941304981996e-05
921,1734172017,557619810,-6.554036064590662e-05,0.25614100872619394,1.4272999965385866,-0.7071067809125134,8.207397219800915e-06,-7.583903069393058e-05,0.7071067773459838,0,-1,-0.00013143221010381012,-1.5708683172809046,-1.1746083394825746e-05,-1.5708444754229944,1.1984225238848012e-05,-1.1746083394825746e-05
938,1734172017,573930025,-0.00010148099072865025,0.25614101578649845,1.4272999928675967,-0.7071067815614782,-1.697945598833114e-05,-0.00010144193570266191,0.707106773331298,0,-1,-0.0001671949969690445,-1.5708921591388147,-4.7985707418263246e-05,-1.570820156727926,0.0,-4.7985707418263246e-05
953,1734172017,589688301,-9.069302336538616e-05,0.2561410189280424,1.4272999931074266,-0.7071067792544865,1.6867171428456764e-05,-0.00012652201866728073,0.7071067715981966,0,-1,-0.00014335313905888825,-1.5709040800677698,-1.1746083394825746e-05,-1.570796314870016,-3.5587941304981996e-05,-3.5587941304981996e-05
969,1734172017,606069326,-0.00016560986527360542,0.2561410242150982,1.4272999840039777,-0.7071067812607633,-3.383819536053979e-05,-0.00011830067488387489,0.7071067704066832,0,-1,-0.00013143221010381012,-1.5708921591388147,-2.366701234990387e-05,-1.5708320776568812,2.3968450477696024e-05,-2.366701234990387e-05
986,1734172017,621981382,-0.00010010196153777256,0.25614101242794807,1.427299993589169,-0.7071067813909996,-2.142454548055841e-05,-8.869111112274086e-05,0.7071067750953436,0,-1,-0.00014335313905888825,-1.5709040800677698,-2.366701234990387e-05,-1.570820156727926,-2.366701234990387e-05,-2.366701234990387e-05
1001,1734172017,637988090,-0.00011227388277306228,0.2561410172116531,1.427299991716658,-0.7071067812590406,1.770195581992327e-07,-9.275958719701662e-05,0.7071067750298445,0,-1,-0.00014335313905888825,-1.5709040800677698,-3.5587941304981996e-05,-1.5708320776568812,-1.1746083394825746e-05,-3.5587941304981996e-05
1017,1734172017,654058218,-9.271291769470281e-05,0.25614101772024,1.4272999930100956,-0.7071067805631461,1.6805354289454385e-05,-0.0001012957270098167,0.7071067743547494,0,-1,-0.00015527406801396637,-1.570916000996725,2.384185791015625e-05,-1.5708320776568812,2.3968450477696024e-05,-3.5587941304981996e-05
1033,1734172017,670013189,-0.00012521433708240822,0.25614102082463697,1.4272999895870164,-0.707106780632399,-2.976971933517665e-05,-0.0001311356953087093,0.7071067689542206,0,-1,-0.00010711351503545075,-1.5708802382098597,-2.366701234990387e-05,-1.570820156727926,2.3968450477696024e-05,-2.366701234990387e-05
1049,1734172017,686152458,-0.00011761828940979017,0.256141016070455,1.4272999915220743,-0.7071067794025782,-8.482754855131301e-06,-0.00011815446631057282,0.7071067730480869,0,-1,-0.00013143221010381012,-1.5708802382098597,0.0,-1.5708444754229944,-1.1746083394825746e-05,-2.366701234990387e-05
1065,1734172017,702073812,-0.0001314674426303532,0.2561410237375523,1.4272999881822799,-0.7071067814498939,-2.962351050843186e-05,-0.00013094472922479727,0.7071067681782557,0,-1,-0.0001671949969690445,-1.570916000996725,0.0,-1.570820156727926,1.1984225238848012e-05,-1.1746083394825746e-05
1081,1734172017,718130111,-9.17254980778045e-05,0.2561410160172858,1.427299993548677,-0.707106781753966,4.138921195572746e-06,-8.875292836196604e-05,0.7071067750370775,0,-1,-0.00013143221010381012,-1.570916000996725,-1.1746083394825746e-05,-1.570808235798971,1.1984225238848012e-05,-2.366701234990387e-05
1097,1734172017,733587980,-0.00015491438958354105,0.25614101824733515,1.4272999869407665,-0.7071067782356801,-2.561685184954958e-05,-0.00012652201865803164,0.7071067723541561,0,-1,-0.00013143221010381012,-1.5709040800677698,-1.1746083394825746e-05,-1.570808235798971,0.0,-1.1746083394825746e-05
1113,1734172017,749794721,-8.666953126361618e-05,0.25614101519296684,1.4272999940808135,-0.7071067789114699,2.1188626438382868e-05,-0.00011410836892592723,0.7071067739371246,0,-1,-0.00014335313905888825,-1.5708921591388147,1.1920928955078125e-05,-1.570820156727926,-2.366701234990387e-05,-2.366701234990387e-05
1129,1734172017,765729188,-7.536043013511123e-05,0.25614101365143904,1.4272999950026228,-0.707106782057166,-4.18919263450464e-06,-8.860691522989988e-05,0.7071067747518933,0,-1,-0.00014335313905888825,-1.5709040800677698,-1.1746083394825746e-05,-1.5708320776568812,1.1984225238848012e-05,-2.366701234990387e-05
1146,1734172017,781927108,-0.00010404053865358776,0.25614101612952644,1.4272999923122935,-0.7071067810597621,-1.6788489999707102e-05,-0.00010972509657871694,0.7071067726007518,0,-1,-0.000119511281148732,-1.5708802382098597,1.1920928955078125e-05,-1.5708320776568812,-3.5587941304981996e-05,-1.1746083394825746e-05
1162,1734172017,797810792,-0.00011551649774022472,0.25614102116125403,1.4272999907569077,-0.7071067785705715,8.54457184685575e-06,-0.00013518179292951405,0.7071067708291456,0,-1,-0.00014335313905888825,-1.570916000996725,-4.7985707418263246e-05,-1.570796314870016,1.1984225238848012e-05,-1.1746083394825746e-05
1177,1734172017,813935041,-0.00011332958320515877,0.25614101560967095,1.427299991925133,-0.7071067815021548,-2.108737068269041e-05,-9.71204807434133e-05,0.7071067738868007,0,-1,-9.519258608037262e-05,-1.5708802382098597,-3.5587941304981996e-05,-1.5708320776568812,-3.5587941304981996e-05,0.0
1193,1734172017,830015659,-6.664744019622642e-05,0.2561410124222674,1.4272999958099533,-0.7071067816020723,4.200738419048778e-06,-8.869111112633716e-05,0.707106775196363,0,-1,-0.00015527406801396637,-1.5708683172809046,-1.1746083394825746e-05,-1.5708320776568812,0.0,-1.1746083394825746e-05
1209,1734172017,846150159,-0.00011031068433658866,0.25614101868815153,1.427299991442832,-0.7071067810542541,-1.701889463436586e-05,-0.00011838487080200349,0.7071067712039467,0,-1,-0.00014335313905888825,-1.5708921591388147,-2.366701234990387e-05,-1.5708320776568812,1.1984225238848012e-05,-3.5587941304981996e-05
1226,1734172017,861806869,-0.00010369088175024952,0.25614101602398165,1.4272999926035423,-0.7071067825769924,-1.685562544351806e-05,-8.436985207149424e-05,0.7071067745618266,0,-1,-0.00013143221010381012,-1.5708921591388147,1.1920928955078125e-05,-1.5708444754229944,1.1984225238848012e-05,0.0
1242,1734172017,878284454,-0.00011049259929483426,0.25614101868774575,1.4272999913135374,-0.7071067822614133,-2.104793200244989e-05,-0.00010546565443603705,0.7071067719332707,0,-1,-0.00013143221010381012,-1.5709040800677698,-1.1746083394825746e-05,-1.5708320776568812,2.3968450477696024e-05,0.0
1258,1734172017,894502401,-8.212166150026389e-05,0.2561410146408062,1.4272999944779705,-0.7071067807125037,8.437801834328654e-06,-0.00010123390976975615,0.7071067743636023,0,-1,-0.00013143221010381012,-1.5709040800677698,2.384185791015625e-05,-1.570820156727926,0.0,-1.1746083394825746e-05
1274,1734172017,910240411,-5.824475218945974e-05,0.2561410079447357,1.4272999971072862,-0.7071067808510327,1.242208206908619e-05,-7.162434586441051e-05,0.7071067777854589,0,-1,-0.00014335313905888825,-1.5709040800677698,-2.366701234990387e-05,-1.5708320776568812,0.0,-1.1746083394825746e-05
1290,1734172017,926197052,-8.43894034889862e-05,0.2561410135403739,1.4272999945675404,-0.7071067807006309,1.2528852207316476e-05,-8.871348980310693e-05,0.7071067759964788,0,-1,-0.00014335313905888825,-1.5708921591388147,0.0,-1.570820156727926,-2.366701234990387e-05,-1.1746083394825746e-05
1306,1734172017,942521810,-7.995671319807338e-05,0.256141014330454,1.4272999946950118,-0.7071067807490389,1.2590669453560859e-05,-9.708104219533765e-05,0.7071067748476724,0,-1,-0.00017911592592412262,-1.5708921591388147,-2.366701234990387e-05,-1.570796314870016,0.0,-3.5587941304981996e-05
1322,1734172017,958068847,-0.0001345208815673959,0.2561410221521384,1.4272999881822799,-0.7071067807970401,-4.243615245495122e-05,-0.00013532800138674948,0.707106767352959,0,-1,-0.00014335313905888825,-1.570916000996725,-1.1746083394825746e-05,-1.570820156727926,0.0,-3.5587941304981996e-05
1338,1734172017,974250555,-9.318617858302203e-05,0.25614101779372517,1.4272999931290273,-0.7071067807125035,8.437801834328646e-06,-0.00010966327938320636,0.7071067731065571,0,-1,-0.00013143221010381012,-1.5708921591388147,-1.1746083394825746e-05,-1.5708444754229944,-2.366701234990387e-05,-2.366701234990387e-05
1354,1734172017,990585327,-0.0001423511919526011,0.2561410190780806,1.4272999883387196,-0.7071067812458346,-2.9623510535267237e-05,-0.00010565662050267849,0.7071067726130769,0,-1,-0.00015527406801396637,-1.5708683172809046,-3.5587941304981996e-05,-1.5708444754229944,0.0,-1.1746083394825746e-05
1370,1734172018,6268739,-9.83343386540765e-05,0.2561410202576574,1.4272999921943115,-0.7071067806001435,1.2652486675612177e-05,-0.00011387796418563394,0.7071067724898583,0,-1,-0.00013143221010381012,-1.5709040800677698,1.1920928955078125e-05,-1.570820156727926,0.0,-2.366701234990387e-05
1386,1734172018,22553920,-0.0001227901399179297,0.2561410167403142,1.42729999074244,-0.7071067811072136,-3.383819538073272e-05,-0.00010987130530015387,0.7071067719202438,0,-1,-0.00013143221010381012,-1.5708802382098597,-4.7985707418263246e-05,-1.570820156727926,1.1984225238848012e-05,-1.1746083394825746e-05
1402,1734172018,38106441,-8.490315053450562e-05,0.25614101503928083,1.427299994161814,-0.7071067817156699,-8.443316127125979e-06,-0.00010133516555043866,0.7071067733458665,0,-1,-0.0001671949969690445,-1.5708921591388147,-1.1746083394825746e-05,-1.570808235798971,1.1984225238848012e-05,-4.7985707418263246e-05
1418,1734172018,54308652,-0.00011843650266288343,0.2561410126518865,1.4272999919953946,-0.7071067797551898,-1.7018894688567063e-05,-0.00010106532240843352,0.7071067751905672,0,-1,-0.000119511281148732,-1.5709040800677698,-5.990663637334137e-05,-1.5708320776568812,2.3968450477696024e-05,0.0
1434,1734172018,70286273,-0.00011392475925783797,0.25614101919961957,1.427299991164158,-0.7071067817661741,-8.381498880466202e-06,-0.00010127334830928783,0.707106773304954,0,-1,-0.00014335313905888825,-1.5708921591388147,0.0,-1.5708444754229944,1.1984225238848012e-05,-3.5587941304981996e-05
1450,1734172018,86225748,-0.00012631928262118482,0.25614102097641345,1.4272999893886025,-0.7071067809869087,-3.8221467612398075e-05,-0.00013111331661603296,0.7071067681975257,0,-1,-0.00014335313905888825,-1.5708921591388147,0.0,-1.570820156727926,0.0,-5.990663637334137e-05
1466,1734172018,101849794,-0.00011749841707579964,0.2561410109152545,1.4272999923605467,-0.7071067802239311,-3.826090626900798e-05,-9.714285940217464e-05,0.707106774441253,0,-1,-0.00014335313905888825,-1.5708683172809046,0.0,-1.570808235798971,-2.366701234990387e-05,-2.366701234990387e-05
1482,1734172018,118126153,-0.00012975871523615524,0.2561410234523684,1.427299988529013,-0.7071067823624329,-2.104793198796078e-05,-0.00011389502401901812,0.7071067705247597,0,-1,-0.00015527406801396637,-1.5709040800677698,-2.366701234990387e-05,-1.5708563963519495,0.0,1.1984225238848012e-05
1498,1734172018,134436368,-6.548464377234587e-05,0.25614101347227175,1.427299995614567,-0.7071067820190279,8.454861934327339e-06,-8.439223041561496e-05,0.7071067752674709,0,-1,-0.000119511281148732,-1.5708802382098597,-4.7985707418263246e-05,-1.5708320776568812,-1.1746083394825746e-05,-4.7985707418263246e-05
1514,1734172018,150147438,-0.00013025260618863542,0.2561410214873,1.4272999891882188,-0.7071067828164281,-1.2640940564842426e-05,-8.858453687887545e-05,0.7071067738948532,0,-1,-0.00014335313905888825,-1.5709040800677698,1.1920928955078125e-05,-1.570796314870016,1.1984225238848012e-05,-2.366701234990387e-05
1530,1734172018,165938615,-7.877196006911105e-05,0.25614101556193125,1.4272999945051492,-0.7071067812460795,4.284934256297523e-06,-0.00010551041177687868,0.7071067732422037,0,-1,-0.00014335313905888825,-1.5708921591388147,-3.5587941304981996e-05,-1.570820156727926,0.0,-4.7985707418263246e-05
1546,1734172018,182228565,-0.00010336058362744468,0.25614101937354644,1.4272999920362317,-0.7071067806631067,-5.338511574123474e-08,-0.00011815446622386928,0.7071067718384375,0,-1,-0.00013143221010381012,-1.5708921591388147,-2.366701234990387e-05,-1.5708320776568812,-1.1746083394825746e-05,-2.366701234990387e-05
1562,1734172018,197947025,-0.00012822572253360468,0.2561410192824168,1.427299988892487,-0.7071067792291302,-2.140216698041837e-05,-0.00013107387819125474,0.7071067706717225,0,-1,-0.000119511281148732,-1.5708921591388147,-3.5587941304981996e-05,-1.570808235798971,-3.5587941304981996e-05,-1.1746083394825746e-05
1578,1734172018,214267253,-0.00011999350692992547,0.256141016412706,1.4272999910187991,-0.7071067810582916,-1.6850307240353354e-05,-0.00010135754421130837,0.7071067738496758,0,-1,-0.000119511281148732,-1.5709040800677698,-1.1746083394825746e-05,-1.570820156727926,-2.366701234990387e-05,-2.366701234990387e-05
1594,1734172018,229987382,-7.004606196344826e-05,0.25614101547477086,1.4272999949688743,-0.7071067822135255,1.2585351275260642e-05,-8.021698451198568e-05,0.7071067754975044,0,-1,-0.00015527406801396637,-1.5708921591388147,0.0,-1.570796314870016,2.3968450477696024e-05,-1.1746083394825746e-05
1610,1734172018,246216773,-0.0001068196715955561,0.25614101483166307,1.4272999923598306,-0.7071067814158817,-2.5240238289225685e-05,-0.00010127334830868953,0.7071067732544442,0,-1,-0.00014335313905888825,-1.5708802382098597,0.0,-1.5708320776568812,2.3968450477696024e-05,1.1984225238848012e-05
1626,1734172018,261884927,-0.00011273602857903448,0.2561410155387345,1.4272999919067986,-0.7071067815032547,-2.1025553442085163e-05,-9.70586635034024e-05,0.7071067738960294,0,-1,-0.00014335313905888825,-1.5708802382098597,-1.1746083394825746e-05,-1.570820156727926,0.0,-1.1746083394825746e-05
1642,1734172018,278224706,-0.0001280892518691222,0.2561410192319163,1.427299989904643,-0.7071067794431488,-4.206252773781391e-06,-0.0001223073338711198,0.7071067723397659,0,-1,-0.000119511281148732,-1.5709040800677698,0.0,-1.570808235798971,1.1984225238848012e-05,-2.366701234990387e-05
1658,1734172018,294033288,-0.00010480873548042352,0.25614101459795446,1.4272999928265995,-0.7071067811472687,-1.2573805149100101e-05,-9.708104216210654e-05,0.7071067744497428,0,-1,-0.00015527406801396637,-1.5708802382098597,-1.1746083394825746e-05,-1.570808235798971,3.5952674807049334e-05,-3.5587941304981996e-05
1674,1734172018,310321331,-0.00013419140561061,0.2561410220850441,1.427299988263877,-0.7071067823254359,-2.5262616830568976e-05,-0.00010968033923008946,0.7071067710900467,0,-1,-0.00014335313905888825,-1.5708921591388147,1.1920928955078125e-05,-1.570808235798971,-1.1746083394825746e-05,-2.366701234990387e-05
1690,1734172018,326089382,-0.00010453442957303968,0.2561410145585509,1.4272999928675967,-0.7071067817156645,-8.3814988865065e-06,-8.441460906565184e-05,0.7071067755690366,0,-1,-0.00015527406801396637,-1.5708921591388147,1.1920928955078125e-05,-1.5708320776568812,2.3968450477696024e-05,-3.5587941304981996e-05
1706,1734172018,342339754,-0.00013791950303290414,0.2561410268228707,1.4272999869294976,-0.7071067832350024,-2.5453582429373554e-05,-0.00011825591781972616,0.7071067687914606,0,-1,-0.00014335313905888825,-1.570916000996725,-1.1746083394825746e-05,-1.570820156727926,-1.1746083394825746e-05,-1.1746083394825746e-05
1722,1734172018,358165025,-0.00010821596306812343,0.2561410150051566,1.4272999923605467,-0.707106780940253,-2.1233579484339455e-05,-0.00010574081640898547,0.7071067732077865,0,-1,-0.0001671949969690445,-1.5709040800677698,-3.5587941304981996e-05,-1.5708444754229944,0.0,-2.366701234990387e-05
1738,1734172018,374084711,-0.00010261699411684011,0.25614102451385434,1.42729999084823,-0.7071067818535101,4.262555691378281e-06,-0.00012234677227964755,0.7071067699222447,0,-1,-0.00015527406801396637,-1.5708802382098597,-2.366701234990387e-05,-1.570808235798971,-1.1746083394825746e-05,-2.366701234990387e-05
1753,1734172018,390504121,-6.211730587398412e-05,0.25614100933040307,1.4272999966805904,-0.7071067788548864,1.2590669381194601e-05,-0.00011427695633806935,0.7071067741718496,0,-1,-0.00014335313905888825,-1.5709040800677698,-1.1746083394825746e-05,-1.570808235798971,-3.5587941304981996e-05,-1.1746083394825746e-05
1770,1734172018,406133174,-8.240180333104685e-05,0.2561410146615039,1.4272999944622888,-0.7071067801594961,8.432104890879905e-09,-0.00011809264902913926,0.7071067723523768,0,-1,-0.00014335313905888825,-1.5708921591388147,0.0,-1.570820156727926,2.3968450477696024e-05,-1.1746083394825746e-05
1786,1734172018,422417402,-0.00012465125599409415,0.25614101881261675,1.4272999902004861,-0.7071067795414396,-2.1233579542702505e-05,-0.00013090529080347327,0.7071067703957259,0,-1,-0.00014335313905888825,-1.5708921591388147,-3.5587941304981996e-05,-1.5708444754229944,2.3968450477696024e-05,-1.1746083394825746e-05
1802,1734172018,438498735,-0.00011195033174745202,0.2561410154448348,1.4272999921115705,-0.7071067815647748,-1.6872685834812797e-05,-9.290579593472742e-05,0.7071067745036328,0,-1,-0.00014335313905888825,-1.570916000996725,-1.1746083394825746e-05,-1.5707839171039026,-1.1746083394825746e-05,-3.5587941304981996e-05
1817,1734172018,454374074,-5.7163897347061e-05,0.2561410110630323,1.427299996562219,-0.707106780710938,1.6805354307128344e-05,-9.286635737856893e-05,0.7071067753642537,0,-1,-0.00013143221010381012,-1.5708802382098597,2.384185791015625e-05,-1.5708563963519495,0.0,-4.7985707418263246e-05
1834,1734172018,470115184,-0.00011730007162541974,0.25614102148596224,1.4272999901427537,-0.7071067791496577,-1.6015536872757883e-07,-0.00013511997564279833,0.7071067703134822,0,-1,-0.00014335313905888825,-1.5708921591388147,0.0,-1.5708320776568812,-3.5587941304981996e-05,-4.7985707418263246e-05
1850,1734172018,486383199,-0.00010916884269653458,0.256141015112676,1.4272999923544254,-0.7071067807503365,-4.206252711138151e-06,-9.701922495756134e-05,0.7071067749544427,0,-1,-0.000119511281148732,-1.5708802382098597,-1.1746083394825746e-05,-1.5708320776568812,-1.1746083394825746e-05,-2.366701234990387e-05
1866,1734172018,502143144,-0.00012522152872301962,0.2561410227485229,1.4272999889366491,-0.7071067798427259,-4.3748401737256124e-06,-0.0001309052908034967,0.7071067703997159,0,-1,-0.00014335313905888825,-1.570916000996725,-5.990663637334137e-05,-1.5708444754229944,0.0,-3.5587941304981996e-05
1881,1734172018,518432617,-0.00013819413406989037,0.2561410226789712,1.4272999880239952,-0.7071067800573845,-2.5448264369023266e-05,-0.0001351199755252241,0.7071067689478412,0,-1,-0.00013143221010381012,-1.570916000996725,-1.1746083394825746e-05,-1.5708320776568812,0.0,-4.7985707418263246e-05
1898,1734172018,534106731,-5.309872598212313e-05,0.25614100943413143,1.427299997029334,-0.7071067812087188,8.437801866981373e-06,-8.449880495466503e-05,0.7071067760652561,0,-1,-0.0001671949969690445,-1.570916000996725,-2.366701234990387e-05,-1.570820156727926,-1.1746083394825746e-05,-1.1746083394825746e-05
1922,1734172018,558160305,-0.00012240066413140698,0.2561410204212881,1.4272999900580523,-0.707106781059762,-1.6788489999707075e-05,-0.00011815446617054897,0.7071067712424839,0,-1,-0.0001671949969690445,-1.5708921591388147,-1.1746083394825746e-05,-1.5708320776568812,1.1984225238848012e-05,-3.5587941304981996e-05
1938,1734172018,574480295,-9.115625621490059e-05,0.25614101745840745,1.4272999932168473,-0.7071067823234384,-8.465694696810429e-06,-0.00010131278688053059,0.7071067727410371,0,-1,-0.00015527406801396637,-1.5708921591388147,-1.1746083394825746e-05,-1.5708320776568812,0.0,-5.990663637334137e-05
1954,1734172018,590205192,-0.00011973670104623453,0.2561410181858868,1.42729999074244,-0.7071067814663913,-2.5240238283185378e-05,-0.00010970271790831644,0.7071067719464191,0,-1,-0.00015527406801396637,-1.5708921591388147,-1.1746083394825746e-05,-1.570796314870016,2.3968450477696024e-05,-3.5587941304981996e-05
1970,1734172018,605962753,-8.03866750388998e-05,0.25614101299416303,1.4272999948684313,-0.7071067821213995,-8.46569472098926e-06,-8.445404765270759e-05,0.7071067751575892,0,-1,-0.00014335313905888825,-1.5709040800677698,-1.1746083394825746e-05,-1.570820156727926,2.3968450477696024e-05,-4.7985707418263246e-05
1986,1734172018,622316598,-8.184971168578034e-05,0.2561410160332053,1.427299994161814,-0.7071067817136367,-8.611903521295451e-06,-0.00010993312254362045,0.7071067720614242,0,-1,-0.00015527406801396637,-1.5708683172809046,-2.366701234990387e-05,-1.5708320776568812,-1.1746083394825746e-05,-3.5587941304981996e-05
2002,1734172018,638071298,-8.192238172080088e-05,0.2561410175133998,1.4272999934749468,-0.7071067818036725,-1.2764771115452577e-05,-0.0001225153596694405,0.7071067698405247,0,-1,-0.00015527406801396637,-1.5708802382098597,-3.5587941304981996e-05,-1.5708563963519495,0.0,-2.366701234990387e-05
2018,1734172018,654334306,-0.00011308981730972122,0.25614101731227223,1.4272999914938178,-0.7071067814608907,-2.5470642917629523e-05,-0.00010993312253998454,0.7071067719078746,0,-1,-0.00014335313905888825,-1.5708921591388147,-2.366701234990387e-05,-1.570820156727926,-1.1746083394825746e-05,-5.990663637334137e-05
2034,1734172018,670142412,-8.729280776388152e-05,0.256141016878377,1.4272999937186723,-0.7071067816654926,8.415423284002633e-06,-9.290579593592344e-05,0.7071067745541426,0,-1,-0.00015527406801396637,-1.5708802382098597,-1.1746083394825746e-05,-1.570796314870016,0.0,-2.366701234990387e-05
2050,1734172018,686444759,-7.435002431601259e-05,0.2561410122007527,1.4272999952651566,-0.7071067822216748,-8.403877468931287e-06,-8.439223041081325e-05,0.707106775065432,0,-1,-0.00015527406801396637,-1.5708802382098597,1.1920928955078125e-05,-1.570820156727926,0.0,-1.1746083394825746e-05
2066,1734172018,702183246,-9.091681511660078e-05,0.25614101590161903,1.427299993650135,-0.7071067807126129,-5.3385109226493675e-08,-0.00010972509662435081,0.7071067731471995,0,-1,-0.00010711351503545075,-1.5708921591388147,1.1920928955078125e-05,-1.570820156727926,2.3968450477696024e-05,-2.366701234990387e-05
2082,1734172018,718383312,-0.00010194806121666277,0.25614101910219306,1.4272999921660317,-0.7071067791935733,1.2590669325718376e-05,-0.00012236915111189914,0.7071067724790627,0,-1,-0.00010711351503545075,-1.5708921591388147,-1.1746083394825746e-05,-1.570820156727926,1.1984225238848012e-05,-2.366701234990387e-05
2098,1734172018,734195709,-6.76236576538327e-05,0.2561410101472972,1.4272999960486672,-0.7071067817148284,-1.3946424368108315e-08,-7.604705666489081e-05,0.7071067765689584,0,-1,-0.00013143221010381012,-1.5709403196917933,-4.7985707418263246e-05,-1.5708320776568812,0.0,-1.1746083394825746e-05
2114,1734172018,750392675,-9.726313393162005e-05,0.25614101521227334,1.4272999932168473,-0.7071067823226956,-8.527511937567194e-06,-8.451586489044435e-05,0.7071067749481644,0,-1,-0.00013143221010381012,-1.57092792192568,-1.1746083394825746e-05,-1.5708320776568812,3.5952674807049334e-05,-1.1746083394825746e-05
2130,1734172018,766088008,-0.00015222797988564507,0.25614102463753885,1.42729998559906,-0.7071067825786992,-4.231232185016249e-05,-0.00011825591782158008,0.7071067686399314,0,-1,-0.000119511281148732,-1.570916000996725,3.5762786865234375e-05,-1.5708563963519495,0.0,-1.1746083394825746e-05
2145,1734172018,782338142,-0.00012082691441872229,0.2561410183294365,1.4272999907679782,-0.7071067807498764,4.161299745233736e-06,-9.708104219768216e-05,0.7071067749466844,0,-1,-0.00014335313905888825,-1.5708921591388147,-2.366701234990387e-05,-1.570820156727926,-1.1746083394825746e-05,-3.5587941304981996e-05
2162,1734172018,798052310,-0.00010329286167624964,0.25614101600543576,1.427299992446532,-0.7071067797403306,-1.2804209859374302e-05,-0.0001224759212208052,0.7071067719099856,0,-1,-0.00014335313905888825,-1.5708921591388147,1.1920928955078125e-05,-1.570820156727926,0.0,-1.1746083394825746e-05
2177,1734172018,814410448,-8.615332218652304e-05,0.25614101521849686,1.4272999941344915,-0.707106781245229,2.1166247977956573e-05,-7.172560168997642e-05,0.7071067771733205,0,-1,-0.00010711351503545075,-1.5708802382098597,0.0,-1.5708320776568812,1.1984225238848012e-05,-1.1746083394825746e-05
2194,1734172018,830196142,-9.991141469297083e-05,0.2561410108081062,1.427299994089793,-0.7071067789758051,-8.482754845895169e-06,-0.00010972509672469261,0.707106774833128,0,-1,-0.00014335313905888825,-1.570916000996725,-3.5587941304981996e-05,-1.570820156727926,1.1984225238848012e-05,-1.1746083394825746e-05
2209,1734172018,846383333,-0.00010286024218432659,0.2561410159677765,1.4272999926814003,-0.707106781616016,-1.6810868588759508e-05,-0.00010127334830928784,0.7071067733049539,0,-1,-0.000119511281148732,-1.5709403196917933,-1.1746083394825746e-05,-1.5708320776568812,-3.5587941304981996e-05,-3.5587941304981996e-05
2226,1734172018,862349033,-0.000133951964583554,0.25614102005449085,1.4272999888536058,-0.7071067802015495,-2.1064992130428963e-05,-0.00012230733377819464,0.7071067712801085,0,-1,-0.0001671949969690445,-1.5708683172809046,-2.366701234990387e-05,-1.570796314870016,0.0,-3.5587941304981996e-05
2241,1734172018,878096342,-9.505324283252572e-05,0.2561410149483063,1.4272999935076318,-0.707106781246552,-4.206252687358456e-06,-9.714285940217463e-05,0.707106774441253,0,-1,-0.00014335313905888825,-1.5708563963519495,-3.5587941304981996e-05,-1.570820156727926,0.0,0.0
2257,1734172018,893692731,-0.00011277056858978885,0.2561410172769336,1.4272999914250373,-0.7071067808033521,-2.5386447092934876e-05,-0.00011832305356221833,0.7071067712142936,0,-1,-0.00013143221010381012,-1.5709040800677698,-3.5587941304981996e-05,-1.570808235798971,-3.5587941304981996e-05,-3.5587941304981996e-05
2273,1734172018,909677267,-9.933354243409526e-05,0.2561410171079228,1.4272999925624688,-0.7071067816119879,-1.697945598290501e-05,-0.0001098713053019767,0.7071067720212633,0,-1,-0.000119511281148732,-1.5708683172809046,-5.990663637334137e-05,-1.5708444754229944,1.1984225238848012e-05,-3.5587941304981996e-05
2290,1734172018,926093578,-0.0001702298835544171,0.2561410294385482,1.4272999793641141,-0.7071067851129046,-6.768994631827959e-05,-0.0001181664016549062,0.7071067641467342,0,-1,-9.519258608037262e-05,-1.5708563963519495,-0.00017959276308232575,-1.5707839171039026,0.00013182648399379104,-2.366701234990387e-05
2305,1734172018,942393779,-0.0002973052379832106,0.2561410265001418,1.4272999311526058,-0.7071067909310507,-0.00020765542543197207,-8.85359502284936e-05,0.7071067354083124,0,-1,-9.519258608037262e-05,-1.5708683172809046,-0.0005868116961877945,-1.5706880728351038,0.0004430418193805963,0.00011984225420746952
2322,1734172018,958153247,-0.000708744583914844,0.2561410025803109,1.4272996627107923,-0.7071068199947427,-0.0004869569367669663,-1.2147980979782883e-05,0.7071065745998201,0,-1,1.1984225238848012e-05,-1.5708563963519495,-0.0011976400958459976,-1.5705321470843714,0.0009583635255694389,0.00022770027862861753
2338,1734172018,974448680,-0.0013255392552747373,0.2561408284095485,1.4272988230976225,-0.7071069057677563,-0.0008675640852368212,9.822113857103353e-05,0.7071061175670279,0,-1,0.00015579492901451886,-1.5708444754229944,-0.00227529207338506,-1.5702803770648401,0.0017369636334478855,0.000514947168994695
2354,1734172018,990187406,-0.0023219773761832072,0.2561402350998835,1.4272965240065767,-0.7071071651552991,-0.0014775078896472039,0.000309735929706936,0.707104785742627,0,-1,0.00032282507163472474,-1.5708802382098597,-0.0037716070758264664,-1.5699804464923304,0.0029106687288731337,0.0008864581468515098
2370,1734172019,6475925,-0.0036887005190259503,0.25613878121856065,1.4272914032390918,-0.7071076303552922,-0.002366060414099731,0.00052175334076423,0.7071017809515769,0,-1,0.0005265569197945297,-1.57092792192568,-0.005795303975240529,-1.5695250670062464,0.0044558849185705185,0.0013774369144812226
2386,1734172019,22179841,-0.005530944192781132,0.25613568595944036,1.4272808305622475,-0.7071086497397273,-0.0035429790901708625,0.0007930922012735302,0.7070955916756846,0,-1,0.0009096775902435184,-1.5710604826556605,-0.00828582445253545,-1.5690692106830042,0.0064321584068238735,0.002036194782704115
2402,1734172019,38273096,-0.007821045974700756,0.25613043657668055,1.4272618003254705,-0.7071104236905792,-0.005016321116627013,0.001072774427509238,0.7070845312871809,0,-1,0.0012328771408647299,-1.571240250264303,-0.01125508943666631,-1.5684340635882776,0.008899785578250885,0.002814420498907566
2418,1734172019,54478406,-0.010590136082828407,0.25612119673962636,1.4272307982734642,-0.7071133321589441,-0.006802344102224055,0.0014716113046774238,0.707065978504098,0,-1,0.0016276076203212142,-1.5714080969439905,-0.014763657246724904,-1.5677383581744593,0.011702596209943295,0.003712862730026245
2434,1734172019,70174694,-0.013763576466714833,0.25610820458327654,1.4271841121406945,-0.7071178149139973,-0.008821751071611912,0.0018826804215241082,0.707038208340762,0,-1,0.00205866526812315,-1.5716717878924769,-0.018762890492574513,-1.5669711271869105,0.014948822557926178,0.004730772692710161
2450,1734172019,86516141,-0.01734183400902586,0.2560873555937845,1.4271172650189061,-0.7071236495100757,-0.011128722595406901,0.002378017191377756,0.7069983315900991,0,-1,0.002597206272184849,-1.5719836393939417,-0.02308541933168584,-1.5660956541644495,0.018506266176700592,0.005868525244295597
2466,1734172019,102205753,-0.021186998308366213,0.2560618159256739,1.427028430384054,-0.7071318166722644,-0.013553975961792525,0.0028908812673757714,0.7069459147565025,0,-1,0.0031952939461916685,-1.5722835699664515,-0.02779084840883428,-1.5650885740863245,0.022303016856312752,0.007018262054771185
2482,1734172019,118437051,-0.025340923989912216,0.256028530108472,1.4269127023902741,-0.7071425062905459,-0.01617337219728598,0.0034291986056208734,0.7068777393763482,0,-1,0.0038061151280999184,-1.57265550294985,-0.032759968434469044,-1.5640814940081995,0.02637578174471855,0.008287466131150723
2498,1734172019,134175777,-0.029788928730278306,0.25598324540052086,1.4267677454345946,-0.707154102570145,-0.019000288518954595,0.004013347811947945,0.7067927258353396,0,-1,0.00444015534594655,-1.5729907194720667,-0.037908379231588185,-1.5629666487323206,0.030627934262156487,0.009557045064866543
2514,1734172019,150419712,-0.0342347418010517,0.25593247595560153,1.4265969360629167,-0.7071692974283067,-0.021860593631002467,0.004656337490515818,0.7066908926412095,0,-1,0.005086554680019617,-1.573338810597555,-0.04327279726137334,-1.5618036429034632,0.03495199233293533,0.010922498069703579
2530,1734172019,166191101,-0.038928559626631276,0.2558678964546174,1.4263940663871904,-0.7071858245978074,-0.024800401603402095,0.005321156824530133,0.7065725970190734,0,-1,0.005780516192317009,-1.5736263434039515,-0.0487445036517542,-1.5606158415423792,0.039371926337480545,0.012371465563774109
2546,1734172019,182442903,-0.043512092125867,0.2557977619712828,1.4261690495023858,-0.7072064188456341,-0.0277017676533205,0.006082246229466514,0.7064380365560868,0,-1,0.006510430481284857,-1.57402211824526,-0.0542524496661585,-1.5592973867999476,0.043899714946746826,0.013784854672849178
2562,1734172019,198149442,-0.048178036132880867,0.2557193118063435,1.425913070682226,-0.7072294903056607,-0.030691117965804326,0.006796542496959013,0.7062848648598464,0,-1,0.007168813608586788,-1.574334446583883,-0.05980807939638311,-1.5580981413470667,0.048475440591573715,0.015293744392693043
2577,1734172019,214269161,-0.052806588350285226,0.2556331127439794,1.4256330973290006,-0.7072556545921238,-0.03363791250788581,0.00754399037493632,0.7061168586705752,0,-1,0.007803228683769703,-1.5746100584613245,-0.0653155485736292,-1.556887451802389,0.05303918570280075,0.016707133501768112
2594,1734172019,230775833,-0.057363654481877344,0.2555415371895098,1.4253303480802957,-0.7072847285013165,-0.03656236455503905,0.00827860715412245,0.7059341123579107,0,-1,0.00848520640283823,-1.5748499075519007,-0.07071525255312139,-1.5557721296893519,0.05753139778971672,0.018204038962721825
2610,1734172019,246649265,-0.06179138809785303,0.2554456830282388,1.4250125988900384,-0.7073152127846101,-0.039410227390971574,0.008978523583229562,0.705741744446734,0,-1,0.009071684442460537,-1.575209919606344,-0.07592374483217412,-1.5545972029315394,0.06197529658675194,0.019593458622694016
2626,1734172019,262546777,-0.06616819166972512,0.2553437197690861,1.4246785034696763,-0.7073476576051558,-0.04217663408178485,0.009691165928444444,0.7055398671379087,0,-1,0.009646552614867687,-1.5754855314837855,-0.08098823228944951,-1.553446118031637,0.06613194942474365,0.02098250575363636
2642,1734172019,278598070,-0.0703284130152602,0.25524024892121266,1.4243354042695258,-0.7073799396795749,-0.044824147178095526,0.010318457469426863,0.7053353430844999,0,-1,0.010233030654489994,-1.575761620198385,-0.08590919176210576,-1.5523908774005335,0.07014516741037369,0.022264068946242332
2658,1734172019,294341564,-0.07446671705051128,0.2551329243781913,1.4239780484906823,-0.7074141707737704,-0.04740725902023016,0.010940935159286017,0.7051227118158143,0,-1,0.010819134302437305,-1.5760133902179163,-0.09075814882387334,-1.55133563676943,0.07401382923126221,0.02350967936217785
2674,1734172019,310899257,-0.07839174983549221,0.25502397434048885,1.4236149760324193,-0.7074473775405683,-0.04993079561736643,0.011495507941494905,0.704906360417578,0,-1,0.0113337067887187,-1.5762532393084925,-0.09539157549013311,-1.55031663576235,0.07784727960824966,0.02469499409198761
2690,1734172019,326411724,-0.0820911630459348,0.2549154898262222,1.4232550132018154,-0.7074809122829847,-0.052344016807066115,0.012074915235215408,0.7046879160889589,0,-1,0.011860637925565243,-1.5764811674701136,-0.0997851530658167,-1.5493810812579554,0.0815005972981453,0.025868698954582214
2706,1734172019,342529535,-0.08567943147195196,0.25480572212275454,1.4228911858473559,-0.7075160834679514,-0.05461241812887905,0.012662600227915056,0.7044701086460343,0,-1,0.01236285176128149,-1.5766852537738245,-0.10413152376283819,-1.5484464804278772,0.08499886840581894,0.0269225612282753
2722,1734172019,358250379,-0.08929327241255047,0.25468885690551835,1.4225102522790865,-0.7075506772216139,-0.05695257607113445,0.013194544400188262,0.7042402624390119,0,-1,0.012829862534999847,-1.5768888632403772,-0.10845357576479131,-1.5475228468524378,0.08853234350681305,0.02807229943573475
2738,1734172019,374661445,-0.09287926335384558,0.2545729294224619,1.4221143790932185,-0.7075886030000047,-0.05923616437557213,0.013730532669508768,0.704003493036209,0,-1,0.01333245076239109,-1.5770929495440882,-0.11270410219301397,-1.5465276877032679,0.09209015965461731,0.0292340200394392
2754,1734172019,390528440,-0.09643667283632476,0.25444865049484355,1.4217042657008256,-0.7076275889409693,-0.06151108455285555,0.01429147506136599,0.703758009252678,0,-1,0.013871366158127785,-1.577308479939596,-0.11717015901674444,-1.5455086866961878,0.09563598781824112,0.03034817799925804
2770,1734172019,406786203,-0.1001264636319445,0.25430917593893865,1.4212645919230675,-0.7076666526674416,-0.06386510709283139,0.014872150112242315,0.7034969622887641,0,-1,0.014385564252734184,-1.5775483290301722,-0.12177926698793584,-1.5444892088519495,0.0993376150727272,0.0315215066075325
2786,1734172019,422368288,-0.103967556122628,0.25417342227410755,1.4207874309840234,-0.7077131316776422,-0.06631036549585785,0.015401434560684421,0.7032125244137102,0,-1,0.014996010810136795,-1.5778005758868616,-0.1264727751361292,-1.5434945265399378,0.10314710438251495,0.03273116797208786
2802,1734172019,438191652,-0.10793652684935981,0.25401212930100947,1.4202811268523308,-0.7077567261407325,-0.06887729094126786,0.016018202650477417,0.702908068369536,0,-1,0.015558520331978798,-1.5780280272113245,-0.13132125536073858,-1.5424626509295862,0.10712436586618423,0.03395280987024307
2818,1734172019,455075979,-0.11214149783047844,0.25384743189379344,1.4197245839395223,-0.7078085938622971,-0.07153078042230811,0.01657074904293845,0.7025779331739713,0,-1,0.01616896688938141,-1.5783756414996546,-0.13628989854921514,-1.5414560476886194,0.11117278784513474,0.035234373062849045
2834,1734172019,470320463,-0.1163510403148747,0.2536668705376002,1.4191456116186696,-0.7078577904369304,-0.07425492645772638,0.01712634490222067,0.7022323281683879,0,-1,0.016767429187893867,-1.5787237326251429,-0.14130670229067022,-1.5404728094684046,0.11524593085050583,0.036539528518915176
2850,1734172019,486454248,-0.12066017344251675,0.2534821859317007,1.4185294443810998,-0.7079158015280411,-0.07698962443037383,0.017710090115938677,0.7018647792738045,0,-1,0.017437797039747238,-1.579083267842428,-0.14651424089540654,-1.539393726979391,0.11940295249223709,0.037809107452631
2866,1734172019,502325534,-0.12503642748103144,0.25327888431332773,1.4178831846109,-0.7079705329900754,-0.07980331161257687,0.018313829095464654,0.7014796928901624,0,-1,0.018036259338259697,-1.5793831984149378,-0.151710335408346,-1.5383265654193323,0.12361953407526016,0.03910265490412712
2882,1734172019,518683910,-0.12939122961939414,0.25308308574092087,1.4172082106631478,-0.70803329707865,-0.08259336391965073,0.01887844627775171,0.701078305705226,0,-1,0.018718237057328224,-1.579742733632223,-0.15696603456606084,-1.5372236410724085,0.1278844177722931,0.040431778877973557
2898,1734172019,534245491,-0.13383989209778643,0.25286353057986544,1.4165030419191549,-0.7080916832249599,-0.08544962960746515,0.019458896362426516,0.7006610309557301,0,-1,0.01930471509695053,-1.580055061970846,-0.1622222105609339,-1.5361326376544397,0.13216091692447662,0.04176127910614014
2914,1734172019,550399065,-0.13828166903223962,0.2526367745328056,1.415771968940875,-0.7081554881486142,-0.08831635410327471,0.020092898066778102,0.700223037074746,0,-1,0.0199630968272686,-1.5803664366351526,-0.16751367250551397,-1.5350053946124476,0.13647373020648956,0.04310276359319687
2930,1734172019,566271066,-0.14258154680811955,0.25241691993464566,1.4150348283021537,-0.7082256319343929,-0.09107997552100527,0.020767972803475476,0.6997782388984791,0,-1,0.02059713751077652,-1.5806906859027308,-0.17273313203920537,-1.5338423887835901,0.1408461034297943,0.04451577737927437
2946,1734172019,582653045,-0.1470250482313305,0.2521771379595321,1.4142597049826289,-0.7082945877161715,-0.0939259025823897,0.02140765236210079,0.699312815738712,0,-1,0.02120758406817913,-1.5809662977801722,-0.1780489126788538,-1.5326913038836878,0.1451948881149292,0.045881230384111404
2962,1734172019,598471879,-0.15136129658666767,0.251936178229206,1.4134680534463555,-0.7083709610388399,-0.09669403957498146,0.02207978119514082,0.6988371251800787,0,-1,0.02180604636669159,-1.5813024679767054,-0.18335229555238897,-1.5316122213946741,0.1495552659034729,0.04731858894228935
2978,1734172019,614982843,-0.15578392259017657,0.25169328727947216,1.4126370535398054,-0.7084561738278979,-0.09946339321270209,0.022720534372350026,0.6983413638712701,0,-1,0.022476039826869965,-1.5815900007831019,-0.1886680761920374,-1.53046161333193,0.15386809408664703,0.04876718297600746
2994,1734172019,630487203,-0.16019885136603515,0.2514368155986637,1.4117898326351355,-0.7085319872583921,-0.10227795742955055,0.023322490326382155,0.6978378779492331,0,-1,0.02312243916094303,-1.5819018522845667,-0.19391185442079717,-1.5292866865741175,0.15808503329753876,0.05014462023973465
3010,1734172019,646604061,-0.16448932910836395,0.2511797409436275,1.4109417709978744,-0.7086104702837611,-0.10498159371947982,0.02394028319857991,0.6973355929713589,0,-1,0.023696932941675186,-1.582273308430807,-0.19903594652284795,-1.5281232039081019,0.1622180938720703,0.051545649766922
3026,1734172019,662604093,-0.16870280187104494,0.25092059908706793,1.410086925496623,-0.7086910068363929,-0.10762842091139305,0.024561282743765532,0.6968284747563928,0,-1,0.0243313480168581,-1.5825732390033167,-0.20411187807192022,-1.5269964377032679,0.16630321741104126,0.05285118147730827
3042,1734172019,679093360,-0.17291635497274682,0.2506462541785376,1.409212062706998,-0.708767276724316,-0.11033704723818465,0.025176282438322782,0.6963051330086123,0,-1,0.024953778833150864,-1.5828736464129847,-0.2091282049762171,-1.5259292761432093,0.17048458755016327,0.0541686974465847
3058,1734172019,694660186,-0.17704835469711594,0.2503810342879963,1.4083210149676513,-0.708851271246352,-0.11299235064869016,0.025790885082143795,0.6957711076165737,0,-1,0.02552827261388302,-1.5831854979144495,-0.21416789690126592,-1.524778191243307,0.17456971108913422,0.05547385662794113
3074,1734172019,710835456,-0.18119522310720265,0.25010648252889767,1.4074111034448242,-0.7089321720278896,-0.11566294411646696,0.026344475810824122,0.6952289028919774,0,-1,0.026138344779610634,-1.5834372679339808,-0.2192319075213831,-1.5237353483783167,0.17865483462810516,0.056707482784986496
3090,1734172019,726714611,-0.18524161740060785,0.24983009206036738,1.4064956075254949,-0.7090192642323078,-0.11825537552639064,0.02697288466192278,0.6946796474632058,0,-1,0.02672482281923294,-1.5837605635272425,-0.22422439256776983,-1.5225842634784144,0.18278826773166656,0.058024998754262924
3106,1734172019,742796897,-0.18934569005921972,0.2495407661727571,1.4055501112848976,-0.7091083401158472,-0.1209000193332334,0.027594905879439087,0.6941088304242186,0,-1,0.02729969099164009,-1.584012810383932,-0.22921592393984014,-1.5215171019183558,0.18690934777259827,0.059342510998249054
3122,1734172019,758490324,-0.1934387583817733,0.24925678757186942,1.4045815508379025,-0.709197711015508,-0.12353848854926446,0.028161687761144343,0.6935299329371235,0,-1,0.02790938876569271,-1.5842765013324183,-0.23420840898622686,-1.5204504171954554,0.19101881980895996,0.060599733144044876
3138,1734172019,774238824,-0.19748072518128307,0.24895080214980952,1.4036048961606182,-0.7092833330746243,-0.1261788964007365,0.02876421063191156,0.692942032000056,0,-1,0.028508225455880165,-1.5845282713519495,-0.2392361799823206,-1.5193589369403284,0.19506798684597015,0.06194121763110161
3154,1734172019,790351152,-0.20159329363259332,0.24864961437527622,1.4025935564752263,-0.709377289563401,-0.12881658434857324,0.029331313734062434,0.6923364952702433,0,-1,0.029130656272172928,-1.5848401228534144,-0.24422866502870733,-1.518304173146383,0.19922538101673126,0.06322278082370758
3170,1734172019,806056737,-0.2056540359820625,0.2483299872333945,1.4015697365941604,-0.7094713018699034,-0.1314807659445975,0.02998469825719003,0.6917110653156212,0,-1,0.029740726575255394,-1.5851157347308558,-0.24926835695375615,-1.5172608534442347,0.20334646105766296,0.0644923597574234
3186,1734172019,822087764,-0.20974820475003877,0.24801789319765086,1.400511956019621,-0.7095666058692334,-0.13413032293411253,0.030489341260262075,0.6910822587610842,0,-1,0.030351173132658005,-1.5854037443744105,-0.2543085257159632,-1.5162060896502894,0.20740799605846405,0.06579751521348953
3202,1734172019,838566303,-0.2138175401914654,0.2476905701471403,1.399436886086325,-0.7096617465977032,-0.13676072852784635,0.03104295530611811,0.6904440914906089,0,-1,0.030961619690060616,-1.5857155958758753,-0.25937205949892217,-1.5151150862323206,0.21149349212646484,0.0670551136136055
3218,1734172019,854298353,-0.21787180646519422,0.2473619148501174,1.398350078065014,-0.7097621316282178,-0.13937553451261442,0.03160728872127374,0.6897921108461458,0,-1,0.03158367797732353,-1.586015526448385,-0.2643998304950159,-1.5139992872821253,0.21556662023067474,0.06834866106510162
3234,1734172019,870558977,-0.22194355883791822,0.2470226126940928,1.3972362754577605,-0.7098618233040324,-0.14199211791580335,0.032216613459421006,0.6891273612928641,0,-1,0.032170530408620834,-1.5862434546100062,-0.2694280783282679,-1.5128729979144495,0.21960417926311493,0.06964220851659775
3250,1734172019,886269092,-0.22601526883848877,0.24667826177340263,1.3960958913764332,-0.7099590350123443,-0.14464419014936003,0.03273567709245924,0.6884508713813026,0,-1,0.032780975103378296,-1.586567227040426,-0.2744200865374964,-1.511817757283346,0.22366571426391602,0.07089942693710327
3266,1734172019,902539968,-0.2300681787486987,0.24633573124460997,1.394940088073007,-0.710065147801719,-0.1472673980108735,0.033269551139868216,0.6877593593164556,0,-1,0.03333112597465515,-1.5867827574359339,-0.27949554124941045,-1.510702912007467,0.22776319086551666,0.07214503735303879
3282,1734172019,918198585,-0.23402364778233395,0.24599243380172758,1.3937821289506767,-0.7101727542711114,-0.1498545533463321,0.03385291704220664,0.6870605882599353,0,-1,0.033905621618032455,-1.5870588461505335,-0.28443986574281865,-1.5096357504474085,0.2318846434354782,0.07340262830257416
3298,1734172019,934526205,-0.23797853008197273,0.24563938894703022,1.3926053164805825,-0.7102855086246537,-0.15245573050459,0.0344584965114523,0.686341284269203,0,-1,0.03452805057168007,-1.587323013936178,-0.28949147859682256,-1.50856858888735,0.2360420525074005,0.07472014427185059
3314,1734172019,950356006,-0.24195597510133954,0.24527569341728933,1.3914054679187764,-0.7103956723172962,-0.15503342924084682,0.03504173406335579,0.6856199395033031,0,-1,0.03509056195616722,-1.5875867048846644,-0.29444724718202764,-1.507465664540426,0.2400556355714798,0.07606125622987747
3330,1734172019,966340780,-0.24591885439109604,0.2449111253179957,1.3901816845146633,-0.7105120373248341,-0.15761577075280225,0.03563114936776951,0.6848797958921297,0,-1,0.03567703813314438,-1.5878503958331507,-0.2993672529803675,-1.506434742604391,0.2441890686750412,0.07733083516359329
3346,1734172019,982104539,-0.24983729347800074,0.2445365618062658,1.3889494264414937,-0.7106294385260199,-0.1602076242460432,0.0362137199756147,0.6841256351863744,0,-1,0.03623954951763153,-1.5880902449237269,-0.30449086824526006,-1.5053675810443323,0.2483225166797638,0.07876819372177124
3361,1734172019,998407363,-0.2538954078792832,0.24414407013915476,1.3876563209881925,-0.710750406089693,-0.16282497183221709,0.03680564381353327,0.6833500079568635,0,-1,0.03688594698905945,-1.5883539358722132,-0.3095906416522425,-1.5043724218951624,0.25240838527679443,0.08002578467130661
3378,1734172020,14307022,-0.25795005634975404,0.24375590318666623,1.3863356243426397,-0.7108724919783768,-0.1654595551157533,0.037298973852771394,0.6825629804779042,0,-1,0.037508003413677216,-1.588653866444723,-0.31472617784609014,-1.5032570997821253,0.2565058767795563,0.08140285313129425
3394,1734172020,30002593,-0.26194250068163255,0.24336137176574096,1.385010958890899,-0.7109964683265694,-0.16803330489200752,0.037841370851642124,0.6817747876874618,0,-1,0.03813043236732483,-1.5889056364642542,-0.31983787218202764,-1.50220233598818,0.260579377412796,0.08268441259860992
3410,1734172020,46398878,-0.26599201750523055,0.24294531517615522,1.3836586368743977,-0.7111149007619011,-0.17067097829108993,0.03837216263202439,0.6809659258865272,0,-1,0.038693320006132126,-1.5892060438739222,-0.3248174826251429,-1.5011714140521448,0.2647611200809479,0.08404986560344696
3426,1734172020,62219858,-0.26992041298837416,0.24254092116011905,1.3823136731146475,-0.7112454933801192,-0.17325433944596275,0.03896864987957677,0.6801427984888004,0,-1,0.03932735696434975,-1.5894816557513636,-0.3297970930682581,-1.5001280943499964,0.2688230276107788,0.08533142507076263
3442,1734172020,77914476,-0.2738396624691456,0.24211821318571672,1.3809627897125802,-0.71136589297483,-0.175807761971598,0.0395430428373554,0.6793280098051483,0,-1,0.03993780538439751,-1.58976918855776,-0.33477670351137334,-1.4990013281451624,0.27292051911354065,0.08667253702878952
3458,1734172020,94142913,-0.2777400821727095,0.24170319958054653,1.3795807612910875,-0.7114924814679621,-0.17839766592323666,0.04010700624572493,0.6784866613705153,0,-1,0.04052390903234482,-1.5900452772723597,-0.33978063264955694,-1.4978740851031702,0.2770659327507019,0.08787021040916443
3474,1734172020,109966516,-0.28161865550481635,0.24128140229079084,1.3781869813641532,-0.7116185126055792,-0.18093147393969577,0.04069069635331225,0.6776482579371947,0,-1,0.041170306503772736,-1.590297047291891,-0.3448441664325159,-1.496734921132223,0.28117576241493225,0.08918772637844086
3490,1734172020,126202583,-0.2856020911900238,0.24084549262112342,1.376742314467153,-0.7117527442755681,-0.18349389758591622,0.041252725758316386,0.6767837418130226,0,-1,0.041708849370479584,-1.5905488173114222,-0.34983569780458623,-1.4956563154803675,0.2852137088775635,0.09052883833646774
3506,1734172020,141915559,-0.289442335712563,0.24041120788580103,1.375315072548135,-0.7118820437326783,-0.18602138446733574,0.04179733375413411,0.6759237998642202,0,-1,0.042319294065237045,-1.5908244291888636,-0.3548515478717249,-1.4945176283465784,0.28925126791000366,0.09178642928600311
3522,1734172020,158180236,-0.29344286339653913,0.23997570097142318,1.373813976148183,-0.7120181874060354,-0.18860899149333074,0.04228882001511914,0.6750321509621756,0,-1,0.042929742485284805,-1.5911243597613733,-0.35987884203066045,-1.493486229573385,0.29337307810783386,0.09311556071043015
3538,1734172020,173937320,-0.29732697005253084,0.23951641915750616,1.3723365695197132,-0.7121552920944214,-0.19119733478942824,0.04288104039136205,0.6741213803806277,0,-1,0.04351621866226196,-1.591424290333883,-0.3648946920977991,-1.4923833052264612,0.2975424826145172,0.09440910816192627
3553,1734172020,190210342,-0.301276695357138,0.23906537898921432,1.3708056279631629,-0.7122978565510136,-0.19374109361656966,0.043387237913113996,0.6732114822129508,0,-1,0.04412629082798958,-1.591759983693258,-0.3699582258807581,-1.4912684599505823,0.3016287088394165,0.0957266241312027
3570,1734172020,205908536,-0.3051713319329125,0.23860216827617486,1.3692740641171135,-0.7124333390849391,-0.19632280533802354,0.04390870260148213,0.6722857423003609,0,-1,0.04473673924803734,-1.5920479933368128,-0.3749497572528284,-1.4901893774615687,0.3057505488395691,0.09702017158269882
3585,1734172020,222173452,-0.30909309654931744,0.23814085042747485,1.3677009094156092,-0.7125807259024555,-0.19889485521936545,0.0444391456666498,0.6713379983078683,0,-1,0.0453471839427948,-1.592299763356344,-0.38004905382265264,-1.4891341368304651,0.3098244369029999,0.09833730757236481
3602,1734172020,237900733,-0.31301211761292475,0.23766157098292134,1.3661178889110595,-0.7127242864979018,-0.20145184203921992,0.044954430149169604,0.6703882054340048,0,-1,0.04594527184963226,-1.592635456715719,-0.38505298296083623,-1.4880431334124964,0.3139462471008301,0.09966681152582169
3617,1734172020,254171133,-0.3168240184282243,0.23719391499864223,1.3645488822823322,-0.7128733212417347,-0.20398449160754162,0.04549769971355129,0.6694265563645998,0,-1,0.04654410853981972,-1.5929115454303187,-0.39003259340395147,-1.4870007673846644,0.3180437386035919,0.10090043395757675
3634,1734172020,269873857,-0.320660326305208,0.2367180332720894,1.3629530638938379,-0.7130169504975079,-0.20650216340726887,0.04600184764644515,0.6684665397942257,0,-1,0.04709463566541672,-1.5931990782367151,-0.3950117270099085,-1.4859092871295374,0.3221176266670227,0.10213406383991241
3649,1734172020,286221742,-0.32454285167322283,0.23621999919720194,1.3613166021607865,-0.713160122726457,-0.20908492122884925,0.04652232907082107,0.6674742002245007,0,-1,0.047716692090034485,-1.5935590902911585,-0.40003902116884404,-1.4848063627826136,0.3262757658958435,0.10337967425584793
3666,1734172020,301915884,-0.3284112528772269,0.2357289632503074,1.3596547069168268,-0.713303440162659,-0.21166369049973288,0.04699105343575199,0.6664746996496923,0,-1,0.04829118400812149,-1.5938227812396448,-0.4050791899310511,-1.483703915272848,0.3303140699863434,0.1046612337231636
3681,1734172020,318159580,-0.33227838845083085,0.23522254949959845,1.357969217791155,-0.7134552452230206,-0.21419264031535584,0.04747624312431912,0.6654691068992583,0,-1,0.0489020049571991,-1.5940988699542444,-0.4101179281817835,-1.4826367537127894,0.33441194891929626,0.10597837716341019
3698,1734172020,333860397,-0.33610667006985717,0.23470542166295466,1.3562809848349184,-0.7136013961664673,-0.21674719290035155,0.04799767375118521,0.6644470822221745,0,-1,0.049524061381816864,-1.594410244618551,-0.41519385973085576,-1.4815214315997522,0.3385217785835266,0.10724795609712601
3714,1734172020,350138425,-0.3399425808590376,0.2341973910903758,1.354565912893677,-0.7137610561674572,-0.21926716468764412,0.048511229984395984,0.6634106765450482,0,-1,0.05009855702519417,-1.594710652028219,-0.42019731203188115,-1.480478588734762,0.34265559911727905,0.10857745260000229
3729,1734172020,365857124,-0.3437213257311015,0.2336870600002174,1.3528474031363455,-0.7139262359266244,-0.22176219607718306,0.049025747480056205,0.662364955391428,0,-1,0.050744954496622086,-1.5950458685504358,-0.4251764456378382,-1.4793875853167933,0.34671786427497864,0.10993092507123947
3745,1734172020,382171154,-0.34748267705587843,0.23315206515063353,1.3511221800373097,-0.7140885083610738,-0.22423370230543319,0.04959138415703305,0.6613150108642963,0,-1,0.0513310581445694,-1.595297638569967,-0.43019181886781865,-1.4782727400409144,0.3508280813694,0.11130835860967636
3762,1734172020,397935390,-0.3513496496262466,0.23264246718698128,1.3493284856951953,-0.7142620402831603,-0.2267308418391012,0.05003698408672167,0.6602417461755767,0,-1,0.05191753804683685,-1.5956338087665003,-0.43525535265077764,-1.4772298971759241,0.35491394996643066,0.11264947056770325
3778,1734172020,414147853,-0.35509697141765917,0.23209743160569207,1.3475345071632006,-0.7144175883272663,-0.22929974393890723,0.05053872692723269,0.659147156558214,0,-1,0.052599888294935226,-1.5958851019488733,-0.44035464922060186,-1.4761746565448206,0.3590956926345825,0.11395499855279922
3793,1734172020,429924011,-0.3589550909143341,0.23155815417435205,1.3456913294879853,-0.7145941559628247,-0.23181203610434506,0.051026600114009175,0.6580384929939439,0,-1,0.05315041169524193,-1.5961855093585413,-0.4454301039325159,-1.4750598112689417,0.363170325756073,0.11529648303985596
3809,1734172020,446298837,-0.3626693829694624,0.2310107782956474,1.3438850434451795,-0.7147607745275755,-0.23428239583322602,0.05152274888720493,0.6569430725310147,0,-1,0.05376086011528969,-1.5965092817889612,-0.4503133932696741,-1.4740403334247034,0.36728018522262573,0.11655370891094208
3826,1734172020,462083101,-0.3663456373607169,0.23044742015284303,1.34208381178147,-0.7149242171861228,-0.23677742391597772,0.05207828015505753,0.655825943326897,0,-1,0.0543832890689373,-1.5967610518084925,-0.45530444780458623,-1.4729741255389612,0.3714263439178467,0.11785886436700821
3842,1734172020,478680849,-0.3700666143064386,0.22988144217748946,1.3402314518253087,-0.7150807834063624,-0.23930538718317435,0.05255276517788055,0.65469887103936,0,-1,0.05502931401133537,-1.5970490614520472,-0.46023637453188115,-1.4719427267657679,0.3755241930484772,0.11911645531654358
3858,1734172020,494055986,-0.3737162994892927,0.2293305002175708,1.338376745037021,-0.715257228902763,-0.24176119297592055,0.053056677365110536,0.6535622472727249,0,-1,0.05560380965471268,-1.597348992024557,-0.4653237501727503,-1.4708636442767542,0.37962281703948975,0.12048190832138062
3873,1734172020,510295152,-0.37746288122994354,0.228764897985613,1.3364630712793448,-0.7154331288875528,-0.24424829448744606,0.05351036521696082,0.65240696619862,0,-1,0.05617830157279968,-1.5976007620440882,-0.4703624884234827,-1.4697845617877405,0.38368508219718933,0.12176347523927689
3890,1734172020,526079893,-0.3811882347880446,0.2282124235077141,1.3345336402769112,-0.7156092686178513,-0.24673490491840785,0.053925506457388396,0.65124288949396,0,-1,0.056800734251737595,-1.5979121367083948,-0.47540218034853154,-1.4687178770648401,0.387771338224411,0.12304503470659256
3906,1734172020,542249441,-0.38480276198896535,0.22763461864397297,1.332618256315652,-0.7157781307820797,-0.24918752646464604,0.054404992967723304,0.6500825646706156,0,-1,0.057399194687604904,-1.5981643835650843,-0.4804652372943323,-1.4676268736468714,0.39188116788864136,0.12433858215808868
3922,1734172020,557953596,-0.388442399595998,0.22706186510137247,1.3306696617683569,-0.7159618099525064,-0.2516400172742522,0.05487059112635511,0.6488953741745964,0,-1,0.05800926685333252,-1.598464314137594,-0.4854205290423792,-1.466548267995016,0.39595580101013184,0.1256197690963745
3937,1734172020,574370861,-0.3920996906417025,0.226490364358177,1.3287084389543249,-0.7161517713608927,-0.2540671963535926,0.055362560529548736,0.6476970642246981,0,-1,0.05854780972003937,-1.5987160841571253,-0.4904716650592249,-1.465433422719137,0.4000420570373535,0.1269253045320511
3954,1734172020,590087890,-0.39570940536078447,0.22590984962861677,1.32672517943355,-0.7163283960020145,-0.256493118182492,0.055812701371787524,0.6465058791471173,0,-1,0.059134285897016525,-1.5989916960345667,-0.4955232779132288,-1.4642823378192347,0.4041522741317749,0.1282188445329666
3970,1734172020,606416702,-0.3993462222853046,0.22531013354391735,1.3247194005941587,-0.7165049030501458,-0.25896506663988134,0.056270314858462525,0.64528402260635,0,-1,0.05973312258720398,-1.599243466054098,-0.5005744139300745,-1.463203255330221,0.40825051069259644,0.12951239943504333
3986,1734172020,622159957,-0.4029387424869808,0.2247204034404211,1.3226974789979409,-0.7166881840571776,-0.26139159464937,0.0566828766232715,0.64406485122012,0,-1,0.06033121049404144,-1.5995195547686976,-0.505721394215719,-1.4621122519122522,0.4123011529445648,0.13080593943595886
4002,1734172020,638438940,-0.4065636715419728,0.22411945431297747,1.3206313516224288,-0.7168808171562002,-0.26383465752151414,0.05713142253875159,0.6428134784233,0,-1,0.06088173761963844,-1.5997594038592737,-0.5107248465167444,-1.4609854857074183,0.4163874089717865,0.13205155730247498
4018,1734172020,654223442,-0.41011063838544115,0.2235214720017008,1.3186009948683834,-0.7170664968560745,-0.26626317718113973,0.05760176582915215,0.6415618412416109,0,-1,0.06148019805550575,-1.6000593344317835,-0.515655819569723,-1.4599059263812464,0.42053356766700745,0.1333211362361908
4034,1734172020,669897317,-0.41362675532983684,0.2229114003323322,1.3165601895457135,-0.7172484032292102,-0.2686840110754471,0.05807283826762791,0.6403055330958021,0,-1,0.06210225448012352,-1.6002987066852015,-0.5205872694598597,-1.4588397184955042,0.4246920943260193,0.13460232317447662
4050,1734172020,686184406,-0.41708484880019986,0.22229665401476045,1.3145251687921031,-0.717433455613769,-0.27104895460881373,0.058562481321811195,0.6390556601368834,0,-1,0.06265315413475037,-1.6005867163287562,-0.5256145636187952,-1.4577725569354456,0.4288026988506317,0.13582396507263184
4066,1734172020,702053070,-0.4206561416797838,0.2216857666839417,1.312395365148366,-0.717631407906382,-0.27348748951026264,0.05897350949751949,0.6377553454462173,0,-1,0.06327521055936813,-1.6008151213275355,-0.5307133833514612,-1.4566691557513636,0.4328410029411316,0.13716545701026917
4082,1734172020,718194961,-0.42422533772091925,0.2210453390337328,1.310249682454673,-0.7178193314891474,-0.2759425376642115,0.05940102785204272,0.636445316691096,0,-1,0.06387367099523544,-1.6010907332049769,-0.5358126799212855,-1.4556143919574183,0.43698716163635254,0.13842304050922394
4098,1734172020,734039545,-0.4277342833490389,0.22040515650768505,1.308098897583255,-0.7180142484855822,-0.2783483894601325,0.05982892959991258,0.6351363729464434,0,-1,0.06449610739946365,-1.6013181845294397,-0.5408871809588831,-1.4545357863055628,0.4410262405872345,0.13978812098503113
4113,1734172020,750189304,-0.43125215788878785,0.21977603278553637,1.3059374832459916,-0.7182132748729789,-0.28072508366986915,0.06021369125329257,0.6338276032017136,0,-1,0.06509419530630112,-1.601654354725973,-0.5458548704730433,-1.453444782887594,0.4451604187488556,0.1411176174879074
4130,1734172020,765938282,-0.4347137339723081,0.21914133235622285,1.3037863663910874,-0.7184364855926508,-0.2830404615395066,0.06071154110417774,0.6324960253452503,0,-1,0.06570501625537872,-1.6019418875323694,-0.5507977644549769,-1.4523776213275355,0.4492829740047455,0.14250704646110535
4145,1734172020,782232999,-0.4382303018454614,0.21846709247498955,1.3015871921536155,-0.7186262099436699,-0.2854562279504786,0.061153648745532294,0.6311508088811967,0,-1,0.06632744520902634,-1.6022298971759241,-0.5558369795428675,-1.4512150923358362,0.4533456265926361,0.14384815096855164
4162,1734172020,798090696,-0.44168380798784856,0.2178178216668669,1.2993814322198336,-0.7188340485238531,-0.28781135521743084,0.06158875591933777,0.6298008094906046,0,-1,0.06691354513168335,-1.602469269429342,-0.5609000364886683,-1.4502080122577112,0.45743227005004883,0.14511772990226746
4177,1734172020,814259052,-0.4451495559342631,0.21716574032725094,1.2971338269271606,-0.7190445509566583,-0.2901878703569085,0.06200721335256546,0.6284274334634898,0,-1,0.06757193058729172,-1.602757755910055,-0.5660107771502894,-1.4491050879107874,0.46150651574134827,0.14644722640514374
4194,1734172020,830104589,-0.44865808538942586,0.2164788322199736,1.294847568674658,-0.7192398266042735,-0.29262107453386965,0.06240750539707838,0.6270345140700085,0,-1,0.06815841048955917,-1.6029976050006312,-0.57104999223818,-1.4479902426349085,0.46564146876335144,0.1477527618408203
4209,1734172020,846240758,-0.4520340497645451,0.21581350935155375,1.2926090553099345,-0.7194467020987924,-0.2949610096645766,0.06283238689613786,0.6256568842215029,0,-1,0.06876847892999649,-1.6032732168780726,-0.5760648886310022,-1.4469712416278284,0.4697520434856415,0.14904631674289703
4226,1734172020,862129926,-0.455484738355629,0.21513636306394093,1.2903304806681026,-0.7196488401214443,-0.29733573962223525,0.06322888452150262,0.6242588509723549,0,-1,0.06940289586782455,-1.6035969893084925,-0.5810321013080042,-1.4458802382098597,0.4738626182079315,0.1503278762102127
4241,1734172020,878234148,-0.4589253126632993,0.21444356692629005,1.2880306483725608,-0.7198470568679112,-0.2997212645502787,0.06362112176674892,0.6228480803214606,0,-1,0.07002495229244232,-1.6038969198810022,-0.585975472127096,-1.4447897116290491,0.4779132902622223,0.15163341164588928
4258,1734172020,894171714,-0.46225994584236524,0.2137957212145386,1.2857379700821638,-0.7200713211903189,-0.30201794376947677,0.0640285896546344,0.6214360737415588,0,-1,0.07059981673955917,-1.6041725317584437,-0.5910022894488733,-1.4437220732318323,0.48203587532043457,0.15297451615333557
4274,1734172020,909907817,-0.465676600276931,0.21312024764601495,1.2833685754646358,-0.7202921905745581,-0.30439343877286396,0.06436818937639836,0.6199842988542044,0,-1,0.07121026515960693,-1.6044963041888636,-0.5960658232318323,-1.4426916281329554,0.4862786531448364,0.15421974658966064
4290,1734172020,926068544,-0.4690359230181908,0.2124030914181878,1.2810393251884948,-0.7204970328664889,-0.30675671245701774,0.06481772910634198,0.6185329473735777,0,-1,0.07177240401506424,-1.6047361532794397,-0.6010921637164515,-1.4416726271258753,0.4902814030647278,0.15548932552337646
4306,1734172020,941901922,-0.4724025417330109,0.2117389166696096,1.2786485452237097,-0.720721335055621,-0.309078804826549,0.06514160720487874,0.6170799142845281,0,-1,0.07232292741537094,-1.6050122419940394,-0.6060951391803187,-1.4405816237079065,0.49442794919013977,0.1568068414926529
4322,1734172020,958063840,-0.475772949223625,0.21103860129287683,1.276259004192123,-0.7209351219279012,-0.31144349419888295,0.06550112567160349,0.615601415225587,0,-1,0.0729217603802681,-1.6053479353534144,-0.6110146681415003,-1.4395745436297815,0.49858683347702026,0.15810039639472961
4337,1734172020,974309206,-0.47903658592503173,0.21033338531617313,1.2739273732853322,-0.7211529724255152,-0.31374889029387865,0.06595800835667873,0.614125040472072,0,-1,0.07355580478906631,-1.6056001822101038,-0.6160419623004358,-1.4384601751910608,0.5027093887329102,0.1594298928976059
4354,1734172020,990441322,-0.48231957789470925,0.20966063262594284,1.2715114029916388,-0.7213880053854497,-0.3159985520709955,0.06632101364828263,0.6126547020334548,0,-1,0.07411831617355347,-1.6059234778033655,-0.6210568586932581,-1.4373686949359339,0.5067724585533142,0.16072344779968262
4369,1734172021,6327390,-0.48565636441614374,0.20894763970876643,1.2690608672437125,-0.7216117427657655,-0.31832820735608447,0.06667530767254341,0.611144866992097,0,-1,0.07468082010746002,-1.60618764558901,-0.6261675993548792,-1.4362781683551233,0.510871410369873,0.1620529443025589
4386,1734172021,22095680,-0.48895155893509723,0.20822564885508565,1.266578545477614,-0.7218296373694831,-0.32067590650609723,0.06702677499134731,0.6096198397655647,0,-1,0.07530287653207779,-1.6064751783954065,-0.6312902609454554,-1.4351633230792444,0.5150299668312073,0.16333450376987457
4401,1734172021,37764072,-0.49223283474740925,0.2075221715757065,1.2640945310866225,-0.7220562501889781,-0.3229893007061107,0.06737251325282434,0.6080901476347134,0,-1,0.07588972896337509,-1.6067870298968714,-0.6362693945514124,-1.4340723196612757,0.5191528797149658,0.16455614566802979
4418,1734172021,54062843,-0.4956111736566808,0.20678711426423818,1.2615705093167813,-0.7222758810582459,-0.32530963175368793,0.06767451443407752,0.6065569678323103,0,-1,0.07653575390577316,-1.607075039540426,-0.6412599722491663,-1.433005158101217,0.5231919288635254,0.16578976809978485
4433,1734172021,69769144,-0.4987987073342258,0.20605402357057556,1.2591159620730314,-0.722485119310533,-0.327583449285184,0.06806239415698188,0.6050387149851534,0,-1,0.07713422179222107,-1.6073749701129358,-0.6461437384234827,-1.4319022337542933,0.5272665619850159,0.16708295047283173
4450,1734172021,86055755,-0.502074492338231,0.20531197058437095,1.2566127321633567,-0.722711751493234,-0.32984232774157357,0.06839336114030062,0.6035015420324414,0,-1,0.07772069424390793,-1.6077106634723108,-0.6511223951922815,-1.4307759443866175,0.5313539505004883,0.1683761179447174
4465,1734172021,101780891,-0.5052625594779155,0.20457255686081377,1.2540972181940344,-0.7229329847724675,-0.33208954342641034,0.0687151465854594,0.6019656662173919,0,-1,0.07835473865270615,-1.608058277760641,-0.6562212149249476,-1.4296849409686487,0.5353087782859802,0.16965767741203308
4482,1734172021,118102073,-0.5084970167421662,0.20381627950121572,1.2515336576937517,-0.7231567446130375,-0.33435549628148387,0.06904242687847253,0.6004030880315052,0,-1,0.07896555960178375,-1.6083105246173304,-0.6612361113177698,-1.4285700956927698,0.5394676327705383,0.1709751933813095
4497,1734172021,133808135,-0.5116949019903704,0.2030726800872405,1.2489532894630557,-0.7233969776644459,-0.3366103341637361,0.06937144234611924,0.598813742850765,0,-1,0.07958798855543137,-1.6085980574237269,-0.6663349310504358,-1.4274910132037562,0.54361492395401,0.17234064638614655
4514,1734172021,149940967,-0.5148652420711554,0.20231651537747214,1.246380485370984,-0.7236473285077094,-0.33883775572646946,0.06978012932350325,0.597205369022667,0,-1,0.08022203296422958,-1.6088979879962366,-0.671325985585348,-1.4264119307147425,0.5477495193481445,0.17374205589294434
4529,1734172021,165674209,-0.5180394397769024,0.20153830877414003,1.2437908149994483,-0.7238869507178832,-0.3410952162020957,0.07014620979023564,0.5955847927176071,0,-1,0.0808444619178772,-1.6092093626605433,-0.6762455145465296,-1.425333325062887,0.5518728494644165,0.17507155239582062
4546,1734172021,181982994,-0.521224696832493,0.20078344255456154,1.2411580883172095,-0.7241283071186212,-0.34334924446623893,0.07047626438859533,0.5939550381230986,0,-1,0.08143056184053421,-1.6095336119281214,-0.6813324133502405,-1.4242423216449183,0.5559837818145752,0.17638906836509705
4561,1734172021,197734832,-0.5243069828356485,0.20001617506782887,1.2385582721756911,-0.7243656520117341,-0.34557724074257673,0.07081770554257653,0.5923306723849843,0,-1,0.08204101026058197,-1.6097853819476526,-0.6863349119769495,-1.4231756369220179,0.5601550340652466,0.17769460380077362
4578,1734172021,213979244,-0.52740425036748,0.1992668429546997,1.2359117246880347,-0.7246068475663198,-0.34780799664517315,0.0711125831483858,0.590692402564681,0,-1,0.08266343921422958,-1.610049072896139,-0.6914814154254358,-1.4221203962909144,0.5642540454864502,0.1789638102054596
4594,1734172021,229904413,-0.5305261546334505,0.19849448016534366,1.233223660251789,-0.7248427921112722,-0.3500450210101135,0.0713802958305803,0.5890469109990335,0,-1,0.08323793113231659,-1.6103251616107386,-0.6965802351581019,-1.4210179487811487,0.5683170557022095,0.18029330670833588
4609,1734172021,245726346,-0.5336097359303563,0.19771845255851106,1.230548551018453,-0.7250824521247381,-0.35227435280603603,0.0716676595843499,0.5873857033888101,0,-1,0.08381243050098419,-1.6106246153460901,-0.7015355269061487,-1.4199031035052698,0.5723804831504822,0.1814909726381302
4626,1734172021,262076377,-0.536660315263779,0.19694515738979815,1.2278714339757753,-0.7253159620251055,-0.3544781787814206,0.07199041643241905,0.5857297635781281,0,-1,0.08442287147045135,-1.6109245459186,-0.7065261046039026,-1.418812100087301,0.5764674544334412,0.18282011151313782
4642,1734172021,277903556,-0.5397025636118222,0.19615649812090363,1.2252076826570801,-0.7255613797850125,-0.35665701445702214,0.07231849148097173,0.5840603513276594,0,-1,0.08502095937728882,-1.6112244764911097,-0.7114575544940394,-1.4177334944354456,0.5805907845497131,0.1841256320476532
4657,1734172021,294266223,-0.5426592570452317,0.19540343948459638,1.2225463553508968,-0.7258111344408218,-0.3587597005652802,0.07258001239719482,0.5824275201022534,0,-1,0.08557186275720596,-1.611488167439596,-0.7164724508868616,-1.416666332875387,0.584605872631073,0.18544314801692963
4674,1734172021,309931278,-0.5456904744315247,0.1946197139890083,1.2197858859999289,-0.7260573816475377,-0.3609866118441325,0.07287073302794544,0.5807057782495239,0,-1,0.08618193119764328,-1.6117518583880823,-0.7215946356402796,-1.4155758062945765,0.588752806186676,0.18671272695064545
4689,1734172021,326204299,-0.548680462671319,0.19382069583696093,1.2170318253538654,-0.7263013611642429,-0.3631888883449946,0.07313469150087974,0.5789917797799602,0,-1,0.08680436760187149,-1.612027947102682,-0.7266696135150355,-1.4144728819476526,0.5929000973701477,0.18806619942188263
4706,1734172021,341938972,-0.5516214297247579,0.19305608086233408,1.2142792897134735,-0.7265531763777506,-0.36536451296488187,0.07341379826633627,0.5772691476126587,0,-1,0.08736687153577805,-1.6122563521014612,-0.7316249052630823,-1.4133933226214808,0.5969874262809753,0.18928784132003784
4721,1734172021,358199596,-0.5546004574524661,0.19224240357908584,1.2115130715713034,-0.7268033773871985,-0.3675302147429996,0.07369198736244795,0.5755413824114641,0,-1,0.08798892796039581,-1.612579647694723,-0.736579720173971,-1.4123390356646937,0.601134717464447,0.19060535728931427
4738,1734172021,373926401,-0.5574684390315817,0.19145650160077865,1.208806952180662,-0.7270531866980128,-0.3696440366004654,0.07403062361146905,0.5738261206024656,0,-1,0.08859974890947342,-1.6128438154803675,-0.7414868513690394,-1.4112842718707483,0.6052337288856506,0.1918625831604004
4753,1734172021,390219449,-0.5604011409684806,0.1906505048089476,1.2060074967205456,-0.7273012335471517,-0.37180466883313296,0.07427027463939113,0.572082275743328,0,-1,0.08921019732952118,-1.6130955854998987,-0.7465737501727503,-1.4102290312396448,0.6093214750289917,0.19318009912967682
4770,1734172021,405941724,-0.5632627351228142,0.18985682499282353,1.2032108643970332,-0.7275599803599936,-0.3739470094157913,0.07452989178205395,0.5703204400672547,0,-1,0.08979630470275879,-1.6133468786822718,-0.7517202536212366,-1.4091385046588343,0.6134084463119507,0.1944376826286316
4785,1734172021,422119379,-0.5661762210567033,0.18905740575059687,1.2003396079437614,-0.7278106354366954,-0.3761033233323437,0.07471658749322439,0.5685555387796055,0,-1,0.0904427021741867,-1.6136110464679163,-0.7569025198565882,-1.4081195036517542,0.6175321340560913,0.19567131996154785
4801,1734172021,437863588,-0.5691400743816211,0.18820651875899996,1.1974253708299503,-0.728050255663796,-0.37830551008887137,0.07491602675120013,0.5667586392813907,0,-1,0.09100483357906342,-1.6138747374164026,-0.7619293371783655,-1.407088581715719,0.6216195225715637,0.19695287942886353
4817,1734172021,453626155,-0.5720093108779555,0.18739531171188412,1.1945685184047823,-0.7283002814531729,-0.38047593640067806,0.0751430944372107,0.5649515706798741,0,-1,0.09162764251232147,-1.6141865889178675,-0.7669203917132776,-1.4059856573687952,0.6257544755935669,0.19822245836257935
4834,1734172021,469905853,-0.5748682977953163,0.1865659995863156,1.1916917067091908,-0.7285602778903787,-0.3825766573887975,0.07538124329823027,0.5631631121267815,0,-1,0.09226205945014954,-1.614450756703512,-0.7718752066241663,-1.4049065748797815,0.6297822594642639,0.19952799379825592
4850,1734172021,486283540,-0.5776350153919003,0.1857519216038116,1.1888866974638186,-0.7288222503784009,-0.38462115503343175,0.07568936338236297,0.5613874016442522,0,-1,0.092860147356987,-1.614774529133932,-0.7768538633929651,-1.4038165251361292,0.633893609046936,0.2008574903011322
4866,1734172021,502303838,-0.5804791103855602,0.1849206092372642,1.185948319480164,-0.729085884393341,-0.3867338789271832,0.07588350187147333,0.5595644504541338,0,-1,0.09342265129089355,-1.615002457295553,-0.7819893995868128,-1.4026654402362269,0.6380652189254761,0.20222294330596924
4881,1734172021,518281698,-0.5832826569255786,0.18408853331465863,1.1830079520471475,-0.7293592407661973,-0.38884270898040285,0.07613719267423835,0.5577092194624578,0,-1,0.09402111917734146,-1.615241829548971,-0.787027661000387,-1.401574436818258,0.6422244906425476,0.20355206727981567
4898,1734172021,533909320,-0.5860101352662107,0.18329159643297888,1.1801042257066732,-0.7296474193633185,-0.39086269964748727,0.07638399833622919,0.5558835113932583,0,-1,0.09463118761777878,-1.6154821554767054,-0.7920907179461878,-1.4004834334002894,0.6462879180908203,0.2049175202846527
4913,1734172021,550307273,-0.5887308686310074,0.18245062881295776,1.1772002438456453,-0.7299199934390728,-0.3928957731453394,0.07664782448628711,0.5540530891746289,0,-1,0.09526597708463669,-1.615793530141012,-0.7970336119281214,-1.3993929068194788,0.6504112482070923,0.20628297328948975
4930,1734172021,566054105,-0.591467522740434,0.18162695976446103,1.1742744470624653,-0.7301932089404441,-0.39495579429285166,0.07688609069957728,0.5521922918954012,0,-1,0.09584009647369385,-1.6161053816424769,-0.8020003477679651,-1.3982904593097132,0.6545109748840332,0.20758850872516632
4945,1734172021,582390546,-0.5942235844998724,0.18077567621851548,1.1713015516420038,-0.7304586850384402,-0.396997995718761,0.07709221203310034,0.5503448843144114,0,-1,0.096402607858181,-1.6164172331439417,-0.8069914023028772,-1.397175137196676,0.6585028171539307,0.20891763269901276
4961,1734172021,598265647,-0.5969101279262687,0.1799637106241789,1.1683378274914464,-0.7307340372503063,-0.39900536796733815,0.07725406627308123,0.5485018617847993,0,-1,0.096965491771698,-1.616669003163473,-0.8120659033404749,-1.3961084524737757,0.6625782251358032,0.21016360819339752
4978,1734172021,614040374,-0.5995900495374543,0.17912452669890927,1.165340827155755,-0.7309968942277013,-0.4010408762145715,0.07743125286608793,0.5466389643211429,0,-1,0.09759952872991562,-1.6169212500201624,-0.8171885649310511,-1.3950055281268519,0.6666539907455444,0.2114807516336441
4994,1734172021,629730701,-0.602239557081051,0.1782860680452585,1.1623254382622332,-0.7312728024949613,-0.40309117943057504,0.07761333100701918,0.5447327420363385,0,-1,0.09819798916578293,-1.6171849409686487,-0.8222268263446253,-1.39398700395693,0.6708012819290161,0.21277430653572083
5009,1734172021,645572185,-0.6049470216669325,0.17742912940261465,1.1592748611924322,-0.7315335721641223,-0.40517720858148304,0.07777207624352282,0.542808959579416,0,-1,0.09876012802124023,-1.617521111165182,-0.8272421995746058,-1.3929436842547815,0.6748530864715576,0.2140674740076065
5025,1734172021,661824703,-0.6075800348000315,0.17658931075216816,1.156280696409859,-0.7318284631901565,-0.40713037721232165,0.0779673528624678,0.5409187076662315,0,-1,0.09938255697488785,-1.6178563276873987,-0.8321731726275843,-1.391865078602926,0.679000735282898,0.2154209464788437
5042,1734172021,677857875,-0.6101748033544439,0.1757153089672362,1.1532892373198618,-0.7320910623475347,-0.409143929031902,0.07818743075580228,0.5390089493125347,0,-1,0.09996940940618515,-1.6181562582599085,-0.8371041456805628,-1.3907745520221155,0.6831483840942383,0.21667852997779846
5058,1734172021,693955421,-0.6127887321934653,0.17486237244210923,1.1502436013963497,-0.7323683376701755,-0.4111536551815994,0.07837269604626675,0.5370726303987886,0,-1,0.10061543434858322,-1.6184199492083948,-0.8421786467181605,-1.3896234671222132,0.6872720718383789,0.21798406541347504
5073,1734172021,709800481,-0.6154102023616661,0.17398409591784175,1.1471310477402332,-0.7326445634996931,-0.41317238920644916,0.0785338374587509,0.5351195723815207,0,-1,0.10122588276863098,-1.6187079588519495,-0.8472541014300745,-1.388580624257223,0.6913478374481201,0.2192896008491516
5090,1734172021,726009607,-0.6180130380844272,0.17309954900162577,1.1440272326122933,-0.7329078884271449,-0.4151823569017329,0.07867093066787888,0.5331796341446617,0,-1,0.10182397067546844,-1.6189716498004358,-0.8523524443255823,-1.3874781767474573,0.6954116225242615,0.22055917978286743
5106,1734172021,742101192,-0.6206002869548977,0.1722528325870554,1.1408786854590969,-0.7331864956603849,-0.4171945858618579,0.07876730337417423,0.5312080120140868,0,-1,0.10239846259355545,-1.6192835013019007,-0.8573549429522913,-1.3864229361163538,0.6995233297348022,0.22182875871658325
5122,1734172021,757950544,-0.6231138110541719,0.17137378809893966,1.1378321012050872,-0.7334584316692965,-0.4191529772928939,0.0789543946638639,0.5292595905630633,0,-1,0.10304524004459381,-1.6196916739093226,-0.8622739950763147,-1.3853562513934534,0.7036110758781433,0.22309796512126923
5137,1734172021,774079084,-0.6256603980337803,0.17049855748290896,1.1347163974708039,-0.7337335437241105,-0.42110539344020254,0.07907406770836421,0.5273069563789995,0,-1,0.10365530848503113,-1.6199310461627405,-0.8672650496112269,-1.3842414061175745,0.7076029777526855,0.22435593605041504
5153,1734172021,789768457,-0.6281760151045317,0.16963548687274124,1.131581451201688,-0.734005143422044,-0.42306808797662776,0.07917225330352551,0.5253395061030794,0,-1,0.10425376892089844,-1.6202433745013636,-0.8722799460040491,-1.3831504026996058,0.7117146849632263,0.22567345201969147
5170,1734172021,805889844,-0.6306452246431888,0.16874966482144424,1.1284668630277042,-0.7342847112990691,-0.42499331100637583,0.07933392068493517,0.5233667713764767,0,-1,0.1048758253455162,-1.6205428282367151,-0.877390209828512,-1.38202411333193,0.7158503532409668,0.22690707445144653
5185,1734172021,821956872,-0.6331308279755732,0.16787874569513717,1.1252467919771396,-0.7345551828674798,-0.42698622241452494,0.07939324650956597,0.5213522433052039,0,-1,0.10545032471418381,-1.6208303610431116,-0.8825367132769983,-1.3809807936297815,0.7199504375457764,0.22820061445236206
5201,1734172021,837540388,-0.6356414565425855,0.16698601103091865,1.1220258199773048,-0.734842012080996,-0.42895061215880054,0.07946948626915369,0.5193199306414693,0,-1,0.10603679716587067,-1.6211302916156214,-0.8875158468829554,-1.3799141089068812,0.7240022420883179,0.22953012585639954
5217,1734172021,853825807,-0.6380494978357651,0.16610590350841759,1.1188652512167554,-0.7351235999414208,-0.43088700053056544,0.07958661988541342,0.5172964870537523,0,-1,0.10663526505231857,-1.6214421431170862,-0.8925069014178675,-1.3788955847369593,0.7281622886657715,0.2308116853237152
5233,1734172021,870037555,-0.640467258554101,0.16521921987647897,1.1157059523624202,-0.7354009283406138,-0.4328204960262242,0.07971337614877422,0.51526466061466,0,-1,0.10724570602178574,-1.6218021551715296,-0.8973897139178675,-1.3778169790851038,0.7322975993156433,0.23205728828907013
5249,1734172021,885366201,-0.6428460605782155,0.16433258573076934,1.1125489646620892,-0.7356914127906663,-0.4347083690003505,0.07987350860320837,0.5132319180356402,0,-1,0.10782020539045334,-1.6220420042621058,-0.902417008076803,-1.3767498175250452,0.7364096641540527,0.2333984076976776
5265,1734172021,902112245,-0.645217086507184,0.1634489762437391,1.1093012455083493,-0.735996485927189,-0.4365929734096766,0.07993539265203091,0.5111810650578639,0,-1,0.1084182932972908,-1.6223300139056605,-0.9074671904193323,-1.375706974660055,0.740485429763794,0.23473988473415375
5282,1734172021,917978525,-0.6475587008659561,0.16257416327021446,1.1060919958979327,-0.7363026549871542,-0.4384573156156432,0.08005603253828472,0.5091214141010189,0,-1,0.10896918922662735,-1.6225455443011683,-0.9125302473651331,-1.3746164480792444,0.7446334958076477,0.2361532747745514
5297,1734172021,933846950,-0.6498824144679047,0.16169035936692147,1.1028639211434612,-0.7366066354596402,-0.4403112866225212,0.08017582185452382,0.507058648540384,0,-1,0.10953132808208466,-1.6227977911578577,-0.917617146168844,-1.3735135237323206,0.7487335801124573,0.2374468296766281
5314,1734172021,950019598,-0.6521792667333929,0.16081519825703258,1.0996211877603812,-0.7369012120081038,-0.4421771799078985,0.08025021495118102,0.5049909388394757,0,-1,0.11018970608711243,-1.6231210867511194,-0.9225958029376429,-1.3724468390094202,0.752821683883667,0.2387763261795044
5329,1734172021,965645790,-0.654464096814342,0.159925128559755,1.096395313489084,-0.737200607989799,-0.4440070749926169,0.0803325726847468,0.5029310675448687,0,-1,0.11081213504076004,-1.6234090963946741,-0.9276230970965784,-1.371307675038473,0.7569094300270081,0.24011780321598053
5346,1734172021,981834411,-0.6567332014585859,0.15901223617556162,1.0931440856640426,-0.7374887362557628,-0.4458601199132893,0.08045027022428047,0.50084615540865,0,-1,0.1113986149430275,-1.6236727873431605,-0.932565991078512,-1.3702290693866175,0.7609975337982178,0.24137502908706665
5361,1734172021,998148918,-0.6590013912990073,0.15811310903529974,1.0898662688914524,-0.7377801722562752,-0.4477027622016291,0.08052448352731216,0.49875691643845116,0,-1,0.11200906336307526,-1.6239846388446253,-0.9376404921161097,-1.369150463734762,0.7650737166404724,0.24262064695358276
5378,1734172022,14198303,-0.6612479613890601,0.15719943402582623,1.0865360783564868,-0.7380650814759161,-0.44957176854719266,0.08053727597834,0.49664766948943556,0,-1,0.11259516328573227,-1.6242488066302698,-0.9428113142596644,-1.3680480162249964,0.7691498398780823,0.2439621239900589
