yildirimyigit/pemp/data/ur10/raw/20_2024-12-14_13-57-22.csv
Time,ROS secs,ROS nsecs,________p_x________,________p_y________,________p_z________,________q_x________,________q_y________,________q_z________,________q_w________,gripper_position,gripper_force,shoulder_pan_joint,shoulder_lift_joint,elbow_joint,wrist_1_joint,wrist_2_joint,wrist_3_joint
0,1734173842,518745183,-2.46349884586059e-05,0.2561410021717025,1.4272999991196325,-0.7071067798621974,4.272817867704718e-05,8.841916818581542e-06,0.7071067811646534,0,-1,-5.990663637334137e-05,-1.5707839171039026,6.008148193359375e-05,-1.5707476774798792,1.1984225238848012e-05,0.0
16,1734173842,534722805,6.186243673271287e-05,0.25614099885054087,1.427299998286759,-0.7071067775888044,7.20453254630733e-05,5.5310220595202855e-05,0.7071067789508368,0,-1,-5.990663637334137e-05,-1.570796314870016,-2.366701234990387e-05,-1.570723835621969,3.5952674807049334e-05,5.992112710373476e-05
32,1734173842,551496028,4.3523653395346044e-05,0.2561409992249764,1.4272999992913247,-0.7071067786111707,4.2408259874425586e-05,5.109553511357932e-05,0.707106780644139,0,-1,-3.5587941304981996e-05,-1.570808235798971,1.1920928955078125e-05,-1.5706999937640589,2.3968450477696024e-05,3.5952674807049334e-05
48,1734173842,566406250,1.2952902171926194e-05,0.2561410000819443,1.4272999997366944,-0.7071067808273385,1.296728288664538e-05,2.1609801530644028e-05,0.707106781096649,0,-1,-8.32716571252945e-05,-1.5707600752459925,3.5762786865234375e-05,-1.5707600752459925,-1.1746083394825746e-05,5.992112710373476e-05
64,1734173842,582905530,3.843815775330435e-05,0.2561409986866997,1.42729999921288,-0.7071067782927086,5.954216079647012e-05,3.4085268673198086e-05,0.7071067807519822,0,-1,-7.135072817021637e-05,-1.5707724730121058,2.384185791015625e-05,-1.5707600752459925,2.3968450477696024e-05,0.0
80,1734173842,598536014,-4.525324273692953e-06,0.25614100091403247,1.4272999997874813,-0.7071067804623438,2.152048306088333e-05,4.582474401673414e-06,0.7071067815684194,0,-1,-5.990663637334137e-05,-1.570820156727926,-3.5587941304981996e-05,-1.5707357565509241,3.5952674807049334e-05,4.793690095539205e-05
96,1734173842,614352703,7.267461147472527e-05,0.25614099628924397,1.4272999985338946,-0.707106778883258,4.278487328069242e-05,2.5846864647141615e-05,0.707106781723056,0,-1,-3.5587941304981996e-05,-1.5707839171039026,0.0,-1.5707357565509241,2.3968450477696024e-05,2.3968450477696024e-05
112,1734173842,630681753,3.492006979495962e-05,0.2561409994815652,1.4272999995034716,-0.707106780316294,2.993279243796871e-05,2.167181444882079e-05,0.707106781091148,0,-1,-7.135072817021637e-05,-1.570796314870016,-3.5587941304981996e-05,-1.570723835621969,0.0,4.793690095539205e-05
128,1734173842,646421194,5.7679961343087676e-05,0.25614099774350524,1.4272999989682935,-0.7071067785019706,5.10062166364325e-05,3.4023451421621386e-05,0.7071067812129479,0,-1,-8.32716571252945e-05,-1.570796314870016,3.5762786865234375e-05,-1.5707476774798792,2.3968450477696024e-05,1.1984225238848012e-05
144,1734173842,662528514,3.0187201620775808e-05,0.2561409993049833,1.4272999988269106,-0.7071067780618159,7.617581415177651e-05,3.427623468266179e-05,0.7071067793773603,0,-1,-3.5587941304981996e-05,-1.570808235798971,-5.990663637334137e-05,-1.5707600752459925,0.0,1.1984225238848012e-05
160,1734173842,678173542,4.8578317765185524e-05,0.25614099820037745,1.4272999993364444,-0.7071067796807973,5.084294788584477e-05,8.606193580994962e-06,0.70710678081205,0,-1,-5.990663637334137e-05,-1.570796314870016,-1.1746083394825746e-05,-1.5707357565509241,4.793690095539205e-05,3.5952674807049334e-05
176,1734173842,694706201,-4.247908092570048e-07,0.2561410007279719,1.427299999596131,-0.7071067797064436,4.685866766958091e-05,4.498278880897673e-06,0.7071067810997246,0,-1,-4.7985707418263246e-05,-1.5707839171039026,0.0,-1.5707476774798792,3.5952674807049334e-05,2.3968450477696024e-05
192,1734173842,710498332,4.303054358270116e-05,0.25614099844712984,1.427299999385275,-0.7071067792620027,5.9525100503661095e-05,8.858976509895866e-06,0.7071067805501502,0,-1,-2.366701234990387e-05,-1.570796314870016,0.0,-1.5707476774798792,0.0,0.0
208,1734173842,726837158,-3.0551345485375564e-05,0.2561410025261315,1.427299998872771,-0.7071067800562432,3.846873660022127e-05,4.582474734472927e-06,0.7071067812555958,0,-1,-3.5587941304981996e-05,-1.570808235798971,2.384185791015625e-05,-1.5707357565509241,-2.366701234990387e-05,1.1984225238848012e-05
224,1734173842,742594003,9.140693962790912e-06,0.25614100007344665,1.4272999997172051,-0.707106780427962,3.823833197721917e-05,4.768122142877334e-06,0.7071067808951466,0,-1,-5.990663637334137e-05,-1.5707724730121058,3.5762786865234375e-05,-1.5707600752459925,2.3968450477696024e-05,0.0
240,1734173842,758756160,2.9926855020212303e-06,0.25614100038783627,1.4272999996583495,-0.7071067805951532,3.393945127368742e-05,-8.297303052088079e-06,0.7071067809147542,0,-1,-3.5587941304981996e-05,-1.570808235798971,1.1920928955078125e-05,-1.5707357565509241,3.5952674807049334e-05,5.992112710373476e-05
256,1734173842,774785518,1.4462578460323609e-05,0.2561409998046003,1.4272999994523798,-0.7071067783619142,7.193875038926636e-05,-3.6783078780195855e-06,0.7071067803422061,0,-1,-4.7985707418263246e-05,-1.5707839171039026,-1.1746083394825746e-05,-1.570723835621969,1.1984225238848012e-05,4.793690095539205e-05
272,1734173842,790847778,5.802988975890305e-05,0.25614099669604096,1.4272999990821749,-0.7071067783466357,7.216915502323468e-05,-3.4479032432000222e-06,0.7071067803351675,0,-1,-3.5587941304981996e-05,-1.570808235798971,-1.1746083394825746e-05,-1.5707476774798792,-4.7985707418263246e-05,-1.1746083394825746e-05
288,1734173842,806651830,4.167136287445376e-05,0.25614099847858435,1.4272999995124138,-0.7071067787479707,4.261628588902283e-05,3.410764695078647e-05,0.7071067815183143,0,-1,-2.366701234990387e-05,-1.5707839171039026,-2.366701234990387e-05,-1.5707476774798792,-2.366701234990387e-05,1.1984225238848012e-05
304,1734173842,822943925,4.558177476255859e-05,0.25614099796525236,1.4272999994077649,-0.7071067793399831,4.6960119205420136e-05,1.3073857349012148e-05,0.7071067813529001,0,-1,-3.5587941304981996e-05,-1.570808235798971,1.1920928955078125e-05,-1.5707357565509241,0.0,3.5952674807049334e-05
320,1734173842,838686227,2.9442433365463856e-05,0.25614099935730994,1.4272999997192894,-0.7071067797146389,4.673483750727341e-05,2.15703629057106e-05,0.7071067807850294,0,-1,-5.990663637334137e-05,-1.5707839171039026,1.1920928955078125e-05,-1.5707476774798792,2.3968450477696024e-05,2.3968450477696024e-05
336,1734173842,854484081,2.4614915469401283e-05,0.2561409995224905,1.4272999995876818,-0.7071067784081981,5.9378892330549085e-05,4.2688544693791355e-05,0.7071067801831734,0,-1,-4.7985707418263246e-05,-1.5707839171039026,-3.5587941304981996e-05,-1.570723835621969,-1.1746083394825746e-05,3.5952674807049334e-05
352,1734173842,870721101,2.3754266394047934e-05,0.25614099920001737,1.427299999783194,-0.7071067794084971,5.115754804562078e-05,7.049643531559252e-07,0.7071067811136811,0,-1,0.0,-1.5707839171039026,-3.5587941304981996e-05,-1.570711914693014,-1.1746083394825746e-05,3.5952674807049334e-05
368,1734173842,886461734,3.322179144939664e-05,0.2561409989171478,1.4272999997094378,-0.7071067795908375,3.853074951005988e-05,2.1547984278852093e-05,0.7071067814041531,0,-1,-5.990663637334137e-05,-1.570808235798971,3.5762786865234375e-05,-1.570711914693014,4.793690095539205e-05,2.3968450477696024e-05
384,1734173842,902736186,9.20149346616816e-06,0.25614100012600866,1.4272999998035885,-0.7071067798261093,3.402364679017376e-05,4.2666165438069895e-05,0.7071067804412146,0,-1,-4.7985707418263246e-05,-1.570820156727926,2.384185791015625e-05,-1.5706999937640589,1.1984225238848012e-05,1.1984225238848012e-05
400,1734173842,918388128,1.3456080297577008e-05,0.2561409998699318,1.4272999998287823,-0.7071067791889663,4.689810594818476e-05,2.1485971040389558e-05,0.7071067813024615,0,-1,-2.366701234990387e-05,-1.570796314870016,-4.7985707418263246e-05,-1.5707357565509241,1.1984225238848012e-05,1.1984225238848012e-05
416,1734173842,934647083,4.0150474984474746e-05,0.25614099829724424,1.4272999992476605,-0.7071067779937777,6.795447015107131e-05,2.5594081422806945e-05,0.7071067806508372,0,-1,-4.7985707418263246e-05,-1.570796314870016,-3.5587941304981996e-05,-1.5707357565509241,-1.1746083394825746e-05,2.3968450477696024e-05
432,1734173842,950380086,-1.5067502524773777e-06,0.256141000786428,1.4272999996807394,-0.707106780319813,3.840691936993943e-05,-1.2259204653033812e-05,0.7071067809039651,0,-1,-3.5587941304981996e-05,-1.5707839171039026,2.384185791015625e-05,-1.5707357565509241,0.0,3.5952674807049334e-05
448,1734173842,966850757,5.183488078500339e-05,0.2561409980504694,1.427299998981977,-0.707106778741292,5.9671309581679856e-05,2.574029052255534e-05,0.70710678064553,0,-1,-7.135072817021637e-05,-1.570808235798971,3.5762786865234375e-05,-1.570711914693014,0.0,2.3968450477696024e-05
464,1734173842,982258081,1.7861032943077998e-05,0.2561410004488646,1.4272999997094378,-0.7071067803117744,2.156523998113921e-05,4.69876207586478e-05,0.7071067801712976,0,-1,-2.366701234990387e-05,-1.5707600752459925,-4.7985707418263246e-05,-1.570711914693014,0.0,5.992112710373476e-05
480,1734173842,998579740,2.775622178477768e-05,0.25614099935773016,1.427299999456052,-0.7071067781722774,4.6830970732360553e-05,4.708887627318949e-05,0.7071067810821217,0,-1,-2.366701234990387e-05,-1.5707724730121058,-1.1746083394825746e-05,-1.570723835621969,0.0,0.0
496,1734173843,14242649,2.4614915469401283e-05,0.2561409995224905,1.4272999995876818,-0.7071067787513087,5.514182855777347e-05,3.845148091067954e-05,0.7071067804262735,0,-1,-3.5587941304981996e-05,-1.5707839171039026,-1.1746083394825746e-05,-1.5707357565509241,3.5952674807049334e-05,4.793690095539205e-05
512,1734173843,30227661,2.8097722157070636e-05,0.2561409996430297,1.427299999628799,-0.7071067793957396,4.6881046274202136e-05,3.8620068305999176e-05,0.7071067803685965,0,-1,-3.5587941304981996e-05,-1.5707724730121058,-1.1746083394825746e-05,-1.570711914693014,2.3968450477696024e-05,2.3968450477696024e-05
527,1734173843,46682357,7.227065423870472e-06,0.2561410001214253,1.4272999998287823,-0.7071067799237483,3.406308573592705e-05,2.5846864991617293e-05,0.707106781156505,0,-1,-3.5587941304981996e-05,-1.570808235798971,2.384185791015625e-05,-1.5706999937640589,1.1984225238848012e-05,1.1984225238848012e-05
544,1734173843,62933206,3.6252357794543455e-05,0.256140999808267,1.4272999991593185,-0.7071067789636888,4.2470076814098774e-05,5.111259544418178e-05,0.7071067802866778,0,-1,-4.7985707418263246e-05,-1.570808235798971,4.8160552978515625e-05,-1.5707600752459925,1.1984225238848012e-05,2.3968450477696024e-05
560,1734173843,78057050,-2.9675272211531344e-05,0.25614100060252126,1.427299999250001,-0.7071067808274004,2.1463788113973714e-05,2.163217982605966e-05,0.7071067808890431,0,-1,-2.366701234990387e-05,-1.570808235798971,1.1920928955078125e-05,-1.5707357565509241,-1.1746083394825746e-05,1.1984225238848012e-05
576,1734173843,94156742,5.44636846835218e-05,0.2561409989998253,1.4272999986599084,-0.7071067805267208,4.664532304930933e-05,1.3175113239609982e-05,0.7071067801851189,0,-1,-1.1746083394825746e-05,-1.570808235798971,1.1920928955078125e-05,-1.5707600752459925,1.1984225238848012e-05,2.3968450477696024e-05
592,1734173843,110108137,3.436322694203417e-05,0.2561409986373178,1.4272999986886938,-0.707106777470607,6.807830061319109e-05,3.41920388227796e-05,0.7071067807986167,0,-1,-2.366701234990387e-05,-1.5707839171039026,2.384185791015625e-05,-1.570711914693014,0.0,0.0
608,1734173843,126148462,2.0990908307259102e-05,0.25614099981148736,1.427299999628788,-0.7071067804800821,3.817651473630635e-05,1.3135674601897358e-05,0.7071067807404343,0,-1,-1.1746083394825746e-05,-1.570808235798971,1.1920928955078125e-05,-1.5707476774798792,1.1984225238848012e-05,0.0
623,1734173843,142168045,-4.4453418372330665e-05,0.2561410019612893,1.4272999985435193,-0.7071067806394443,2.9831340895168006e-05,-1.2068238645730378e-05,0.7071067810014053,0,-1,-2.366701234990387e-05,-1.5708320776568812,0.0,-1.570723835621969,1.1984225238848012e-05,2.3968450477696024e-05
639,1734173843,158221006,2.8016292845703657e-05,0.25614099940170293,1.4272999993893674,-0.7071067797695076,5.1050973903711936e-05,1.7580764088876146e-05,0.7071067805421695,0,-1,-2.366701234990387e-05,-1.570796314870016,-1.1746083394825746e-05,-1.570723835621969,0.0,4.793690095539205e-05
655,1734173843,174181461,3.789392293380192e-05,0.25614099871307566,1.4272999993473348,-0.7071067787292068,6.384655548559033e-05,2.160980121117316e-05,0.7071067804312432,0,-1,0.0,-1.570808235798971,0.0,-1.5707476774798792,0.0,2.3968450477696024e-05
671,1734173843,190259218,-2.963714215372775e-05,0.2561410006086943,1.4272999993582283,-0.7071067806279123,2.9876098126323168e-05,2.15703629057106e-05,0.7071067807850294,0,-1,-2.366701234990387e-05,-1.5707839171039026,-1.1746083394825746e-05,-1.5707600752459925,0.0,4.793690095539205e-05
687,1734173843,206195592,2.166997417698756e-05,0.2561409997752925,1.4272999996695115,-0.7071067792498604,4.268342110831094e-05,4.289657006931793e-05,0.7071067805338165,0,-1,1.1984225238848012e-05,-1.570808235798971,1.1920928955078125e-05,-1.5707476774798792,-1.1746083394825746e-05,1.1984225238848012e-05
703,1734173843,222208738,8.76137900421095e-06,0.2561410001510412,1.4272999997778884,-0.7071067802182742,3.429880898603232e-05,3.4467200701573444e-05,0.7071067804829402,0,-1,-4.7985707418263246e-05,-1.570808235798971,0.0,-1.5706999937640589,1.1984225238848012e-05,4.793690095539205e-05
720,1734173843,238291978,-2.0962282157657865e-05,0.2561410005067988,1.4272999995331141,-0.7071067809358532,2.1379592581688143e-05,1.3073857359787266e-05,0.7071067809931697,0,-1,-3.5587941304981996e-05,-1.570796314870016,1.1920928955078125e-05,-1.570711914693014,0.0,1.1984225238848012e-05
736,1734173843,254400730,-1.579216733575513e-05,0.25614100096075587,1.427299999266074,-0.7071067804987686,3.389981664426219e-05,4.296068057449746e-07,0.7071067810615905,0,-1,-4.7985707418263246e-05,-1.570808235798971,-1.1746083394825746e-05,-1.570723835621969,-1.1746083394825746e-05,3.5952674807049334e-05
752,1734173843,270407199,4.6028480135330976e-05,0.25614099876042573,1.4272999992914928,-0.7071067790690302,5.090476478301798e-05,3.4214417126187095e-05,0.7071067806439847,0,-1,-3.5587941304981996e-05,-1.570796314870016,0.0,-1.570711914693014,2.3968450477696024e-05,1.1984225238848012e-05
768,1734173843,286883831,3.797350844970852e-05,0.25614099904708565,1.4272999995034716,-0.707106779665311,4.262160420159774e-05,2.5931256530394173e-05,0.7071067809477732,0,-1,1.1984225238848012e-05,-1.5707724730121058,0.0,-1.5707600752459925,-1.1746083394825746e-05,5.992112710373476e-05
784,1734173843,302663087,5.115254940236007e-05,0.25614099761166315,1.4272999993847766,-0.7071067789954694,4.679153179678874e-05,2.137939687889355e-05,0.7071067815062491,0,-1,-4.7985707418263246e-05,-1.570796314870016,-2.366701234990387e-05,-1.570723835621969,1.1984225238848012e-05,3.5952674807049334e-05
800,1734173843,318895816,1.1008572120453032e-05,0.2561410000430376,1.4272999994511626,-0.7071067790993513,5.526565873491363e-05,1.2905269965789425e-05,0.7071067809962667,0,-1,-1.1746083394825746e-05,-1.570796314870016,1.1920928955078125e-05,-1.5707357565509241,-1.1746083394825746e-05,1.1984225238848012e-05
816,1734173843,334387540,4.0597579047571235e-05,0.25614099799161383,1.4272999994656075,-0.7071067784138327,5.9311756162041275e-05,1.7333299432451895e-05,0.7071067812592969,0,-1,-2.366701234990387e-05,-1.570796314870016,0.0,-1.570723835621969,3.5952674807049334e-05,1.1984225238848012e-05
832,1734173843,350500583,2.297775331435492e-05,0.25614099931964374,1.42729999958539,-0.7071067796722496,5.098915666384879e-05,3.2303266121377584e-07,0.707106780862369,0,-1,-5.990663637334137e-05,-1.5707724730121058,0.0,-1.5707357565509241,3.5952674807049334e-05,1.1984225238848012e-05
848,1734173843,366710424,2.7365245975725453e-06,0.25614100022843056,1.4272999996917455,-0.7071067799806394,4.2520152664152044e-05,3.4214417447676796e-05,0.7071067802862746,0,-1,-3.5587941304981996e-05,-1.570808235798971,-5.990663637334137e-05,-1.5706999937640589,-3.5587941304981996e-05,0.0
864,1734173843,382438659,9.903626558981474e-06,0.2561410001026102,1.4272999995444466,-0.7071067790601049,5.102859526676729e-05,1.7142333422649238e-05,0.7071067812639523,0,-1,-2.366701234990387e-05,-1.5707724730121058,0.0,-1.570711914693014,-1.1746083394825746e-05,0.0
880,1734173843,398800373,3.2804718203252105e-05,0.25614099921116934,1.4272999995279263,-0.7071067791567478,4.257684695988879e-05,3.43606262161115e-05,0.7071067810996652,0,-1,-5.990663637334137e-05,-1.5707839171039026,-1.1746083394825746e-05,-1.5707357565509241,2.3968450477696024e-05,3.5952674807049334e-05
896,1734173843,414367437,2.947697363352107e-05,0.256140999610387,1.4272999995330922,-0.7071067790532364,5.109573111379451e-05,4.283475315027206e-05,0.7071067801763519,0,-1,-4.7985707418263246e-05,-1.5708444754229944,-1.1746083394825746e-05,-1.570723835621969,0.0,4.793690095539205e-05
912,1734173843,430492639,4.291994584473798e-05,0.2561409988713126,1.4272999990837765,-0.707106777534968,7.638915811674569e-05,4.291894835172826e-05,0.7071067794094281,0,-1,-3.5587941304981996e-05,-1.570796314870016,-2.366701234990387e-05,-1.5707357565509241,3.5952674807049334e-05,3.5952674807049334e-05
928,1734173843,446327924,7.080836832717921e-06,0.25614100033009013,1.427299999811259,-0.7071067800111479,2.978126535629258e-05,4.751061787605187e-06,0.707106781718836,0,-1,-3.5587941304981996e-05,-1.570808235798971,1.1920928955078125e-05,-1.570723835621969,4.793690095539205e-05,0.0
944,1734173843,462590932,-5.389723572460605e-06,0.2561410002973983,1.4272999996298217,-0.7071067796095413,3.826071056976883e-05,4.690322922119559e-05,0.7071067801728596,0,-1,-2.366701234990387e-05,-1.5707724730121058,1.1920928955078125e-05,-1.5707600752459925,3.5952674807049334e-05,0.0
960,1734173843,478357076,8.822772127988392e-06,0.25614100009921026,1.4272999994735385,-0.707106779310853,4.666770165047367e-05,3.840672367712548e-05,0.7071067804792157,0,-1,0.0,-1.570808235798971,0.0,-1.5707476774798792,3.5952674807049334e-05,4.793690095539205e-05
976,1734173843,494557619,8.185782313613589e-06,0.2561410002843562,1.4272999997572977,-0.7071067793011471,4.672951855696716e-05,1.3225188734478634e-05,0.7071067814041987,0,-1,-2.366701234990387e-05,-1.570808235798971,2.384185791015625e-05,-1.5707357565509241,-1.1746083394825746e-05,2.3968450477696024e-05
992,1734173843,510118722,5.06409367268187e-05,0.25614099854331024,1.4272999992746576,-0.7071067789128865,4.243063816296298e-05,4.268854372497014e-05,0.7071067808985934,0,-1,-5.990663637334137e-05,-1.5707839171039026,-2.366701234990387e-05,-1.5707600752459925,1.1984225238848012e-05,2.3968450477696024e-05
1008,1734173843,526320695,3.9319835336374806e-05,0.25614099832052123,1.4272999993458113,-0.7071067774728315,6.369502804255618e-05,3.828289318214942e-05,0.7071067809951698,0,-1,-4.7985707418263246e-05,-1.5707839171039026,1.1920928955078125e-05,-1.570711914693014,-2.366701234990387e-05,7.190534961409867e-05
1024,1734173843,542649269,2.5037928463345206e-05,0.2561409989864281,1.4272999999359635,-0.7071067792186293,4.238588125482549e-05,8.926308007844267e-06,0.7071067818277624,0,-1,-3.5587941304981996e-05,-1.570820156727926,-1.1746083394825746e-05,-1.570711914693014,-2.366701234990387e-05,2.3968450477696024e-05
1040,1734173843,558302402,1.3730164433499203e-05,0.2561409998568886,1.4272999997995566,-0.7071067797119719,2.9741826731629585e-05,2.9999732268939084e-05,0.7071067813992484,0,-1,-5.990663637334137e-05,-1.5707839171039026,-1.1746083394825746e-05,-1.5707357565509241,-1.1746083394825746e-05,2.3968450477696024e-05
1056,1734173843,574339866,-1.3546379893457924e-05,0.2561410004196909,1.4272999996651137,-0.7071067806262449,2.991553642965564e-05,2.160980120905185e-05,0.7071067807838253,0,-1,-4.7985707418263246e-05,-1.5707839171039026,-2.366701234990387e-05,-1.5707357565509241,-1.1746083394825746e-05,2.3968450477696024e-05
1072,1734173843,590262889,-5.25740401854497e-06,0.25614100056638384,1.4272999995845612,-0.7071067805340416,3.823833197974238e-05,-3.661247557132595e-06,0.7071067807956645,0,-1,-7.135072817021637e-05,-1.5707724730121058,-1.1746083394825746e-05,-1.570723835621969,1.1984225238848012e-05,7.190534961409867e-05
1088,1734173843,606495141,1.7810289944331928e-05,0.25614099967654247,1.4272999992012307,-0.7071067774866888,6.793209151406117e-05,4.247519941815309e-05,0.7071067803475503,0,-1,-5.990663637334137e-05,-1.570796314870016,-3.5587941304981996e-05,-1.570711914693014,-1.1746083394825746e-05,3.5952674807049334e-05
1104,1734173843,622583389,-1.5054137881499528e-05,0.25614100159774594,1.4272999993275224,-0.7071067794954228,4.692048457863612e-05,1.3034222729595076e-05,0.707106781200823,0,-1,-5.990663637334137e-05,-1.570796314870016,2.384185791015625e-05,-1.5707357565509241,-1.1746083394825746e-05,2.3968450477696024e-05
1120,1734173843,638272285,-3.9990781716381244e-05,0.25614100115516686,1.4272999991331712,-0.7071067811850845,8.774976654378904e-06,2.593637945773152e-05,0.7071067806578953,0,-1,-5.990663637334137e-05,-1.570820156727926,-1.1746083394825746e-05,-1.570723835621969,-1.1746083394825746e-05,0.0
1136,1734173843,654378414,2.514048608456886e-05,0.256140999304935,1.4272999998186213,-0.7071067799044729,3.4377881907711416e-05,1.7395116672218235e-05,0.7071067814189724,0,-1,-4.7985707418263246e-05,-1.5707839171039026,0.0,-1.570711914693014,3.5952674807049334e-05,0.0
1152,1734173843,670488595,2.3286532529566478e-05,0.2561409994203821,1.4272999994453666,-0.7071067793995275,5.128137852942954e-05,1.7350359450099383e-05,0.7071067809011686,0,-1,-2.366701234990387e-05,-1.570796314870016,0.0,-1.5707719961749476,-1.1746083394825746e-05,4.793690095539205e-05
1168,1734173843,686189651,1.918577721933052e-05,0.2561409998009812,1.4272999998331195,-0.7071067792827707,3.8468736895044054e-05,4.715601214966168e-05,0.7071067804715309,0,-1,-4.7985707418263246e-05,-1.5707839171039026,0.0,-1.5707357565509241,-1.1746083394825746e-05,0.0
1184,1734173843,702302455,3.933213013359041e-05,0.256140999357282,1.42729999915532,-0.7071067773637381,6.373978591820478e-05,6.395293490976511e-05,0.7071067792445005,0,-1,-3.5587941304981996e-05,-1.570796314870016,-1.1746083394825746e-05,-1.570711914693014,0.0,0.0
1200,1734173843,718543052,2.8173295035412774e-05,0.25614099912629873,1.4272999996774696,-0.7071067781682073,5.125899986200167e-05,4.2750360957894687e-05,0.7071067810546715,0,-1,-1.1746083394825746e-05,-1.570808235798971,-4.7985707418263246e-05,-1.5706999937640589,4.793690095539205e-05,2.3968450477696024e-05
1216,1734173843,734218597,4.250200243961426e-05,0.2561409984916932,1.4272999994108477,-0.707106779053283,5.111279112291455e-05,2.5655898980667862e-05,0.7071067810070478,0,-1,-2.366701234990387e-05,-1.570808235798971,-1.1746083394825746e-05,-1.570723835621969,0.0,2.3968450477696024e-05
1232,1734173843,750352621,3.986650719173298e-05,0.2561409993647583,1.4272999990837765,-0.7071067795045207,5.5226220119688166e-05,3.018538000434626e-05,0.7071067800676589,0,-1,-7.135072817021637e-05,-1.570796314870016,-1.1746083394825746e-05,-1.5707476774798792,1.1984225238848012e-05,3.5952674807049334e-05
1248,1734173843,766077756,1.3404169304701388e-05,0.2561409999882953,1.4272999997196076,-0.7071067784998504,5.507469269274872e-05,1.3140993188767283e-05,0.7071067816063257,0,-1,-3.5587941304981996e-05,-1.570808235798971,-3.5587941304981996e-05,-1.5706999937640589,-1.1746083394825746e-05,0.0
1264,1734173843,782380819,5.851446107922882e-05,0.2561409983160754,1.427299998365877,-0.7071067781974943,5.945796494353146e-05,4.276761729219031e-05,0.7071067803824547,0,-1,-5.990663637334137e-05,-1.5707839171039026,-2.366701234990387e-05,-1.5707476774798792,0.0,2.3968450477696024e-05
1280,1734173843,798104763,4.101811368666642e-05,0.25614099893873443,1.4272999990227804,-0.7071067783109358,5.93341344567881e-05,4.264378681502151e-05,0.7071067802868934,0,-1,-2.366701234990387e-05,-1.5707839171039026,1.1920928955078125e-05,-1.5707357565509241,2.3968450477696024e-05,0.0
1296,1734173843,814623832,2.2467467404854807e-05,0.2561409997762811,1.4272999993107183,-0.7071067790185206,5.0904764783644406e-05,4.264378681744548e-05,0.7071067802363837,0,-1,-2.366701234990387e-05,-1.5707839171039026,0.0,-1.570711914693014,1.1984225238848012e-05,4.793690095539205e-05
1312,1734173843,830308198,-9.707244370315008e-06,0.2561410005443814,1.427299999596131,-0.7071067804394326,3.404602574209695e-05,1.731092082519666e-05,0.7071067809021352,0,-1,-2.366701234990387e-05,-1.570808235798971,1.1920928955078125e-05,-1.570723835621969,3.5952674807049334e-05,1.1984225238848012e-05
1328,1734173843,846338033,-4.537143481370047e-05,0.25614100076702684,1.4272999989299107,-0.7071067808374171,1.7226724645777307e-05,2.586924329133865e-05,0.7071067808526283,0,-1,-5.990663637334137e-05,-1.570808235798971,-2.366701234990387e-05,-1.5706999937640589,-1.1746083394825746e-05,4.793690095539205e-05
1344,1734173843,862090587,3.2290978689376114e-05,0.2561409989624755,1.42729999929586,-0.707106779084938,6.388599444272068e-05,1.3219870465349322e-05,0.7071067802785795,0,-1,-3.5587941304981996e-05,-1.570808235798971,1.1920928955078125e-05,-1.570711914693014,2.3968450477696024e-05,3.5952674807049334e-05
1360,1734173843,878304004,3.8238980946190625e-05,0.2561409993831536,1.4272999990112054,-0.7071067787035469,4.6622944410656736e-05,4.683609335706641e-05,0.7071067805813875,0,-1,-5.990663637334137e-05,-1.5707839171039026,-4.7985707418263246e-05,-1.5707476774798792,3.5952674807049334e-05,3.5952674807049334e-05
1376,1734173843,894020795,5.9326550462004626e-05,0.25614099665528806,1.427299998907694,-0.7071067761755674,8.042993753392449e-05,3.845148090250925e-05,0.7071067805778027,0,-1,-4.7985707418263246e-05,-1.5707839171039026,-3.5587941304981996e-05,-1.5707357565509241,-2.366701234990387e-05,2.3968450477696024e-05
1392,1734173843,910348653,4.755435903389684e-05,0.2561409987061229,1.4272999990889599,-0.7071067790059594,5.105097388309191e-05,3.43606262234113e-05,0.7071067806894251,0,-1,-1.1746083394825746e-05,-1.570820156727926,2.384185791015625e-05,-1.570723835621969,0.0,1.1984225238848012e-05
1408,1734173843,926057577,2.9385848316751485e-05,0.2561409991018802,1.4272999993878237,-0.7071067788926272,6.376216427941816e-05,1.3096040294281246e-05,0.7071067804843717,0,-1,-3.5587941304981996e-05,-1.5707839171039026,1.1920928955078125e-05,-1.570723835621969,3.5952674807049334e-05,3.5952674807049334e-05
1423,1734173843,942341089,-2.0178207223580166e-05,0.2561410011232064,1.427299999273561,-0.7071067802205941,3.8322527828676576e-05,1.3158053216160353e-05,0.707106780991608,0,-1,-3.5587941304981996e-05,-1.5707724730121058,3.5762786865234375e-05,-1.5707719961749476,1.1984225238848012e-05,2.3968450477696024e-05
1440,1734173843,958176851,7.940659908380621e-06,0.2561410002365436,1.4272999996699949,-0.7071067808248341,3.0061745531853106e-05,2.1756010306373573e-05,0.7071067805745519,0,-1,-3.5587941304981996e-05,-1.570796314870016,-1.1746083394825746e-05,-1.570723835621969,1.1984225238848012e-05,5.992112710373476e-05
1456,1734173843,974379301,8.91875287609973e-06,0.25614100006122165,1.4272999995071989,-0.7071067790036528,4.6667701313050824e-05,3.84514805870464e-05,0.7071067807839835,0,-1,-4.7985707418263246e-05,-1.570820156727926,-1.1746083394825746e-05,-1.5707357565509241,1.1984225238848012e-05,4.793690095539205e-05
1472,1734173843,990643262,-2.610368944724797e-06,0.25614100065644224,1.4272999995975324,-0.707106779444913,4.692048457774962e-05,2.1463592429281038e-05,0.7071067810457098,0,-1,-4.7985707418263246e-05,-1.570796314870016,-2.366701234990387e-05,-1.5707357565509241,2.3968450477696024e-05,5.992112710373476e-05
1488,1734173844,6519794,1.1198520495332734e-05,0.25614100007005713,1.4272999996279592,-0.7071067783145567,6.783064065244752e-05,6.429520761288675e-07,0.7071067808048507,0,-1,-3.5587941304981996e-05,-1.5707839171039026,-1.1746083394825746e-05,-1.5706999937640589,2.3968450477696024e-05,0.0
1504,1734173844,22617101,-9.364036284385848e-07,0.2561410004318093,1.4272999996904818,-0.707106780017761,3.826071025917338e-05,2.1570362584193266e-05,0.7071067809912102,0,-1,-3.5587941304981996e-05,-1.5707839171039026,-1.1746083394825746e-05,-1.5707476774798792,3.5952674807049334e-05,3.5952674807049334e-05
1520,1734173844,38455009,-1.2964230467500815e-05,0.25614100070095186,1.4272999998690599,-0.7071067804236609,8.685461851963528e-06,2.5891622538376745e-05,0.7071067814220644,0,-1,-5.990663637334137e-05,-1.570796314870016,2.384185791015625e-05,-1.5707357565509241,1.1984225238848012e-05,0.0
1536,1734173844,54765939,-3.4444630287715565e-05,0.25614100063934164,1.427299998434984,-0.7071067807413567,2.9685131797649408e-05,4.644291655102617e-06,0.707106780993379,0,-1,-3.5587941304981996e-05,-1.570808235798971,2.384185791015625e-05,-1.570711914693014,1.1984225238848012e-05,3.5952674807049334e-05
1552,1734173844,70590496,1.8758252996933176e-05,0.25614099957808617,1.4272999998149953,-0.7071067793635706,3.4102720353194005e-05,2.5594081397059502e-05,0.7071067817239671,0,-1,-5.990663637334137e-05,-1.570808235798971,0.0,-1.5707357565509241,0.0,2.3968450477696024e-05
1568,1734173844,87015628,1.5940277337010013e-05,0.25614099974097476,1.4272999996828009,-0.7071067791037926,5.1112791122896266e-05,1.7226529282049687e-05,0.7071067812121373,0,-1,-5.990663637334137e-05,-1.5707600752459925,0.0,-1.570723835621969,1.1984225238848012e-05,3.5952674807049334e-05
1584,1734173844,102472305,3.580862294953684e-05,0.2561409994413349,1.4272999986867492,-0.707106779023695,6.770168724727627e-05,3.4231477456683305e-05,0.7071067792797795,0,-1,-7.135072817021637e-05,-1.570808235798971,6.008148193359375e-05,-1.570723835621969,-1.1746083394825746e-05,4.793690095539205e-05
1600,1734173844,118753433,-1.9702130415273546e-07,0.2561410004888713,1.4272999994364635,-0.7071067793710837,5.94632832675759e-05,3.6778956878717176e-07,0.7071067805016695,0,-1,-7.135072817021637e-05,-1.5707839171039026,-2.366701234990387e-05,-1.5707476774798792,0.0,3.5952674807049334e-05
1616,1734173844,134457349,-1.9549492907294203e-05,0.25614100104124315,1.4272999996578395,-0.7071067807363259,1.7120150812429533e-05,1.737805634899816e-05,0.7071067812159723,0,-1,-3.5587941304981996e-05,-1.5707724730121058,3.5762786865234375e-05,-1.570723835621969,0.0,2.3968450477696024e-05
1632,1734173844,150190830,3.625460039837336e-05,0.25614099873851154,1.4272999995326625,-0.7071067777056594,5.5411867454773765e-05,4.690322855865157e-05,0.7071067809407086,0,-1,-2.366701234990387e-05,-1.570796314870016,3.5762786865234375e-05,-1.5706999937640589,1.1984225238848012e-05,3.5952674807049334e-05
1648,1734173844,166475057,1.6413316356883622e-05,0.25614099981436844,1.4272999997234763,-0.707106779677473,4.245301680790207e-05,2.576266913649225e-05,0.7071067809519153,0,-1,-3.5587941304981996e-05,-1.5707839171039026,4.8160552978515625e-05,-1.5706999937640589,3.5952674807049334e-05,3.5952674807049334e-05
1664,1734173844,182767152,-6.011005723479305e-06,0.25614100045690247,1.4272999997781664,-0.7071067804413398,3.4006391757523935e-05,1.727128684059774e-05,0.7071067809031044,0,-1,-3.5587941304981996e-05,-1.5707724730121058,2.384185791015625e-05,-1.5707476774798792,1.1984225238848012e-05,4.793690095539205e-05
1680,1734173844,198488950,-2.625154679557547e-05,0.2561410012797554,1.4272999994582434,-0.707106780732604,1.7181968053008916e-05,1.7439873589617573e-05,0.7071067812166729,0,-1,-3.5587941304981996e-05,-1.5707839171039026,-2.366701234990387e-05,-1.5706999937640589,0.0,5.992112710373476e-05
1696,1734173844,214763164,2.069597259543158e-05,0.25614100001111695,1.4272999994029676,-0.7071067805803021,3.815413611817221e-05,2.154266568548763e-05,0.707106780435272,0,-1,-5.990663637334137e-05,-1.570808235798971,-1.1746083394825746e-05,-1.570711914693014,3.5952674807049334e-05,1.1984225238848012e-05
1712,1734173844,230506658,3.2530412290192406e-05,0.2561409992407942,1.4272999995330922,-0.7071067783920005,5.954747972391737e-05,4.2857132087533795e-05,0.707106780174996,0,-1,-5.990663637334137e-05,-1.5707839171039026,-1.1746083394825746e-05,-1.570711914693014,1.1984225238848012e-05,2.3968450477696024e-05
1728,1734173844,246778726,3.949263348606766e-05,0.25614099805058954,1.4272999995588913,-0.7071067780561228,5.931175581915116e-05,2.5807426035503092e-05,0.7071067813585028,0,-1,-3.5587941304981996e-05,-1.5707839171039026,1.1920928955078125e-05,-1.570723835621969,1.1984225238848012e-05,0.0
1744,1734173844,262493133,3.626639669019156e-05,0.2561409987710503,1.4272999993458113,-0.7071067787949111,4.676915318480024e-05,2.978638795404952e-05,0.7071067814041258,0,-1,-1.1746083394825746e-05,-1.570808235798971,0.0,-1.5707476774798792,2.3968450477696024e-05,4.793690095539205e-05
1760,1734173844,278762102,2.925875566162042e-05,0.2561409986945415,1.4272999995592206,-0.7071067780099592,6.778588275778702e-05,8.903929419557749e-06,0.7071067810579731,0,-1,-3.5587941304981996e-05,-1.5707600752459925,-1.1746083394825746e-05,-1.570723835621969,2.3968450477696024e-05,4.793690095539205e-05
1776,1734173844,294483184,1.9382969388230283e-05,0.25614099951191255,1.4272999995999665,-0.7071067780078136,6.780826169498018e-05,1.7355678056656225e-05,0.7071067809010381,0,-1,-4.7985707418263246e-05,-1.570796314870016,-2.366701234990387e-05,-1.5707476774798792,1.1984225238848012e-05,0.0
1792,1734173844,310816526,1.4561025861581446e-05,0.25614099982360106,1.4272999997616491,-0.7071067791526845,5.113516941759965e-05,1.7248907578674782e-05,0.7071067811610819,0,-1,-2.366701234990387e-05,-1.570820156727926,3.5762786865234375e-05,-1.5707357565509241,-1.1746083394825746e-05,2.3968450477696024e-05
1808,1734173844,326493024,5.9998349831488956e-05,0.2561409976521186,1.4272999988075603,-0.7071067782764722,5.9710748189858914e-05,3.4253856067003275e-05,0.7071067807458559,0,-1,-4.7985707418263246e-05,-1.5707839171039026,1.1920928955078125e-05,-1.570711914693014,0.0,2.3968450477696024e-05
1824,1734173844,342767715,1.9006010762489675e-05,0.2561409997220998,1.4272999995393707,-0.7071067793433579,4.689810628368271e-05,3.0207758618028707e-05,0.7071067808292626,0,-1,-3.5587941304981996e-05,-1.5707839171039026,3.5762786865234375e-05,-1.570711914693014,4.793690095539205e-05,4.793690095539205e-05
1840,1734173844,358515977,5.2797059005495995e-05,0.25614099852616695,1.4272999985073633,-0.7071067775761767,7.216915498189827e-05,4.7004680435115966e-05,0.7071067795517225,0,-1,-3.5587941304981996e-05,-1.570820156727926,4.8160552978515625e-05,-1.5707357565509241,1.1984225238848012e-05,4.793690095539205e-05
1856,1734173844,374233484,5.244112145650325e-05,0.25614099843289867,1.4272999990328483,-0.7071067783778725,3.831740485953801e-05,4.704943796629409e-05,0.7071067813917451,0,-1,-5.990663637334137e-05,-1.5707839171039026,3.5762786865234375e-05,-1.5706999937640589,1.1984225238848012e-05,3.5952674807049334e-05
1872,1734173844,390563726,7.443520652723555e-06,0.25614100013185304,1.4272999995850295,-0.7071067796269632,4.245301680853011e-05,3.419203883202039e-05,0.707106780645067,0,-1,-4.7985707418263246e-05,-1.570796314870016,0.0,-1.5707357565509241,-1.1746083394825746e-05,2.3968450477696024e-05
1888,1734173844,406858444,2.1811691653981062e-05,0.25614099933627044,1.4272999998149953,-0.7071067780262212,5.526565899860348e-05,3.83276504181226e-05,0.7071067811484163,0,-1,-4.7985707418263246e-05,-1.5707839171039026,-1.1746083394825746e-05,-1.570723835621969,3.5952674807049334e-05,1.1984225238848012e-05
1904,1734173844,422364473,4.517190548646735e-05,0.2561409975659179,1.4272999996912792,-0.7071067782856206,4.666238298531412e-05,3.010630703943001e-05,0.7071067819069213,0,-1,-2.366701234990387e-05,-1.5707724730121058,2.384185791015625e-05,-1.5707476774798792,2.3968450477696024e-05,2.3968450477696024e-05
1920,1734173844,438583374,5.233629610463797e-06,0.25614100013118685,1.4272999997715974,-0.7071067793695319,3.3978890190946746e-05,4.266616543079538e-05,0.7071067808999439,0,-1,-8.32716571252945e-05,-1.5707724730121058,-1.1746083394825746e-05,-1.5706999937640589,-1.1746083394825746e-05,1.1984225238848012e-05
1935,1734173844,454140901,2.702848495252871e-05,0.2561409990249528,1.4272999994054667,-0.7071067789141153,6.787027465486729e-05,3.45411287314211e-07,0.7071067802016969,0,-1,-5.990663637334137e-05,-1.5707839171039026,-1.1746083394825746e-05,-1.570711914693014,1.1984225238848012e-05,3.5952674807049334e-05
1952,1734173844,470825195,-4.621526984281885e-06,0.25614100039753374,1.4272999998340357,-0.7071067795682778,4.252015200133698e-05,4.273330096611161e-05,0.7071067802351216,0,-1,-3.5587941304981996e-05,-1.5707839171039026,-3.5587941304981996e-05,-1.5707357565509241,-3.5587941304981996e-05,4.793690095539205e-05
1968,1734173844,485906600,-1.771759216647937e-05,0.2561410009760496,1.427299998936805,-0.7071067804759135,2.5656094979788462e-05,2.5914000522179796e-05,0.7071067809568916,0,-1,-3.5587941304981996e-05,-1.5707481543170374,-0.00014382997621709137,-1.570711914693014,7.190534961409867e-05,2.3968450477696024e-05
1984,1734173844,502353191,-0.0001566444061875151,0.2561410050263395,1.4272999823968615,-0.7071067838234271,-7.607967968941718e-05,4.4536601819039313e-07,0.7071067744567103,0,-1,2.3968450477696024e-05,-1.5707600752459925,-0.00039512315859013825,-1.5706761519061487,0.0002636529679875821,4.793690095539205e-05
1999,1734173844,518167972,-0.0003282834775370468,0.25614098575008726,1.4272999057283662,-0.7071067903633965,-0.0002537540970231721,9.34202842513597e-05,0.7071067203071149,0,-1,7.190534961409867e-05,-1.5707481543170374,-0.0008857885943811539,-1.5705440680133265,0.0007070692954584956,0.00015579492901451886
2016,1734173844,534675598,-0.0008221805628915337,0.25614085906491024,1.4272995192398272,-0.7071068321975225,-0.0005458115219456007,0.0002335431756639188,0.7071064809538605,0,-1,0.00015579492901451886,-1.570700470601217,-0.0017121473895471695,-1.5703643004046839,0.0013059061020612717,0.0003954794374294579
2032,1734173844,550340414,-0.0016327553100148337,0.256140419498651,1.4272982061102326,-0.7071069286131114,-0.0010878049697561514,0.0003435270659096234,0.7071057135795432,0,-1,0.00035877773188985884,-1.5707362333880823,-0.0029218832599084976,-1.5700286070453089,0.0022762538865208626,0.0007306632469408214
2048,1734173844,566061258,-0.0027840319682102513,0.2561393606850454,1.4272949017808216,-0.7071072560801911,-0.0018534247572404151,0.0005516333877800017,0.707103662072272,0,-1,0.0005744937807321548,-1.5707839171039026,-0.004586044942037404,-1.5696809927569788,0.003641332034021616,0.0011740796035155654
2064,1734173844,582364559,-0.004361206554806868,0.2561371653230322,1.4272877126682302,-0.7071079453346384,-0.0028527842778681882,0.0007886890861615254,0.7070994224548732,0,-1,0.0008377722697332501,-1.5708320776568812,-0.006908718739644826,-1.5691893736468714,0.005353952758014202,0.0017725417856127024
2080,1734173844,598369598,-0.0064174395402558666,0.2561330052155534,1.4272740656104779,-0.7071091978515386,-0.004139494605494449,0.0010773353927636202,0.7070914270775853,0,-1,0.0011609718203544617,-1.5709646383868616,-0.00963908830751592,-1.5686619917498987,0.007654174696654081,0.0024432840291410685
2096,1734173844,614434480,-0.008924488192337458,0.2561257000690921,1.4272506372984053,-0.7071114996514788,-0.005782258009393787,0.001466945680971244,0.7070768986633058,0,-1,0.0015321082901209593,-1.5711682478534144,-0.012811962758199513,-1.568026367818014,0.010253253392875195,0.0033177577424794436
2112,1734173844,630714178,-0.011790905467149,0.25611500503518,1.4272140460478595,-0.70711520537441,-0.007619525153507678,0.0018653331794163562,0.7070548420715828,0,-1,0.001939197420142591,-1.5713837782489222,-0.016547981892720998,-1.5672948996173304,0.013307733461260796,0.004239794332534075
2128,1734173844,646440744,-0.015244662804429496,0.2560984478048436,1.4271574822665034,-0.7071203073083585,-0.009812226811210339,0.0022809663294938044,0.7070214907552258,0,-1,0.0024294271133840084,-1.5716479460345667,-0.020750347767965138,-1.566491429005758,0.016709379851818085,0.005353203509002924
2144,1734173844,662250041,-0.01893156710690642,0.25607498583165544,1.4270821291832958,-0.7071272581530944,-0.012156721482473943,0.002823393517910728,0.7069761547242789,0,-1,0.0030039208941161633,-1.5719593206988733,-0.025216404591695607,-1.5655201117144983,0.020422616973519325,0.006503314711153507
2160,1734173844,678524971,-0.02294926763108199,0.2560441918217163,1.4269814099465152,-0.7071363997905917,-0.014700531699580386,0.00338644111484456,0.7069162174370636,0,-1,0.003578414674848318,-1.5722959677325647,-0.030065838490621388,-1.5645130316363733,0.02429164946079254,0.00772495660930872
2176,1734173844,694383621,-0.02722922628102277,0.25600532905492523,1.4268529718547673,-0.7071474216592017,-0.017443185446256466,0.003928344487947923,0.7068400295907235,0,-1,0.004141299054026604,-1.57265550294985,-0.0351789633380335,-1.563469711934225,0.028471898287534714,0.008994161151349545
2192,1734173844,710721969,-0.0316727824120832,0.2559578546001359,1.426696998154827,-0.7071611132853405,-0.020286448346665504,0.00453818656281645,0.706746789687252,0,-1,0.004846869967877865,-1.573015038167135,-0.04044706026186162,-1.562354866658346,0.0327480174601078,0.01029969286173582
2208,1734173844,726475000,-0.03627208196656226,0.2558993236412312,1.426511407746028,-0.7071764080256794,-0.023209415322054134,0.005177428611860531,0.7066371382861754,0,-1,0.0055052535608410835,-1.5733745733844202,-0.04583484331239873,-1.5611794630633753,0.03712038695812225,0.011677129194140434
2225,1734173844,742567777,-0.04087337863774354,0.2558345914824461,1.4262983006775682,-0.7071961157266689,-0.02611950382669825,0.005871245526581019,0.7065104060783008,0,-1,0.006199589464813471,-1.573686424885885,-0.05127078691591436,-1.5598967711078089,0.04167214781045914,0.01316204946488142
2240,1734173844,758278846,-0.04555917017672067,0.25575863739022875,1.426057867804673,-0.707217364703009,-0.02907993725427217,0.0066235597209470705,0.7063668202629861,0,-1,0.006893550977110863,-1.574010197316305,-0.05685025850404912,-1.5586498419391077,0.04621192067861557,0.014575439505279064
2256,1734173844,774549007,-0.0502375923764986,0.2556750618027375,1.4257897437919178,-0.7072416578692636,-0.032039785411408644,0.0073416503649588885,0.7062073276984918,0,-1,0.007551934570074081,-1.5743101278888147,-0.062382046376363576,-1.5574386755572718,0.05079963430762291,0.016107922419905663
2272,1734173844,790178775,-0.054851154817411193,0.2555883459810214,1.425497734185104,-0.7072712800882058,-0.03498184808149261,0.008076183797431495,0.706030014887798,0,-1,0.008138412609696388,-1.5746100584613245,-0.06790191331972295,-1.5562875906573694,0.055351391434669495,0.017557265236973763
2288,1734173844,805939912,-0.05937463548430975,0.2554950994004875,1.425186515662042,-0.7073006050204055,-0.03787608420352244,0.00876424829512059,0.7058430734483392,0,-1,0.00878443755209446,-1.5748737494098108,-0.07320577303041631,-1.555124584828512,0.05974772945046425,0.019006231799721718
2304,1734173844,822295904,-0.06373692693361058,0.25539269382640234,1.4248659156858192,-0.7073303737863059,-0.04069366449703171,0.009527800520712393,0.7056465042826792,0,-1,0.009407242760062218,-1.5751741568194788,-0.07834226289858037,-1.553997818623678,0.06404782086610794,0.020395653322339058
2320,1734173844,838137149,-0.06795947951259335,0.25529412931197026,1.4245291834391853,-0.7073636968789193,-0.043375698283750146,0.01017221866932556,0.7054443104197019,0,-1,0.00996975228190422,-1.5754736105548304,-0.0833352247821253,-1.552882496510641,0.0681801289319992,0.021688826382160187
2336,1734173844,854405164,-0.07209145188915626,0.2551899251680102,1.4241812571340078,-0.7073973360042984,-0.045980569209616524,0.010782578826699437,0.7052365080333174,0,-1,0.010543870739638805,-1.5757253805743616,-0.08821994463075811,-1.5517914930926722,0.07210946083068848,0.022958405315876007
2352,1734173844,870145320,-0.07610989868953194,0.2550795887678491,1.423822616718608,-0.7074305988468895,-0.048546511897324826,0.011404548359025591,0.7050213615731518,0,-1,0.011046459898352623,-1.5759533087359827,-0.09296113649477178,-1.550783936177389,0.07601481676101685,0.024156078696250916
2368,1734173844,886388540,-0.07991359635769038,0.2549730804110776,1.4234622352276427,-0.7074639845629686,-0.05101496655601795,0.01196335059437249,0.7048042721040589,0,-1,0.011573391035199165,-1.5761931578265589,-0.09746247926820928,-1.549776856099264,0.07969210296869278,0.025317799299955368
2384,1734173844,902499437,-0.0835954562620305,0.2548634326242686,1.423098279237403,-0.7074991073731456,-0.053347143753560575,0.012529945933848782,0.7045864714670825,0,-1,0.01208796352148056,-1.5764215628253382,-0.10185653368105108,-1.5488179365741175,0.0832974836230278,0.026491878554224968
2400,1734173844,918291091,-0.08722594074384601,0.254747700194107,1.422723470979142,-0.7075340385730615,-0.055674958750952616,0.013099998892414413,0.7043608970248079,0,-1,0.012614520266652107,-1.576625172291891,-0.1060712973224085,-1.5479300657855433,0.08681972324848175,0.02762925624847412
2416,1734173844,934560298,-0.09080663713341047,0.25463117305294314,1.4223377132296822,-0.7075709617169326,-0.05797607712043047,0.013627754303770733,0.7041281083221556,0,-1,0.013117109425365925,-1.5768888632403772,-0.11044103304018194,-1.5469477812396448,0.09032922238111496,0.028731055557727814
2432,1734173844,950286149,-0.09434735822239183,0.2545128153535046,1.4219410953372609,-0.7076082905856019,-0.06022607237462281,0.01418029810276215,0.703890791562559,0,-1,0.013608087785542011,-1.5770929495440882,-0.11483508745302373,-1.5459759871112269,0.09392336755990982,0.029844840988516808
2448,1734173844,966125965,-0.09804669795882652,0.25438115057299737,1.421512255499132,-0.7076478287972856,-0.06257192471573804,0.014753639272800781,0.7036345889480303,0,-1,0.014170597307384014,-1.5773327986346644,-0.11937266985048467,-1.5449450651751917,0.09752874821424484,0.0309466402977705
2464,1734173844,982392787,-0.10185771457679604,0.25424345954957966,1.4210511317010477,-0.7076898275840763,-0.06498451020613767,0.015291544395824178,0.7033621329281805,0,-1,0.014732732437551022,-1.577536408101217,-0.12399417558778936,-1.5439255873309534,0.10124236345291138,0.03214431181550026
2480,1734173844,998178482,-0.10571415799313616,0.2540912892403183,1.420564286006122,-0.707732558576612,-0.06750114142618216,0.015867142274336006,0.703069310404608,0,-1,0.015295241959393024,-1.5778124968158167,-0.1287596861468714,-1.5428832213031214,0.10523123294115067,0.033389922231435776
2496,1734173845,14444351,-0.10976727906740003,0.25393083811623396,1.4200368042572395,-0.7077821865407172,-0.07010484840315528,0.016470820436453683,0.7027505949625101,0,-1,0.015929656103253365,-1.5781000296222132,-0.13366824785341436,-1.5418875853167933,0.10918453335762024,0.034623175859451294
2512,1734173845,30363798,-0.11396331648025237,0.2537589052292353,1.4194702980692178,-0.7078330535581712,-0.07279609958344335,0.017035200007891278,0.7024121995926919,0,-1,0.016515759751200676,-1.5784361998187464,-0.13862449327577764,-1.5408924261676233,0.11325766891241074,0.03591672331094742
2528,1734173845,46633243,-0.1182579905410608,0.2535731644102086,1.4188705720464962,-0.7078865933455911,-0.07552779136717036,0.01760664614036245,0.7020556457322017,0,-1,0.017126580700278282,-1.5787957350360315,-0.14378482500185186,-1.5398133436786097,0.11743829399347305,0.037234239280223846
2544,1734173845,62413215,-0.12257805204199887,0.2533848804644445,1.418242522553246,-0.7079442422436468,-0.07827026190754977,0.018181774244852372,0.701682363367002,0,-1,0.017808932811021805,-1.579155747090475,-0.14894467989076787,-1.538746182118551,0.12161929160356522,0.03853939473628998
2560,1734173845,78583478,-0.12704656229108455,0.2531772333721628,1.4175743185410863,-0.7080003909860042,-0.0811291735299343,0.018763676296695574,0.7012855538351319,0,-1,0.018442973494529724,-1.5794790426837366,-0.15424853960146123,-1.5376551787005823,0.12589578330516815,0.039904847741127014
2576,1734173845,94295263,-0.1314327911637852,0.2529695703803887,1.4168830715476726,-0.7080624009571774,-0.08395641075869917,0.019348846085579866,0.7008741538952841,0,-1,0.019053420051932335,-1.5797794500934046,-0.15944415727724248,-1.5365880171405237,0.13013669848442078,0.041186410933732986
2592,1734173845,110055923,-0.13587920895915404,0.2527439619598212,1.4161689049597266,-0.7081213421392073,-0.0868287032957212,0.01995367044988575,0.7004475655797004,0,-1,0.019711803644895554,-1.5801265875445765,-0.16478425661195928,-1.5354850927936,0.13448509573936462,0.04252752289175987
2608,1734173845,126394033,-0.14024661981020695,0.25252293746752796,1.4154351899906963,-0.7081895592768557,-0.08963543996547002,0.020595734139590725,0.7000063226633747,0,-1,0.020345844328403473,-1.5804508368121546,-0.17001563707460576,-1.5343096891986292,0.13885784149169922,0.04388098791241646
2624,1734173845,142640590,-0.14467209581610568,0.25229241226015237,1.4146733179220732,-0.7082605861143498,-0.0924862097598283,0.02126558824496197,0.6995434353332283,0,-1,0.020968275144696236,-1.5807626883136194,-0.17517596880067998,-1.5332549254046839,0.1431942582130432,0.045258425176143646
2640,1734173845,158358335,-0.14896037397194023,0.2520611140539962,1.4139038155402535,-0.7083327937195902,-0.09525144508255902,0.021917837643313065,0.6990789826222257,0,-1,0.02160269021987915,-1.581050221120016,-0.1805031935321253,-1.5320919195758265,0.14755502343177795,0.04664747416973114
2656,1734173845,174699544,-0.15337318821783993,0.25181454505709405,1.4130908278392234,-0.7084132962423962,-0.09805190389931742,0.02258002394451145,0.6985889838577238,0,-1,0.022260697558522224,-1.5813501516925257,-0.18580705324281865,-1.5309050718890589,0.15190379321575165,0.04814475402235985
2672,1734173845,190406799,-0.15780927862858588,0.25155879178966856,1.4122520681586879,-0.7084923534799895,-0.10085024708472376,0.023232905409058136,0.6980888516726145,0,-1,0.022859159857034683,-1.5816739241229456,-0.1911223570453089,-1.5297659079181116,0.15616831183433533,0.04958173632621765
2688,1734173845,206692695,-0.16220113608440728,0.25129688451836435,1.411395183065434,-0.7085703437385839,-0.10360525129275824,0.02383375693112994,0.6975858168779646,0,-1,0.023469606414437294,-1.5819857756244105,-0.19631845155824834,-1.5286272207843226,0.1603493094444275,0.05088726803660393
2704,1734173845,222313880,-0.16639522019038966,0.2510418540714708,1.4105584248974057,-0.7086519422810519,-0.1062488141143503,0.024510609749353804,0.6970816625118622,0,-1,0.024067694321274757,-1.5823572317706507,-0.2013943831073206,-1.527463738118307,0.1644943505525589,0.05222875252366066
2720,1734173845,238536119,-0.1706240755612905,0.2507814729862665,1.409686669738709,-0.7087304712922998,-0.10897892163001986,0.025088377756837636,0.6965596076458086,0,-1,0.024714093655347824,-1.5826452414142054,-0.20644647279848272,-1.5263970533954065,0.16861580312252045,0.0535818450152874
2736,1734173845,254275321,-0.17477688216236256,0.2505098120257431,1.4088125610594675,-0.7088124718195334,-0.11161487247524633,0.025724108503536385,0.6960353944140455,0,-1,0.025288961827754974,-1.58293325105776,-0.2114504019366663,-1.5253055731402796,0.1727728247642517,0.05491134524345398
2752,1734173845,269988059,-0.1789117748839847,0.2502376546119681,1.4079134617020175,-0.7088933762847206,-0.11429021649310905,0.02631686259334404,0.6954964775013966,0,-1,0.025887049734592438,-1.5832575003253382,-0.21652633348573858,-1.5241788069354456,0.17688192427158356,0.05619290843605995
2768,1734173845,286264181,-0.18299786655767816,0.24996128459079361,1.4070004705881483,-0.7089790927577363,-0.11690902762393082,0.02692045764328355,0.6949505120889691,0,-1,0.02644955925643444,-1.5834968725787562,-0.22159034410585576,-1.5231240431415003,0.18101535737514496,0.057474471628665924
2784,1734173845,302107810,-0.18714674866891423,0.24968496502449902,1.4060546102217417,-0.7090668312389774,-0.11958408763147975,0.027454889823352972,0.694384694421507,0,-1,0.027083974331617355,-1.5837605635272425,-0.2265704313861292,-1.522008244191305,0.1851004809141159,0.05879161134362221
2800,1734173845,318394899,-0.19117409072606412,0.24939770650650345,1.4051169915825936,-0.7091536416049568,-0.12216122079738503,0.028094337370951745,0.6938216319338913,0,-1,0.027658093720674515,-1.5840843359576624,-0.2315147558795374,-1.5208938757525843,0.1891620010137558,0.06006119027733803
2816,1734173845,334199666,-0.19524522757879617,0.24910468476496217,1.40414634685332,-0.7092454463305626,-0.12478564179668322,0.028697288169796074,0.69323582287159,0,-1,0.028280524536967278,-1.5843480269061487,-0.236518685017721,-1.5198147932635706,0.19329506158828735,0.06133076921105385
2832,1734173845,350477218,-0.19931990129277094,0.24879100996069184,1.4031556498564415,-0.7093341562441715,-0.1274539466398657,0.02931981399550027,0.6926333046992188,0,-1,0.028879361227154732,-1.5846484343158167,-0.24149924913515264,-1.5187714735614222,0.19742849469184875,0.06268386542797089
2848,1734173845,366135358,-0.2034111145947101,0.24848642603747614,1.4021334002819863,-0.7094260428483745,-0.13010318790056322,0.0298991918420756,0.692021595438898,0,-1,0.0295014176517725,-1.5848882834063929,-0.2465270201312464,-1.517728630696432,0.20157355070114136,0.06391748785972595
2864,1734173845,382526159,-0.20749981821998909,0.24816300091684546,1.4010924298345564,-0.7095206118942614,-0.1327996833367801,0.030500634860471037,0.6913858956298949,0,-1,0.030123848468065262,-1.5851762930499476,-0.2516387144671839,-1.5166609922992151,0.20565904676914215,0.06518706679344177
2880,1734173845,398171901,-0.21161507690306325,0.24783987183266887,1.400023347549197,-0.7096165913802002,-0.13543123757214995,0.03103798810004381,0.6907527172746579,0,-1,0.030698342248797417,-1.585463825856344,-0.2566788832293909,-1.5156305472003382,0.2097085863351822,0.06655251979827881
2896,1734173845,414407253,-0.21572809262295436,0.2475165014004383,1.3989278390759852,-0.7097174927551662,-0.1380762788374558,0.031581869778322634,0.6901004326915229,0,-1,0.03130841255187988,-1.585787598286764,-0.2617424170123499,-1.514503304158346,0.21373341977596283,0.06784569472074509
2912,1734173845,430291652,-0.2197924513733664,0.24718213340002207,1.397826436371866,-0.7098204373233056,-0.14067278726750296,0.03215356672269304,0.68944344353076,0,-1,0.03188290819525719,-1.5860636870013636,-0.2667940298663538,-1.5133641401873987,0.21787920594215393,0.06913924217224121
2928,1734173845,446574926,-0.22382334443480983,0.24684937432692192,1.396706756624511,-0.7099226557119587,-0.14327163489534395,0.032720176909001315,0.6887760532744578,0,-1,0.032541289925575256,-1.5863631407367151,-0.2718461195575159,-1.5122974554644983,0.22197668254375458,0.07042042911052704
2944,1734173845,462205648,-0.22791058539456116,0.24649801131890486,1.395558763187694,-0.7100236951294183,-0.14591371727956057,0.03327967791207352,0.6880901121964302,0,-1,0.03308020532131195,-1.5865791479693812,-0.2768142859088343,-1.5111702124225062,0.22601424157619476,0.07166603952646255
2960,1734173845,478492975,-0.23186478806623154,0.24615321424390757,1.3944145818941671,-0.7101257283431621,-0.14850672304894177,0.03384339215261691,0.6874022315660333,0,-1,0.03365432471036911,-1.5868547598468226,-0.2818539778338831,-1.5101149717914026,0.2301356941461563,0.07288806140422821
2976,1734173845,494216680,-0.23588558202896553,0.24580268043953676,1.3932270211982578,-0.7102348591013743,-0.15117142737279102,0.03440344525823477,0.686680455100979,0,-1,0.03421683609485626,-1.5871427694903772,-0.2868455092059534,-1.5090726057635706,0.23425714671611786,0.07421718537807465
2992,1734173845,510494709,-0.23985528857098284,0.24544414195789654,1.3920357896927746,-0.7103418695794068,-0.15378384447581644,0.03497104030261411,0.6859606284917698,0,-1,0.034827280789613724,-1.5873587767230433,-0.29181415239443,-1.5079811255084437,0.2383306622505188,0.07546279579401016
3008,1734173845,526231050,-0.2437747053832675,0.24508206081332595,1.3908415958401543,-0.7104564386661881,-0.1563267906924936,0.03557837130964652,0.6852355527586809,0,-1,0.035389792174100876,-1.587658707295553,-0.29682952562441045,-1.5069144407855433,0.24245211482048035,0.07680390030145645
3024,1734173845,542543649,-0.24769993938930426,0.24471349327809305,1.389623226751187,-0.7105723931484251,-0.15889138377273757,0.036166826930176664,0.6844942387543573,0,-1,0.035988252609968185,-1.5878985563861292,-0.3017972151385706,-1.5058711210833948,0.24658554792404175,0.07813340425491333
3040,1734173845,558207511,-0.2516803681596794,0.2443273487076265,1.3883645449923834,-0.710693820187963,-0.1614729015018986,0.03678127725911282,0.6837308927278228,0,-1,0.03658671677112579,-1.5881503264056605,-0.30688506761659795,-1.5047677198993128,0.250730961561203,0.07946252822875977
3056,1734173845,574577093,-0.255753848475226,0.243946987224996,1.3870483073201625,-0.7108170542091494,-0.16410471317199898,0.03727161663391587,0.6829491819701209,0,-1,0.03720877319574356,-1.5884020964251917,-0.3120206038104456,-1.5037248770343226,0.254816472530365,0.0808040127158165
3072,1734173845,590318679,-0.25973476298427134,0.24355103157273572,1.3857394899414988,-0.7109409142036993,-0.16670888452475086,0.037852278719266955,0.6821571441592329,0,-1,0.037783265113830566,-1.588653866444723,-0.31714374223818,-1.5026581923114222,0.2588779926300049,0.08215748518705368
3088,1734173845,606503248,-0.26375934164722264,0.2431517709462016,1.3843944333018119,-0.7110604431577718,-0.16933554084078573,0.038347326361813754,0.6813574710424274,0,-1,0.03842966631054878,-1.5889413992511194,-0.32215959230531865,-1.5016148726092737,0.26298782229423523,0.08345065265893936
3104,1734173845,622168064,-0.2677794955201313,0.24273806356445735,1.3830425694468864,-0.7111877139857371,-0.17196574056581307,0.03891433783738746,0.680533242287304,0,-1,0.039027754217386246,-1.5892298857318323,-0.32715160051454717,-1.50053579012026,0.26703736186027527,0.08474420011043549
3120,1734173845,638571262,-0.2717264238553758,0.2423137984407737,1.381697666231861,-0.7113031310972893,-0.1745380208469421,0.0394899083413118,0.6797241220592511,0,-1,0.0396265909075737,-1.5895174185382288,-0.3321312109576624,-1.4994452635394495,0.27113524079322815,0.08607370406389236
3136,1734173845,654267311,-0.2755975991645732,0.2419138729158221,1.3803334407617684,-0.7114373939170741,-0.17705103391751884,0.04006762257638738,0.6788993677610076,0,-1,0.04027298837900162,-1.5898173491107386,-0.33705121675600225,-1.4983776251422327,0.2752566933631897,0.08731931447982788
3152,1734173845,670108318,-0.2796160758563788,0.24147330304120007,1.378903404559152,-0.7115533841654068,-0.179706308391764,0.04057060801837395,0.6780497400427056,0,-1,0.04088306054472923,-1.590081040059225,-0.3423422018634241,-1.4972270170794886,0.27936652302742004,0.0885888934135437
3168,1734173845,686327457,-0.28356402385127094,0.2410434015308473,1.3774727354077485,-0.711686216535877,-0.18229486998370945,0.04114245649510136,0.6771843233891491,0,-1,0.04143358767032623,-1.5903447310077112,-0.34732228914369756,-1.4960759321795862,0.28344041109085083,0.08992999792098999
3184,1734173845,702136516,-0.28746152259175783,0.24061794778798623,1.3760391465325634,-0.7118220595934736,-0.18483050397527445,0.041696124278558344,0.6763198012009544,0,-1,0.042044032365083694,-1.5905850569354456,-0.35242206255068,-1.495021168385641,0.2874663472175598,0.09121156483888626
3200,1734173845,718268632,-0.2913754661669378,0.24017778414237645,1.374578767047359,-0.7119503430251204,-0.18738067831199953,0.04220567974443097,0.675450865022067,0,-1,0.042690057307481766,-1.590872589741842,-0.357401196156637,-1.4938815275775355,0.29156383872032166,0.09246915578842163
3216,1734173845,734087467,-0.29528206510742394,0.23974173461011225,1.3730986630030582,-0.7120887946285466,-0.1899704961435662,0.04272507646428339,0.6745482391946124,0,-1,0.043252941220998764,-1.5911839644061487,-0.3623564879046839,-1.4928510824786585,0.29575756192207336,0.09379865974187851
3232,1734173845,750332593,-0.29919995200459404,0.23927900400923416,1.3715996196866769,-0.7122249305983629,-0.19253304303537008,0.04330837757819123,0.6736401561703712,0,-1,0.043875373899936676,-1.5914719740497034,-0.367408577595846,-1.4917481581317347,0.2998790144920349,0.09510381519794464
3248,1734173845,766069173,-0.3031315974132783,0.23881737066317,1.370064758640583,-0.7123688244876394,-0.19508255268666697,0.04385468965071204,0.6727185308366288,0,-1,0.04446147382259369,-1.5917962233172815,-0.3724601904498499,-1.490680996571676,0.3040008544921875,0.09639736264944077
3263,1734173845,782340764,-0.3070182157037632,0.2383536644439442,1.3685218726226982,-0.7125088904478921,-0.19765355775456694,0.04439981515174869,0.671783304759925,0,-1,0.0450599379837513,-1.592071835194723,-0.37754756609071904,-1.4895899931537073,0.3080870807170868,0.09769091010093689
3280,1734173845,798013687,-0.31094364748052056,0.23789422834293153,1.3669395920118936,-0.7126554747126165,-0.20021199167156006,0.04489186715438668,0.6708368303965095,0,-1,0.0456344299018383,-1.5923479239093226,-0.3826106230365198,-1.4884870688067835,0.3121969401836395,0.09900842607021332
3295,1734173845,814360141,-0.3147695725127719,0.23741509132761707,1.365371493920885,-0.7127976039452616,-0.20277143393232264,0.04542720027420786,0.6698803556353706,0,-1,0.04626884683966637,-1.5926478544818323,-0.3876140753375452,-1.48743182817568,0.3162708282470703,0.10028998553752899
3312,1734173845,829997539,-0.31872914404624714,0.2369320706183941,1.363744227895948,-0.712942856197936,-0.20534313024021472,0.04589284229947843,0.6689099563357945,0,-1,0.046867307275533676,-1.5929353872882288,-0.39252216020693,-1.4863532225238245,0.32038065791130066,0.10158316045999527
3328,1734173845,846435308,-0.32247542994731254,0.23645719684400202,1.3621588388880261,-0.7130858144900302,-0.20785092223889207,0.04640464923128716,0.6679470217219726,0,-1,0.04744180291891098,-1.5932467619525355,-0.3975613752948206,-1.485309902821676,0.32445454597473145,0.10281679034233093
3344,1734173845,862113237,-0.3264330185484527,0.2359585445448934,1.3604952474345546,-0.7132320313701168,-0.21046311168971374,0.046906566995073076,0.6669371199882912,0,-1,0.048039890825748444,-1.593595329915182,-0.4026253859149378,-1.4842074553119105,0.32862430810928345,0.10403843224048615
3360,1734173845,878417491,-0.33023467526523476,0.23547198086633297,1.3588364623221902,-0.7133828469997407,-0.21297834847817873,0.047411897965097226,0.6659408747159157,0,-1,0.04866231977939606,-1.5938709417926233,-0.40770036378969365,-1.4831164518939417,0.3326985836029053,0.10534396022558212
3376,1734173845,894176483,-0.33410631552615816,0.23495845781798685,1.357148427624623,-0.7135301112481632,-0.2155548051861221,0.04792979195267734,0.6649162664176065,0,-1,0.049260783940553665,-1.5941827932940882,-0.41269189516176397,-1.4820249716388147,0.3368203938007355,0.10658957064151764
3392,1734173845,910461187,-0.3379243275005224,0.23445355143741461,1.355440458279627,-0.7136870430673101,-0.21806473905887205,0.04839853162850153,0.6638946876374523,0,-1,0.04984726011753082,-1.5944345633136194,-0.41769534746278936,-1.4808982054339808,0.3408583402633667,0.10796663165092468
3408,1734173845,926260471,-0.3417490583203955,0.23393188002638016,1.3537315989143048,-0.713845331772731,-0.22054706960801537,0.04895732147196395,0.6628627407449353,0,-1,0.05052923783659935,-1.5947583357440394,-0.42273456255068,-1.4797833601581019,0.34499213099479675,0.10927179455757141
3424,1734173845,942508220,-0.34558500997666225,0.23340836805698265,1.3519886552894906,-0.7140129504840647,-0.2230432337030582,0.04946466969976536,0.6618084835447614,0,-1,0.0511041060090065,-1.5950458685504358,-0.42769033113588506,-1.4787638823138636,0.3491266965866089,0.11066120862960815
3440,1734173845,958211421,-0.34930380992312315,0.23288708250876844,1.3502573771834023,-0.7141793424096559,-0.22551574674279878,0.05002563860236218,0.6607480233256661,0,-1,0.05166624113917351,-1.595382038746969,-0.4327176252948206,-1.477661434804098,0.3531646430492401,0.11203864961862564
3456,1734173845,973958969,-0.35318995684143256,0.2323499278016531,1.3484382709998666,-0.7143500627342839,-0.2280796734127601,0.05050450444343138,0.6596460759213054,0,-1,0.052312642335891724,-1.5956576506244105,-0.4378169218646448,-1.4765704313861292,0.3573344051837921,0.11332020908594131
3472,1734173845,990226268,-0.35695608085730224,0.23180783540485878,1.3466342318826117,-0.7145122200005052,-0.23059268702650118,0.050983893368784984,0.6585589895953196,0,-1,0.052898745983839035,-1.5959938208209437,-0.44291621843446904,-1.4754913488971155,0.3614206314086914,0.11462574452161789
3488,1734173846,6072521,-0.36069954229706114,0.23126520730800548,1.3448286974920902,-0.7146767965449263,-0.2330696409734626,0.05148584679386461,0.65746849849761,0,-1,0.0535455197095871,-1.596269432698385,-0.447883431111471,-1.474436108266012,0.3655184805393219,0.11591891944408417
3504,1734173846,22341489,-0.3644049052155038,0.23071037487705376,1.3430255340697868,-0.7148340959271402,-0.2355564318548971,0.05198192175055506,0.6563712840480883,0,-1,0.05414360761642456,-1.5965450445758265,-0.45285064378847295,-1.4733813444720667,0.3696410655975342,0.11724841594696045
3520,1734173846,38052797,-0.36817049437849386,0.23014351510146913,1.3411754431789074,-0.714999339564403,-0.2380964459083328,0.05246762623435006,0.6552352059112975,0,-1,0.05475405231118202,-1.5968449751483362,-0.4577582518206995,-1.4723380247699183,0.3737508952617645,0.11851799488067627
3536,1734173846,54326295,-0.37187367758544093,0.22958735755148477,1.3393123742240851,-0.7151641797791924,-0.24061242185222728,0.05294014449151347,0.6540972401045416,0,-1,0.05535251647233963,-1.5971205870257776,-0.46272594133485967,-1.4712713400470179,0.377885103225708,0.11978757381439209
3552,1734173846,70046663,-0.3755141196624184,0.2290355243056423,1.3374503119685215,-0.7153452185110779,-0.24303706693690366,0.05343832169914359,0.6529613680931085,0,-1,0.05593899264931679,-1.5974085966693323,-0.46789676347841436,-1.4702160994159144,0.3819473683834076,0.12112905830144882
3568,1734173846,86241722,-0.37921674909530456,0.2284693355091173,1.3355423422687294,-0.7155185329380241,-0.24551083257033618,0.053904264257737096,0.6518067124598135,0,-1,0.056561049073934555,-1.5976484457599085,-0.4729245344745081,-1.469161335621969,0.386057585477829,0.12243421375751495
3584,1734173846,102443933,-0.38290174457359827,0.22788184080297946,1.3336171284806986,-0.7156917055665483,-0.24801571236915806,0.05441915210825406,0.6506244269047103,0,-1,0.05717187002301216,-1.59792405763735,-0.4779871145831507,-1.4680464903460901,0.39016780257225037,0.12370379269123077
3600,1734173846,118316888,-0.38660404522621067,0.2273192915551449,1.3316488442655434,-0.7158710882078615,-0.2504752073613801,0.054817137494271556,0.6494504115036803,0,-1,0.05778194218873978,-1.5981887022601526,-0.4830268065081995,-1.4669435659991663,0.39420610666275024,0.1250452846288681
3616,1734173846,133882045,-0.39027628543885595,0.22672402427648616,1.3296998299109872,-0.7160445824530716,-0.25293980818026074,0.05529342800614758,0.6482624824842698,0,-1,0.05835643410682678,-1.5985482374774378,-0.48804217973818,-1.4658406416522425,0.39831632375717163,0.12631447613239288
3632,1734173846,150116205,-0.3939383495037918,0.22614969633778764,1.3277104260622845,-0.7162323818265659,-0.2553805912597085,0.05575078151020012,0.6470577865939703,0,-1,0.058930929750204086,-1.5988238493548792,-0.4930813948260706,-1.4647496382342737,0.40240293741226196,0.12757207453250885
3647,1734173846,165807008,-0.39749668695782936,0.22558564465939568,1.325738976269049,-0.7164178471309708,-0.25779004889561963,0.05621258353568912,0.6458559471390367,0,-1,0.05949343740940094,-1.5990398565875452,-0.49810868898500615,-1.463658634816305,0.4064772129058838,0.12890157103538513
3664,1734173846,182110071,-0.40110310991868614,0.224972256145078,1.3237265328941763,-0.7166009600249563,-0.2602302910999032,0.05669495773291097,0.6446308567335526,0,-1,0.06007954105734825,-1.5993273893939417,-0.5031479040728968,-1.462543789540426,0.4105274975299835,0.1301591694355011
3679,1734173846,197897911,-0.4046747249876263,0.22438970561741134,1.321698554351399,-0.7167830955188857,-0.26264739034942786,0.05709957298355828,0.6434112068390591,0,-1,0.06070234626531601,-1.5995796362506312,-0.508247200642721,-1.4614647070514124,0.41464969515800476,0.13148829340934753
3696,1734173846,214121103,-0.4082753491407388,0.22380132329222718,1.3196475885460108,-0.7169714340043899,-0.26508536299870084,0.05752905662333938,0.6421620673860801,0,-1,0.06125287339091301,-1.5998428503619593,-0.5131662527667444,-1.4603617827044886,0.41879624128341675,0.13268597424030304
3712,1734173846,229880094,-0.41181484504536053,0.22318537588578452,1.3176075769151805,-0.7171564726914126,-0.2675152284910739,0.05804204422716997,0.6409003957746561,0,-1,0.06185096129775047,-1.6001070181476038,-0.5181210676776331,-1.4592707792865198,0.4228824973106384,0.13399150967597961
3728,1734173846,246180057,-0.4152935025803678,0.22256614561374785,1.3155825091746374,-0.7173298945333549,-0.26992438678295777,0.05851763243453186,0.6396517290861233,0,-1,0.06241346895694733,-1.6003473440753382,-0.5230887571917933,-1.4582040945636194,0.4270166754722595,0.1352490931749344
3744,1734173846,261931180,-0.4187839154921517,0.22197038042571215,1.3135039724529014,-0.7175280353533321,-0.272295518293471,0.05894970336980805,0.6383835850583011,0,-1,0.06303589791059494,-1.6006229559527796,-0.5281279722796839,-1.4571011702166956,0.4311036765575409,0.1365426480770111
3760,1734173846,278205633,-0.42237866886221326,0.22133187744379862,1.3113545489757692,-0.7177118491571284,-0.27476574701856477,0.0593502350737368,0.6370800855791033,0,-1,0.0636463463306427,-1.6008270422564905,-0.5332749525653284,-1.456022087727682,0.4352138936519623,0.13778825104236603
3776,1734173846,293937683,-0.42587635401482415,0.2207088656531678,1.3092192290101463,-0.7179095595129945,-0.277173289163063,0.05977299616074871,0.6357735611555064,0,-1,0.06424480676651001,-1.6011384169207972,-0.5383256117450159,-1.4549430052386683,0.4393001198768616,0.1391417235136032
3791,1734173846,309888601,-0.42938959480274286,0.2200708459242639,1.3070655447301085,-0.7181131205352406,-0.2795436245775846,0.06021538089604128,0.6344627774556284,0,-1,0.06481930613517761,-1.6013906637774866,-0.5433891455279749,-1.453876797352926,0.44336315989494324,0.1404348909854889
3808,1734173846,326189517,-0.4328883788020642,0.21944145619986827,1.3049003159184815,-0.718327500337604,-0.2818982702482813,0.06067049218671607,0.6331335237274821,0,-1,0.06546533107757568,-1.6017139593707483,-0.5482962767230433,-1.4528449217425745,0.44746139645576477,0.1418842375278473
3824,1734173846,342474222,-0.4363989427435017,0.21876840315105284,1.302726439948901,-0.7185294985615067,-0.284316767299159,0.06113961470113383,0.6317762919291151,0,-1,0.06606416404247284,-1.6019657293902796,-0.5533235708819788,-1.4517424742328089,0.4515719711780548,0.14321373403072357
3840,1734173846,358211040,-0.439860662385109,0.218110789112864,1.3005304766052053,-0.718732155250756,-0.28665336739518693,0.06161917215141603,0.6304419192859698,0,-1,0.06668584793806076,-1.6022656599627894,-0.5583866278277796,-1.450615708027975,0.45565858483314514,0.14455485343933105
3856,1734173846,373893976,-0.44337838322343953,0.21748072599088128,1.2982644623156843,-0.7189437552067451,-0.28904337539660974,0.06195279915942683,0.629075237682163,0,-1,0.06732063740491867,-1.6025174299823206,-0.5634735266314905,-1.4495366255389612,0.45976918935775757,0.14584839344024658
3872,1734173846,390122175,-0.44683062640895976,0.2167904893430198,1.2960203601230127,-0.7191463751042575,-0.2914381974156006,0.0624035029253423,0.6276926565479308,0,-1,0.06791909784078598,-1.6027458349811,-0.568512264882223,-1.4484699408160608,0.4639037549495697,0.14712995290756226
3887,1734173846,405851840,-0.45021806836640355,0.21611602171935082,1.2937983473184913,-0.719341662955285,-0.29379236217191,0.0628481611980276,0.6263255770764923,0,-1,0.0685291737318039,-1.603081528340475,-0.5735395590411585,-1.447367016469137,0.46799036860466003,0.1484830528497696
3904,1734173846,422114849,-0.45367545735721165,0.21547625670322926,1.2915085951442151,-0.7195604093759254,-0.29616848199222906,0.06320880715583896,0.6249173499200557,0,-1,0.0691276341676712,-1.6033452192889612,-0.5785186926471155,-1.4463117758380335,0.4720889627933502,0.14977659285068512
3920,1734173846,437887430,-0.4570844423190904,0.21478488688525588,1.2892402835873407,-0.7197528631643368,-0.298440485493283,0.06356006757489974,0.6235777500802502,0,-1,0.06975006312131882,-1.6036689917193812,-0.5835097471820276,-1.445221249257223,0.4760437607765198,0.15097427368164062
3936,1734173846,454119205,-0.46047488954617777,0.2141029583764773,1.2869456241546418,-0.7199592778540607,-0.30084750846281244,0.0639956669671898,0.6221366164219897,0,-1,0.07034815102815628,-1.6039326826678675,-0.5885251204120081,-1.4441302458392542,0.480142742395401,0.1523037701845169
3951,1734173846,470420122,-0.4638704932936436,0.21343380047693666,1.2846075911913688,-0.7201846347621828,-0.3031640186432143,0.06436335558382048,0.6207117109500585,0,-1,0.07093500345945358,-1.6042564550982874,-0.5935996214496058,-1.4430869261371058,0.48427730798721313,0.1536332666873932
3968,1734173846,486110448,-0.46728810064859083,0.21273709211171554,1.2822313844477282,-0.7203994072479608,-0.30555784827211924,0.06473743809592816,0.6192480597505938,0,-1,0.07150912284851074,-1.6044963041888636,-0.5986383597003382,-1.4420440832721155,0.4883039891719818,0.154902845621109
3983,1734173846,501847505,-0.4706699125488881,0.21205918338370222,1.2798531496350882,-0.7206080480300299,-0.3079131990978532,0.0650435119374918,0.6178048595555992,0,-1,0.0720956027507782,-1.6047843138324183,-0.6037257353412073,-1.4409773985492151,0.49237900972366333,0.1562563180923462
4000,1734173846,518126249,-0.4740129065346637,0.21137113212148267,1.277476498063122,-0.7208364930146961,-0.310208646017754,0.06543687681746777,0.6163467866603033,0,-1,0.07269443571567535,-1.605084244404928,-0.6087406317340296,-1.4399340788470667,0.49653753638267517,0.15753787755966187
4015,1734173846,533881425,-0.4773076043848241,0.2106774557608979,1.2751173487118341,-0.7210448859264442,-0.3125610686095635,0.06582810083688337,0.6148711344738652,0,-1,0.07328016310930252,-1.6053960959063929,-0.6136601606952112,-1.4388673941241663,0.5006481409072876,0.15879547595977783
4032,1734173846,550133943,-0.48064667207427564,0.2099676743946093,1.2727216697859232,-0.7212612353916874,-0.31487170265590336,0.06621572911446728,0.613395075302752,0,-1,0.07385503500699997,-1.6056597868548792,-0.6186865011798304,-1.4377883116351526,0.5047470927238464,0.1600762903690338
4048,1734173846,565952539,-0.48396223548266704,0.2092545592872173,1.2702800880749432,-0.7214799974026865,-0.3172093644664124,0.06655185622839616,0.6118951567672269,0,-1,0.07441754639148712,-1.605959717427389,-0.623725716267721,-1.4367454687701624,0.5088936686515808,0.16139380633831024
4064,1734173846,582247495,-0.48724929707075587,0.2085628867898347,1.2678277352721719,-0.721712050516412,-0.3195109403298082,0.06693208051459225,0.6103806777306651,0,-1,0.07500364631414413,-1.6062234083758753,-0.6288488546954554,-1.435582462941305,0.5130405426025391,0.16267536580562592
4080,1734173846,598019123,-0.4906009886811189,0.2078240522419479,1.265322804606853,-0.7219320332465994,-0.32184399010208037,0.06728291150239149,0.6088543300555268,0,-1,0.0756504237651825,-1.6065352598773401,-0.6340912024127405,-1.4344914595233362,0.5171754956245422,0.16396892070770264
4095,1734173846,614327669,-0.4939533852788508,0.2071205939215171,1.2627639069078593,-0.7221523887874921,-0.3242081433334171,0.06751829293953468,0.6073107007811971,0,-1,0.07627285271883011,-1.60685903230776,-0.6390460173236292,-1.4334014097796839,0.5212141871452332,0.16521452367305756
4112,1734173846,630336284,-0.49724115240089434,0.20638036781306016,1.26027209370241,-0.7223705865249173,-0.3264744632310647,0.06786115981070825,0.6057970151550606,0,-1,0.07688292115926743,-1.6071346441852015,-0.6440132300006312,-1.432321850453512,0.5252532362937927,0.16642418503761292
4128,1734173846,646544218,-0.5004522103554655,0.20564404848806966,1.2578151191865974,-0.72258240506584,-0.32875160093797096,0.06821227414728705,0.6042715767150089,0,-1,0.07745742052793503,-1.6074588934527796,-0.6489203611956995,-1.4312313238727015,0.5293642282485962,0.16774170100688934
4144,1734173846,662317752,-0.503707623799622,0.20492592775621246,1.2552899331103957,-0.7228201615846584,-0.33099312302810135,0.06857309145840673,0.6027207459866213,0,-1,0.0780794769525528,-1.6078184286700647,-0.6539948622332972,-1.4300807158099573,0.5333673357963562,0.16903525590896606
4160,1734173846,678039312,-0.5069581154507826,0.20417206984310549,1.2527051727362575,-0.7230377773910008,-0.33329335801965654,0.06885210913276513,0.6011582961528789,0,-1,0.07870190590620041,-1.6081183592425745,-0.6590822378741663,-1.4290016333209437,0.5374423265457153,0.17034077644348145
4176,1734173846,694228887,-0.5101885118413962,0.20340428959760296,1.2501307399866812,-0.723273530616937,-0.33556370853240397,0.06920852411025172,0.5995686596340499,0,-1,0.07931235432624817,-1.6083343664752405,-0.6641572157489222,-1.427934471760885,0.5415292978286743,0.17163433134555817
4192,1734173846,709966659,-0.5134317434620201,0.20264211371082824,1.2475104868236477,-0.7235151985645292,-0.3378292921510314,0.06953968686220564,0.5979643457280454,0,-1,0.07994676381349564,-1.6086457411395472,-0.6691840330706995,-1.4268196264850062,0.5456882119178772,0.17303574085235596
4208,1734173846,726236104,-0.5165346202863148,0.20190061514422597,1.244962188681042,-0.723768375447299,-0.34005601859453616,0.06991821986308103,0.596349465876501,0,-1,0.08053324371576309,-1.6089819113360804,-0.6741145292865198,-1.4258249441729944,0.5498591065406799,0.17441242933273315
4224,1734173846,742461204,-0.5196892351796122,0.20112827025982444,1.2423867251147338,-0.7239972524728836,-0.3422992950943034,0.0702807233624938,0.5947434664738263,0,-1,0.08117964118719101,-1.609281365071432,-0.6791179815875452,-1.4246857802020472,0.5539580583572388,0.1757299304008484
4240,1734173846,758181810,-0.5228300652994716,0.20038718857949034,1.2397543385249716,-0.7242433632815498,-0.34454111918566177,0.07059273619196334,0.5931101360876009,0,-1,0.08177772909402847,-1.6095693747149866,-0.6841686407672327,-1.4236310164081019,0.5581293106079102,0.17703546583652496
4256,1734173846,774528503,-0.5259910349295936,0.19960331141237647,1.237091266704697,-0.7244830159318212,-0.3468083612544073,0.07090218617866612,0.5914568455816964,0,-1,0.08242413401603699,-1.6098335425006312,-0.689303223286764,-1.4226000944720667,0.5622403025627136,0.17830504477024078
4272,1734173846,790207386,-0.5290856955336669,0.1988475516299123,1.2344265028007064,-0.7247237361045651,-0.34901756267431094,0.07119122500447175,0.5898254460040586,0,-1,0.08292672038078308,-1.6101215521441858,-0.69440204301943,-1.4214614073382776,0.5663392543792725,0.17967049777507782
4288,1734173846,806524276,-0.5322272785366865,0.19807476874218652,1.2317056919804632,-0.7249620075641092,-0.351286593545949,0.07143760291665073,0.5881534541877846,0,-1,0.0835491493344307,-1.6104090849505823,-0.6994527021991175,-1.420382324849264,0.5703903436660767,0.18091611564159393
4304,1734173846,822268962,-0.5352595926144073,0.19730712553094842,1.2290722767758016,-0.7252001987933234,-0.35345908175973684,0.07177479707420269,0.5865148998078777,0,-1,0.084147609770298,-1.6107085386859339,-0.7044079939471644,-1.4192917982684534,0.5744896531105042,0.1821736991405487
4320,1734173846,838020563,-0.538259707072797,0.19653043419964966,1.2264292651561521,-0.7254419201230813,-0.3556243742365238,0.0721217487830716,0.5848621874676883,0,-1,0.08476966619491577,-1.6110203901873987,-0.7093032042132776,-1.4182007948504847,0.5786369442939758,0.18351519107818604
4336,1734173846,854347705,-0.5413156105192012,0.19574542343444934,1.2237177320381882,-0.7256842432024433,-0.3578259251042288,0.07239440552912337,0.5831826785314229,0,-1,0.08532056957483292,-1.61127216020693,-0.7143419424640101,-1.4171341101275843,0.5826160907745361,0.1847967505455017
4352,1734173846,870081186,-0.5442506908681068,0.1949939521026448,1.2210384274165573,-0.7259407970693074,-0.3599477279265093,0.07267165894033736,0.5815207840634604,0,-1,0.08595498651266098,-1.6115363279925745,-0.7193926016436976,-1.4160550276385706,0.5867034792900085,0.18607793748378754
4367,1734173846,886387348,-0.5472754420468786,0.1941922264258248,1.21828720125557,-0.7261843868889079,-0.36215407323713605,0.07296258455277621,0.5798078343140173,0,-1,0.08652910590171814,-1.6117880980121058,-0.7244074980365198,-1.4149163405047815,0.5908623933792114,0.18739545345306396
4384,1734173846,902140617,-0.5502392091870175,0.19342209666106008,1.2155206166769488,-0.7264422047841681,-0.36432320967728404,0.07324833197724026,0.5780873669795168,0,-1,0.087115578353405,-1.6120160261737269,-0.729506794606344,-1.4138496557818812,0.5949737429618835,0.1887129694223404
4400,1734173846,917890071,-0.5531501800904001,0.1926351380984781,1.2128053098001916,-0.726688716468708,-0.3664725362735551,0.0735444731478135,0.5763788684395882,0,-1,0.08770168572664261,-1.6123278776751917,-0.7344854513751429,-1.4128182570086878,0.5990850329399109,0.19001850485801697
4416,1734173846,934329748,-0.5560627995769002,0.19185513284931424,1.2100672439636722,-0.7269459770449896,-0.36861130516836116,0.07383459712073287,0.5746509413793751,0,-1,0.08830051869153976,-1.612603489552633,-0.7393687407123011,-1.4117396513568323,0.6031724214553833,0.1912880837917328
4432,1734173846,950642585,-0.5589453474704797,0.19102982666993779,1.207333142562361,-0.7271897035575897,-0.3707415654124284,0.07415045594492178,0.5729289105975773,0,-1,0.08893493562936783,-1.6128557364093226,-0.7443354765521448,-1.410696808491842,0.6073436737060547,0.19258125126361847
4448,1734173846,966354846,-0.56191606882443,0.19021214352987809,1.204492709091071,-0.7274430185877767,-0.3729352251865617,0.07441259248857897,0.5711468625512013,0,-1,0.08952103555202484,-1.613131348286764,-0.7494462172137659,-1.409581486378805,0.6113947033882141,0.19391076266765594
4464,1734173846,982599020,-0.5648342451632645,0.18941463849598872,1.2016234843729714,-0.7276931884802005,-0.3750944699464612,0.07460121786227153,0.5693868810822468,0,-1,0.09016744047403336,-1.613359276448385,-0.7546404043780726,-1.408551041279928,0.615494430065155,0.19515636563301086
4480,1734173846,998323440,-0.5677872076697608,0.18859394601903717,1.1986920385270066,-0.7279354797445075,-0.37732012766478124,0.07473885651158002,0.5675857308949093,0,-1,0.09076590090990067,-1.6136229673968714,-0.7597869078265589,-1.4075081984149378,0.6196054220199585,0.19642594456672668
4496,1734173847,14602661,-0.5706143338069429,0.187811972659865,1.1958664985767125,-0.7281968247832236,-0.3794334886122933,0.0749716253776241,0.5658081543097209,0,-1,0.09135200083255768,-1.6139228979693812,-0.7647660414325159,-1.4064772764789026,0.6237291097640991,0.1976591944694519
4512,1734173847,30151605,-0.5734495145132437,0.18695134965995294,1.1930373224414668,-0.7284313329639904,-0.38157848483148776,0.07525152996470379,0.5640238118271086,0,-1,0.09195046871900558,-1.6141985098468226,-0.7697332541095179,-1.405398193989889,0.6278524398803711,0.19895274937152863
4528,1734173847,45979022,-0.5762591964368117,0.18615600963771994,1.190196264201468,-0.7286959898948191,-0.38364961985756413,0.07550026411335772,0.5622409035397276,0,-1,0.0925489291548729,-1.6144984404193323,-0.7746999899493616,-1.404271427785055,0.6318918466567993,0.20022232830524445
4544,1734173847,61945438,-0.5790906450386951,0.18533249564296678,1.187305175124899,-0.7289632394631715,-0.38573653660692625,0.07575763416607163,0.5604290327092377,0,-1,0.09317135810852051,-1.6147621313678187,-0.7797029654132288,-1.403156582509176,0.6359792351722717,0.20156380534172058
4559,1734173847,78224182,-0.5818843030775052,0.18447923853839365,1.1844012973798335,-0.7292278811594762,-0.387842064703943,0.07602410421358625,0.5585924863121281,0,-1,0.09378180652856827,-1.614990536366598,-0.7848618666278284,-1.402137581502096,0.6401268839836121,0.202881321310997
4576,1734173847,93958139,-0.5846445873468502,0.18366659403824181,1.1814878655833765,-0.7295069636736701,-0.38990006904891045,0.07626681739580342,0.5567592825194679,0,-1,0.09436790645122528,-1.6152542273150843,-0.7898762861834925,-1.4009512106524866,0.6442621946334839,0.20431868731975555
4591,1734173847,110230207,-0.5873407797883583,0.1828620670539601,1.178592917567457,-0.7297817106576732,-0.3918975991914099,0.07649585240362082,0.554962441163916,0,-1,0.09493079036474228,-1.6155179182635706,-0.7948315779315394,-1.3999202887164515,0.6483016610145569,0.20562420785427094
4608,1734173847,125812768,-0.5900941482700591,0.1820113786982811,1.1756744439757907,-0.7300493833357632,-0.3939669626392919,0.07676079395141858,0.5531055150256509,0,-1,0.09554123878479004,-1.6158416906939905,-0.7998221556292933,-1.3988059202777308,0.6524133682250977,0.20696532726287842
4624,1734173847,142103433,-0.5928067376016837,0.18119952057823932,1.1727603078789586,-0.7303277419716893,-0.39596330423397447,0.07700509440344401,0.5512754905150086,0,-1,0.0961632952094078,-1.616117302571432,-0.8047650496112269,-1.3976429144488733,0.6564767360687256,0.2082948237657547
4640,1734173847,158113956,-0.5955447112539435,0.18037989031553964,1.1697597175614267,-0.7306002508993013,-0.39798902152970844,0.0771336411326488,0.5494346308100019,0,-1,0.09672580659389496,-1.6163814703570765,-0.8097441832171839,-1.3965638319598597,0.6605165600776672,0.20956440269947052
4655,1734173847,174236774,-0.5982301290848885,0.17953875398188102,1.1667814910380172,-0.7308661400366769,-0.4000404839728754,0.07733564197424976,0.5475595812430523,0,-1,0.09727632999420166,-1.6166327635394495,-0.8149026075946253,-1.3954852263080042,0.6645799875259399,0.21083398163318634
4672,1734173847,189800262,-0.6009237723231354,0.17870949186415291,1.163749409667257,-0.7311477767057859,-0.4020716168704744,0.07748654956736614,0.5456713096374892,0,-1,0.09783884137868881,-1.6169212500201624,-0.8200247923480433,-1.3944180647479456,0.6687160134315491,0.21216347813606262
4688,1734173847,205943346,-0.6036377051402017,0.17785553583957658,1.1606778389401906,-0.731420514107424,-0.4041527125529839,0.07762910453745168,0.5437447366252018,0,-1,0.09849722683429718,-1.6172211805926722,-0.8250997702227991,-1.3933995405780237,0.6728992462158203,0.2134210765361786
4703,1734173847,222135305,-0.6062972317619374,0.1770167761168648,1.1576564001450846,-0.731700052978632,-0.4061730545365335,0.0778185350446515,0.5418327766414961,0,-1,0.09907134622335434,-1.617533032094137,-0.8301146666156214,-1.39232045808901,0.676939070224762,0.21479851007461548
4719,1734173847,238242626,-0.6089356265951761,0.1761209829863722,1.1546480835602588,-0.7319649661311106,-0.4081956212378797,0.07803327856471688,0.5399207632563733,0,-1,0.09968216717243195,-1.6179164091693323,-0.8349383513080042,-1.3912418524371546,0.6810743808746338,0.2160920649766922
4736,1734173847,253911256,-0.6115292320828091,0.17526844622869608,1.151655910879487,-0.7322346939231297,-0.41021886092827564,0.07825781832558683,0.5379856438836708,0,-1,0.10031620413064957,-1.618216339741842,-0.8399646917926233,-1.390174690877096,0.6851864457130432,0.21734927594661713
4751,1734173847,270217180,-0.6141467700875342,0.1743797515962972,1.1485537229587772,-0.7325047289587338,-0.412237477162662,0.07842943266143611,0.5360465544783036,0,-1,0.10093863308429718,-1.6184561888324183,-0.8450277487384241,-1.389059845601217,0.689321756362915,0.21869076788425446
4768,1734173847,285945892,-0.6167096177588317,0.17353650798546927,1.1454884120917261,-0.7327821080765441,-0.4142151629955379,0.07857843883981741,0.5341175992016863,0,-1,0.10153710097074509,-1.6187198797809046,-0.850138012562887,-1.3879216353045862,0.6934574842453003,0.21997232735157013
4783,1734173847,302257299,-0.619312382711933,0.17267012687048372,1.1423559959344682,-0.733061852781622,-0.4162107586487217,0.0787060986992864,0.532160008276617,0,-1,0.1021471694111824,-1.618983570729391,-0.855224911366598,-1.3868425528155726,0.697509229183197,0.2212299257516861
4800,1734173847,317981958,-0.6218731786148283,0.1717731160911438,1.1392563911244613,-0.7333295344559524,-0.41820766033101453,0.07887319147005846,0.5301972900745553,0,-1,0.10276959836483002,-1.6193316618548792,-0.8601320425616663,-1.3857877890216272,0.7016089558601379,0.22254744172096252
4815,1734173847,334297180,-0.6244487952305234,0.17090344238929764,1.1361442224619616,-0.733601932976618,-0.42017165147551977,0.07898896800543442,0.5282468458616109,0,-1,0.10335570573806763,-1.6196678320514124,-0.8650510946856897,-1.3847091833697718,0.7056371569633484,0.22376908361911774
4832,1734173847,350003242,-0.6269212474709863,0.1700190547202663,1.13308214805122,-0.7338659459752004,-0.4221052922468581,0.07915246743800777,0.5263105380795582,0,-1,0.10396652668714523,-1.6200030485736292,-0.8700779120074671,-1.3836177031146448,0.7096889615058899,0.2250506430864334
4847,1734173847,366272211,-0.6294424334963798,0.16916634711579936,1.1299147024570395,-0.7341464448289403,-0.4240633201878645,0.07924295826478198,0.5243279999978244,0,-1,0.1046009361743927,-1.6202910582171839,-0.8751762549029749,-1.3825152556048792,0.7137886881828308,0.2263801395893097
4864,1734173847,382001876,-0.6319783500301095,0.168275932562943,1.126695994549941,-0.7344221218622086,-0.4260609220554575,0.07932643399613197,0.5223059969846431,0,-1,0.10515108704566956,-1.6205785910235804,-0.8803113142596644,-1.3814485708819788,0.7178764343261719,0.2275538444519043
4880,1734173847,398317575,-0.6344451395786457,0.16737867578461357,1.123490391730664,-0.7346991779353318,-0.4280528457327942,0.07943199714350294,0.5202676590285034,0,-1,0.10577352344989777,-1.620866600667135,-0.885385815297262,-1.3803699652301233,0.7220484614372253,0.22889496386051178
4896,1734173847,413971900,-0.6368797366189911,0.16653098120788032,1.1203156995137404,-0.7349872511043088,-0.429973854920215,0.07950317546127084,0.5182619703304071,0,-1,0.10633602738380432,-1.6211546103106897,-0.8903411070453089,-1.379327122365133,0.7260882258415222,0.23017652332782745
4911,1734173847,430270433,-0.639296781218044,0.1656365925999698,1.1171809084001736,-0.7352568641910486,-0.43188917712772074,0.07962687400860465,0.5162641216233255,0,-1,0.10698243230581284,-1.6214898268329065,-0.8952835241900843,-1.3782842795001429,0.7302239537239075,0.23145808279514313
4928,1734173847,445965051,-0.6417313270837477,0.1647482154159639,1.1139834760754426,-0.7355524628158676,-0.4338260718856471,0.07977055045283739,0.5141927392313432,0,-1,0.10759287327528,-1.6217902342425745,-0.9002507368670862,-1.377181355153219,0.7344075441360474,0.23272766172885895
4944,1734173847,462285995,-0.644065483212391,0.16387498774365722,1.11081439701702,-0.7358559477417886,-0.43568432114467304,0.07990819404841851,0.5121619636459346,0,-1,0.1081550121307373,-1.622077767048971,-0.9053133169757288,-1.3761027495013636,0.7384952902793884,0.23415303230285645
4960,1734173847,477984189,-0.6464186720149416,0.16298273047126294,1.1075785738419874,-0.7361452952643744,-0.4375788511745799,0.07998175442869616,0.5101154498967561,0,-1,0.10875347256660461,-1.6223300139056605,-0.9103882948504847,-1.375035587941305,0.7426193952560425,0.23547054827213287
4975,1734173847,494324922,-0.6487270181048542,0.16211681568305186,1.1043528242501623,-0.7364704378132103,-0.43941082538121956,0.08011062523164952,0.5080469550051531,0,-1,0.10931635648012161,-1.6225455443011683,-0.9154985586749476,-1.3739569822894495,0.7467314600944519,0.23684760928153992
4992,1734173847,509995222,-0.6510671560049298,0.16121675130915605,1.1010672739439518,-0.7367625827370681,-0.4413004743875889,0.08017111766926519,0.5059717184542579,0,-1,0.10993841290473938,-1.6228578726397913,-0.9204776922809046,-1.3728545347796839,0.7507836222648621,0.23818910121917725
5007,1734173847,526283740,-0.6533579669885594,0.16033920989822814,1.0978571360929315,-0.7370572003582252,-0.44315259279362157,0.08026538605824211,0.5039046841430503,0,-1,0.11053687334060669,-1.623193089162008,-0.9254086653338831,-1.3717873732196253,0.7549312710762024,0.2394466996192932
5024,1734173847,541967153,-0.6556164325455314,0.15944748193377076,1.0946738249256813,-0.7373475544002217,-0.44495520630560687,0.08041661258620082,0.5018631455105145,0,-1,0.1111469492316246,-1.6234090963946741,-0.9303997198687952,-1.3706486860858362,0.7589594721794128,0.2407761961221695
5040,1734173847,558362007,-0.6578860571077981,0.15851807901235657,1.0913997827893458,-0.7376263110896846,-0.44684272298074623,0.08049044049541762,0.49976023761022614,0,-1,0.1117338016629219,-1.6237810293780726,-0.9354026953326624,-1.3695815245257776,0.763071596622467,0.24205775558948517
5056,1734173847,574068784,-0.6601456107641092,0.15760244465681994,1.0881064475528088,-0.7379185435071274,-0.4486898878371478,0.0805594038033751,0.4976583066320227,0,-1,0.11234425008296967,-1.6240084807025355,-0.9404771963702601,-1.3684914747821253,0.767219603061676,0.24336329102516174
5071,1734173847,590373277,-0.6623440214391703,0.1567077408747064,1.0848200311870082,-0.7382052397972211,-0.4505222332424656,0.0806032517077777,0.4955661985086163,0,-1,0.11295431852340698,-1.6242488066302698,-0.9456236998187464,-1.3674481550799769,0.7712957262992859,0.24458493292331696
5088,1734173847,606041908,-0.6645696185789137,0.15581135037378455,1.0814736748349805,-0.7385053572111291,-0.45236136650814973,0.08062084711260172,0.493436227360931,0,-1,0.11355277895927429,-1.6245487372027796,-0.9506505171405237,-1.3663337866412562,0.7753598690032959,0.24595001339912415
5104,1734173847,622193574,-0.6667019401523294,0.154908645621041,1.0782435572679208,-0.7388003433655032,-0.4541362429271058,0.08071099773216704,0.4913451539886655,0,-1,0.11418682336807251,-1.624824349080221,-0.9555819670306605,-1.3652308622943323,0.7794959545135498,0.24725553393363953
5120,1734173847,637945652,-0.6688379890267855,0.15398250133895341,1.0749839175229767,-0.7390869681123344,-0.4559439303983889,0.08079946097905324,0.4892208427743862,0,-1,0.11482161283493042,-1.6250761190997522,-0.9604409376727503,-1.364164177571432,0.7835604548454285,0.24854908883571625
5136,1734173847,654295444,-0.670936059055662,0.15306838763990674,1.0717511641754722,-0.7393769579379972,-0.45768966638206526,0.08091185095795132,0.4871295061192508,0,-1,0.11539573222398758,-1.6253636519061487,-0.9655035177813929,-1.3630731741534632,0.7876242399215698,0.24985499680042267
5152,1734173847,670214891,-0.6730797517944801,0.15218996636910304,1.0683528497238926,-0.739693899549429,-0.45947151797691527,0.08090423311541134,0.48496738467793443,0,-1,0.1160421296954155,-1.625592056904928,-0.9705308119403284,-1.3620665709124964,0.7917483448982239,0.25120809674263
5168,1734173847,686041116,-0.6751297347666443,0.15126538817152677,1.065008133061988,-0.7399883470695384,-0.4612953578969055,0.0809477063820601,0.4827745931752645,0,-1,0.1166405901312828,-1.6258075873004358,-0.9757011572467249,-1.3609636465655726,0.7959806323051453,0.2524660527706146
5183,1734173847,702356576,-0.6772379679592251,0.1503281182625879,1.0616194931253,-0.7402679137228059,-0.4631114635536781,0.08095197655427422,0.48060167054392433,0,-1,0.11721470952033997,-1.626059357319967,-0.9807875792132776,-1.359885040913717,0.8000567555427551,0.25373563170433044
5200,1734173847,718086719,-0.6793086126818717,0.14942379482662524,1.058253427463654,-0.7405724918021207,-0.4648700271219325,0.08095884868583925,0.47842858097015367,0,-1,0.11787346750497818,-1.6262992064105433,-0.9856589476214808,-1.3588183561908167,0.8041812181472778,0.2550647556781769
5215,1734173847,734423875,-0.6812867744415422,0.14849476659608504,1.0550110065925578,-0.7408692145502263,-0.46657073213713046,0.0810725612116367,0.476289616371529,0,-1,0.11845957487821579,-1.6266472975360315,-0.9905660788165491,-1.3576915899859827,0.8082693219184875,0.25629839301109314
5232,1734173847,750051736,-0.6832516232772257,0.14757138496222208,1.0517257224899146,-0.7411500749278194,-0.46828931553284536,0.08116556319303604,0.47414537300687015,0,-1,0.11907001584768295,-1.6269353071795862,-0.9955332914935511,-1.356577221547262,0.81241774559021,0.2576039135456085
5248,1734173847,766422748,-0.6852673255504882,0.146669266963537,1.0483119239369472,-0.7414517653911306,-0.47003868635297136,0.08114673254128212,0.4719408021434706,0,-1,0.11965649574995041,-1.627150837575094,-1.0006797949420374,-1.3554981390582483,0.81648188829422,0.2588615119457245
5264,1734173847,782155275,-0.6872771925515587,0.14575505996006394,1.0448201584372339,-0.7417508068856281,-0.47178852248413605,0.08105562198169775,0.46973536877897065,0,-1,0.12025458365678787,-1.6274388472186487,-1.0058262983905237,-1.3544071356402796,0.820582389831543,0.2601790428161621
5280,1734173847,798438072,-0.6892958633222639,0.14480379286613643,1.0413593634340952,-0.7420436846675792,-0.4735569629404531,0.08102566581967006,0.4674931169269295,0,-1,0.12082945555448532,-1.6276667753802698,-1.0109131971942347,-1.353316609059469,0.824646532535553,0.26147258281707764
5296,1734173847,814130544,-0.6912321723925009,0.14391672706837608,1.0379390549415257,-0.7423607000870716,-0.4752418720314877,0.08101711966697753,0.46527624090974884,0,-1,0.12141555547714233,-1.6279781500445765,-1.0158441702472132,-1.3522141615497034,0.8287593722343445,0.2627178132534027
5311,1734173847,830417394,-0.693174631471458,0.14299544621657315,1.0345268144413007,-0.7426695395307981,-0.4769251154480257,0.08100904863656429,0.4630571491155261,0,-1,0.12196607887744904,-1.6283262411700647,-1.020787541066305,-1.3511469999896448,0.8328834176063538,0.2640473246574402
5328,1734173847,846115589,-0.6950964012183933,0.14209168979783815,1.0311330923332869,-0.7429774722362865,-0.4785769144877041,0.08099797583568603,0.4608556613293673,0,-1,0.12258851528167725,-1.628578011189596,-1.0257781187640589,-1.3500445524798792,0.836995542049408,0.26535284519195557
5343,1734173847,862411260,-0.6969986200628111,0.14116693509035927,1.0276614304551928,-0.7432915827840427,-0.4802539361545452,0.08096935896382158,0.4586041241413405,0,-1,0.12316300719976425,-1.6288297812091272,-1.030876938496725,-1.3489773909198206,0.8411323428153992,0.2667422592639923
5360,1734173847,878176212,-0.6988585532634032,0.1402761675567351,1.024193400909625,-0.7436326468572798,-0.4818929386172644,0.08091882735417703,0.45633521189853254,0,-1,0.1237255185842514,-1.629117790852682,-1.0360119978534144,-1.3479111830340784,0.8452204465866089,0.26805979013442993
5376,1734173847,894197463,-0.7006999206699438,0.1393495606302108,1.0206890531704755,-0.7439491080608279,-0.4835650198625266,0.08087954502870091,0.45405186419263066,0,-1,0.12430001050233841,-1.6293695608722132,-1.0411341826068323,-1.346832577382223,0.8493089079856873,0.2694132626056671
5392,1734173847,909944534,-0.7025242192850899,0.13843863873545542,1.0171887592923277,-0.7442554281361287,-0.4852212798064105,0.0807712828115322,0.45179659935187244,0,-1,0.12493442744016647,-1.6296575705157679,-1.0461137930499476,-1.3458016554461878,0.8534213900566101,0.27065885066986084
5408,1734173847,926200151,-0.7043646463173341,0.137506126109041,1.0137169602785223,-0.744566636304658,-0.48687483602978704,0.08072144317668743,0.44950802746381274,0,-1,0.12553288042545319,-1.630005184804098,-1.051056210194723,-1.344722096120016,0.8575581908226013,0.27197638154029846
5424,1734173847,941939830,-0.7061505938412905,0.13657371427662562,1.0103117931352108,-0.7448606485939304,-0.4884890858881055,0.08070671787292448,0.44726664623534423,0,-1,0.1261429637670517,-1.6302812735186976,-1.0559881369220179,-1.3436439673053187,0.8615983724594116,0.27323397994041443
5440,1734173847,958374738,-0.7079321935258707,0.13565401375574926,1.0068201225325544,-0.7451656872414275,-0.49011350985069335,0.08063480097661643,0.444988623327953,0,-1,0.12675340473651886,-1.6305926481830042,-1.06097919145693,-1.342553440724508,0.8657591342926025,0.2745395004749298
