yildirimyigit/pemp/data/ur10/raw/21_2024-12-14_13-58-45.csv
Time,ROS secs,ROS nsecs,________p_x________,________p_y________,________p_z________,________q_x________,________q_y________,________q_z________,________q_w________,gripper_position,gripper_force,shoulder_pan_joint,shoulder_lift_joint,elbow_joint,wrist_1_joint,wrist_2_joint,wrist_3_joint
0,1734173925,410475730,-0.00015438610391992947,0.25614102957720697,1.4272999848890573,-0.7071067792900139,2.085145165485215e-05,-0.00012253773850040694,0.7071067721580832,0,-1,-0.00014335313905888825,-1.5709646383868616,-1.1746083394825746e-05,-1.570808235798971,-7.135072817021637e-05,0.0
11,1734173925,426746606,-0.00018134924344440044,0.2561410259707153,1.4272999819093948,-0.7071067768280981,1.6698583946484176e-05,-0.00013511997578239933,0.7071067724378883,0,-1,-0.000119511281148732,-1.5709403196917933,-1.1746083394825746e-05,-1.5707719961749476,-4.7985707418263246e-05,-2.366701234990387e-05
27,1734173925,442808151,-0.000129883053244571,0.25614101941991413,1.4272999893647194,-0.7071067795213262,1.2590669409547132e-05,-0.00011427695630615392,0.7071067735054097,0,-1,-0.000119511281148732,-1.5709527174579065,-3.5587941304981996e-05,-1.5707600752459925,-2.366701234990387e-05,-3.5587941304981996e-05
43,1734173925,458346843,-0.00013542837957249815,0.256141022288852,1.4272999883726059,-0.7071067810482595,1.7266163597294566e-05,-8.40998129287968e-05,0.7071067761128228,0,-1,-0.000119511281148732,-1.5709527174579065,-4.7985707418263246e-05,-1.5707719961749476,-5.990663637334137e-05,-1.1746083394825746e-05
59,1734173925,474786996,-0.00017347855718288265,0.25614102750877277,1.4272999828076431,-0.7071067767225419,2.9325578384486357e-05,-0.00012249298135543683,0.7071067744326434,0,-1,-0.000119511281148732,-1.5709403196917933,-4.7985707418263246e-05,-1.570796314870016,-2.366701234990387e-05,-4.7985707418263246e-05
75,1734173925,490203619,-0.00019880050456651398,0.2561410341408661,1.427299977889216,-0.707106778849657,-2.2197265764263077e-07,-0.00013518179288064867,0.707106770601651,0,-1,-0.00015527406801396637,-1.57092792192568,-1.1746083394825746e-05,-1.5707719961749476,-8.32716571252945e-05,-2.366701234990387e-05
91,1734173925,506512165,-0.00015436755644716253,0.25614102263796656,1.4272999862448368,-0.7071067789134186,1.2821073978646891e-05,-0.00011404655168824627,0.7071067741463759,0,-1,-0.00014335313905888825,-1.57092792192568,0.0,-1.5707476774798792,-2.366701234990387e-05,-1.1746083394825746e-05
107,1734173925,522579193,-0.00021182071054349217,0.25614103018916157,1.4272999760568168,-0.7071067774811958,-2.1233579650104857e-05,-0.00014810120482245846,0.7071067690634328,0,-1,-0.00015527406801396637,-1.5709527174579065,0.0,-1.570808235798971,-4.7985707418263246e-05,-3.5587941304981996e-05
123,1734173925,538788080,-0.00017101052030329863,0.2561410224036635,1.4272999839622955,-0.7071067789832952,8.774976535387655e-06,-0.00010966327948459199,0.7071067748316616,0,-1,-0.000119511281148732,-1.5709646383868616,-2.366701234990387e-05,-1.5707719961749476,-7.135072817021637e-05,-7.18275653284195e-05
139,1734173925,554882287,-0.00020609611288824334,0.25614103527368487,1.4272999766177952,-0.7071067788015394,8.252154247821052e-06,-0.0001267076660643394,0.707106772170922,0,-1,-0.00015527406801396637,-1.5709403196917933,-3.5587941304981996e-05,-1.5707839171039026,-5.990663637334137e-05,-1.1746083394825746e-05
156,1734173925,571154594,-0.00015536316785007983,0.25614102728911586,1.4272999851624772,-0.7071067779040041,2.1250443594751617e-05,-0.00013090529093150218,0.7071067720326548,0,-1,-0.00013143221010381012,-1.5709403196917933,-2.366701234990387e-05,-1.5707600752459925,-3.5587941304981996e-05,0.0
171,1734173925,586710691,-0.0001629902025266523,0.2561410237119672,1.4272999843776655,-0.7071067777068173,-4.037665462979179e-06,-0.0001393346605210387,0.7071067709268744,0,-1,-0.000119511281148732,-1.5709040800677698,-1.1746083394825746e-05,-1.5707719961749476,-3.5587941304981996e-05,-2.366701234990387e-05
187,1734173925,602515935,-0.0001466815015726799,0.25614102358235724,1.4272999867538558,-0.7071067771254077,2.9511225905705003e-05,-0.00013073670358062004,0.7071067725459295,0,-1,-0.00014335313905888825,-1.570916000996725,-2.366701234990387e-05,-1.5707839171039026,-1.1746083394825746e-05,-3.5587941304981996e-05
204,1734173925,618953943,-0.0001273554825629442,0.2561410190877099,1.4272999896620053,-0.7071067795241994,2.1525801292503735e-05,-0.00010534182450224311,0.7071067746745572,0,-1,-0.00014335313905888825,-1.5709403196917933,-2.366701234990387e-05,-1.5707839171039026,-4.7985707418263246e-05,-2.366701234990387e-05
220,1734173925,634693384,-0.00017739005223712387,0.2561410282458038,1.4272999819807566,-0.7071067791496577,-1.6015536872758513e-07,-0.00012669060606083536,0.7071067718739948,0,-1,-0.00015527406801396637,-1.5709403196917933,-4.7985707418263246e-05,-1.5707600752459925,-3.5587941304981996e-05,-5.990663637334137e-05
236,1734173925,650836944,-0.0002317088726642445,0.2561410328508721,1.4272999725397053,-0.7071067789555409,-8.420937673554934e-06,-0.0001265220186672467,0.7071067720481725,0,-1,-0.00013143221010381012,-1.570916000996725,-2.366701234990387e-05,-1.5707839171039026,-9.519258608037262e-05,-5.990663637334137e-05
251,1734173925,666476488,-0.00017257937301661205,0.25614103002163885,1.4272999824721673,-0.7071067785667301,8.4378016931292e-06,-0.000135288563081395,0.7071067708138491,0,-1,-0.00013143221010381012,-1.570916000996725,-2.366701234990387e-05,-1.5707600752459925,-2.366701234990387e-05,-3.5587941304981996e-05
267,1734173925,682888507,-0.000145187141598147,0.2561410213720715,1.4272999875024375,-0.7071067786749837,8.375984520575672e-06,-0.00012692101075559046,0.7071067722577599,0,-1,-0.00014335313905888825,-1.5709646383868616,-3.5587941304981996e-05,-1.5707476774798792,-4.7985707418263246e-05,-3.5587941304981996e-05
284,1734173925,699052333,-0.00011831348138831256,0.2561410235980701,1.4272999899323062,-0.7071067806485931,1.2821074076593305e-05,-0.0001137093767921301,0.7071067724655026,0,-1,-0.00013143221010381012,-1.5709527174579065,-3.5587941304981996e-05,-1.570796314870016,-4.7985707418263246e-05,-1.1746083394825746e-05
299,1734173925,715073585,-0.00015327440725829538,0.2561410224942915,1.4272999862379852,-0.7071067789184314,1.2989661373163808e-05,-0.00011387796429583034,0.7071067741654569,0,-1,-0.0001671949969690445,-1.570916000996725,-5.990663637334137e-05,-1.5707719961749476,-7.135072817021637e-05,-1.1746083394825746e-05
315,1734173925,730851888,-0.0001269880196116015,0.25614102294248386,1.4272999885392783,-0.707106778509947,2.1188626383186254e-05,-0.00012253773854052814,0.7071067729281268,0,-1,-0.00013143221010381012,-1.5709527174579065,-5.990663637334137e-05,-1.5707600752459925,-4.7985707418263246e-05,0.0
331,1734173925,746549606,-0.00019591480274827155,0.25614102227967817,1.4272999803513098,-0.7071067755909392,3.7173545973754356e-06,-0.0001393346605953543,0.7071067730445091,0,-1,-0.00013143221010381012,-1.5709527174579065,-2.366701234990387e-05,-1.5707476774798792,-3.5587941304981996e-05,-1.1746083394825746e-05
347,1734173925,762732267,-0.00016065520188436247,0.2561410281701243,1.4272999844883332,-0.707106778200074,-4.206252869669041e-06,-0.00014793261743398808,0.7071067686861437,0,-1,-0.00015527406801396637,-1.5709403196917933,-1.1746083394825746e-05,-1.570796314870016,-1.1746083394825746e-05,-2.366701234990387e-05
363,1734173925,778554201,-0.00015945708622960085,0.2561410164764127,1.427299986559513,-0.7071067795921011,8.606389203287898e-06,-9.263595281273134e-05,0.7071067766606385,0,-1,-0.00015527406801396637,-1.5709403196917933,-2.366701234990387e-05,-1.5707476774798792,-8.32716571252945e-05,-4.7985707418263246e-05
379,1734173925,794392108,-0.00011473188667016489,0.25614101908725306,1.4272999907709585,-0.7071067778942998,4.249245530450339e-05,-0.00010932610471672348,0.7071067747505574,0,-1,-0.00015527406801396637,-1.57092792192568,-3.5587941304981996e-05,-1.5707839171039026,-2.366701234990387e-05,-2.366701234990387e-05
395,1734173925,810493469,-0.00018792613799989812,0.2561410324523589,1.4272999792062808,-0.7071067791556754,8.432025728084961e-09,-0.00013495138825130935,0.7071067703396776,0,-1,-0.00014335313905888825,-1.5709527174579065,-2.366701234990387e-05,-1.5707839171039026,-3.5587941304981996e-05,-3.5587941304981996e-05
411,1734173925,826792716,-0.00017085380702191574,0.25614102730881255,1.4272999828865789,-0.7071067788927877,-1.2635622511171964e-05,-0.00013916607303620694,0.7071067696727358,0,-1,-0.00015527406801396637,-1.5709403196917933,-1.1746083394825746e-05,-1.5707719961749476,-5.990663637334137e-05,-3.5587941304981996e-05
427,1734173925,842271804,-0.0001714802634043433,0.25614102979168285,1.4272999826433284,-0.7071067777595603,1.6867171331924034e-05,-0.00013528856312045856,0.7071067714701895,0,-1,-0.00013143221010381012,-1.5709646383868616,1.1920928955078125e-05,-1.5707719961749476,-3.5587941304981996e-05,-1.1746083394825746e-05
443,1734173925,858303308,-0.00014514821939752413,0.25614102554877793,1.427299986248831,-0.7071067764234802,2.9511225813396122e-05,-0.00013916607318698788,0.7071067716391111,0,-1,-0.00014335313905888825,-1.5709403196917933,-4.7985707418263246e-05,-1.5707719961749476,-4.7985707418263246e-05,0.0
459,1734173925,874552488,-0.00013336061434538284,0.25614102193404564,1.427299988482688,-0.7071067795891267,2.9617996200456072e-05,-9.691245485106583e-05,0.7071067755225123,0,-1,-0.0001671949969690445,-1.57092792192568,-3.5587941304981996e-05,-1.5707839171039026,-4.7985707418263246e-05,-3.5587941304981996e-05
475,1734173925,890303373,-0.0001739586244705784,0.2561410302358008,1.427299982301901,-0.707106778302735,1.2590669256556339e-05,-0.00013113569552952714,0.7071067717984542,0,-1,-0.00013143221010381012,-1.5709527174579065,-4.7985707418263246e-05,-1.5707719961749476,-4.7985707418263246e-05,-7.18275653284195e-05
491,1734173925,906516313,-0.000167326427229545,0.25614103169299884,1.427299982502292,-0.7071067787770646,8.437801722043482e-06,-0.0001437179326438566,0.7071067689405064,0,-1,-0.00017911592592412262,-1.5709527174579065,0.0,-1.5707476774798792,-7.135072817021637e-05,-1.1746083394825746e-05
507,1734173925,922454357,-0.000174336613224393,0.2561410303422581,1.4272999819807566,-0.7071067791380515,4.0545294701988845e-06,-0.00013090529085414216,0.7071067711062993,0,-1,-0.00015527406801396637,-1.5709527174579065,-2.366701234990387e-05,-1.5707600752459925,-4.7985707418263246e-05,-3.5587941304981996e-05
523,1734173925,938513040,-0.00018592283917905897,0.2561410239723398,1.4272999813674014,-0.7071067763117178,4.054529385046672e-06,-0.00013933466057869715,0.7071067723218774,0,-1,-0.00015527406801396637,-1.5709403196917933,-2.366701234990387e-05,-1.5707719961749476,-5.990663637334137e-05,-1.1746083394825746e-05
539,1734173925,954453229,-0.00019841141782426814,0.2561410310829766,1.4272999782069313,-0.70710677637076,8.038809491121475e-06,-0.00014377974996870914,0.7071067713388925,0,-1,-0.000119511281148732,-1.5709403196917933,-4.7985707418263246e-05,-1.5707719961749476,-8.32716571252945e-05,-2.366701234990387e-05
555,1734173925,970528364,-0.00020308799809509221,0.25614103192968507,1.427299977340078,-0.7071067786386938,-8.819929751338032e-06,-0.00013535038026841036,0.7071067707253925,0,-1,-0.00015527406801396637,-1.5709527174579065,-2.366701234990387e-05,-1.5707476774798792,-3.5587941304981996e-05,-2.366701234990387e-05
571,1734173925,986547708,-0.00018306224370891308,0.25614103442373937,1.4272999797922996,-0.7071067802590223,-1.7018894686694934e-05,-0.00014354934507231556,0.7071067673383289,0,-1,-0.000119511281148732,-1.5709527174579065,-2.366701234990387e-05,-1.5707719961749476,-2.366701234990387e-05,-2.366701234990387e-05
587,1734173926,2547740,-0.00016070496053841794,0.2561410234116128,1.4272999850234815,-0.7071067780195927,1.6973941522494702e-05,-0.00011832305376171554,0.7071067742500357,0,-1,-0.00014335313905888825,-1.5709403196917933,-5.990663637334137e-05,-1.5707839171039026,-4.7985707418263246e-05,-5.990663637334137e-05
603,1734173926,18147945,-0.00010856507038666622,0.25614102008187756,1.4272999913626903,-0.7071067788240336,3.400126839458455e-05,-0.00010972509671379885,0.7071067742183044,0,-1,-0.00014335313905888825,-1.5709403196917933,-4.7985707418263246e-05,-1.5707600752459925,-2.366701234990387e-05,0.0
619,1734173926,34454107,-0.00016037864861447322,0.25614102583972953,1.4272999848470254,-0.7071067801594961,8.432104890889487e-09,-0.00011809264902913926,0.7071067723523768,0,-1,-0.00014335313905888825,-1.57092792192568,-3.5587941304981996e-05,-1.5707600752459925,-3.5587941304981996e-05,-4.7985707418263246e-05
635,1734173926,50459146,-0.00013328665694538875,0.2561410239682644,1.427299988340077,-0.7071067794423268,2.125044370514781e-05,-0.0001137093768700143,0.7071067734686869,0,-1,-0.00014335313905888825,-1.570916000996725,-4.7985707418263246e-05,-1.570796314870016,-4.7985707418263246e-05,-3.5587941304981996e-05
651,1734173926,66741704,-0.0001707951769306946,0.2561410176034803,1.427299984858134,-0.7071067794068427,-1.7018894673250434e-05,-0.00010949469206474452,0.7071067742838788,0,-1,-0.00013143221010381012,-1.570916000996725,-1.1746083394825746e-05,-1.570796314870016,-2.366701234990387e-05,-5.990663637334137e-05
667,1734173926,82363605,-0.00017545968111584625,0.25614102027170754,1.427299983637474,-0.7071067770284208,-4.3748402573676714e-06,-0.0001305681161714554,0.7071067732763608,0,-1,-0.000119511281148732,-1.5709765593158167,-8.374849428349762e-05,-1.5707476774798792,-3.5587941304981996e-05,-4.7985707418263246e-05
683,1734173926,98863124,-0.00015583298463823491,0.25614102037626274,1.4272999864529436,-0.707106776688745,4.391704218486758e-06,-0.00013899748579719942,0.707106772009196,0,-1,-0.00013143221010381012,-1.5709403196917933,-4.7985707418263246e-05,-1.5707719961749476,-2.366701234990387e-05,-3.5587941304981996e-05
699,1734173926,114681482,-0.00016371222940915654,0.256141023913923,1.4272999848411065,-0.7071067794556594,8.432066966344271e-09,-0.00011809264907061368,0.7071067730562136,0,-1,-0.00014335313905888825,-1.5709403196917933,-2.366701234990387e-05,-1.5707600752459925,-5.990663637334137e-05,-5.990663637334137e-05
715,1734173926,130803823,-0.00018653733752136136,0.2561410348456742,1.4272999794393697,-0.7071067771785744,-4.543427717819762e-06,-0.0001651285313496367,0.707106765898938,0,-1,-0.000119511281148732,-1.57092792192568,0.0,-1.5707719961749476,-5.990663637334137e-05,-1.1746083394825746e-05
731,1734173926,146522521,-0.00014467612599110958,0.25614103020714074,1.4272999859442763,-0.7071067794073075,8.269214354691962e-06,-0.0001435493451964637,0.7071067683465001,0,-1,-0.000119511281148732,-1.57092792192568,-3.5587941304981996e-05,-1.5707476774798792,-7.135072817021637e-05,-2.366701234990387e-05
747,1734173926,162828683,-0.0001680231674112967,0.25614101947515644,1.4272999851862245,-0.707106777342657,-1.601553933269024e-07,-0.0001263534313706917,0.7071067737413259,0,-1,-0.00013143221010381012,-1.570916000996725,-4.7985707418263246e-05,-1.5707719961749476,-9.519258608037262e-05,-2.366701234990387e-05
763,1734173926,178737640,-0.00017748723165129736,0.2561410280834288,1.4272999817825338,-0.7071067771417073,3.368647208117905e-05,-0.00011813208777286523,0.7071067745611685,0,-1,-0.00015527406801396637,-1.5709403196917933,-4.7985707418263246e-05,-1.5707476774798792,-5.990663637334137e-05,-3.5587941304981996e-05
779,1734173926,194501638,-0.00020185394362278955,0.25614103175277947,1.427299977889216,-0.7071067787337634,-1.2804209927971753e-05,-0.0001393346604265599,0.7071067697955276,0,-1,-0.00014335313905888825,-1.5709403196917933,0.0,-1.5707476774798792,-3.5587941304981996e-05,-1.1746083394825746e-05
795,1734173926,210756540,-0.00021043465274658206,0.2561410269867515,1.427299977200608,-0.7071067767025792,-4.543427693130609e-06,-0.00013950324794125227,0.7071067718948035,0,-1,-0.00014335313905888825,-1.5709527174579065,-4.7985707418263246e-05,-1.5707839171039026,-2.366701234990387e-05,-2.366701234990387e-05
811,1734173926,226322174,-0.0001417701987826002,0.25614101869560113,1.427299988464551,-0.7071067765751471,1.2652486471745926e-05,-0.0001307367035868163,0.7071067735988208,0,-1,-0.0001671949969690445,-1.570916000996725,-2.366701234990387e-05,-1.570796314870016,-5.990663637334137e-05,-2.366701234990387e-05
827,1734173926,242620229,-0.00017029068696981518,0.25614102218909474,1.427299984129212,-0.7071067775930525,8.437801693710931e-06,-0.00012652201876477172,0.70710677341046,0,-1,-0.00015527406801396637,-1.5709403196917933,-2.366701234990387e-05,-1.5707839171039026,-7.135072817021637e-05,-1.1746083394825746e-05
843,1734173926,258752107,-0.00019522354769704666,0.25614102516885284,1.427299979590373,-0.7071067766770344,-8.589525122834898e-06,-0.00014354934534297446,0.7071067710729547,0,-1,-0.00014335313905888825,-1.5709765593158167,-1.1746083394825746e-05,-1.5707839171039026,-5.990663637334137e-05,-2.366701234990387e-05
859,1734173926,274483203,-0.00014912185869700323,0.2561410240864113,1.4272999863818934,-0.7071067781615046,2.1419031024109344e-05,-0.00012230733393557458,0.7071067733095179,0,-1,-0.0001671949969690445,-1.5709765593158167,-7.18275653284195e-05,-1.5707719961749476,-5.990663637334137e-05,-1.1746083394825746e-05
875,1734173926,290755987,-0.0001164101981566774,0.25614102134778793,1.4272999904110948,-0.7071067797423107,2.1250443740950385e-05,-0.0001137093768592372,0.707106773168703,0,-1,-0.00015527406801396637,-1.57092792192568,-2.366701234990387e-05,-1.5707476774798792,-1.1746083394825746e-05,-3.5587941304981996e-05
891,1734173926,306473731,-0.00014281461373382118,0.2561410275354535,1.427299986068288,-0.7071067780212765,2.5633715856762658e-05,-0.0001349513883277632,0.7071067710094456,0,-1,-0.00014335313905888825,-1.5709646383868616,-4.7985707418263246e-05,-1.5707839171039026,-1.1746083394825746e-05,-2.366701234990387e-05
907,1734173926,323079347,-0.00013929139624906418,0.2561410205971807,1.4272999879541723,-0.707106778170945,8.606389097456329e-06,-0.00012669060613267383,0.7071067728003504,0,-1,-0.00010711351503545075,-1.5709403196917933,-4.7985707418263246e-05,-1.5707719961749476,-5.990663637334137e-05,-4.7985707418263246e-05
923,1734173926,338502168,-0.0001392460722658232,0.2561410247865489,1.4272999874818102,-0.7071067780212765,2.563371585676265e-05,-0.00012652201873751567,0.7071067725679485,0,-1,-0.00015527406801396637,-1.57092792192568,-2.366701234990387e-05,-1.5707839171039026,-7.135072817021637e-05,-1.1746083394825746e-05
939,1734173926,354861497,-0.000167335427085272,0.2561410342983463,1.4272999823035517,-0.7071067799455562,1.248389923046762e-05,-0.00013090529079999203,0.707106770200218,0,-1,-0.00010711351503545075,-1.5709403196917933,-1.1746083394825746e-05,-1.570808235798971,-4.7985707418263246e-05,-1.1746083394825746e-05
955,1734173926,370601892,-0.00013328253294018903,0.2561410197381747,1.427299988873157,-0.7071067784057062,2.5633715941302526e-05,-0.00011775547434687933,0.7071067736977665,0,-1,-0.00014335313905888825,-1.5709403196917933,-2.366701234990387e-05,-1.5707476774798792,-5.990663637334137e-05,-4.7985707418263246e-05
971,1734173926,386892795,-0.0001635647667638879,0.25614102856261145,1.4272999838379146,-0.7071067776533716,2.118862631668428e-05,-0.0001309671081728668,0.7071067722736956,0,-1,-0.00014335313905888825,-1.57092792192568,-5.990663637334137e-05,-1.5707476774798792,-7.135072817021637e-05,1.1984225238848012e-05
987,1734173926,402648687,-0.00017281913904876694,0.2561410275427836,1.427299982768527,-0.7071067789772775,8.606389140903596e-06,-0.00012669060609671974,0.707106771994018,0,-1,-0.00014335313905888825,-1.5709527174579065,-2.366701234990387e-05,-1.5707476774798792,-4.7985707418263246e-05,-3.5587941304981996e-05
1003,1734173926,418463468,-0.00015327440725829538,0.2561410224942915,1.4272999862379852,-0.7071067790230374,4.560291697299723e-06,-0.00012230733390602007,0.7071067727576827,0,-1,-0.00013143221010381012,-1.5709527174579065,-4.7985707418263246e-05,-1.5707719961749476,-2.366701234990387e-05,-4.7985707418263246e-05
1019,1734173926,434760093,-0.0001660005831003512,0.2561410218526849,1.4272999847021108,-0.7071067794556594,8.432066966322723e-09,-0.00010966327945716468,0.7071067744137448,0,-1,-0.00017911592592412262,-1.57092792192568,-7.18275653284195e-05,-1.5707600752459925,-3.5587941304981996e-05,-4.7985707418263246e-05
1035,1734173926,450798034,-0.00017600196689361008,0.25614103060084437,1.4272999813233038,-0.7071067786508833,-1.701889476329275e-05,-0.00015197871475315593,0.7071067671849833,0,-1,-0.00015527406801396637,-1.570916000996725,-5.990663637334137e-05,-1.5707476774798792,-3.5587941304981996e-05,-2.366701234990387e-05
1051,1734173926,466495752,-0.00016309677568511488,0.25614102388505783,1.4272999848687697,-0.7071067807511894,4.391704380116082e-06,-9.685063756497741e-05,0.7071067749755735,0,-1,-0.00013143221010381012,-1.570916000996725,0.0,-1.5707600752459925,-2.366701234990387e-05,0.0
1067,1734173926,482769489,-0.00020710560188290183,0.25614102966923513,1.4272999774682793,-0.7071067800058982,-2.5448264376407872e-05,-0.0001266906059589232,0.7071067705598402,0,-1,-0.00013143221010381012,-1.5709646383868616,0.0,-1.5707600752459925,-5.990663637334137e-05,-3.5587941304981996e-05
1083,1734173926,498521089,-0.00011104701993571182,0.25614101876788564,1.4272999913298998,-0.7071067803422251,2.1357213933934602e-05,-9.674386743039346e-05,0.7071067750902588,0,-1,-0.00010711351503545075,-1.5709646383868616,-1.1746083394825746e-05,-1.5707357565509241,-3.5587941304981996e-05,-2.366701234990387e-05
1099,1734173926,514411926,-0.00016527804257378032,0.25614102888793155,1.4272999832773448,-0.7071067784092808,4.3917042230643775e-06,-0.00013933466047910448,0.7071067702223006,0,-1,-0.00013143221010381012,-1.5709403196917933,-4.7985707418263246e-05,-1.5707476774798792,-4.7985707418263246e-05,-5.990663637334137e-05
1115,1734173926,530670881,-0.00020900435499779732,0.2561410327778134,1.4272999763895036,-0.7071067783735449,-2.5785439222236274e-05,-0.0001523158895346228,0.7071067671244332,0,-1,-0.00013143221010381012,-1.5709403196917933,-3.5587941304981996e-05,-1.5707839171039026,-4.7985707418263246e-05,-5.990663637334137e-05
1131,1734173926,546644210,-0.00023318502973071606,0.2561410298342188,1.4272999725041917,-0.7071067767189197,-2.5678669211570098e-05,-0.000144116924646111,0.707106770501526,0,-1,-0.00015527406801396637,-1.57092792192568,-1.1746083394825746e-05,-1.5707839171039026,-4.7985707418263246e-05,-2.366701234990387e-05
1147,1734173926,562645435,-0.00015975548241746438,0.25614102334611355,1.427299985266419,-0.7071067792263492,4.391704325450255e-06,-0.00012247592129314752,0.7071067725262576,0,-1,-0.00013143221010381012,-1.5709646383868616,-1.1746083394825746e-05,-1.5707719961749476,-7.135072817021637e-05,2.3968450477696024e-05
1163,1734173926,578431606,-0.00015898460292002457,0.256141027958489,1.4272999846743135,-0.707106779255324,8.437801726797935e-06,-0.0001265220186690574,0.7071067717481886,0,-1,-0.00013143221010381012,-1.57092792192568,-1.1746083394825746e-05,-1.570723835621969,-7.135072817021637e-05,-1.1746083394825746e-05
1179,1734173926,594652175,-0.00017982932501434847,0.2561410260322285,1.4272999822941597,-0.707106779251776,8.229775707507605e-06,-0.00010987130547226697,0.7071067745374436,0,-1,-0.000119511281148732,-1.5709403196917933,-3.5587941304981996e-05,-1.570808235798971,-4.7985707418263246e-05,-2.366701234990387e-05
1195,1734173926,610407829,-0.00017948477304565423,0.2561410337735789,1.4272999804300128,-0.7071067789454457,-8.758112461472125e-06,-0.000152147302142117,0.7071067670047364,0,-1,-0.00015527406801396637,-1.5709403196917933,-2.366701234990387e-05,-1.5707839171039026,-3.5587941304981996e-05,-4.7985707418263246e-05
1211,1734173926,626738548,-0.0001606053828896499,0.25614103549224365,1.427299982768527,-0.7071067788284798,1.6867171422453797e-05,-0.00015214730217875757,0.7071067669747676,0,-1,-0.00019103685487920075,-1.5709527174579065,-3.5587941304981996e-05,-1.5707719961749476,-2.366701234990387e-05,-2.366701234990387e-05
1227,1734173926,642478227,-0.00019069347481499795,0.25614103015289125,1.4272999796189623,-0.7071067792861343,-4.374840186993484e-06,-0.00013090529085329523,0.7071067709563074,0,-1,-0.00014335313905888825,-1.57092792192568,-2.366701234990387e-05,-1.570808235798971,-8.32716571252945e-05,-1.1746083394825746e-05
1243,1734173926,658752202,-0.0001638302429427988,0.2561410190260376,1.4272999855227981,-0.7071067782452424,4.054529532820284e-06,-0.00012213874656182876,0.7071067735676989,0,-1,-0.000119511281148732,-1.5709403196917933,-2.366701234990387e-05,-1.5707839171039026,-4.7985707418263246e-05,-4.7985707418263246e-05
1259,1734173926,674688100,-0.0001757862350895665,0.256141023074206,1.427299983341539,-0.7071067806136924,-8.42093757077824e-06,-0.00010123390977033883,0.7071067744626145,0,-1,-0.00013143221010381012,-1.57092792192568,-2.366701234990387e-05,-1.5707476774798792,-8.32716571252945e-05,-3.5587941304981996e-05
1275,1734173926,690972566,-0.00013891668542275146,0.25614102268276046,1.4272999879594654,-0.7071067786115254,4.39170425207203e-06,-0.0001309052908979442,0.7071067716308117,0,-1,-0.00013143221010381012,-1.5709646383868616,-4.7985707418263246e-05,-1.5707839171039026,-7.135072817021637e-05,-3.5587941304981996e-05
1291,1734173926,706752061,-0.00015874071306023555,0.25614102539605654,1.4272999851862245,-0.7071067771415023,1.6867171310913195e-05,-0.0001349513883668325,0.7071067721526779,0,-1,-0.00014335313905888825,-1.5709403196917933,-3.5587941304981996e-05,-1.5707839171039026,-4.7985707418263246e-05,-1.1746083394825746e-05
1307,1734173926,722422599,-0.0001680418964827916,0.2561410369128919,1.427299981151883,-0.7071067786262354,1.6867171394699824e-05,-0.0001521473021896398,0.7071067671770122,0,-1,-9.519258608037262e-05,-1.5709527174579065,-4.7985707418263246e-05,-1.5707600752459925,-4.7985707418263246e-05,-4.7985707418263246e-05
1323,1734173926,738730907,-0.00019255851560120882,0.25614103312388165,1.427299978906851,-0.7071067787750328,8.606389115512368e-06,-0.0001351199756861256,0.7071067706357499,0,-1,-0.00015527406801396637,-1.5709527174579065,-3.5587941304981996e-05,-1.570796314870016,-5.990663637334137e-05,0.0
1339,1734173926,754356384,-0.0001223696134851925,0.25614102216607243,1.4272999896135827,-0.7071067781704311,3.406308558848508e-05,-0.00011809264912017635,0.7071067735209904,0,-1,-0.000119511281148732,-1.5709403196917933,-3.5587941304981996e-05,-1.5707357565509241,-4.7985707418263246e-05,-1.1746083394825746e-05
1355,1734173926,770676374,-0.00013152284858095495,0.25614102170316005,1.4272999889794988,-0.7071067801111108,8.606389188937225e-06,-0.00010949469203176926,0.7071067737320437,0,-1,-0.00014335313905888825,-1.5709527174579065,-1.1746083394825746e-05,-1.5707600752459925,-3.5587941304981996e-05,-2.366701234990387e-05
1371,1734173926,786404132,-0.00020230594642353983,0.2561410231473054,1.4272999794392287,-0.7071067754529183,-3.0337298879194517e-05,-0.00015653057446981858,0.7071067689439859,0,-1,-0.00014335313905888825,-1.57092792192568,-3.5587941304981996e-05,-1.5707719961749476,-3.5587941304981996e-05,-3.5587941304981996e-05
1387,1734173926,802693367,-0.000172446693870382,0.2561410251139382,1.4272999835104583,-0.7071067806591905,-8.589524959001543e-06,-0.00010983186677654407,0.7071067731318775,0,-1,-0.00010711351503545075,-1.5709527174579065,-5.990663637334137e-05,-1.5707719961749476,-3.5587941304981996e-05,-1.1746083394825746e-05
1403,1734173926,818454504,-0.00016485750909132497,0.2561410216683092,1.427299984865947,-0.7071067788158804,-4.037665395336709e-06,-0.00012247592130059222,0.7071067729388367,0,-1,-0.00013143221010381012,-1.5709527174579065,-2.366701234990387e-05,-1.5707600752459925,-2.366701234990387e-05,-4.7985707418263246e-05
1419,1734173926,834955215,-0.00017905540590930523,0.2561410284845375,1.4272999813233038,-0.7071067783977592,-2.544826443383516e-05,-0.00015197871475315593,0.7071067671849834,0,-1,-0.000119511281148732,-1.570916000996725,-4.7985707418263246e-05,-1.5707719961749476,-3.5587941304981996e-05,-3.5587941304981996e-05
1435,1734173926,850546360,-0.00016861053907088586,0.25614102429643915,1.427299984166556,-0.7071067766597093,-4.543427612110109e-06,-0.00015636198711534255,0.7071067684106851,0,-1,-0.00013143221010381012,-1.57092792192568,0.0,-1.5707839171039026,-5.990663637334137e-05,-1.1746083394825746e-05
1451,1734173926,866245269,-0.00019131130031088532,0.25614103287092865,1.4272999787721732,-0.7071067766360255,-8.589525233533648e-06,-0.00016074525919283644,0.7071067674139399,0,-1,-0.000119511281148732,-1.5709403196917933,-5.990663637334137e-05,-1.5707839171039026,-5.990663637334137e-05,-2.366701234990387e-05
1467,1734173926,882556915,-0.00014052541400968186,0.2561410270834629,1.4272999866174052,-0.7071067776389148,2.984840070728369e-05,-0.00013882889835623507,0.7071067704758032,0,-1,-0.00013143221010381012,-1.570916000996725,-1.1746083394825746e-05,-1.5707600752459925,-5.990663637334137e-05,-2.366701234990387e-05
1483,1734173926,898307561,-0.0001997906692786963,0.25614103128069665,1.4272999780123625,-0.7071067761011377,-4.543427783266256e-06,-0.000156361987078914,0.7071067689692567,0,-1,-0.000119511281148732,-1.57092792192568,-5.990663637334137e-05,-1.5707719961749476,-4.7985707418263246e-05,-2.366701234990387e-05
1499,1734173926,914793252,-0.00016939325489533707,0.25614102715146314,1.4272999835104583,-0.7071067807113426,-1.601552626986407e-07,-0.00010983186677654404,0.7071067731318775,0,-1,-0.00013143221010381012,-1.570916000996725,0.0,-1.5707839171039026,-7.135072817021637e-05,0.0
1515,1734173926,930536508,-0.00017710991040278634,0.25614102823820845,1.4272999819934882,-0.7071067799447357,3.992712287515699e-06,-0.0001141083688618898,0.7071067732100474,0,-1,-0.000119511281148732,-1.57092792192568,-3.5587941304981996e-05,-1.570796314870016,-4.7985707418263246e-05,-3.5587941304981996e-05
1531,1734173926,946835041,-0.00013880012187812382,0.25614102477659706,1.4272999874749972,-0.7071067788108836,2.9617996138349868e-05,-0.00011410836892113831,0.70710677373488,0,-1,-0.00013143221010381012,-1.57092792192568,-2.366701234990387e-05,-1.5707719961749476,-7.135072817021637e-05,-4.7985707418263246e-05
1547,1734173926,962546110,-0.00015713560829667508,0.25614102082578427,1.427299986096279,-0.7071067802671407,3.4560690472912594e-07,-0.00010089673501767099,0.707106774907416,0,-1,-0.00010711351503545075,-1.5709403196917933,-3.5587941304981996e-05,-1.5707719961749476,-7.135072817021637e-05,-1.1746083394825746e-05
1563,1734173926,978223562,-0.00013418852351538998,0.2561410198572511,1.4272999887107483,-0.7071067782452134,2.141903107770872e-05,-0.0001219701591620907,0.7071067732840494,0,-1,-0.00014335313905888825,-1.5709527174579065,-1.1746083394825746e-05,-1.5707719961749476,-7.135072817021637e-05,-4.7985707418263246e-05
1579,1734173926,994531154,-0.00023794710698103882,0.256141030344048,1.4272999717637718,-0.7071067754005768,-3.826090641275516e-05,-0.0001651285313448841,0.7071067666564007,0,-1,-0.00014335313905888825,-1.5709527174579065,2.384185791015625e-05,-1.5707600752459925,-1.1746083394825746e-05,-3.5587941304981996e-05
1595,1734173927,10245800,-0.00013740607621068622,0.25614102663117305,1.4272999873950158,-0.7071067781546435,2.118862638858103e-05,-0.00013939647774737732,0.7071067701609312,0,-1,-0.00013143221010381012,-1.57092792192568,-1.1746083394825746e-05,-1.5707600752459925,-3.5587941304981996e-05,0.0
1611,1734173927,26558399,-0.00018263399802504086,0.25614102373350744,1.4272999821830485,-0.7071067774432476,-4.206252892290373e-06,-0.0001310738783187266,0.7071067727689867,0,-1,-0.0001671949969690445,-1.570916000996725,0.0,-1.5707600752459925,-5.990663637334137e-05,-2.366701234990387e-05
1627,1734173927,42310714,-0.00018173968996840236,0.25614102368592034,1.4272999824721673,-0.7071067786170736,8.432021781161161e-09,-0.00011842982388748763,0.707106773838408,0,-1,-0.00013143221010381012,-1.5709403196917933,-7.18275653284195e-05,-1.5707600752459925,-5.990663637334137e-05,-3.5587941304981996e-05
1643,1734173927,58271408,-0.00016889664134686334,0.25614102433404223,1.4272999840415377,-0.7071067762870371,8.43780160178838e-06,-0.0001433807579828039,0.7071067714989835,0,-1,-0.00013143221010381012,-1.5709527174579065,-2.366701234990387e-05,-1.5707719961749476,-3.5587941304981996e-05,-3.5587941304981996e-05
1659,1734173927,74564933,-0.00015344867899565813,0.25614102455245336,1.427299985653604,-0.7071067774410045,2.1081856251549624e-05,-0.00013916607316980125,0.707106770923145,0,-1,-0.00015527406801396637,-1.5709403196917933,-2.366701234990387e-05,-1.570723835621969,-7.135072817021637e-05,-2.366701234990387e-05
1675,1734173927,90300559,-0.00014342065069542645,0.2561410212469559,1.42729998788473,-0.7071067793390393,1.2382643328516302e-05,-0.0001057184379016953,0.7071067750227353,0,-1,-0.00014335313905888825,-1.5709040800677698,-4.7985707418263246e-05,-1.5707476774798792,-3.5587941304981996e-05,-2.366701234990387e-05
1691,1734173927,106672286,-0.0001707647939136489,0.2561410247337989,1.42729998383108,-0.7071067779607332,8.432006075386214e-09,-0.00013528856312045856,0.7071067714701896,0,-1,-0.0001671949969690445,-1.5709403196917933,-7.18275653284195e-05,-1.5707600752459925,-7.135072817021637e-05,-2.366701234990387e-05
1707,1734173927,122326850,-0.0001735278020737388,0.2561410300403647,1.4272999819617658,-0.7071067777923494,2.52965410874918e-05,-0.0001349513883507687,0.7071067712505154,0,-1,-0.000119511281148732,-1.5709403196917933,-5.990663637334137e-05,-1.5707476774798792,-3.5587941304981996e-05,-2.366701234990387e-05
1723,1734173927,138584613,-0.00013159761661198896,0.25614101958597024,1.4272999893005383,-0.7071067786023988,1.2590669355432983e-05,-0.00012270632595573028,0.7071067730118068,0,-1,-0.00013143221010381012,-1.5709403196917933,-1.1746083394825746e-05,-1.5707476774798792,-3.5587941304981996e-05,-2.366701234990387e-05
1739,1734173927,154318571,-0.00019315954225456532,0.25614102237647174,1.4272999806506168,-0.7071067796411886,-2.123357953079763e-05,-0.00011370937683765391,0.7071067732703317,0,-1,-0.00010711351503545075,-1.5709527174579065,-3.5587941304981996e-05,-1.5707719961749476,-4.7985707418263246e-05,-1.1746083394825746e-05
1755,1734173927,170581579,-8.424041526867797e-05,0.25614101624559665,1.427299993649315,-0.7071067789352522,3.38326810355598e-05,-0.00011832305371612873,0.7071067727287139,0,-1,-0.0001671949969690445,-1.57092792192568,-5.990663637334137e-05,-1.5707719961749476,-3.5587941304981996e-05,-3.5587941304981996e-05
1771,1734173927,186310768,-0.0001798684133045392,0.2561410286336485,1.427299981583056,-0.7071067797043399,-8.58952503162773e-06,-0.0001266906060137756,0.7071067712671605,0,-1,-0.00014335313905888825,-1.5709403196917933,-3.5587941304981996e-05,-1.5707476774798792,-4.7985707418263246e-05,-4.7985707418263246e-05
1787,1734173927,202846527,-0.00014325342388536713,0.25614102330444555,1.4272999871037513,-0.7071067787121916,2.1188626412176237e-05,-0.00011410836892828778,0.7071067741364029,0,-1,-0.00014335313905888825,-1.5709527174579065,3.5762786865234375e-05,-1.5707719961749476,-4.7985707418263246e-05,-2.366701234990387e-05
1803,1734173927,218510150,-0.00020037515139414275,0.2561410372185803,1.4272999768127437,-0.7071067782044765,-1.6015543092381748e-07,-0.00015231588959885612,0.7071067677636308,0,-1,-0.00013143221010381012,-1.5709040800677698,-4.7985707418263246e-05,-1.5707476774798792,-7.135072817021637e-05,-3.5587941304981996e-05
1819,1734173927,234816074,-0.00015155388345930034,0.25614102226815927,1.427299986472772,-0.7071067792329355,1.7204346258753613e-05,-0.0001096632794797042,0.7071067744271724,0,-1,-0.00014335313905888825,-1.5709646383868616,-2.366701234990387e-05,-1.5707719961749476,-3.5587941304981996e-05,-3.5587941304981996e-05
1835,1734173927,250352621,-0.00012087615947757873,0.2561410201963851,1.4272999902379095,-0.7071067804585215,2.5341494155744946e-05,-8.433021758667193e-05,0.7071067764318253,0,-1,-0.00015527406801396637,-1.5709527174579065,-4.7985707418263246e-05,-1.5707719961749476,-3.5587941304981996e-05,0.0
1851,1734173927,266332626,-0.00012231356192840122,0.25614101821152513,1.427299990632723,-0.7071067771890991,1.6867171383224608e-05,-0.00013495138838620117,0.707106772105081,0,-1,-0.00010711351503545075,-1.57092792192568,-2.366701234990387e-05,-1.5707839171039026,-3.5587941304981996e-05,-1.1746083394825746e-05
1867,1734173927,283081054,-0.00016623676055407325,0.25614102183314535,1.4272999847127803,-0.7071067786136357,-4.037665419522513e-06,-0.00012247592130057696,0.7071067731410814,0,-1,-0.00015527406801396637,-1.57092792192568,-5.990663637334137e-05,-1.5707719961749476,-3.5587941304981996e-05,-2.366701234990387e-05
1883,1734173927,298336505,-0.00021764783655897822,0.256141031034701,1.4272999734600398,-0.7071067818252149,-4.21213562080289e-05,-0.00011810970880935769,0.7071067694292538,0,-1,-9.519258608037262e-05,-1.57092792192568,-0.00021535554994756012,-1.570723835621969,8.388957940042019e-05,-1.1746083394825746e-05
1899,1734173927,314625501,-0.00038935716904472934,0.25614105098093853,1.4272999082135307,-0.707106792288829,-0.00018183917318086333,-0.00010529324055168858,0.7071067388639789,0,-1,-4.7985707418263246e-05,-1.5709040800677698,-0.0006106535540979507,-1.5706637541400355,0.00043105758959427476,9.58738019107841e-05
1915,1734173927,330473423,-0.0007517106528711973,0.25614100993582656,1.4272996415243338,-0.7071068094731815,-0.0004487219355765558,-4.1705963046583894e-05,0.7071066092930366,0,-1,1.1984225238848012e-05,-1.5708563963519495,-0.0012214819537561539,-1.5704720656024378,0.0009104266064241529,0.000215716048842296
1931,1734173927,346966743,-0.0013586263508810262,0.25614080998743693,1.4272988419154364,-0.7071068816834235,-0.0008421969398524734,0.00013206247285831623,0.7071061668093149,0,-1,0.00013182648399379104,-1.5708921591388147,-0.0022991339312952164,-1.5702088514911097,0.0017010109731927514,0.00044341632747091353
1947,1734173927,362391948,-0.002314659336925265,0.25614019031907476,1.4272966179117874,-0.7071070934896032,-0.0014605702640732687,0.00031819974963695626,0.7071048888390665,0,-1,0.00033480930142104626,-1.570916000996725,-0.0037596861468713882,-1.5698846022235315,0.002875090576708317,0.0008505054865963757
1963,1734173927,378226995,-0.003722601298012543,0.25613860947941863,1.4272913692861746,-0.7071075082176091,-0.0023745794633444088,0.0005132344744073268,0.7071018807675667,0,-1,0.0006100719911046326,-1.5709765593158167,-0.005735699330465138,-1.5694530645953577,0.0044319164007902145,0.0013894210569560528
1979,1734173927,394589424,-0.005573774587923649,0.2561357432280008,1.4272805929787495,-0.7071085131920402,-0.003555535738472887,0.0007379009614970927,0.7070957249475673,0,-1,0.0009456302504986525,-1.5710724035846155,-0.008213822041646779,-1.568960968648092,0.006384221371263266,0.0019762737210839987
1995,1734173927,410871505,-0.007776021395098774,0.256130212987371,1.427262566405388,-0.7071102112945651,-0.004978188120769506,0.001136332587244755,0.7070849139065554,0,-1,0.0011969244806095958,-1.571240250264303,-0.011171642933980763,-1.568362061177389,0.008863832801580429,0.002766483463346958
2011,1734173927,426362991,-0.010563317397074347,0.2561214027234551,1.4272316645404646,-0.7071130790746124,-0.006760223303498397,0.0014713683027343853,0.7070666360802392,0,-1,0.0016515760216861963,-1.5714557806598108,-0.014620129262105763,-1.5676782766925257,0.011654659174382687,0.003652941668406129
2027,1734173927,442634344,-0.013673387604172109,0.2561082989282107,1.4271858886281439,-0.7071174475782476,-0.00874118991776806,0.001920621031621675,0.7070394742474417,0,-1,0.002118586329743266,-1.5717080275165003,-0.018655125294820607,-1.5668872038470667,0.014864559285342693,0.004682836122810841
2043,1734173927,458348512,-0.01728262142898797,0.2560880074738376,1.4271191916318637,-0.707123276809974,-0.01105643978144991,0.0023825309898486352,0.7069998232524295,0,-1,0.0026091905310750008,-1.5720074812518519,-0.02291757265199834,-1.5660117308246058,0.018470313400030136,0.005808603949844837
2059,1734173927,474658966,-0.021144561966601257,0.25606105800465406,1.4270306010547387,-0.7071313937197874,-0.013502777045510879,0.0029418332470070347,0.7069471073886058,0,-1,0.0031952939461916685,-1.5723679701434534,-0.027647320424215138,-1.5650165716754358,0.022219128906726837,0.006982309278100729
2075,1734173927,490316390,-0.025335104323685253,0.25602713857356096,1.4269149817703286,-0.7071417076412235,-0.01612697917920541,0.00350104465175739,0.7068792460832007,0,-1,0.0038061151280999184,-1.572667423878805,-0.032604519520894826,-1.5639727751361292,0.026315860450267792,0.00827548187226057
2091,1734173927,506495714,-0.029658102922927806,0.255984532534789,1.4267725286034012,-0.7071539460647579,-0.01891143621639816,0.0040683643836114764,0.7067949508566943,0,-1,0.004428171087056398,-1.5729787985431116,-0.03777677217592412,-1.5629304091082972,0.030568387359380722,0.00954506080597639
2107,1734173927,522627830,-0.03418156751113942,0.25593215419826437,1.4266006597750795,-0.7071687015524759,-0.021788251892869075,0.004694849989288551,0.7066934682078336,0,-1,0.005122507456690073,-1.57335073152651,-0.04311687151064092,-1.5617311636554163,0.03491603955626488,0.010874561034142971
2123,1734173927,538242578,-0.0387400424285222,0.255871738267112,1.4264022310231386,-0.7071863263524153,-0.024677730777654595,0.005367684623287701,0.7065760379362052,0,-1,0.005804484710097313,-1.573686424885885,-0.04860049882997686,-1.5605319182025355,0.03933597356081009,0.012323528528213501
2139,1734173927,554374933,-0.04333988696468619,0.25580254194078567,1.4261770769612527,-0.7072067698072101,-0.0275788926900609,0.006103870862799338,0.7064423063331726,0,-1,0.006474477704614401,-1.5739744345294397,-0.054084602986471,-1.5592730681048792,0.043899714946746826,0.013772870413959026
2155,1734173927,570131778,-0.048090987822908875,0.2557213571658104,1.4259187652314564,-0.7072291741488612,-0.03060251612580596,0.006809303706029254,0.7062889030860732,0,-1,0.007156829349696636,-1.5742982069598597,-0.05964023271669561,-1.5580623785602015,0.048391927033662796,0.01528176013380289
2171,1734173927,586371421,-0.05270407024660621,0.2556346028395202,1.4256402573694171,-0.7072551970926203,-0.03356587445075508,0.007590769306543355,0.7061202436406775,0,-1,0.007779634557664394,-1.5746100584613245,-0.06511193910707647,-1.5568631331073206,0.05301558971405029,0.01679064892232418
2187,1734173927,602624654,-0.05725697034382859,0.25554541716411006,1.4253391576372343,-0.7072865381845124,-0.03643114516929695,0.008325263316546334,0.7059385345448511,0,-1,0.00838970672339201,-1.5748737494098108,-0.07051164308656865,-1.555676285420553,0.05745949223637581,0.01823999173939228
2204,1734173927,618854999,-0.06167302161737487,0.2554515642143589,1.425021460906158,-0.7073177602975972,-0.03924938408663377,0.009012777813814384,0.705747718134809,0,-1,0.009024121798574924,-1.5751741568194788,-0.07575637498964483,-1.554560963307516,0.06189178302884102,0.01961742714047432
2219,1734173927,634759664,-0.06598779705440504,0.2553480484816808,1.424691295372672,-0.7073484073518665,-0.04205001743956751,0.009750308706217682,0.7055458582758767,0,-1,0.009634568355977535,-1.575437370930807,-0.08089238802065069,-1.5534699598895472,0.06608401238918304,0.021006474271416664
2235,1734173927,650444269,-0.07021086352629705,0.2552423042995387,1.4243464206725993,-0.7073808824062224,-0.044722842334076106,0.01040304943517793,0.7053395856906124,0,-1,0.010197077877819538,-1.5757129828082483,-0.08584911028017217,-1.5523307959186,0.07018112391233444,0.02230002172291279
2251,1734173927,666274547,-0.0742736165295702,0.25513768687913685,1.4239908399503283,-0.7074157734941461,-0.04730574921360341,0.01100032406919545,0.7051269973369276,0,-1,0.010747228749096394,-1.5759533087359827,-0.09065038362611944,-1.551300350819723,0.07402580976486206,0.023617537692189217
2267,1734173927,682489871,-0.07817456998813278,0.25503094747792765,1.4236297958396236,-0.7074498968522975,-0.04980430603720136,0.011571754467671747,0.7049115327772459,0,-1,0.011262175627052784,-1.5761931578265589,-0.09530765215028936,-1.55031663576235,0.07784727960824966,0.024778883904218674
2283,1734173927,698742866,-0.08198069978078251,0.25492227575661514,1.42326321958625,-0.7074841181047392,-0.05225088352682469,0.012134353481804748,0.7046905883193022,0,-1,0.011752779595553875,-1.5764215628253382,-0.09979755083192998,-1.54932147661318,0.0815005972981453,0.02590465173125267
2299,1734173927,714375019,-0.08569562560634747,0.25480840517106984,1.4228875336706885,-0.7075191394626907,-0.05459125210044364,0.012666663672297978,0.7044686069084216,0,-1,0.01230293046683073,-1.576649014149801,-0.10415536562074834,-1.5483983198748987,0.08499886840581894,0.027078356593847275
2315,1734173927,730500936,-0.08924001059193522,0.254697585706918,1.4225124510769362,-0.7075556823309523,-0.056867697425623545,0.013228668913061471,0.7042414527060139,0,-1,0.012805894017219543,-1.5768769423114222,-0.10845357576479131,-1.547438923512594,0.0885443240404129,0.028156187385320663
2331,1734173927,746832132,-0.09286172201036924,0.2545798964242393,1.4221143442000583,-0.70759339836895,-0.059155752908205635,0.01373472711324869,0.7040053527876534,0,-1,0.013308482244610786,-1.5770929495440882,-0.11276370683778936,-1.5464437643634241,0.09207817167043686,0.029246004298329353
2347,1734173927,762797832,-0.09640072122816573,0.2544512631534791,1.4217084884453126,-0.7076288757500486,-0.06146477612527243,0.014329480116004397,0.7037599885615815,0,-1,0.013811444863677025,-1.577320400868551,-0.11717015901674444,-1.5454729239093226,0.09565995633602142,0.030372146517038345
2363,1734173927,778533697,-0.1000776955231001,0.25432151148976756,1.4212674612447393,-0.7076725351554262,-0.06380558068285462,0.014923252418126387,0.7034953641621818,0,-1,0.014385564252734184,-1.5775483290301722,-0.12176734605898076,-1.544405762349264,0.0993376150727272,0.03158142790198326
2379,1734173927,794645309,-0.10399090590393963,0.2541736116393094,1.420786406685928,-0.7077139987886618,-0.06630168166823258,0.015452468758149982,0.7032113509719569,0,-1,0.014948073774576187,-1.5778005758868616,-0.12646085420717412,-1.5434225241290491,0.10325458645820618,0.032755132764577866
2395,1734173927,810217380,-0.10790657052040252,0.2540210437289509,1.420283008216847,-0.7077594355704816,-0.06882246944803737,0.016031264130861367,0.7029104122364341,0,-1,0.015510957688093185,-1.5780637899981897,-0.1313098112689417,-1.5423553625689905,0.10718391090631485,0.034012727439403534
2411,1734173927,826487541,-0.11202225555147659,0.2538539769938362,1.4197362110785354,-0.7078112710485274,-0.07145490113802991,0.016647280598863827,0.7025811481449563,0,-1,0.0161210298538208,-1.5783994833575647,-0.13623029390443975,-1.5413840452777308,0.11120911687612534,0.03531825914978981
2427,1734173927,842349767,-0.11630034030493862,0.2536746452972138,1.4191494596044996,-0.7078645596173162,-0.07418714656037086,0.017219401803779035,0.702230392908576,0,-1,0.01671949215233326,-1.5787237326251429,-0.14141446748842412,-1.5403769651996058,0.11534180492162704,0.03661143407225609
2443,1734173927,858871459,-0.12064176341521354,0.25348704116614484,1.418533884716904,-0.70792039942374,-0.07693030833027434,0.017803334976755264,0.7018642867418506,0,-1,0.017341922968626022,-1.579071346913473,-0.14650231996645147,-1.539274040852682,0.11952279508113861,0.037916965782642365
2459,1734173927,874405384,-0.1250474424618408,0.2532893088063469,1.4178793745646112,-0.7079759797231696,-0.07976499721393772,0.01834366316777636,0.7014777739715391,0,-1,0.017976338043808937,-1.5793831984149378,-0.15173417726625615,-1.5381949583636683,0.12373936921358109,0.03922249749302864
2475,1734173927,890637397,-0.12947251385272165,0.25308212054699636,1.417199653126225,-0.7080364616834022,-0.082576089317834,0.01894626916279142,0.7010753149873645,0,-1,0.018646331503987312,-1.5797794500934046,-0.15702611604799444,-1.5371153990374964,0.12801624834537506,0.04052765294909477
2491,1734173927,906951904,-0.13398253452245726,0.2528638852182848,1.4164841226365605,-0.7080961048469344,-0.08549118722188406,0.019484115738255803,0.7006507920796853,0,-1,0.01929273083806038,-1.5801027456866663,-0.162269417439596,-1.5360248724566858,0.132340669631958,0.04183318465948105
2507,1734173927,922861814,-0.13832164656286952,0.25265019705306446,1.4157641572424395,-0.7081650203840781,-0.08827758400294104,0.02014787573917557,0.700216705863421,0,-1,0.019927145913243294,-1.5804145971881312,-0.16757327715028936,-1.5349095503436487,0.1366415172815323,0.04318665340542793
2523,1734173927,938576698,-0.14274765094767494,0.25241321384502,1.4150141057204448,-0.7082299159928767,-0.09113424461807194,0.020813989662849707,0.6997654702719556,0,-1,0.020573168992996216,-1.5807026068316858,-0.17281705537904912,-1.5337346235858362,0.14103785157203674,0.04458768293261528
2539,1734173927,954389810,-0.14709750480924355,0.2521814388783848,1.4142451601234205,-0.7083041086313716,-0.09393767470898678,0.021496020810915614,0.6992988803476545,0,-1,0.021219568327069283,-1.5810144583331507,-0.17807275453676397,-1.5326316992389124,0.14537464082241058,0.045941151678562164
2555,1734173927,970737934,-0.15149089010616165,0.2519361984988966,1.4134480990319727,-0.7083761310464782,-0.09674400035511324,0.022130061428120813,0.6988233795030762,0,-1,0.021794062107801437,-1.5813501516925257,-0.18343621889223272,-1.5315163771258753,0.14974701404571533,0.04737851023674011
2571,1734173927,986694574,-0.15588112571533436,0.2516940310073452,1.4126249481756672,-0.7084577057311754,-0.09951794500123638,0.022766852138315353,0.6983305293745665,0,-1,0.02244008705019951,-1.5816376844989222,-0.18865615526308233,-1.530365292225973,0.15404784679412842,0.04882710427045822
2587,1734173928,2308368,-0.16022551530244716,0.2514406989391287,1.4117862387176854,-0.7085371471999422,-0.1022942539547456,0.023415164389550932,0.6978271467363675,0,-1,0.023074502125382423,-1.5819857756244105,-0.1939476172076624,-1.5292027632342737,0.15826480090618134,0.050180573016405106
2603,1734173928,18351078,-0.16450724092452806,0.25118250195146097,1.410939104239306,-0.7086123506922016,-0.1050025175808458,0.024012147834204228,0.6973280608899549,0,-1,0.023696932941675186,-1.582273308430807,-0.19903594652284795,-1.528027359639303,0.16240984201431274,0.0515696182847023
2619,1734173928,34464836,-0.16874251028948917,0.2509224210603889,1.4100805393045843,-0.7086933559786359,-0.10767830978720033,0.024628985411927668,0.6968159885297475,0,-1,0.02427142672240734,-1.5826094786273401,-0.2041237990008753,-1.526935879384176,0.1665429025888443,0.05287514999508858
2635,1734173928,50616979,-0.17289038400078177,0.2506634760161009,1.409211275320296,-0.7087768642662199,-0.11033219418092087,0.02524834726708139,0.6962935333380952,0,-1,0.024893857538700104,-1.582921330128805,-0.20914012590517217,-1.5258334318744105,0.17067596316337585,0.054180681705474854
2651,1734173928,66495895,-0.17707601959601893,0.25038400646528475,1.4083235767690958,-0.708857353422629,-0.1129876984722229,0.02587931911006323,0.6957623828111258,0,-1,0.025516288354992867,-1.5831854979144495,-0.21413213411440069,-1.5247305075274866,0.1747494786977768,0.055497825145721436
2667,1734173928,82664251,-0.18115678723410475,0.25012092820909665,1.407414925244833,-0.7089413173521351,-0.11564521122291942,0.02643747034971356,0.6952189970316789,0,-1,0.026090407744050026,-1.5834491888629358,-0.2191842238055628,-1.5236395041095179,0.1788465827703476,0.0567314513027668
2683,1734173928,98387241,-0.185290830082658,0.24983163090623928,1.4064897073121518,-0.7090219192834254,-0.11830954510824006,0.027044708089634373,0.6946649215818196,0,-1,0.026700854301452637,-1.5837248007403772,-0.22422439256776983,-1.522536579762594,0.1829676628112793,0.05801301449537277
2699,1734173928,114516019,-0.18931332344322715,0.24955130757229194,1.4055541145945345,-0.7091113759098396,-0.12092056209801515,0.027667535278764623,0.694099259262501,0,-1,0.027275722473859787,-1.5840008894549769,-0.22919255891908819,-1.521445099507467,0.1870531588792801,0.05936647951602936
2715,1734173928,130357742,-0.19338959296186975,0.2492637556155506,1.4045932982595597,-0.7092006242994181,-0.12354673236801725,0.028255075258151543,0.6935216868538843,0,-1,0.027837857604026794,-1.5842765013324183,-0.23419648805727178,-1.5203660170184534,0.19121018052101135,0.06063568592071533
2731,1734173928,146453142,-0.19749855449370932,0.24895767378983946,1.4036058687892297,-0.7092882320443825,-0.12620365266908515,0.028857280506563027,0.6929286393980988,0,-1,0.028520209714770317,-1.5846121946917933,-0.2391884962665003,-1.5193350950824183,0.19529567658901215,0.06188129633665085
2747,1734173928,162186384,-0.20158514042199846,0.24865336703028584,1.4025973265868488,-0.7093789514507463,-0.12884568077317138,0.02941196586111481,0.692325956503815,0,-1,0.029106687754392624,-1.5848520437823694,-0.2442405859576624,-1.518195931111471,0.1994527131319046,0.06322278082370758
2763,1734173928,178442239,-0.2057003276815337,0.2483366702900185,1.4015559361473608,-0.7094759965507029,-0.13154295287168893,0.030022685678286084,0.6916927787774326,0,-1,0.02971675992012024,-1.5851400534259241,-0.2492921988116663,-1.517188851033346,0.20357416570186615,0.06454029679298401
2779,1734173928,194138050,-0.20985195251958688,0.2480076073737524,1.4004929848290737,-0.709568554621908,-0.13422588572703392,0.030577080175183315,0.6910578268571523,0,-1,0.0303272046148777,-1.585451904927389,-0.25438052812685186,-1.5161460081683558,0.2076476812362671,0.06583347171545029
2795,1734173928,210402250,-0.21390829751255355,0.24768428086886762,1.3994174659699818,-0.7096708502350679,-0.13685083382965546,0.031159665552398415,0.6904116227653083,0,-1,0.03092566691339016,-1.5857036749469202,-0.25944406190981084,-1.515043083821432,0.21175676584243774,0.06709106266498566
2811,1734173928,226098775,-0.21804423957730978,0.24735878040376152,1.3983078394513448,-0.7097723203436503,-0.13947827865395393,0.03166036252303157,0.6897584247420474,0,-1,0.031512144953012466,-1.58600360551943,-0.2644603888141077,-1.51393968263735,0.21581830084323883,0.06843254715204239
2827,1734173928,242349863,-0.2221060116208012,0.24701402503533504,1.3971977781730884,-0.7098725918031296,-0.14211105814813538,0.03229459752123004,0.6890880999768219,0,-1,0.03214656189084053,-1.5862792173968714,-0.2695234457599085,-1.5128610769854944,0.21985585987567902,0.06972609460353851
2843,1734173928,258658885,-0.2260942318157289,0.24668201784866456,1.3960756405298627,-0.7099721465688678,-0.1446755110003144,0.032810384029118435,0.6884272120660642,0,-1,0.032721053808927536,-1.5865910688983362,-0.2744677702533167,-1.5117819944964808,0.2239413559436798,0.07100728154182434
2859,1734173928,274237394,-0.2300927001129197,0.24633744619327097,1.3949317782494222,-0.7100803351648834,-0.14728637666701871,0.033407141600371365,0.6877329450815343,0,-1,0.03333112597465515,-1.5868309179889124,-0.27954370180238897,-1.5106547514544886,0.2280268520116806,0.07227686047554016
2875,1734173928,290387392,-0.23406321086669457,0.2459944262738924,1.3937637135513838,-0.71018467470691,-0.1498986293128698,0.033940078619368895,0.6870343512553605,0,-1,0.0338936373591423,-1.5870350042926233,-0.2845237890826624,-1.5096238295184534,0.23217226564884186,0.07354643940925598
2891,1734173928,306504964,-0.23803563096033487,0.24563883753577503,1.392591237981477,-0.7102925017971403,-0.15249212763506767,0.034537642210529906,0.6863219828700134,0,-1,0.03443217650055885,-1.587311093007223,-0.2895153204547327,-1.5085442701922815,0.2362697422504425,0.07480403780937195
2907,1734173928,322618484,-0.24197891887846115,0.24528645667079033,1.3913869050480425,-0.7104080286332016,-0.15507716410384093,0.03511272077698809,0.685593613496097,0,-1,0.03504262492060661,-1.5875747839557093,-0.29449540773500615,-1.5074175039874476,0.2403312772512436,0.07613316178321838
2923,1734173928,338156461,-0.24590779708471255,0.24490905405423108,1.390187005062183,-0.7105201620641447,-0.15763932941683398,0.03576518971953824,0.6848589579801654,0,-1,0.03564108535647392,-1.5878866354571741,-0.29943925539125615,-1.5063746611224573,0.24442875385284424,0.07745067775249481
2939,1734173928,354160070,-0.2499021753444864,0.24453199385622404,1.3889336631922524,-0.7106407159438626,-0.16022651671421198,0.03634298566348166,0.6841026411127856,0,-1,0.036203596740961075,-1.5881264845477503,-0.3044551054583948,-1.505319897328512,0.2485502064228058,0.07881613075733185
2955,1734173928,370802164,-0.25387574627235765,0.24415746875051325,1.3876543423792522,-0.7107676148779981,-0.16281397320947885,0.0369144630637384,0.6833288594703877,0,-1,0.036861978471279144,-1.5884020964251917,-0.30961448351015264,-1.5042765776263636,0.25269562005996704,0.08016959577798843
2971,1734173928,386646032,-0.25797641900643253,0.2437520660593454,1.3863278803083101,-0.7108863442651221,-0.16547800439952362,0.037444305872472425,0.6825361232601906,0,-1,0.037448082119226456,-1.5886419455157679,-0.3147380987750452,-1.5032451788531702,0.25681746006011963,0.08151070773601532
2987,1734173928,402303695,-0.2619724243644537,0.24335696166752677,1.385001545164435,-0.7110067351655274,-0.1680810698273279,0.0379660188227373,0.6817453761703925,0,-1,0.03803493455052376,-1.5889056364642542,-0.3199093977557581,-1.5021541754352015,0.2608673572540283,0.0828402042388916
3003,1734173928,418580293,-0.26601994588825717,0.24294378790547344,1.383646138613969,-0.7111285804159821,-0.17071381399624933,0.03850092016452244,0.6809336347786683,0,-1,0.03865736722946167,-1.5892418066607874,-0.32482940355409795,-1.501087490712301,0.2650247812271118,0.08408581465482712
3019,1734173928,434234857,-0.2699597613612847,0.24254262630031403,1.3823004127056786,-0.7112561512313927,-0.1733059414733493,0.039064136751441145,0.6801130282573676,0,-1,0.039315372705459595,-1.5895174185382288,-0.32983285585512334,-1.500080410634176,0.2690383791923523,0.08542729914188385
3035,1734173928,450516462,-0.2738594853093032,0.24211695271532352,1.3809529507642677,-0.7113788796524142,-0.17585044690356785,0.03967196137291219,0.6792958452611922,0,-1,0.03990185260772705,-1.58976918855776,-0.3348010222064417,-1.4989531675921839,0.27319613099098206,0.08673246204853058
3051,1734173928,466236114,-0.277813532209044,0.24169654635689855,1.3795621332088803,-0.7115014610991884,-0.17846183247663694,0.040222917419148574,0.6784535077049075,0,-1,0.04052390903234482,-1.5900333563434046,-0.339792553578512,-1.4978140036212366,0.27728164196014404,0.08794211596250534
3067,1734173928,482516765,-0.28169995021779487,0.24127432956381267,1.3781590980316794,-0.7116278452430297,-0.18100766548286368,0.04079368728783374,0.6776119169470595,0,-1,0.04113435372710228,-1.5902851263629358,-0.3448565641986292,-1.4967110792743128,0.28135553002357483,0.08927161991596222
3083,1734173928,498201847,-0.2856192946200372,0.2408494347227457,1.3767332853756238,-0.7117648002661638,-0.1835326321098743,0.041326854827103014,0.6767560366357944,0,-1,0.04168488085269928,-1.5905850569354456,-0.34982377687563115,-1.4955723921405237,0.28545302152633667,0.0905647873878479
3099,1734173928,514494180,-0.2894947403512224,0.24041183915100764,1.3752960023743708,-0.7118925066690991,-0.18608078102331427,0.04190104020342448,0.6758900093299286,0,-1,0.042319294065237045,-1.590860668812887,-0.35481578508485967,-1.494481388722555,0.2895148992538452,0.09184635430574417
3115,1734173928,530209541,-0.2933852194775166,0.23997732889146883,1.3738271426892477,-0.7120284227091138,-0.18864784399205783,0.04243046157591256,0.6750016089921376,0,-1,0.042929742485284805,-1.5911482016192835,-0.35981923738588506,-1.4934266249286097,0.29363712668418884,0.09319944679737091
3131,1734173928,546522378,-0.297343406485607,0.23951141408430723,1.3723378290327564,-0.7121657531299933,-0.19124056876455717,0.043026196784393886,0.674088815600488,0,-1,0.04348026588559151,-1.5914843718158167,-0.36482268968691045,-1.492335621510641,0.2978304624557495,0.09446902573108673
3147,1734173928,562283277,-0.3012307945967993,0.23906272343785562,1.3708286010880286,-0.712303263288089,-0.19377273534378683,0.04355487539077016,0.6731858294529234,0,-1,0.044114306569099426,-1.591736141835348,-0.36987477937807256,-1.4912446180926722,0.30191633105278015,0.09573860466480255
3163,1734173928,578573942,-0.3051248986333223,0.23860656107796252,1.369295463375802,-0.7124410837537257,-0.19634182224803817,0.04407252506752443,0.6722612613785721,0,-1,0.044712770730257034,-1.5920360724078577,-0.37493783632387334,-1.4901416937457483,0.3060261905193329,0.09704414010047913
3179,1734173928,594337940,-0.30909305384972324,0.2381295559804953,1.367711637967849,-0.71258185751229,-0.19896369946805104,0.044568605214241906,0.6713078146927671,0,-1,0.04529962316155434,-1.5923116842852991,-0.3800013701068323,-1.4890506903277796,0.31012365221977234,0.09837326407432556
3195,1734173928,610624313,-0.31297393803659473,0.2376541354914979,1.366136325156068,-0.7127280140955701,-0.201511983603003,0.04511772748969405,0.6703551961862707,0,-1,0.045886099338531494,-1.5925992170916956,-0.3850048224078577,-1.487995449696676,0.3141975402832031,0.09965482354164124
3211,1734173928,626351833,-0.3167729376455796,0.2371893998525432,1.3645693116439601,-0.7128762669549186,-0.2040202786858393,0.04562761355577433,0.6694036710226327,0,-1,0.04650815576314926,-1.5928991476642054,-0.3900206724749964,-1.4869168440448206,0.31834372878074646,0.10090043395757675
3227,1734173928,642570972,-0.32061648945960886,0.23671543953146168,1.362972997642395,-0.7130216040313464,-0.20654568716385138,0.046148522788818105,0.6684380189239598,0,-1,0.04709463566541672,-1.5932467619525355,-0.39498788515199834,-1.4858854452716272,0.322405606508255,0.10217001289129257
3243,1734173928,658315658,-0.32448959085296425,0.23622122131430084,1.3613388360612775,-0.7131678295310162,-0.2091399431580752,0.04665570073163325,0.6674394179901999,0,-1,0.04768073931336403,-1.5935466925250452,-0.3999674955951136,-1.4848302046405237,0.32656338810920715,0.1034635603427887
3259,1734173928,674006462,-0.32833978433479977,0.23573974308603685,1.359683451969842,-0.7133156412205685,-0.21167755346244183,0.04712492808877914,0.6664477852786905,0,-1,0.048267215490341187,-1.5938347021686,-0.4050071875201624,-1.483715836201803,0.3306013345718384,0.10469719022512436
3275,1734173928,690232753,-0.33223633023994176,0.2352274519734183,1.3579862069668718,-0.7134614562435155,-0.21423591818267332,0.047606477398774015,0.6654392121937127,0,-1,0.048890020698308945,-1.5941346327411097,-0.41004640260805303,-1.4825647513019007,0.3347351551055908,0.10594242066144943
3291,1734173928,706512451,-0.3360365524836879,0.23473146224262553,1.3563015900046462,-0.7136204823444938,-0.21674363839721197,0.04812375874438147,0.6644186227349916,0,-1,0.049476124346256256,-1.594410244618551,-0.41503793398012334,-1.481473747883932,0.33876147866249084,0.10727192461490631
3307,1734173928,722187280,-0.3398416198935689,0.23423819313216948,1.3546010563361182,-0.713774439253828,-0.21917618075051248,0.048522780270373884,0.663425498043552,0,-1,0.050074588507413864,-1.5947464148150843,-0.4201014677630823,-1.4804065863238733,0.3427997827529907,0.10856547206640244
3323,1734173928,738471746,-0.34362904655564147,0.23369158201392398,1.3528960017574407,-0.7139288467505409,-0.221729788299032,0.049144654528343,0.6623641790507687,0,-1,0.050732970237731934,-1.5950458685504358,-0.42503291765321904,-1.4793513456927698,0.3468736708164215,0.10994290560483932
3339,1734173928,754188299,-0.34746587040696986,0.2331761581674557,1.3511411133508844,-0.7141003482377538,-0.22421947882527568,0.04965550998908773,0.66130223671916,0,-1,0.05130708962678909,-1.5953219572650355,-0.43008405367006475,-1.478236500416891,0.3509838879108429,0.11134393513202667
3355,1734173928,770470857,-0.3512787663240367,0.23264482928940625,1.3493593948973837,-0.7142671794990659,-0.22673401982655322,0.050141870573515886,0.6602271377027228,0,-1,0.0519055537879467,-1.595621411000387,-0.43518335023988897,-1.4771578947650355,0.35509371757507324,0.11267343908548355
3371,1734173928,786185741,-0.35505484058072595,0.23210437369897846,1.3475668766516267,-0.7144261717319181,-0.22926997787643122,0.050627093140590676,0.6591414262729588,0,-1,0.052492406219244,-1.595921818410055,-0.4402826468097132,-1.4761021772967737,0.3592275381088257,0.11395499855279922
3387,1734173928,802474737,-0.35886673562906474,0.23155593681847564,1.3457351808560833,-0.714592435667488,-0.23178875786353237,0.05111994105079286,0.6580413165158031,0,-1,0.05316239595413208,-1.5962217489825647,-0.44529802003969365,-1.474999729787008,0.363314151763916,0.1152605339884758
3403,1734173928,818180084,-0.36261154973345355,0.23100494476331163,1.3439255379959212,-0.714753962998764,-0.2342880562137101,0.051629348302675925,0.6569400958131598,0,-1,0.053748875856399536,-1.5964973608600062,-0.45024139085878545,-1.4740050474749964,0.3673880398273468,0.11657767742872238
3419,1734173928,834476947,-0.3662772876657467,0.23046951349809722,1.3421161095187504,-0.7149270159270633,-0.23675327095505894,0.052123404338527565,0.6558280272372226,0,-1,0.05437130481004715,-1.596797291432516,-0.45523244539369756,-1.4728897253619593,0.3715461790561676,0.11785886436700821
3435,1734173928,850171804,-0.3700155208733151,0.22989225894518373,1.3402621760399873,-0.7150857818218397,-0.23929608440292152,0.05263808600893897,0.6546899575577692,0,-1,0.05499336123466492,-1.5970609823810022,-0.4601524511920374,-1.4718588034259241,0.37563204765319824,0.11910447478294373
3451,1734173928,866469144,-0.37367847745919514,0.22933635083734738,1.3384108488153301,-0.7152531848072309,-0.2417620864919848,0.05314380922816252,0.6535592633410346,0,-1,0.05556785687804222,-1.597372833882467,-0.46517974535097295,-1.4707797209369105,0.37974265217781067,0.12043397128582001
3467,1734173928,882624864,-0.377390740552418,0.22877478950676924,1.3365090708823504,-0.7154309038551311,-0.24420934434010447,0.05359799263944168,0.6524167940289617,0,-1,0.05620227009057999,-1.5976365248309534,-0.47023135820497686,-1.4697006384478968,0.38385286927223206,0.12172751873731613
3483,1734173928,898521661,-0.3810505316119511,0.22821730701019347,1.3346012380699372,-0.7156051344092964,-0.24668461520935692,0.05404213502473995,0.6512568156019807,0,-1,0.05676478147506714,-1.5979121367083948,-0.4752581755267542,-1.4686339537249964,0.38795071840286255,0.12304503470659256
3499,1734173928,914241790,-0.38475979456945497,0.2276316056472894,1.3326555173181631,-0.7157802091525457,-0.249179289949975,0.05452299482966953,0.6500735471316826,0,-1,0.05736324191093445,-1.5981763044940394,-0.4803217093097132,-1.4675548712359827,0.3919890224933624,0.12431461364030838
3515,1734173928,929976224,-0.38840409527298314,0.22706432648364971,1.3307077585652478,-0.7159646326913658,-0.2516041497385562,0.05498552111944544,0.6488964393774085,0,-1,0.057973314076662064,-1.5984762350665491,-0.4853604475604456,-1.4664519468890589,0.39609962701797485,0.1256197690963745
3531,1734173928,946302890,-0.3920686661243062,0.22648334144959403,1.328741079209644,-0.7161473185062852,-0.2540643043305842,0.055460757612067875,0.6476947211660513,0,-1,0.05857177823781967,-1.5987399260150355,-0.4904120604144495,-1.46533710161318,0.40018585324287415,0.12691332399845123
3547,1734173928,962126731,-0.39569381340587995,0.22590141907577585,1.326755778552605,-0.7163261322634342,-0.25650933623527383,0.05589690755444725,0.6464946777712077,0,-1,0.059134285897016525,-1.5990398565875452,-0.49543935457338506,-1.4642460981952112,0.40429607033729553,0.12820686399936676
3563,1734173928,978290081,-0.3992914711124578,0.22531451714925332,1.324758584279147,-0.7165111197785146,-0.2589322943279325,0.05636312365283316,0.6452821712087724,0,-1,0.05974510684609413,-1.5992916266070765,-0.5004904905902308,-1.4631670157061976,0.4083823263645172,0.12953636050224304
3579,1734173928,994552135,-0.40291299067866493,0.2247153273261311,1.3227266560363709,-0.716700262347573,-0.2613733466395655,0.05682306344954331,0.6440464634462041,0,-1,0.06030724197626114,-1.5995553175555628,-0.5055654684649866,-1.4620526472674769,0.4124569594860077,0.1308179348707199
3595,1734173929,10358095,-0.4065416631945073,0.224116331725156,1.3206617191770633,-0.7168828586819339,-0.2638265504499504,0.05722393779945839,0.6428062998667807,0,-1,0.06085776910185814,-1.599795166646139,-0.510568920766012,-1.460937801991598,0.4165551960468292,0.13209949433803558
3611,1734173929,26567697,-0.4100737019166699,0.22351878470881648,1.3186378432267105,-0.7170683921202191,-0.26624757625616313,0.05771122545756142,0.6415563604361106,0,-1,0.06145622953772545,-1.6000474135028284,-0.5155962149249476,-1.459858242665426,0.42073729634284973,0.13333311676979065
3627,1734173929,42500257,-0.41359270425372613,0.22290760250480224,1.3165971910206997,-0.7172550185110468,-0.2686474485360918,0.05821987519462561,0.6403001116258593,0,-1,0.06210225448012352,-1.6003230253802698,-0.5205391089068812,-1.4587677160846155,0.424859881401062,0.13460232317447662
3643,1734173929,58655261,-0.41708495922109956,0.22228841150125686,1.314538348505426,-0.717435700228301,-0.27109122304397515,0.05866567228888011,0.639025745742175,0,-1,0.06267712265253067,-1.6005867163287562,-0.5255425612079065,-1.4576528708087366,0.4289105534553528,0.1359078586101532
3659,1734173929,74387311,-0.42063617360728467,0.22168681418391617,1.3124255899546076,-0.7176366246612995,-0.2734633335933316,0.059082937729428645,0.6377497052872859,0,-1,0.06323926150798798,-1.6008389631854456,-0.5306895414935511,-1.45660907426943,0.4330447316169739,0.13715346157550812
3675,1734173929,90617179,-0.42418483303201887,0.221042317965854,1.3102803133290744,-0.7178235612414173,-0.2759416185235903,0.05950098212082237,0.6364316076531147,0,-1,0.0639096274971962,-1.6011384169207972,-0.5357287565814417,-1.4555309454547327,0.43716731667518616,0.1384706050157547
3691,1734173929,106374740,-0.42775732117062837,0.22038717270814778,1.3081091304244492,-0.7180143070148527,-0.27838303453739177,0.05992337132585637,0.6351122188815751,0,-1,0.06450808793306351,-1.6013544241534632,-0.5408151785479944,-1.4544995466815394,0.44119399785995483,0.13980010151863098
3707,1734173929,122640371,-0.43122481134719315,0.2197651997055169,1.3059621213585555,-0.7182352203278702,-0.28070024935179366,0.060370999639139354,0.6337987698765182,0,-1,0.06513014435768127,-1.601678196583883,-0.5457709471331995,-1.453432861958639,0.4453161954879761,0.14126142859458923
3723,1734173929,138276576,-0.43474467024927793,0.21912108897645655,1.3037925105093158,-0.7184454463322208,-0.283061400956571,0.060840911301513034,0.6324640443890867,0,-1,0.06575257331132889,-1.6019657293902796,-0.5506537596331995,-1.4523657003985804,0.44946274161338806,0.14261490106582642
3739,1734173929,154528141,-0.43818738961763504,0.21844648284395562,1.3016331636607592,-0.7186411413229314,-0.2854291816422071,0.06134122252020181,0.6311278370384731,0,-1,0.06632744520902634,-1.6022298971759241,-0.5557773748980921,-1.4512150923358362,0.4535253942012787,0.14392006397247314
3755,1734173929,170267343,-0.44170072920521597,0.21780376298453197,1.299391718383466,-0.7188409022927245,-0.2878212991735585,0.061716040130316695,0.629775981856771,0,-1,0.06697347015142441,-1.6025412718402308,-0.560852352772848,-1.4501717726336878,0.45762401819229126,0.14523757994174957
3771,1734173929,186528921,-0.4452103857328778,0.21714641256963674,1.2971213953664382,-0.7190514442708031,-0.29020897737633167,0.06207806240309703,0.628402804028223,0,-1,0.06754796206951141,-1.602757755910055,-0.5659273306476038,-1.4490693251239222,0.4616626799106598,0.14651913940906525
3787,1734173929,202267885,-0.44864237297957443,0.2164838622009064,1.2948635118597278,-0.7192536757152652,-0.29261724013480966,0.062497457985874666,0.6270114580223166,0,-1,0.06815841048955917,-1.6030095259295862,-0.5709660688983362,-1.4479063192950647,0.46578526496887207,0.14783665537834167
3803,1734173929,218524932,-0.4520737545379998,0.21580427850755884,1.2926137526970196,-0.7194609673948937,-0.294964892544407,0.06292837210813837,0.6256290023210958,0,-1,0.06880443543195724,-1.6032970587359827,-0.5759571234332483,-1.4468873182879847,0.46995577216148376,0.14914219081401825
3819,1734173929,234231710,-0.4554622322983455,0.21513238172662902,1.290356905238272,-0.7196655700390137,-0.2972969719373407,0.06335513416609309,0.6242452280571362,0,-1,0.06941487640142441,-1.6036089102374476,-0.5809486548053187,-1.4457600752459925,0.4740184247493744,0.15035183727741241
3835,1734173929,250481128,-0.45886672040919896,0.21444587249908925,1.288073716438829,-0.7198638631896325,-0.2996749209993811,0.06377398784707608,0.6228353222737081,0,-1,0.07000135630369186,-1.6038969198810022,-0.5859158674823206,-1.4447057882892054,0.4781170189380646,0.15170493721961975
3851,1734173929,266211509,-0.4622445326222584,0.21376250387572376,1.2857711574746011,-0.720083194398862,-0.30199202793613183,0.06421420084651477,0.6214157582625314,0,-1,0.07058783620595932,-1.604208771382467,-0.5909541288958948,-1.4436505476581019,0.48221564292907715,0.15301010012626648
3867,1734173929,282576084,-0.4656822037032985,0.21306351788450706,1.2834001909790151,-0.7202837956076289,-0.30440755376815937,0.06455161842671771,0.6199680504287653,0,-1,0.07123423367738724,-1.6044963041888636,-0.5960295836078089,-1.4426315466510218,0.4863146245479584,0.15433959662914276
3883,1734173929,298278570,-0.4690616823410886,0.21241496655720504,1.2810264525089161,-0.7205124331211222,-0.30673337657263927,0.06485388175179946,0.6185227913633835,0,-1,0.07178438454866409,-1.604748551045553,-0.6010921637164515,-1.4415767828570765,0.490377277135849,0.15559719502925873
3899,1734173929,314511299,-0.4724345452162723,0.211706594914756,1.2786472430344715,-0.720727223892422,-0.30906592865349675,0.0652316472985419,0.61706997388999,0,-1,0.0723588764667511,-1.6050241629229944,-0.6061909834491175,-1.4404738585101526,0.49448785185813904,0.156926691532135
3915,1734173929,330192565,-0.4758168509019063,0.21102120354777648,1.2762425044492771,-0.720948961143071,-0.31142441688676903,0.06557881201378178,0.6155865880672869,0,-1,0.07293374836444855,-1.6053836981402796,-0.6110509077655237,-1.4394786993609827,0.4986467659473419,0.15820825099945068
3931,1734173929,346527814,-0.4791076124524042,0.2103331971198522,1.2738804729031061,-0.7211723425880883,-0.3137243611438955,0.06597349193229504,0.6141131621070527,0,-1,0.07356778532266617,-1.6056960264789026,-0.616065804158346,-1.4384239355670374,0.5027453899383545,0.15948981046676636
3947,1734173929,362277269,-0.4823957427213818,0.20963392699835592,1.2714750700973139,-0.7213916965597742,-0.3160312280749007,0.06636941457558236,0.6126282590812924,0,-1,0.07414228469133377,-1.6059835592852991,-0.621284310017721,-1.4373210112201136,0.506844699382782,0.16078336536884308
3963,1734173929,378203392,-0.48586746068689024,0.2089173961521929,1.2689067963073453,-0.721623682388165,-0.31842468686323105,0.06661744907508377,0.6110868148563889,0,-1,0.07470478862524033,-1.6062477270709437,-0.6264069716082972,-1.4361699263202112,0.5109673142433167,0.16206492483615875
3979,1734173929,394984006,-0.489195172687176,0.20819749624134581,1.266424204574496,-0.7218417358693205,-0.32076864398105415,0.06698216929958464,0.609561624769509,0,-1,0.0753508135676384,-1.6064870993243616,-0.6314814726458948,-1.4350913206683558,0.5151138305664062,0.16337046027183533
3995,1734173929,410460233,-0.4924770292962024,0.2074683091109777,1.263941182158989,-0.7220556976116296,-0.32308952977708366,0.06731427101984609,0.6080440068054883,0,-1,0.07590171694755554,-1.6068232695208948,-0.6365087668048304,-1.433988396321432,0.5191888213157654,0.16461606323719025
4011,1734173929,426654100,-0.49570735878817157,0.20675677159793077,1.261491579099299,-0.7222750813431175,-0.3253468207958324,0.06765981547072879,0.6065396132482235,0,-1,0.07651178538799286,-1.6071108023272913,-0.6414397398578089,-1.4329217115985315,0.5232158899307251,0.16586168110370636
4027,1734173929,442418336,-0.4989117086969144,0.2060279604359864,1.2590362370960384,-0.722488624331812,-0.3276229323559075,0.06803409575712177,0.6050163334325389,0,-1,0.07715819031000137,-1.6074231306659144,-0.6463826338397425,-1.4318426291095179,0.5273265242576599,0.16709493100643158
4043,1734173929,458516597,-0.5021513742191035,0.20528572786829896,1.2565351136685121,-0.7227158923133535,-0.32988902712798146,0.06839800763867321,0.6034705306221066,0,-1,0.07772069424390793,-1.6077707449542444,-0.6513498465167444,-1.4307158629046839,0.531377911567688,0.16841207444667816
4059,1734173929,474161386,-0.5053802408001584,0.20455410944619073,1.254003560052507,-0.7229374689461812,-0.3321430566249139,0.06870509072094926,0.6019319034895679,0,-1,0.07840267568826675,-1.6080225149737757,-0.6564367453204554,-1.4296248594867151,0.535404622554779,0.16969363391399384
4075,1734173929,490460872,-0.5086465762839141,0.2038016510739844,1.2514120451817876,-0.7231681018413225,-0.3344213380537303,0.06899596250166165,0.6003580783932538,0,-1,0.07900150865316391,-1.6083462874041956,-0.6615236441241663,-1.4285457769977015,0.5395159721374512,0.17102313041687012
4091,1734173929,506150245,-0.5118246214587256,0.20307197294294116,1.2488374883781634,-0.7234060557609646,-0.33667307427126336,0.06930743061487006,0.5987749156491655,0,-1,0.07962319254875183,-1.6086576620685022,-0.6666105429278772,-1.4274190107928675,0.5436509251594543,0.17238858342170715
4107,1734173929,522493362,-0.5150359836970098,0.20228629071836346,1.2462542952444646,-0.723649415415317,-0.3389390471654165,0.0697372953318979,0.5971503625683074,0,-1,0.08022203296422958,-1.6089580694781702,-0.671577278767721,-1.4263761679278772,0.5478813052177429,0.17378999292850494
4123,1734173929,538304567,-0.5182109152457807,0.2015054910836636,1.2436563945331967,-0.7238900029952325,-0.3412143139127801,0.07011426104969688,0.5955166210460023,0,-1,0.0808204934000969,-1.609281365071432,-0.6765325705157679,-1.4252970854388636,0.5520285964012146,0.17509552836418152
4139,1734173929,554528951,-0.5213757178687651,0.20074598954255535,1.241036344091387,-0.7241334425261414,-0.34346396604063584,0.07045479806336583,0.5938849912876455,0,-1,0.08145453035831451,-1.6095455328570765,-0.6815593878375452,-1.4242304007159632,0.5561276078224182,0.17638906836509705
4155,1734173929,570258617,-0.5245190874609097,0.1999917545407348,1.238396140891338,-0.7243778028235096,-0.34569956184619033,0.07075881857040364,0.5922514679681742,0,-1,0.08204101026058197,-1.6098454634295862,-0.6866100470172327,-1.423199478779928,0.5602988600730896,0.17774254083633423
4171,1734173929,586536169,-0.5276369657339834,0.1992350017106267,1.2357288259014465,-0.7246132802909732,-0.34795752596391444,0.07102346044170152,0.5906071640421519,0,-1,0.08265183120965958,-1.6101215521441858,-0.6917088667498987,-1.422072712575094,0.5643974542617798,0.1790357083082199
4187,1734173929,602289438,-0.5307214540979244,0.1984699386876199,1.233067382610099,-0.724865985444984,-0.35015216117718206,0.07134602084887132,0.58895883767616,0,-1,0.08323793113231659,-1.6103609243976038,-0.6968076864825647,-1.4209936300860804,0.5684848427772522,0.18032889068126678
4203,1734173929,618562698,-0.533763230953097,0.19769664129075337,1.2304201031874857,-0.7251006977510472,-0.35236510844490915,0.07166584013598017,0.58730896113473,0,-1,0.08382441103458405,-1.6106365362750452,-0.7017510573016565,-1.4198907057391565,0.5725718140602112,0.18156251311302185
4219,1734173929,634421110,-0.5368253126000743,0.19694393974308488,1.2277427068089541,-0.7253440049527096,-0.3545327527913883,0.07196096830444537,0.5856656219362807,0,-1,0.08444683998823166,-1.6109488646136683,-0.7067416349994105,-1.4187405745135706,0.5766352415084839,0.18288002908229828
4235,1734173929,650713443,-0.5398532742984755,0.19614774465521878,1.2250670043951788,-0.7255927148018083,-0.35672449950969154,0.07231073428184549,0.583981165264533,0,-1,0.08502095937728882,-1.6112244764911097,-0.7117088476764124,-1.4176972548114222,0.5807225704193115,0.18425746262073517
4251,1734173929,666306257,-0.5427783694804933,0.1953942684918879,1.2224248376646136,-0.7258363800164295,-0.3588364599114815,0.07260799221840505,0.5823452789787628,0,-1,0.08560781180858612,-1.611476246510641,-0.716771427785055,-1.4165824095355433,0.5847976207733154,0.18549108505249023
4267,1734173929,682636022,-0.5458332665139748,0.19460639018173656,1.2196450726544554,-0.726082149966661,-0.3610593107417351,0.07285148875001661,0.5806320230691729,0,-1,0.08621788769960403,-1.6117880980121058,-0.7218225638019007,-1.4155400435077112,0.5889329314231873,0.18678463995456696
4283,1734173929,698316812,-0.5488001819621195,0.19381893547118897,1.2169206853736587,-0.7263323706326169,-0.3632272736605041,0.07318080088703714,0.5789229701971513,0,-1,0.08679237961769104,-1.612039868031637,-0.7268851439105433,-1.4143889586078089,0.5930918455123901,0.18811413645744324
4299,1734173929,714674234,-0.5517543417953163,0.19302357394813574,1.214157133613898,-0.7265859764087046,-0.36539169492453427,0.07347277671379081,0.5772031524934274,0,-1,0.08739084005355835,-1.6122921148883265,-0.7319000403033655,-1.41327411333193,0.597191572189331,0.1893956959247589
4315,1734173929,730275869,-0.5546877995590922,0.19224404744679663,1.2114272327352602,-0.726836034605333,-0.3675429424130833,0.07375987047612446,0.5754833149526348,0,-1,0.08796495944261551,-1.6126154104815882,-0.736831013356344,-1.41225511232485,0.6013264656066895,0.19067688286304474
4331,1734173929,746526241,-0.5576196864964614,0.19144600142021145,1.2086720458483242,-0.7270812599165785,-0.36971839675652557,0.07403110284095515,0.573742576762486,0,-1,0.08863570541143417,-1.6128438154803675,-0.7418101469623011,-1.4111641089068812,0.6054374575614929,0.19199439883232117
4347,1734173929,762450456,-0.5604864932833871,0.19061322874100256,1.2059129881772048,-0.7273279116845494,-0.3718403283120876,0.07435520575856142,0.5720141453687603,0,-1,0.08919821679592133,-1.6131194273578089,-0.746765438710348,-1.4101336638080042,0.6095012426376343,0.1933358907699585
4363,1734173929,778532266,-0.5634002960197857,0.18981862606009334,1.2030946777244182,-0.727579086205743,-0.37402071605974496,0.07460027108299967,0.5702385262576658,0,-1,0.08980828523635864,-1.6133468786822718,-0.7519477049456995,-1.4090545813189905,0.6135163307189941,0.19456951320171356
4379,1734173929,794235467,-0.5663483140540397,0.18901314278167425,1.2001668112681834,-0.7278324290674314,-0.3761926482677056,0.07471950944599334,0.5684681534574147,0,-1,0.09045468270778656,-1.6136229673968714,-0.757118050252096,-1.4080117384540003,0.6176759600639343,0.19581513106822968
4395,1734173929,810491085,-0.5692383574804547,0.18819388542338636,1.1973003678605125,-0.7280829652130937,-0.37835564526363924,0.07494782175762983,0.5666789439157155,0,-1,0.09101682156324387,-1.6138389746295374,-0.7621806303607386,-1.4069927374469202,0.6217753291130066,0.1970847100019455
4411,1734173929,826181411,-0.5721359378672888,0.18734203225606572,1.1944427753118587,-0.7283228830612856,-0.3805229335471928,0.07520372321889927,0.564882709124603,0,-1,0.09163962304592133,-1.614126984273092,-0.7671597639666956,-1.405937973652975,0.6259346008300781,0.19836626946926117
4427,1734173929,842497110,-0.5749889669354428,0.18653107437318714,1.1915796202534257,-0.7285790043696592,-0.38263851698350576,0.07543105472030871,0.5630901843365423,0,-1,0.09226205945014954,-1.6144745985614222,-0.7720907370196741,-1.404811207448141,0.629997968673706,0.1996837854385376
4443,1734173929,858154773,-0.5777613627428325,0.18572364649178996,1.1887455731145318,-0.7288487521326956,-0.3846901267521676,0.07570636867520099,0.5613034372209279,0,-1,0.09284815937280655,-1.6147382895099085,-0.7771056334124964,-1.4036958853351038,0.6341093182563782,0.20097732543945312
4459,1734173929,874425649,-0.5805395340409073,0.18490375753707872,1.1858506656025465,-0.729116189263546,-0.38676661453889755,0.07595365239707655,0.5594928159677018,0,-1,0.09348257631063461,-1.615002457295553,-0.7821562925921839,-1.4025934378253382,0.6382929682731628,0.20231881737709045
4475,1734173929,890599489,-0.5833455245576862,0.184078799623244,1.182918583931308,-0.7293849617839415,-0.3888840294876895,0.07618520078175536,0.5576402104535679,0,-1,0.09405669569969177,-1.6152542273150843,-0.7871955076800745,-1.4015267531024378,0.6423802971839905,0.2036958783864975
4491,1734173929,906681060,-0.5860813158514175,0.18324914463161926,1.1800172449076909,-0.7296654929767057,-0.3909033269961955,0.07644816504857618,0.5558223955213322,0,-1,0.09463118761777878,-1.6154821554767054,-0.7923296133624476,-1.4003995100604456,0.6464197635650635,0.20506133139133453
4507,1734173929,922581672,-0.5888453719496745,0.18241729422454334,1.177068833372312,-0.7299393751500801,-0.3929666558429171,0.07665733495992172,0.5539759642782232,0,-1,0.09521804004907608,-1.615781609212057,-0.7972729841815394,-1.3993209044085901,0.650579035282135,0.20637847483158112
4523,1734173929,938298702,-0.5915466800922559,0.18159752635177634,1.1741982615281998,-0.7302150985961916,-0.3949675663963613,0.0769621292166571,0.5521443307175475,0,-1,0.09584009647369385,-1.6160572210894983,-0.8021319548236292,-1.3982179800616663,0.6545948386192322,0.2077079713344574
4539,1734173929,954259395,-0.5942113519469374,0.18077211408178745,1.1712965750850015,-0.7304784658806018,-0.396966370448415,0.07717248502405297,0.5503301910425653,0,-1,0.0964265763759613,-1.616357151662008,-0.8070872465716761,-1.3971150557147425,0.6586586236953735,0.20901350677013397
4555,1734173929,970541477,-0.5969146209022291,0.1799537379136858,1.16832099322217,-0.7307558168610805,-0.39900336901048955,0.07735179948364111,0.5484605243393699,0,-1,0.0969894602894783,-1.6166570822345179,-0.8121498266803187,-1.3960488478290003,0.6626984477043152,0.2102591097354889
4571,1734173929,986269235,-0.5996118675403679,0.17909210008990384,1.1653093218837718,-0.7310216969605412,-0.40104423058917477,0.07753777523752778,0.5465882335865658,0,-1,0.09762349724769592,-1.6168974081622522,-0.8172600905047815,-1.3949936071978968,0.6668217778205872,0.21158823370933533
4587,1734173930,2566099,-0.6023264817918408,0.1782595279791013,1.1622480842057012,-0.7312944376631187,-0.40313622438927516,0.07767062022367836,0.544662193274154,0,-1,0.09818600863218307,-1.6171730200396937,-0.8223350683795374,-1.3939150015460413,0.6709574460983276,0.21283385157585144
4603,1734173930,18344640,-0.6049019233376604,0.17742389537802988,1.1592930042080103,-0.7315553907258479,-0.40516830502209794,0.07787851998968681,0.542770937900776,0,-1,0.0988200455904007,-1.6174724737750452,-0.8273499647723597,-1.3928840796100062,0.6750328540802002,0.21415136754512787
4619,1734173930,34767866,-0.6075786483448748,0.17657194080623068,1.1562361130967593,-0.7318467570859812,-0.4071563143640122,0.0780451714672392,0.5408632091637364,0,-1,0.09935858845710754,-1.6178086439715784,-0.8322690168963831,-1.3917930761920374,0.6791206002235413,0.2154449075460434
4635,1734173930,50396919,-0.6102389247639909,0.17570911636326103,1.1532154624190558,-0.7321255269358088,-0.409166114829649,0.07827477713028,0.5389326141080903,0,-1,0.09999300539493561,-1.618120018635885,-0.83722430864443,-1.3907025496112269,0.6833401322364807,0.21671448647975922
4651,1734173930,66686868,-0.6128162452556067,0.17481339721701006,1.1502112534662172,-0.7323637369720549,-0.4111990609020886,0.07847484029193075,0.5370292250173386,0,-1,0.10060345381498337,-1.6183841864215296,-0.8422988096820276,-1.389611546193258,0.6874398589134216,0.2180679589509964
4667,1734173930,82352399,-0.6154529640236375,0.17395625315018193,1.1470835574948817,-0.7326553478919893,-0.41320768150854875,0.07859582904639306,0.5350684524470751,0,-1,0.10122588276863098,-1.6187198797809046,-0.8473375479327601,-1.3884847799884241,0.6915276050567627,0.21937349438667297
4683,1734173930,98558902,-0.6180159166281861,0.17309436287166374,1.144009614503077,-0.7329310966047945,-0.41518602717164793,0.07877682318943387,0.5331292363013846,0,-1,0.1018599197268486,-1.6189478079425257,-0.8525078932391565,-1.3873699347125452,0.6956512928009033,0.2206670343875885
4699,1734173930,114222764,-0.6206045149774525,0.17220048111889164,1.140859008950222,-0.7332011187924135,-0.4171950142227872,0.07888946088702452,0.5311693632638806,0,-1,0.10244639962911606,-1.6192715803729456,-0.8574150244342249,-1.38633901277651,0.699691116809845,0.22191227972507477
4715,1734173930,130551338,-0.623155111790408,0.17135077820271716,1.1377825953486074,-0.7334851419661639,-0.41917105310744607,0.07903989646787485,0.5291954927226974,0,-1,0.10305684804916382,-1.619643513356344,-0.8623822371112269,-1.3852604071246546,0.703778862953186,0.2232297956943512
4731,1734173930,146762132,-0.6256975387790968,0.1704666703606775,1.1346791543865427,-0.733760291919507,-0.4211135162699422,0.07920428899669049,0.5272437017371508,0,-1,0.10370324552059174,-1.6199191252337855,-0.8673132101642054,-1.3841336409198206,0.707843005657196,0.22452333569526672
4747,1734173930,162792682,-0.6282084131552643,0.16958466801868122,1.1315575613145674,-0.7340233541999905,-0.4230762787046395,0.07929744861134955,0.525288580239624,0,-1,0.10424178838729858,-1.6202433745013636,-0.8723996321307581,-1.3830187956439417,0.7119184136390686,0.22579291462898254
4763,1734173930,178417682,-0.6307164696331741,0.16869898298658476,1.1283942612715128,-0.7343047001465676,-0.42503015229106006,0.07944380609166998,0.5232921351021504,0,-1,0.10489979386329651,-1.6205428282367151,-0.877486530934469,-1.3819158712970179,0.7160181403160095,0.22701455652713776
4779,1734173930,194759368,-0.6332020041432395,0.16782046556956204,1.1251862989957089,-0.7345750235589541,-0.42701955788094464,0.07951400215135786,0.5212785775498533,0,-1,0.10548627376556396,-1.6207826773272913,-0.8826206366168421,-1.3808968702899378,0.7201421856880188,0.22829648852348328
4795,1734173930,210437297,-0.6356925472865176,0.16695773348103077,1.1219508252045942,-0.7348628141311176,-0.42899646168784883,0.07956306280296925,0.5192382875944448,0,-1,0.10607275366783142,-1.6210945288287562,-0.8876479307757776,-1.3798540274249476,0.7242299318313599,0.22959004342556
4811,1734173930,226676464,-0.638099043602444,0.16608733390866565,1.1187998457432162,-0.735138288403943,-0.43092553321425925,0.07966579672834156,0.5172313240496615,0,-1,0.10663526505231857,-1.6213939825641077,-0.8926146666156214,-1.378775421773092,0.7280663847923279,0.23084764182567596
4827,1734173930,242273092,-0.6405088565688469,0.16520954128576104,1.1156604351496051,-0.7354230846103272,-0.4328006904061358,0.07977369446898379,0.5152403387517064,0,-1,0.10728166252374649,-1.6217544714557093,-0.8974974791156214,-1.3777087370501917,0.7323694825172424,0.23211722075939178
4843,1734173930,258622407,-0.6428818001726374,0.16433849963947683,1.1124933936869232,-0.735714093032005,-0.43469778565698053,0.07990716858331268,0.5132031302203934,0,-1,0.10782020539045334,-1.6220420042621058,-0.902536694203512,-1.3766539732562464,0.7364935874938965,0.23349428176879883
4859,1734173930,274292945,-0.6452532929818334,0.16343681844858016,1.1092768922037963,-0.7360164652849254,-0.43657439997378017,0.08003001543938192,0.5111533554089126,0,-1,0.1084066778421402,-1.6222942511187952,-0.9075873533831995,-1.375599209462301,0.7405573129653931,0.23481179773807526
4875,1734173930,290583848,-0.6475788168782417,0.16252216746217227,1.1060506288507863,-0.7362962358409347,-0.43848891304391874,0.08010574658694553,0.5090956644755298,0,-1,0.10902911424636841,-1.6225455443011683,-0.912638012562887,-1.3745325247394007,0.7447053790092468,0.23621319234371185
4891,1734173930,306226730,-0.6498931861644082,0.1616611639970243,1.1028179455646525,-0.7366187512304918,-0.44031178718461095,0.0802369224613962,0.5070309474537513,0,-1,0.10961521416902542,-1.622833553944723,-0.9177606741534632,-1.3734057585345667,0.7488294243812561,0.23751872777938843
4907,1734173930,322470903,-0.6522023682530393,0.16080125317875962,1.0995821235107597,-0.7369233408117651,-0.44215091222702474,0.08030829440682397,0.5049724135367235,0,-1,0.11021367460489273,-1.6231210867511194,-0.9227274099933069,-1.3723390738116663,0.7529415488243103,0.2388722002506256
4923,1734173930,338353872,-0.65452962614869,0.15987971920403013,1.0963305374250567,-0.7372032280003825,-0.4440406361670074,0.08038842706661266,0.5028886704350889,0,-1,0.11082412302494049,-1.623397175465719,-0.9276946226703089,-1.3712242285357874,0.7569693326950073,0.24015375971794128
4939,1734173930,354513406,-0.6567224918242341,0.1589891682290691,1.0931434388239203,-0.737493624907169,-0.44583581942656325,0.08051450766180097,0.5008502664404868,0,-1,0.11143457144498825,-1.6236727873431605,-0.9326375166522425,-1.3701213041888636,0.76109379529953,0.24142296612262726
4955,1734173930,370471000,-0.6590188028414871,0.1580850297473715,1.0898417340048325,-0.7377859453344817,-0.4476939541499583,0.08058165195388522,0.4987470497685806,0,-1,0.11203303188085556,-1.6239846388446253,-0.9377720991717737,-1.3690665403949183,0.7651336193084717,0.24272850155830383
4971,1734173930,386622428,-0.6612516624305165,0.1571866727169981,1.086543779112858,-0.7380730399861678,-0.44954333499000704,0.08062577346246098,0.4966472211391293,0,-1,0.11263111978769302,-1.6242130438434046,-0.9428470770465296,-1.3679278532611292,0.7692217230796814,0.2440340220928192
4987,1734173930,402595043,-0.6634311645402523,0.15628149870268024,1.0832343568689362,-0.7383698522029186,-0.4513820139970551,0.0806778787659308,0.49452534684850313,0,-1,0.11321759968996048,-1.624488655720846,-0.9479334990130823,-1.366885010396139,0.7733578085899353,0.24530360102653503
5003,1734173930,419040918,-0.6656453692852888,0.15536286601637686,1.0799232403198475,-0.7386525415705482,-0.4532163660112041,0.08071871273080258,0.4924142949042503,0,-1,0.11388759315013885,-1.6247285048114222,-0.9529960791217249,-1.3657825628863733,0.7774339318275452,0.24662111699581146
5019,1734173930,434435606,-0.6677885800984718,0.15444794044628232,1.076644869731558,-0.7389519751059042,-0.455003505136174,0.08079835895011281,0.4902993106173489,0,-1,0.11446208506822586,-1.625028435383932,-0.9578436056720179,-1.364739720021383,0.7815579771995544,0.24792665243148804
5035,1734173930,450835466,-0.6699529328637326,0.15352467834538067,1.073373504036643,-0.7392358324351511,-0.4568087685415285,0.08087196108764806,0.4881760532198597,0,-1,0.11508488655090332,-1.6253159681903284,-0.9628232161151331,-1.3635886351214808,0.7855622172355652,0.24926814436912537
5051,1734173930,466328859,-0.672031120306636,0.1526237815461478,1.0700956329758962,-0.7395420415759432,-0.4585602140079144,0.08096596192829394,0.48605000964893297,0,-1,0.11571893095970154,-1.625580135975973,-0.9679215590106409,-1.3625219503985804,0.7896866798400879,0.25058528780937195
5067,1734173930,482601881,-0.6741589713864886,0.15169825081660007,1.0667071405746475,-0.7398460363944431,-0.46036541302249395,0.08096620642698751,0.48387601959684196,0,-1,0.11629342287778854,-1.6257956663714808,-0.9729841391192835,-1.3614676634417933,0.7938946485519409,0.25189080834388733
5083,1734173930,498396158,-0.6762793247987218,0.15077841438623016,1.0632983561939218,-0.740147014487237,-0.46218436151303044,0.08099552768435594,0.4816718150499933,0,-1,0.11693944782018661,-1.626035515462057,-0.9781187216388147,-1.3603766600238245,0.7980310320854187,0.2531484067440033
5099,1734173930,514628887,-0.6783086697898932,0.1498540481895858,1.059954134833484,-0.7404354823729072,-0.4639433698081232,0.08100655251311617,0.4795307962000177,0,-1,0.11758584529161453,-1.6262872854815882,-0.9831455389605921,-1.3593338171588343,0.8021547794342041,0.25447791814804077
5115,1734173930,530323505,-0.6803105597592228,0.1489366152133178,1.0567069057685865,-0.7407279218455222,-0.465680658048568,0.08110112921251222,0.47737435766735736,0,-1,0.11816071718931198,-1.6265628973590296,-0.9880526701556605,-1.358194653187887,0.8062552213668823,0.2557474970817566
5131,1734173930,546557903,-0.682351096097625,0.14800595347465662,1.0533641341723965,-0.7410208702332294,-0.46740898210461856,0.08117029737230844,0.47521394776584874,0,-1,0.1187947541475296,-1.6268513838397425,-0.9929121176349085,-1.3570683638202112,0.8103553056716919,0.25700509548187256
5147,1734173930,562302827,-0.6843396748411216,0.14710153420723476,1.0500351464153845,-0.7413117258801737,-0.4691361201014322,0.08120934771132927,0.473046792329293,0,-1,0.11935726553201675,-1.627150837575094,-0.9979508558856409,-1.3559659163104456,0.8144554495811462,0.25828665494918823
5163,1734173930,578568935,-0.686369776799052,0.14619994045605095,1.0465614783072115,-0.7416028217541154,-0.47091535662693135,0.08110710022129047,0.4708350241357979,0,-1,0.11997932195663452,-1.6273787657367151,-1.0031331221209925,-1.3549101988421839,0.8185203075408936,0.25950828194618225
5179,1734173930,594242095,-0.6883420194056359,0.1452852387727423,1.0431106790476092,-0.7419048761702927,-0.47264503297392857,0.08106738566167092,0.4686276843100485,0,-1,0.12056617438793182,-1.6276305357562464,-1.0082443396197718,-1.3538678328143519,0.8225725293159485,0.2608018219470978
5195,1734173930,610461711,-0.690309825807114,0.14435499014236555,1.0396635891690327,-0.7421945762772213,-0.4744045581181993,0.08102710799614765,0.4663926821372014,0,-1,0.12111669778823853,-1.6279423872577112,-1.013270680104391,-1.3527653853045862,0.8267089128494263,0.2620714008808136
5211,1734173930,626245260,-0.6922629889090869,0.1434590750132274,1.0362606265912986,-0.7425136920687361,-0.47606364098656967,0.08102734314197763,0.46418896635359275,0,-1,0.12173875421285629,-1.628230396901266,-1.018273655568258,-1.3516629377948206,0.8307850956916809,0.26337695121765137
5227,1734173930,642495632,-0.6941717473879689,0.14255699583423023,1.032887057886591,-0.7428276746502679,-0.477719627763446,0.08102644373452977,0.46198021433711367,0,-1,0.12234920263290405,-1.6285417715655726,-1.023109261189596,-1.3506196180926722,0.8348739147186279,0.26470643281936646
5243,1734173930,658060073,-0.6960738861975744,0.14161742249554746,1.0294656188762812,-0.7431318893499267,-0.4793980140574039,0.08103245195534849,0.45974588728897775,0,-1,0.1228753849864006,-1.6288178602801722,-1.0282076040851038,-1.3494694868670862,0.8389740586280823,0.26603594422340393
5259,1734173930,674321651,-0.697933186474709,0.14068944973655106,1.0260163590272955,-0.7434428598811015,-0.4810696221708916,0.08099688856556576,0.45749779973117005,0,-1,0.12349818646907806,-1.6291058699237269,-1.033294979725973,-1.3484624067889612,0.8430981040000916,0.2674010097980499
5275,1734173930,690066576,-0.6998295432332553,0.13979609291077377,1.0224572523718247,-0.7437732988204484,-0.4827380414173528,0.08087054725207411,0.4552199665188644,0,-1,0.12406069785356522,-1.629333798085348,-1.0384414831744593,-1.347407642995016,0.8471869826316833,0.2687305212020874
5291,1734173930,706345319,-0.7016639499375111,0.13889449207356977,1.0189451957163347,-0.7440992843908717,-0.48436254540205004,0.08078005646790724,0.45297214269498026,0,-1,0.12469474226236343,-1.6296098867999476,-1.043515984212057,-1.3463290373431605,0.8512990474700928,0.2700360417366028
5307,1734173930,722080469,-0.7035577613832642,0.13793795826543714,1.0154140716272928,-0.7443978950364616,-0.48608191048155497,0.08068785859491151,0.4506502187320608,0,-1,0.12523365020751953,-1.6299570242511194,-1.048507038746969,-1.3452981154071253,0.8554238677024841,0.2713535726070404
5323,1734173930,738367080,-0.7053102613916147,0.1370266336500975,1.012024178792674,-0.7447031890490956,-0.48768033361186763,0.08068971688114475,0.44841300384574606,0,-1,0.125831738114357,-1.6302450338946741,-1.0534027258502405,-1.3442190329181116,0.8595240116119385,0.27261117100715637
5339,1734173930,754035234,-0.7071006726228016,0.13609687765700149,1.0085722119455567,-0.7450203769202963,-0.48929675990510807,0.08065168900291876,0.44612624197740164,0,-1,0.1264301985502243,-1.6305449644671839,-1.0583694616900843,-1.3431404272662562,0.86363685131073,0.2739047110080719
5355,1734173930,770315885,-0.70887486695868,0.13516246536826343,1.0050669869110176,-0.7453214002732412,-0.4909019770322117,0.0805933169421135,0.44386481782730725,0,-1,0.12705226242542267,-1.6308687368976038,-1.0634081999408167,-1.3420136610614222,0.8677013516426086,0.2751739025115967
