yildirimyigit/pemp/data/ur10/raw/22_2024-12-14_14-00-08.csv
Time,ROS secs,ROS nsecs,________p_x________,________p_y________,________p_z________,________q_x________,________q_y________,________q_z________,________q_w________,gripper_position,gripper_force,shoulder_pan_joint,shoulder_lift_joint,elbow_joint,wrist_1_joint,wrist_2_joint,wrist_3_joint
0,1734174008,22903442,-0.00013773211587879753,0.25614100712115395,1.4272999898269045,-0.7071067807046129,2.536387279331853e-05,-2.5302251233202684e-05,0.7071067807608894,0,-1,-4.7985707418263246e-05,-1.5709527174579065,3.5762786865234375e-05,-1.5706880728351038,-7.135072817021637e-05,3.5952674807049334e-05
13,1734174008,38476467,-0.00010784972831756064,0.2561410085316725,1.427299992966931,-0.7071067789797792,5.4956181482156025e-05,-2.0660876811480865e-05,0.7071067809558808,0,-1,-2.366701234990387e-05,-1.5709403196917933,2.384185791015625e-05,-1.570711914693014,-5.990663637334137e-05,2.3968450477696024e-05
30,1734174008,54845333,-0.00014645003423720257,0.2561410074591602,1.4272999891908698,-0.7071067794150799,3.826602947258481e-05,-2.959600868352616e-05,0.7071067813032348,0,-1,-5.990663637334137e-05,-1.5709403196917933,1.1920928955078125e-05,-1.5706880728351038,-7.135072817021637e-05,2.3968450477696024e-05
45,1734174008,71329593,-0.000125735949983287,0.2561410015027873,1.4272999920171139,-0.707106780464189,3.3793242492071934e-05,-2.496507644357265e-05,0.7071067806606942,0,-1,-3.5587941304981996e-05,-1.5709403196917933,7.200241088867188e-05,-1.5706999937640589,-2.366701234990387e-05,0.0
61,1734174008,86515188,-0.00014427432164485952,0.25614100745454776,1.4272999891113873,-0.7071067808042614,2.536387279630649e-05,-1.687288153389291e-05,0.7071067809126244,0,-1,-3.5587941304981996e-05,-1.57092792192568,3.5762786865234375e-05,-1.570711914693014,1.1984225238848012e-05,3.5952674807049334e-05
78,1734174008,102886676,-0.000122548412664206,0.2561410046602001,1.4272999915858269,-0.7071067806427844,2.972476642298059e-05,-2.937072730058105e-05,0.7071067804955598,0,-1,-4.7985707418263246e-05,-1.5709527174579065,7.200241088867188e-05,-1.5706999937640589,1.1984225238848012e-05,5.992112710373476e-05
93,1734174008,119054079,-0.00011517150388232154,0.25614100760206154,1.4272999914510724,-0.7071067797064436,4.68586676695809e-05,4.498278880897671e-06,0.7071067810997245,0,-1,-4.7985707418263246e-05,-1.5709527174579065,7.200241088867188e-05,-1.570711914693014,-5.990663637334137e-05,3.5952674807049334e-05
110,1734174008,135109901,-0.00014824635904814396,0.2561410055747371,1.4272999891956422,-0.7071067803364528,2.1149187932645513e-05,-3.794630577772435e-05,0.7071067807021831,0,-1,1.1984225238848012e-05,-1.57092792192568,2.384185791015625e-05,-1.570723835621969,-7.135072817021637e-05,2.3968450477696024e-05
126,1734174008,151509284,-0.00017538316140288345,0.2561410064811873,1.427299985139628,-0.7071067801864934,2.1126809317867345e-05,-4.6398054086007014e-05,0.7071067803487452,0,-1,-3.5587941304981996e-05,-1.5709403196917933,7.200241088867188e-05,-1.570723835621969,-3.5587941304981996e-05,1.1984225238848012e-05
142,1734174008,167190551,-0.00010410387880210626,0.25614100688065167,1.4272999932139279,-0.7071067800804638,3.8367480735569354e-05,-2.9157382677889833e-05,0.7071067806505761,0,-1,-3.5587941304981996e-05,-1.5709527174579065,7.200241088867188e-05,-1.570711914693014,1.1984225238848012e-05,3.5952674807049334e-05
158,1734174008,182613849,-0.0001453781442510036,0.25614100375530624,1.427299990242795,-0.7071067812468179,4.1612997749722444e-06,-1.2573805146537342e-05,0.7071067810022386,0,-1,-4.7985707418263246e-05,-1.5709527174579065,8.392333984375e-05,-1.5706880728351038,0.0,1.1984225238848012e-05
174,1734174008,199185132,-0.00011746247167147432,0.25614100768091996,1.427299991586399,-0.7071067797264983,4.665064132979914e-05,-2.0874222079101406e-05,0.7071067807996229,0,-1,-3.5587941304981996e-05,-1.5709527174579065,3.5762786865234375e-05,-1.5706999937640589,-5.990663637334137e-05,4.793690095539205e-05
190,1734174008,215004205,-0.00016365712798121414,0.25614100412952945,1.4272999874676258,-0.7071067803087208,3.3523203545755484e-05,-8.37637598488681e-06,0.7071067812201108,0,-1,0.0,-1.5709403196917933,2.384185791015625e-05,-1.570711914693014,-3.5587941304981996e-05,3.5952674807049334e-05
205,1734174008,230693817,-0.00011693356394515895,0.2561410076014695,1.4272999920634037,-0.7071067795153059,4.681922871390346e-05,-2.9472179171336637e-05,0.7071067806935831,0,-1,-7.135072817021637e-05,-1.57092792192568,4.8160552978515625e-05,-1.5706999937640589,-4.7985707418263246e-05,2.3968450477696024e-05
221,1734174008,246352434,-0.0001718973026308371,0.2561410131535389,1.427299985224558,-0.70710678045176,2.930851869205074e-05,-2.9449800234084372e-05,0.7071067807006707,0,-1,-2.366701234990387e-05,-1.570916000996725,2.384185791015625e-05,-1.570711914693014,-3.5587941304981996e-05,4.793690095539205e-05
237,1734174008,262338399,-0.00016751474058903786,0.2561410042533914,1.4272999874390335,-0.7071067809088502,8.167958601950892e-06,-2.530225123318087e-05,0.7071067809643774,0,-1,-5.990663637334137e-05,-1.57092792192568,6.008148193359375e-05,-1.5707357565509241,-2.366701234990387e-05,2.3968450477696024e-05
253,1734174008,278454542,-0.00013091572879582388,0.25614100681352625,1.4272999909797424,-0.707106780392827,3.402896573066051e-05,-8.207788592762581e-06,0.707106781113823,0,-1,-2.366701234990387e-05,-1.5709765593158167,3.5762786865234375e-05,-1.570711914693014,-2.366701234990387e-05,2.3968450477696024e-05
269,1734174008,294502496,-0.00013931204840386162,0.25614100536293455,1.4272999908461315,-0.7071067812590491,1.3758093327659171e-07,-2.5026893684183592e-05,0.7071067806711394,0,-1,-1.1746083394825746e-05,-1.5709527174579065,8.392333984375e-05,-1.5706999937640589,-3.5587941304981996e-05,3.5952674807049334e-05
285,1734174008,310436010,-0.00013327233726460641,0.25614100508960796,1.4272999910199893,-0.7071067805096752,2.5386251403284825e-05,-2.49426978295548e-05,0.7071067809677984,0,-1,-1.1746083394825746e-05,-1.57092792192568,0.0,-1.5707476774798792,-1.1746083394825746e-05,1.1984225238848012e-05
301,1734174008,326967954,-0.0001535419814473243,0.25614100392269795,1.427299989115509,-0.7071067808482246,1.257360946107271e-05,-2.0896600373303584e-05,0.707106781104309,0,-1,-3.5587941304981996e-05,-1.5709527174579065,0.0,-1.570711914693014,-3.5587941304981996e-05,3.5952674807049334e-05
317,1734174008,343059778,-9.562213787809876e-05,0.2561410064051029,1.4272999935944048,-0.7071067805443725,3.410803866717269e-05,-2.498745505606086e-05,0.7071067805646056,0,-1,-2.366701234990387e-05,-1.5709527174579065,4.8160552978515625e-05,-1.570711914693014,-1.1746083394825746e-05,1.1984225238848012e-05
333,1734174008,358408927,-0.00010333222109792005,0.2561410027018191,1.4272999940495827,-0.7071067803883659,3.822127164652143e-05,-3.678307892507759e-06,0.7071067809421739,0,-1,-5.990663637334137e-05,-1.5709646383868616,6.008148193359375e-05,-1.570723835621969,-3.5587941304981996e-05,3.5952674807049334e-05
349,1734174008,374474287,-0.00010098822067795623,0.2561410038929173,1.427299993627795,-0.7071067791120199,5.531573393058372e-05,-3.7797597601822937e-06,0.7071067810873461,0,-1,-2.366701234990387e-05,-1.57092792192568,2.384185791015625e-05,-1.570723835621969,-3.5587941304981996e-05,3.5952674807049334e-05
365,1734174008,390575885,-0.0001431569569727977,0.2561410018837218,1.427299989761685,-0.7071067810987599,2.095822193823307e-05,-1.2511987905013348e-05,0.707106780853043,0,-1,-3.5587941304981996e-05,-1.5709765593158167,0.0,-1.570711914693014,-2.366701234990387e-05,1.1984225238848012e-05
381,1734174008,406513452,-0.00013011591376180422,0.25614100480097135,1.4272999916267843,-0.7071067788388253,4.652681176781796e-05,-2.9090246495885536e-05,0.7071067814051807,0,-1,-3.5587941304981996e-05,-1.5709765593158167,9.584426879882812e-05,-1.570711914693014,-1.1746083394825746e-05,3.5952674807049334e-05
397,1734174008,422563791,-0.00013083614340433531,0.25614100505467363,1.4272999915307485,-0.7071067813447038,4.329887171382455e-06,-1.2360460519904048e-05,0.707106780907102,0,-1,-2.366701234990387e-05,-1.570916000996725,6.008148193359375e-05,-1.5706999937640589,-5.990663637334137e-05,0.0
413,1734174008,438618183,-0.0001065970338766958,0.25614100564657644,1.427299993161355,-0.7071067800277765,4.2626922819924705e-05,3.9016850239618714e-07,0.7071067810603593,0,-1,-1.1746083394825746e-05,-1.5709527174579065,2.384185791015625e-05,-1.5706880728351038,-2.366701234990387e-05,2.3968450477696024e-05
429,1734174008,454590797,-0.00012430565300047122,0.2561410047705021,1.4272999920503495,-0.7071067804957925,2.9600936256080826e-05,-2.072801298023021e-05,0.7071067809539159,0,-1,-3.5587941304981996e-05,-1.57092792192568,3.5762786865234375e-05,-1.5706999937640589,-3.5587941304981996e-05,3.5952674807049334e-05
445,1734174008,470644474,-0.00013164431988515562,0.256141004924612,1.4272999914487912,-0.707106779885549,2.976952363203193e-05,-3.77553397654184e-05,0.7071067808529342,0,-1,0.0,-1.5709403196917933,0.0,-1.5706880728351038,-4.7985707418263246e-05,1.1984225238848012e-05
461,1734174008,486638545,-0.00014886052534961793,0.2561410055965941,1.427299989551392,-0.7071067801335384,2.117156653872091e-05,-3.792392715956186e-05,0.7071067809056283,0,-1,-2.366701234990387e-05,-1.5709646383868616,3.5762786865234375e-05,-1.5707357565509241,-1.1746083394825746e-05,3.5952674807049334e-05
477,1734174008,502707958,-0.00017319173729421163,0.2561410022885382,1.427299987068126,-0.7071067810488616,4.166618055256351e-06,-1.2444852377856357e-05,0.7071067812024449,0,-1,-2.366701234990387e-05,-1.5709403196917933,0.00010776519775390625,-1.5706999937640589,-2.366701234990387e-05,4.793690095539205e-05
493,1734174008,518260240,-0.00020595049926405395,0.2561410002170822,1.4272999828661141,-0.7071067806448649,4.104605763127954e-06,-1.2630499122272419e-05,0.7071067816035125,0,-1,-1.1746083394825746e-05,-1.5709527174579065,7.200241088867188e-05,-1.570723835621969,-4.7985707418263246e-05,3.5952674807049334e-05
509,1734174008,534900426,-0.0001317003208076132,0.25614100180753696,1.4272999915791305,-0.707106781054259,1.7018698953461107e-05,8.712963731364696e-06,0.707106781060352,0,-1,-1.1746083394825746e-05,-1.5709646383868616,9.584426879882812e-05,-1.5706880728351038,-5.990663637334137e-05,3.5952674807049334e-05
525,1734174008,550649404,-0.0001653704849987759,0.2561410042019814,1.4272999883748316,-0.707106781612057,-8.482754769745746e-06,-8.269605833469171e-06,0.7071067806618002,0,-1,-3.5587941304981996e-05,-1.5709403196917933,6.008148193359375e-05,-1.5706880728351038,-3.5587941304981996e-05,3.5952674807049334e-05
541,1734174008,566766500,-0.00014015314917616164,0.256141008933184,1.4272999895954455,-0.7071067792287397,4.243595645006347e-05,-4.2284821107411424e-05,0.7071067806066789,0,-1,-3.5587941304981996e-05,-1.5709527174579065,7.200241088867188e-05,-1.5706880728351038,2.3968450477696024e-05,3.5952674807049334e-05
557,1734174008,583256244,-0.0001032574927865878,0.2561410068819728,1.4272999925097025,-0.7071067800881313,4.2413578196437826e-05,-8.252545822414877e-06,0.707106780964784,0,-1,-4.7985707418263246e-05,-1.5709403196917933,3.5762786865234375e-05,-1.5706999937640589,-1.1746083394825746e-05,5.992112710373476e-05
574,1734174008,598865985,-0.00018611463197352874,0.25614100469359524,1.427299984052825,-0.707106781048517,1.2528852235542188e-05,-2.094135760598009e-05,0.707106780903487,0,-1,-3.5587941304981996e-05,-1.5709646383868616,1.1920928955078125e-05,-1.570711914693014,0.0,0.0
590,1734174008,615027427,-8.604128730615293e-05,0.2561410058311464,1.4272999938398132,-0.7071067800194446,4.6774471824411175e-05,-1.2321021888796361e-05,0.7071067806992618,0,-1,-5.990663637334137e-05,-1.57092792192568,6.008148193359375e-05,-1.570723835621969,-3.5587941304981996e-05,4.793690095539205e-05
605,1734174008,630810737,-0.000159340559714418,0.2561410038510632,1.4272999887861777,-0.7071067792560434,1.6788294275841734e-05,-5.039939428804553e-05,0.7071067811216346,0,-1,-7.135072817021637e-05,-1.5709527174579065,2.384185791015625e-05,-1.570711914693014,-5.990663637334137e-05,2.3968450477696024e-05
621,1734174008,647113323,-0.00013135425981070838,0.25614100484504154,1.4272999911349609,-0.7071067797508892,2.9578557623479733e-05,-4.603850068001484e-05,0.7071067805048209,0,-1,-3.5587941304981996e-05,-1.5709884802447718,3.5762786865234375e-05,-1.570711914693014,-2.366701234990387e-05,1.1984225238848012e-05
638,1734174008,662763833,-8.816879946334574e-05,0.25614100216664026,1.42729999338721,-0.7071067806473265,5.5012875503301165e-05,-1.217481309981011e-05,0.7071067794809573,0,-1,-5.990663637334137e-05,-1.5709403196917933,4.8160552978515625e-05,-1.570711914693014,-4.7985707418263246e-05,2.3968450477696024e-05
653,1734174008,679392814,-0.00012508553209723366,0.25614100324921885,1.4272999915006592,-0.7071067810086522,2.534149418298714e-05,-8.128715659276084e-06,0.7071067808636221,0,-1,-4.7985707418263246e-05,-1.5709403196917933,3.5762786865234375e-05,-1.570723835621969,-5.990663637334137e-05,4.793690095539205e-05
670,1734174008,694843053,-0.00013409130508017583,0.25614100517077865,1.4272999909797424,-0.7071067810976325,1.269743962991034e-05,-2.0772770211693042e-05,0.707106780856337,0,-1,-7.135072817021637e-05,-1.5709646383868616,3.5762786865234375e-05,-1.570711914693014,-2.366701234990387e-05,3.5952674807049334e-05
686,1734174008,710917711,-0.000145070782757696,0.2561410073929758,1.4272999891956422,-0.707106780026078,2.976952363245807e-05,-3.8092514555928174e-05,0.7071067806943218,0,-1,-1.1746083394825746e-05,-1.5709765593158167,3.5762786865234375e-05,-1.5707357565509241,-3.5587941304981996e-05,1.1984225238848012e-05
701,1734174008,727019071,-0.0001479088777233989,0.2561410019395383,1.42729999029436,-0.7071067806095592,1.6810672602257696e-05,-1.6659537224567747e-05,0.7071067813674577,0,-1,-5.990663637334137e-05,-1.57092792192568,0.0,-1.570711914693014,-2.366701234990387e-05,0.0
717,1734174008,743071079,-6.56076782893481e-05,0.2561410055176715,1.4272999940747788,-0.7071067791732664,6.346462380605278e-05,-1.2152434479535293e-05,0.7071067802473465,0,-1,-3.5587941304981996e-05,-1.5709527174579065,3.5762786865234375e-05,-1.5706637541400355,-3.5587941304981996e-05,1.1984225238848012e-05
733,1734174008,758801221,-0.00015735881244944235,0.25614100599882134,1.4272999882916775,-0.7071067810497488,1.238264345602327e-05,-2.1087566384218026e-05,0.7071067809004856,0,-1,-1.1746083394825746e-05,-1.570916000996725,4.8160552978515625e-05,-1.570711914693014,-2.366701234990387e-05,2.3968450477696024e-05
749,1734174008,775557279,-9.889525124111717e-05,0.25614100264883455,1.4272999931666759,-0.7071067805505095,3.383799940481167e-05,8.797159265569909e-06,0.7071067809582181,0,-1,-2.366701234990387e-05,-1.5709403196917933,1.1920928955078125e-05,-1.570711914693014,-3.5587941304981996e-05,3.5952674807049334e-05
766,1734174008,791094303,-0.00011992434167386825,0.25614100934543954,1.4272999903644215,-0.7071067789897395,5.9126108465815745e-05,-2.525749431793456e-05,0.7071067804602909,0,-1,-3.5587941304981996e-05,-1.5709765593158167,7.200241088867188e-05,-1.5706999937640589,-2.366701234990387e-05,1.1984225238848012e-05
781,1734174008,806946992,-0.0001323615422032807,0.25614101031317216,1.4272999902701384,-0.7071067804481548,2.940997024241975e-05,-3.777771838269976e-05,0.7071067803041792,0,-1,-1.1746083394825746e-05,-1.5709403196917933,4.8160552978515625e-05,-1.5706999937640589,-2.366701234990387e-05,4.793690095539205e-05
797,1734174008,822988748,-0.00013147601246038423,0.2561410067883865,1.42729999101869,-0.7071067803536105,2.555483879001953e-05,-3.354065492111229e-05,0.7071067807622308,0,-1,-2.366701234990387e-05,-1.57092792192568,4.8160552978515625e-05,-1.5706999937640589,-3.5587941304981996e-05,1.1984225238848012e-05
813,1734174008,839130878,-0.00012865529006687027,0.25614100166561865,1.4272999915858269,-0.7071067806409016,2.9769523654423713e-05,-1.2467230674481911e-05,0.7071067809956311,0,-1,-5.990663637334137e-05,-1.5709527174579065,7.200241088867188e-05,-1.570711914693014,-3.5587941304981996e-05,2.3968450477696024e-05
829,1734174008,854832410,-0.00016755690687462587,0.2561410001367529,1.4272999886321447,-0.7071067800459813,1.599595344800592e-07,-3.3771059535663094e-05,0.7071067815206514,0,-1,0.0,-1.5709765593158167,3.5762786865234375e-05,-1.5706999937640589,-3.5587941304981996e-05,0.0
846,1734174008,870970964,-0.00013708094246506225,0.25614101051028276,1.4272999887234197,-0.7071067789372154,5.0696738750301015e-05,-4.211623371354792e-05,0.7071067803642527,0,-1,-1.1746083394825746e-05,-1.5709403196917933,7.200241088867188e-05,-1.5706999937640589,-3.5587941304981996e-05,0.0
862,1734174008,887159824,-0.00010027878239495932,0.25614100391543526,1.4272999940495827,-0.7071067803895752,3.8198893352362804e-05,-1.2130055885485546e-05,0.7071067808476986,0,-1,-4.7985707418263246e-05,-1.5709527174579065,3.5762786865234375e-05,-1.570723835621969,-1.1746083394825746e-05,-1.1746083394825746e-05
877,1734174008,903294324,-0.0001747830385578494,0.2561410043928465,1.4272999866531788,-0.7071067804614627,8.420741839998236e-06,-3.347883767509004e-05,0.7071067810689439,0,-1,-8.32716571252945e-05,-1.57092792192568,3.5762786865234375e-05,-1.5706999937640589,-3.5587941304981996e-05,3.5952674807049334e-05
893,1734174008,919355392,-0.0001615036480241926,0.2561410020514582,1.4272999883838657,-0.7071067805957644,8.314167382054069e-06,-3.392258693848386e-05,0.7071067809147542,0,-1,-4.7985707418263246e-05,-1.5709527174579065,1.1920928955078125e-05,-1.570723835621969,-2.366701234990387e-05,4.793690095539205e-05
910,1734174008,935195207,-0.00012597984023201685,0.2561410032378206,1.4272999920187648,-0.7071067806457845,2.9600936260509765e-05,-1.2298643280430507e-05,0.7071067810007781,0,-1,-3.5587941304981996e-05,-1.5709765593158167,3.5762786865234375e-05,-1.5706880728351038,-3.5587941304981996e-05,2.3968450477696024e-05
926,1734174008,950804233,-0.00010295026252647716,0.25614100406253304,1.4272999936085817,-0.7071067802784301,3.8243650581183896e-05,4.773440746711375e-06,0.707106781044355,0,-1,-7.135072817021637e-05,-1.5709765593158167,4.8160552978515625e-05,-1.570723835621969,-1.1746083394825746e-05,2.3968450477696024e-05
942,1734174008,967006683,-0.00016722576530539071,0.25614100634996584,1.4272999875290187,-0.7071067809619598,8.381302902475542e-06,-2.5088906927556676e-05,0.7071067809163729,0,-1,-1.1746083394825746e-05,-1.57092792192568,8.392333984375e-05,-1.570711914693014,-5.990663637334137e-05,0.0
957,1734174008,983132600,-0.00014001163599067427,0.25614100723053834,1.4272999905243318,-0.7071067807467979,1.288840562868669e-05,-3.7777718383890746e-05,0.7071067804996872,0,-1,-1.1746083394825746e-05,-1.5709403196917933,1.1920928955078125e-05,-1.5707357565509241,-3.5587941304981996e-05,2.3968450477696024e-05
973,1734174008,998756647,-0.00015078347848750042,0.25614100385741245,1.4272999891291855,-0.7071067808475905,2.1002979166441847e-05,-1.2467230674414982e-05,0.707106781103675,0,-1,-8.32716571252945e-05,-1.57092792192568,4.8160552978515625e-05,-1.570711914693014,-5.990663637334137e-05,1.1984225238848012e-05
990,1734174009,14929056,-0.0001237949842991154,0.25614100170831977,1.4272999920974863,-0.707106780689195,2.964569349334202e-05,1.3034223052694856e-05,0.707106780942316,0,-1,-5.990663637334137e-05,-1.5709765593158167,1.1920928955078125e-05,-1.5706999937640589,-3.5587941304981996e-05,1.1984225238848012e-05
1006,1734174009,30529975,-0.0001233282960153119,0.25614100644943794,1.4272999920252452,-0.707106780392827,3.40289657306605e-05,-8.20778859276258e-06,0.707106781113823,0,-1,0.0,-1.5709403196917933,3.5762786865234375e-05,-1.5707357565509241,-7.135072817021637e-05,1.1984225238848012e-05
1021,1734174009,46792030,-0.00018953935984897678,0.2561410071245993,1.4272999841375347,-0.7071067806090847,8.212715495733064e-06,-3.368686401535405e-05,0.7071067809138887,0,-1,-3.5587941304981996e-05,-1.57092792192568,4.8160552978515625e-05,-1.570723835621969,-4.7985707418263246e-05,0.0
1037,1734174009,63087701,-0.00013071092727762255,0.2561410067516734,1.427299991369727,-0.7071067803536105,2.555483879001952e-05,-3.3540654921112284e-05,0.7071067807622308,0,-1,-4.7985707418263246e-05,-1.5709646383868616,6.008148193359375e-05,-1.570711914693014,0.0,3.5952674807049334e-05
1053,1734174009,79015493,-0.000124898985568174,0.25614100812641655,1.4272999913558837,-0.7071067804905978,2.972476641852539e-05,-3.780009699679254e-05,0.707106780247377,0,-1,-5.990663637334137e-05,-1.5709403196917933,2.384185791015625e-05,-1.570723835621969,1.1984225238848012e-05,0.0
1069,1734174009,95295190,-0.00019454712764549313,0.25614100248735505,1.427299984216647,-0.7071067803421086,3.998030644319457e-06,-2.947217915805474e-05,0.7071067814054842,0,-1,-3.5587941304981996e-05,-1.57092792192568,2.384185791015625e-05,-1.5706999937640589,-3.5587941304981996e-05,4.793690095539205e-05
1086,1734174009,111053705,-0.0001375459541734337,0.2561410104742139,1.4272999896540635,-0.7071067782498711,5.055053024926789e-05,-5.0354637071032964e-05,0.7071067805233817,0,-1,-2.366701234990387e-05,-1.5709403196917933,3.5762786865234375e-05,-1.570723835621969,-2.366701234990387e-05,4.793690095539205e-05
1101,1734174009,127279281,-0.00016098506357981087,0.25614100602808143,1.4272999872204741,-0.7071067802354,2.9600936248326802e-05,-2.949455746552585e-05,0.7071067809029845,0,-1,-4.7985707418263246e-05,-1.57092792192568,4.8160552978515625e-05,-1.5706999937640589,-3.5587941304981996e-05,2.3968450477696024e-05
1118,1734174009,142878055,-0.0001582322867899416,0.2561410101558663,1.4272999874390335,-0.7071067807577905,1.6743537078255752e-05,-4.2351956632956676e-05,0.7071067801487407,0,-1,-2.366701234990387e-05,-1.5709527174579065,8.392333984375e-05,-1.570711914693014,-4.7985707418263246e-05,0.0
1133,1734174009,159041166,-0.0001371045861411991,0.256141008681307,1.4272999891814904,-0.7071067784850995,5.914848737597807e-05,-3.366448507999398e-05,0.7071067806127893,0,-1,-4.7985707418263246e-05,-1.5709403196917933,6.008148193359375e-05,-1.5707476774798792,-2.366701234990387e-05,3.5952674807049334e-05
1149,1734174009,174686908,-0.00011972550068091705,0.2561410092719593,1.4272999913814899,-0.7071067788719537,5.508001099770394e-05,-3.7732961471210764e-05,0.7071067803491534,0,-1,-4.7985707418263246e-05,-1.5709765593158167,1.1920928955078125e-05,-1.570711914693014,-3.5587941304981996e-05,1.1984225238848012e-05
1165,1734174009,191411495,-0.00016175379862202433,0.2561410001367529,1.4272999883454,-0.7071067805964542,2.5301859549099686e-05,-8.629159554952863e-06,0.7071067812713094,0,-1,-3.5587941304981996e-05,-1.5709527174579065,4.8160552978515625e-05,-1.570711914693014,-3.5587941304981996e-05,4.793690095539205e-05
1182,1734174009,206458091,-0.00015040243732657754,0.25614101160040315,1.4272999866212235,-0.7071067803477618,3.781696133204359e-05,-2.9370727297166504e-05,0.7071067804041056,0,-1,-5.990663637334137e-05,-1.5709403196917933,8.392333984375e-05,-1.570723835621969,1.1984225238848012e-05,2.3968450477696024e-05
1197,1734174009,222972393,-0.00011778903145464055,0.2561410002170822,1.4272999931471781,-0.7071067811586533,1.7164907732384884e-05,4.298028079138664e-07,0.7071067810059734,0,-1,-2.366701234990387e-05,-1.5709403196917933,0.00011968612670898438,-1.5707357565509241,-0.00010711351503545075,1.1984225238848012e-05
1214,1734174009,238876104,2.7487814298523165e-05,0.25614099837539833,1.427299986737578,-0.7071067832019716,0.00010143622563317415,-3.352359452141161e-05,0.7071067711008151,0,-1,-5.990663637334137e-05,-1.5709527174579065,0.00052642822265625,-1.5708320776568812,-0.00037080446352177887,-8.374849428349762e-05
1229,1734174009,254763126,0.00042408692557708975,0.2561409486527955,1.427299802617852,-0.7071068038876661,0.0004018589333602237,-8.848306637542797e-05,0.7071066387581963,0,-1,-0.00010711351503545075,-1.5709884802447718,0.001209259033203125,-1.5708683172809046,-0.0008619467364709976,-0.00027496019472295075
1246,1734174009,270940303,0.0009637199882720943,0.2561408198281233,1.42729926935158,-0.7071068599542323,0.0007494859801332634,-0.00012253762735477448,0.7071062945985993,0,-1,-0.00019103685487920075,-1.5709403196917933,0.0016045570373535156,-1.570916000996725,-0.0012815634356897476,-0.00040704408754521637
1261,1734174009,286876440,0.001141266631514579,0.256140778199034,1.4272990415270368,-0.7071068776544056,0.0008762635960770175,-0.00011410821584025672,0.707106132567992,0,-1,-0.00014335313905888825,-1.5708802382098597,0.0013165473937988281,-1.5707719961749476,-0.0011137167560022476,-0.0002992788897913101
1277,1734174009,303186178,0.0006867231699855612,0.2561409160411206,1.4272996442166959,-0.7071067953039666,0.0006093899607096367,3.625026260931007e-07,0.7071065044805476,0,-1,-2.366701234990387e-05,-1.570796314870016,0.0003352165222167969,-1.5704363028155726,-0.0003350416766565445,2.3968450477696024e-05
1293,1734174009,318787097,-0.00033972009676859363,0.25614096969752354,1.427299916564667,-0.7071067744434701,-9.704503622256139e-05,0.00022497178188501897,0.7071067454819744,0,-1,0.00017976337403524667,-1.5707600752459925,-0.0015562216388147476,-1.5700529257403772,0.0011740796035155654,0.00044341632747091353
1309,1734174009,335014343,-0.0018872850615626754,0.25614025358463777,1.427297655923031,-0.7071070161131732,-0.0011170842056274389,0.0005427841037380888,0.7071054555522951,0,-1,0.00044266731129027903,-1.570796314870016,-0.0038555304156702164,-1.5695131460772913,0.003030510852113366,0.0010302688460797071
1325,1734174009,351220369,-0.003968016538427567,0.25613793435358917,1.4272899242275043,-0.7071077759006124,-0.002497079592928596,0.0008313859256976356,0.707100888595,0,-1,0.00075388269033283,-1.5708921591388147,-0.0067055861102502945,-1.5689852873431605,0.005282421596348286,0.0017006364651024342
1342,1734174009,366828441,-0.006559217701518037,0.2561328106784466,1.427273344193847,-0.7071093244392134,-0.004127086054689911,0.0011575362744287475,0.7070912462770204,0,-1,0.0011370034189894795,-1.5711444059955042,-0.0099261442767542,-1.5684097448932093,0.007833563722670078,0.002563126152381301
1358,1734174009,382947683,-0.009630812655823889,0.2561241874913192,1.4272437505215487,-0.7071119420826374,-0.006057276801087425,0.0014207073965967786,0.7070742481185192,0,-1,0.0015560766914859414,-1.5715277830706995,-0.013554398213521779,-1.5678580443011683,0.010660717263817787,0.0034012729302048683
1373,1734174009,399046897,-0.013001452799265798,0.256111720618918,1.4271985063736528,-0.7071157761016218,-0.008186887350205297,0.0016453446017712103,0.7070484756400071,0,-1,0.0019867599476128817,-1.5719354788409632,-0.017385784779683888,-1.5672467390643519,0.013678869232535362,0.004311325028538704
1389,1734174009,414644718,-0.016593327483262105,0.2560943568250371,1.4271367675506166,-0.7071210165360431,-0.010396523034680232,0.001942046827167217,0.7070134431083638,0,-1,0.0024653798900544643,-1.5723078886615198,-0.02126485506166631,-1.5665634314166468,0.016829222440719604,0.005305266939103603
1405,1734174009,430697202,-0.020043743001906967,0.2560714044587221,1.4270627584400928,-0.7071267809655003,-0.012597618945296278,0.0023569789194380765,0.7069706219417125,0,-1,0.002979952609166503,-1.5726311842547815,-0.02520448366274053,-1.565699879323141,0.020027512684464455,0.006299582775682211
1422,1734174009,446810007,-0.02347541028808324,0.2560450381049977,1.4269750617374097,-0.707134315867741,-0.014768784664225425,0.002852425659875881,0.7069192358322544,0,-1,0.0035428365226835012,-1.5728591124164026,-0.029263798390523732,-1.5648368040667933,0.023381223902106285,0.007389398291707039
1437,1734174009,462966680,-0.026904014779548128,0.2560136589197525,1.4268725492580707,-0.707143024405333,-0.016973465115559007,0.003382095765072681,0.7068586888092169,0,-1,0.003949551377445459,-1.5730269590960901,-0.033394638692037404,-1.5639012495623987,0.026782870292663574,0.008431277237832546
1453,1734174009,478618860,-0.030201751158931797,0.25597913562711827,1.4267583606994583,-0.7071540071910561,-0.01912713996238057,0.004021995542490883,0.7067893506429956,0,-1,0.004476108122617006,-1.5731352011310022,-0.03746539751161748,-1.562894646321432,0.030316345393657684,0.009521092288196087
1470,1734174009,494826078,-0.03358287570798534,0.2559364700664586,1.4266288568639849,-0.7071650613976107,-0.02135292236381916,0.004698983137645309,0.7067103708044126,0,-1,0.004990680608898401,-1.5732548872577112,-0.04170400301088506,-1.5618155638324183,0.03382622450590134,0.010575329884886742
1485,1734174009,510756015,-0.03707824271885112,0.2558916192787942,1.426477930642925,-0.7071798169740074,-0.023582100743366013,0.005312711039057961,0.7066203832968269,0,-1,0.0055412063375115395,-1.5733988920794886,-0.04618198076357061,-1.56079608598818,0.03745557367801666,0.011808956041932106
1501,1734174009,527048587,-0.04078531326741386,0.2558371645383444,1.4263041665692406,-0.7071956927138893,-0.025963091855451738,0.005960071695377286,0.7065158509287768,0,-1,0.006104090251028538,-1.5736263434039515,-0.05070811906923467,-1.5597050825702112,0.041240714490413666,0.013042207807302475
1517,1734174009,542737960,-0.04458279793413616,0.2557766201807151,1.4261096131741458,-0.7072141237525451,-0.028369320145864307,0.006607392954497567,0.7063991132481171,0,-1,0.006654241122305393,-1.5738666693316858,-0.055437866841451466,-1.5586379210101526,0.04504982754588127,0.014251865446567535
1534,1734174009,558907747,-0.04851760478109422,0.2557075891333037,1.4258884482577043,-0.7072337507196383,-0.03090661680164876,0.007206918457629815,0.7062671330362567,0,-1,0.007264687679708004,-1.5741427580462855,-0.060274902974263966,-1.557690445576803,0.049014732241630554,0.015521444380283356
1549,1734174009,575328111,-0.05264478820381375,0.2556333716274879,1.4256387828239085,-0.7072582031691309,-0.03352326077800853,0.007802713126009643,0.7061169469037372,0,-1,0.007803228683769703,-1.5744546095477503,-0.06511193910707647,-1.5567196051227015,0.05295566841959953,0.016766680404543877
1566,1734174009,591007947,-0.05681219008615411,0.25555077800043796,1.425366319204846,-0.707282573153652,-0.03618170806466143,0.008329998823648065,0.7059552796277331,0,-1,0.008365738205611706,-1.574789826069967,-0.06986505190004522,-1.5557721296893519,0.056872639805078506,0.01804824359714985
1581,1734174009,607273578,-0.060928250653142994,0.25546579836153704,1.4250767071025525,-0.7073096160105826,-0.03880157222401368,0.00886914738018599,0.7057824617519588,0,-1,0.00894023198634386,-1.5751259962665003,-0.07466632524599248,-1.5547531286822718,0.06082556024193764,0.01926988549530506
1598,1734174009,623024702,-0.06497916350580882,0.25537018807926326,1.424774664007428,-0.7073371471498159,-0.041349084365956426,0.00948862944113741,0.7056021395909918,0,-1,0.009502741508185863,-1.5754135290728968,-0.07934791246523076,-1.553793732319967,0.0646466538310051,0.020515495911240578
1613,1734174009,639273166,-0.06889811075622261,0.25527716114269,1.4244601700455777,-0.7073676907991477,-0.04381071411201301,0.010065709236867624,0.7054149508197538,0,-1,0.010017313994467258,-1.5757129828082483,-0.08396941820253545,-1.5527985731707972,0.06844378262758255,0.021736763417720795
1630,1734174009,654988050,-0.07275503633266327,0.25517894830274424,1.4241319013256513,-0.7073977120485503,-0.046276139834219576,0.010612537193263289,0.7052193771620585,0,-1,0.010507918894290924,-1.5759413878070276,-0.08850700059999639,-1.551779572163717,0.07213342934846878,0.022934436798095703
1645,1734174009,671241283,-0.07644979548322291,0.25507896957375636,1.423796705706639,-0.7074307933781155,-0.048652344197037366,0.011230610833357378,0.705016663182405,0,-1,0.011034850031137466,-1.5760849157916468,-0.09305698076357061,-1.5507600943194788,0.07587063312530518,0.024096157401800156
1662,1734174009,687149524,-0.08012781449737447,0.2549755575959943,1.4234486824392407,-0.7074654271393054,-0.05100249734564507,0.011823560948075297,0.704806085440254,0,-1,0.011573391035199165,-1.576313320790426,-0.09742671648134404,-1.549776856099264,0.07956027239561081,0.02526986226439476
1677,1734174009,703499794,-0.0837244936615116,0.25486473566144735,1.4230924914531684,-0.7074991350028513,-0.05330954966604929,0.012466338179182983,0.7045904174036306,0,-1,0.012099947780370712,-1.576529328023092,-0.10188085237611944,-1.5488060156451624,0.08320160955190659,0.026431957259774208
1694,1734174009,719017982,-0.08740123618314849,0.2547481133374483,1.4227111719026089,-0.7075340555948897,-0.05568725426638952,0.013019921746666501,0.7043613926979734,0,-1,0.012614520266652107,-1.576756779347555,-0.10627490678896123,-1.5478108564959925,0.08686728030443192,0.027605287730693817
1709,1734174009,735305309,-0.09111360012905388,0.2546276856175209,1.422309850409988,-0.7075723720957764,-0.05806897689300213,0.013576629912351451,0.7041200233550948,0,-1,0.013141077943146229,-1.5769966284381312,-0.11080056825746709,-1.5468514601336878,0.09050898998975754,0.02882692962884903
1726,1734174009,751105070,-0.09492198956484131,0.2544964223155777,1.4218835866800068,-0.7076122204816125,-0.06048732448511056,0.01414571867266911,0.7038651345570034,0,-1,0.013703587464988232,-1.5772364775287073,-0.11544591585268194,-1.545868221913473,0.09425855427980423,0.030000634491443634
1741,1734174009,766709804,-0.09883814995750433,0.2543547490445717,1.4214288260015608,-0.707651927260205,-0.06298492969393085,0.014743494162586763,0.7035938301721001,0,-1,0.014278455637395382,-1.577536408101217,-0.12018758455385381,-1.5447891394244593,0.09804369509220123,0.031174341216683388
1757,1734174009,782635450,-0.10286280403172782,0.25421072056475214,1.420937132484533,-0.7076972338136708,-0.06552776643078884,0.01523485633877278,0.7033055070390161,0,-1,0.014852575026452541,-1.5778363386737269,-0.12495214143861944,-1.543781582509176,0.1019490584731102,0.0323839969933033
1774,1734174009,798851490,-0.10687197300629357,0.2540534631890538,1.4204295576462598,-0.7077423437512644,-0.06812836965076215,0.015835119044644096,0.7029996793136096,0,-1,0.01547500491142273,-1.5781000296222132,-0.1298130194293421,-1.5427749792682093,0.10591433197259903,0.03371312469244003
1789,1734174009,814771652,-0.11100220240579521,0.25388463017981655,1.4198874290348191,-0.7077918906471491,-0.07078226484505733,0.016463865097530107,0.7026730759489711,0,-1,0.016049498692154884,-1.578423325215475,-0.13474542299379522,-1.5417073408709925,0.10995114594697952,0.03495873510837555
1805,1734174009,831059932,-0.11524969573407319,0.25371026415374515,1.4193125307877488,-0.7078453186919279,-0.07345613705373365,0.017036126603022658,0.7023310979341808,0,-1,0.01667155511677265,-1.5787599722491663,-0.13975030580629522,-1.5407007376300257,0.11408383399248123,0.03622831404209137
1821,1734174009,846831321,-0.11946907368304442,0.2535264495597297,1.4187149969642532,-0.7078990510119334,-0.07615340040566691,0.01764184632317921,0.7019746138154624,0,-1,0.01727001741528511,-1.5790475050555628,-0.14478999773134404,-1.539609734212057,0.11816895753145218,0.037557438015937805
1837,1734174009,863116741,-0.12361977765212367,0.25333870661211655,1.4181018178795146,-0.7079554094574925,-0.07882006016965781,0.01825920841828106,0.7016075381883119,0,-1,0.01794038526713848,-1.5793712774859827,-0.1498788038836878,-1.5384944120990198,0.12231362611055374,0.038886938244104385
1853,1734174009,878833293,-0.12796571500569578,0.25313486937752855,1.4174438628254962,-0.7080138205679903,-0.0815986479093516,0.018887580326975958,0.701214196842502,0,-1,0.018538473173975945,-1.5796111265765589,-0.1550987402545374,-1.537403408681051,0.12653057277202606,0.04018048569560051
1869,1734174009,894577980,-0.132268427465471,0.2529260417789103,1.416764924941056,-0.7080746772143247,-0.08437137242191899,0.019519021116779674,0.7008071994622447,0,-1,0.019196856766939163,-1.5799711386310022,-0.16025907198061162,-1.5363124052630823,0.13075950741767883,0.04141373559832573
1886,1734174009,910834550,-0.13661628021348288,0.2527109002726096,1.4160547194137936,-0.7081336553817457,-0.08721385665469397,0.020069546886645025,0.7003839537074406,0,-1,0.019795319065451622,-1.5802586714373987,-0.16552621523012334,-1.5352094809161585,0.13496409356594086,0.04275522008538246
1901,1734174009,926560878,-0.14093106611233114,0.25249114533583994,1.4153296785420333,-0.7082025686418917,-0.0899447459462287,0.020719529081235796,0.6999498307452805,0,-1,0.02042935974895954,-1.5805829207049769,-0.1707223097430628,-1.5340827147113245,0.13933683931827545,0.044108688831329346
1917,1734174009,942757129,-0.14532600289610875,0.25225824940502933,1.414568148531649,-0.7082696057644869,-0.09279183560744902,0.021334542448032685,0.6994917283952338,0,-1,0.021076133474707603,-1.5809066931353968,-0.1758940855609339,-1.5329793135272425,0.14366164803504944,0.04544980078935623
1933,1734174009,958600282,-0.14971779503419982,0.25202054144749736,1.4137805750891046,-0.708341346228943,-0.09561128432486722,0.021931676113835754,0.6990207587154732,0,-1,0.021638642996549606,-1.5812786261187952,-0.1811140219317835,-1.5319121519671839,0.14789021015167236,0.04682723805308342
1949,1734174009,974945783,-0.1540136466804213,0.251780439705977,1.4129882786789059,-0.7084179519313197,-0.09833232977538317,0.022581803314100132,0.6985447877276467,0,-1,0.022308634594082832,-1.5815661589251917,-0.18634587923158819,-1.5307372252093714,0.15214310586452484,0.04821665957570076
1965,1734174009,990798950,-0.15833724435344676,0.2515310312179661,1.4121643364603897,-0.7084945777346189,-0.10108447697050904,0.023205990785004328,0.6980536109984169,0,-1,0.022871144115924835,-1.5818541685687464,-0.1915648619281214,-1.5296099821673792,0.1563720405101776,0.049605704843997955
1981,1734174010,7104396,-0.16268420052798058,0.25127537138224443,1.411317316258202,-0.7085722151731687,-0.1038058297302033,0.023798821656019372,0.6975552893401339,0,-1,0.023541511967778206,-1.5821893850909632,-0.19671279588808233,-1.5284712950335901,0.16051708161830902,0.050935205072164536
1997,1734174010,22813796,-0.16685429580263267,0.2510214349786044,1.410476909871392,-0.7086510948725949,-0.10645799747470715,0.024416215405589425,0.6970539211099925,0,-1,0.024115631356835365,-1.5825017134295862,-0.20169336000551397,-1.527332607899801,0.16462618112564087,0.05227668955922127
2013,1734174010,38978099,-0.17101543813462067,0.2507611373654913,1.4096192228271907,-0.7087314709511506,-0.10911637535961409,0.025032350710541617,0.6965390872949647,0,-1,0.024762030690908432,-1.582801644002096,-0.20675784746278936,-1.526229206715719,0.16872328519821167,0.05359382927417755
2029,1734174010,54642200,-0.17515189746123788,0.25049513457654426,1.4087421441715318,-0.7088136149732992,-0.11175629482714979,0.025655510447769744,0.6960140692390169,0,-1,0.025372477248311043,-1.5830653349505823,-0.21174937883485967,-1.5251382032977503,0.17289267480373383,0.05491134524345398
2045,1734174010,70920944,-0.17929943601840206,0.2502220518534976,1.4078396904512989,-0.7088940636154464,-0.11445273195426674,0.02623518265264268,0.6954721374075072,0,-1,0.025887049734592438,-1.583353344594137,-0.21681338945497686,-1.5240829626666468,0.17698977887630463,0.056144971400499344
2061,1734174010,86727380,-0.18339760007432804,0.24994539078542513,1.4069252187109575,-0.7089768419045969,-0.11708021348278344,0.026813791353039983,0.6949281127189241,0,-1,0.026521464809775352,-1.5836766401873987,-0.22186595598329717,-1.522991959248678,0.18108688294887543,0.057414550334215164
2077,1734174010,102540254,-0.18747104650759147,0.2496591101369387,1.4059964837211334,-0.7090619474030927,-0.11972641939805947,0.02745369766388852,0.6943652019849739,0,-1,0.027131911367177963,-1.5839288870440882,-0.22686988512148076,-1.521865193043844,0.18519635498523712,0.058779627084732056
2093,1734174010,118891239,-0.1915634196170369,0.24937068777307236,1.4050374255715634,-0.7091519500686634,-0.12236549121075516,0.028062881536978595,0.6937886370894265,0,-1,0.027706030756235123,-1.5841925779925745,-0.23187381425966436,-1.5207975546466272,0.18935337662696838,0.06006119027733803
2109,1734174010,134557723,-0.19565292770100226,0.2490763634085007,1.4040616965974368,-0.7092447137236497,-0.12500191425036017,0.028661526290065072,0.6931990871311992,0,-1,0.02830449305474758,-1.5844805876361292,-0.23686629930605108,-1.519742790852682,0.19348680973052979,0.061366721987724304
2125,1734174010,150843143,-0.19975629136754006,0.24876796061128953,1.4030654324689698,-0.709335555096134,-0.1276451404715622,0.029292225881020855,0.6925978298358939,0,-1,0.02893928252160549,-1.584803883229391,-0.24188214937318975,-1.5186756292926233,0.19758392870426178,0.06269584596157074
2141,1734174010,166978359,-0.20388430721337603,0.24846116812409785,1.4020299766758404,-0.7094322579729846,-0.13033095258446736,0.029858215898608268,0.691974133251475,0,-1,0.02953699603676796,-1.5850680510150355,-0.24693423906435186,-1.517620865498678,0.2017892599105835,0.06394145637750626
2157,1734174010,182794809,-0.20802265347101684,0.24812897030499587,1.4009751782674356,-0.7095229659722558,-0.13305261199204044,0.030442242574103637,0.6913374234533294,0,-1,0.030147816985845566,-1.585320297871725,-0.25205785432924444,-1.5166133085833948,0.2059103399515152,0.06528294086456299
2173,1734174010,198424100,-0.21210336362424403,0.24781932255963698,1.399906959929954,-0.709625975805263,-0.1356705179379422,0.031000905793130286,0.6906977840306744,0,-1,0.030758263543248177,-1.5855959097491663,-0.2570732275592249,-1.5154503027545374,0.20998385548591614,0.06662405282258987
2189,1734174010,214916467,-0.2162385050068507,0.2474812668923419,1.3988118667056093,-0.7097221993936453,-0.13829953008517995,0.03156137148768011,0.6900518237754915,0,-1,0.03133238106966019,-1.5859554449664515,-0.2621377150165003,-1.514383618031637,0.21404537558555603,0.06791722774505615
2205,1734174010,230540990,-0.22025760797424895,0.24714439913796454,1.397714284370127,-0.7098220661287159,-0.14092112730237308,0.03214147249210071,0.6893916129912148,0,-1,0.03196679800748825,-1.5862434546100062,-0.26715308824648076,-1.5132926146136683,0.21811889111995697,0.06917481869459152
2221,1734174010,246820449,-0.22429290071359723,0.24681963098276682,1.3965940024412031,-0.7099292266359943,-0.1434859343761277,0.032682441314474626,0.6887264608202261,0,-1,0.032541289925575256,-1.5865071455584925,-0.2722051779376429,-1.5122135321246546,0.22221599519252777,0.07051630318164825
2237,1734174010,262542247,-0.228313607147999,0.2464748442562143,1.395460959503373,-0.7100300847905171,-0.14610695509405827,0.0332556384939474,0.6880436751208995,0,-1,0.03311615809798241,-1.5867469946490687,-0.27722102800478154,-1.511146370564596,0.22624194622039795,0.07173794507980347
2253,1734174010,279021978,-0.2323578951382801,0.24611732407972076,1.3942910825172958,-0.7101305506803757,-0.1487663202395686,0.03381777300717207,0.6873423755171798,0,-1,0.033690277487039566,-1.5869987646686,-0.2822368780719202,-1.510019604359762,0.23036302626132965,0.07293524593114853
2269,1734174010,294763803,-0.23627091455537153,0.2457708557864605,1.3931324674392334,-0.7102394227477447,-0.1513564389372848,0.03442081797705789,0.6866341078456302,0,-1,0.03427675738930702,-1.5872510115252894,-0.2872045675860804,-1.5089286009417933,0.23452042043209076,0.07425276190042496
2285,1734174010,310979843,-0.2402263927056927,0.24541781946924335,1.391939828568212,-0.7103520444002608,-0.1539432887435111,0.0349963319671848,0.6859130364820634,0,-1,0.034899186342954636,-1.5875147024737757,-0.2921970526324671,-1.5078371206866663,0.2386179119348526,0.07552234083414078
2301,1734174010,326575279,-0.24414410783392593,0.24505870636550295,1.3907437380683547,-0.7104645684990334,-0.15647782304354318,0.03558762020561959,0.685192169461339,0,-1,0.03542574495077133,-1.5877302328692835,-0.2971766630755823,-1.506794277821676,0.24271538853645325,0.07685183733701706
2318,1734174010,342833042,-0.2481475544333869,0.24468300775382784,1.3895021464820907,-0.7105807445062822,-0.15909996727059372,0.03615830262283871,0.6844375669868136,0,-1,0.03603618964552879,-1.587994400654928,-0.30216867128481084,-1.5057514349566858,0.2468608021736145,0.07824088633060455
2333,1734174010,358586788,-0.2521375545711718,0.2443044651964765,1.3882321587036903,-0.7107065809029851,-0.16168492369075266,0.036751462073370066,0.6836691241732171,0,-1,0.036658622324466705,-1.5882819334613245,-0.30732804933656865,-1.5046361128436487,0.25097066164016724,0.07961832731962204
2350,1734174010,374851942,-0.25621565292323484,0.24390830120336995,1.3869201432353346,-0.7108260356662951,-0.1643252517475568,0.037291487621869,0.6828857178239921,0,-1,0.037232741713523865,-1.5885937849627894,-0.31238013902773076,-1.5035932699786585,0.25508010387420654,0.08093584328889847
2365,1734174010,390499353,-0.26024956986834713,0.24350447150095145,1.3855967375726899,-0.7109439046842545,-0.1669549857468616,0.03783813464508838,0.6820946215102061,0,-1,0.03791509196162224,-1.5888574759112757,-0.31749135652651006,-1.5025261084186,0.25912967324256897,0.08224137127399445
2381,1734174010,406819820,-0.2642602902357714,0.24310444867147277,1.3842596720528975,-0.7110725998965387,-0.1695385413653695,0.03839109799257705,0.6812918348718149,0,-1,0.03847760334610939,-1.589121166859762,-0.3225787321673792,-1.5014832655536097,0.26325109601020813,0.08357049524784088
2397,1734174010,422574758,-0.26825565304540877,0.24268872591119495,1.3829110254651473,-0.7111922830426188,-0.17217402636516643,0.03893768247729256,0.6804744654056696,0,-1,0.0390637069940567,-1.589433495198385,-0.3275345007525843,-1.500416103993551,0.26734933257102966,0.08488801121711731
2413,1734174010,438869953,-0.27220140749311306,0.2422729743224474,1.381554339803383,-0.711315837226849,-0.17475276632712924,0.03948708567252221,0.6796558102719151,0,-1,0.03971010446548462,-1.5897091070758265,-0.3325145880328577,-1.4993608633624476,0.2714228630065918,0.08616957813501358
2429,1734174010,454778909,-0.2761130499110591,0.24185998486668214,1.380184129465076,-0.7114464268504063,-0.1772988101251497,0.04008938705024437,0.6788239497070879,0,-1,0.040320925414562225,-1.589985195790426,-0.3375180403338831,-1.4982460180865687,0.27556827664375305,0.0874391570687294
2445,1734174010,471011161,-0.2799838418797744,0.24144432185686526,1.3788009990705268,-0.7115698736427117,-0.1798551595822299,0.04063591081596181,0.6779890554042174,0,-1,0.040895044803619385,-1.5902369658099573,-0.3425095717059534,-1.497094456349508,0.279630184173584,0.08874431252479553
2461,1734174010,486653327,-0.2838629613994667,0.2410115091861328,1.3773903590202992,-0.711701905235622,-0.18239814653147232,0.04123774269723809,0.6771342280546048,0,-1,0.041505493223667145,-1.5904768149005335,-0.3475254217730921,-1.4960158506976526,0.28374001383781433,0.09008579701185226
2477,1734174010,503021240,-0.2877869148647736,0.24058875786481185,1.3759484127688444,-0.7118313271405468,-0.1849633178436736,0.041729320214042395,0.6762716884419027,0,-1,0.042103953659534454,-1.590752903615133,-0.3525293509112757,-1.4948771635638636,0.28778955340385437,0.09134338796138763
2493,1734174010,518746852,-0.29166494710830054,0.2401487489786175,1.3744990629288185,-0.7119687186755603,-0.18747528459581259,0.04230085950724789,0.6753992882570634,0,-1,0.042678073048591614,-1.5910285154925745,-0.35759288469423467,-1.493810002003805,0.29191139340400696,0.09266090393066406
2509,1734174010,535072326,-0.2955795476581834,0.23969028593822322,1.3730170648667697,-0.7120996712454806,-0.1900944649381489,0.042873883799759004,0.674492388911752,0,-1,0.04327690973877907,-1.5913880507098597,-0.362584416066305,-1.4927189985858362,0.2960568070411682,0.09390651434659958
2525,1734174010,550805807,-0.2995741794705106,0.23924331062549611,1.3714850200387472,-0.7122417718764005,-0.19269241471101803,0.043393831074431614,0.6735712784344994,0,-1,0.043923307210206985,-1.591628376637594,-0.3676236311541956,-1.4916160742389124,0.30014267563819885,0.09521166980266571
2541,1734174010,566569566,-0.3034634783475369,0.23877276522232208,1.3699670972180016,-0.7123749387288887,-0.19526382117533841,0.04393674828431488,0.6726541079642777,0,-1,0.04448544234037399,-1.5919278303729456,-0.3727472464190882,-1.4905131498919886,0.3042648732662201,0.09651720523834229
2557,1734174010,582767248,-0.3074485652364027,0.23831604560167685,1.368390091598039,-0.7125200937848694,-0.1978377598597415,0.04441839936517419,0.6717159686387664,0,-1,0.04514382779598236,-1.5922396818744105,-0.3777506987201136,-1.4894698301898401,0.30837470293045044,0.09779876470565796
2573,1734174010,598500967,-0.3113528645118572,0.2378423446427675,1.366810294049252,-0.7126623195254681,-0.20042518791909453,0.044921707835693464,0.6707638947806447,0,-1,0.04575427249073982,-1.5925033728228968,-0.3828619162188929,-1.4883793036090296,0.31253212690353394,0.09914024919271469
2589,1734174010,614818334,-0.31527541647048885,0.23736365895321837,1.365213844236946,-0.712810301171832,-0.20299947423580128,0.045464694953298315,0.669795229541174,0,-1,0.046280454844236374,-1.5928753058062952,-0.3878420034991663,-1.4873364607440394,0.3166419565677643,0.10040945559740067
2605,1734174010,631063699,-0.31909530272748704,0.23688097145477283,1.3636317392156705,-0.7129516508002072,-0.20551476377476152,0.04596489629383135,0.6688429216195388,0,-1,0.04687929153442383,-1.5931509176837366,-0.3927977720843714,-1.4862812201129358,0.3206559121608734,0.10167903453111649
2622,1734174010,646825790,-0.322946702900888,0.23639863876010103,1.3620180994328257,-0.7130973849470168,-0.20807459003410705,0.04646198561803069,0.6678610397802033,0,-1,0.04745378717780113,-1.593499008809225,-0.39776498476137334,-1.4852259794818323,0.32480210065841675,0.10296060144901276
2637,1734174010,662500858,-0.3267747199079066,0.23592164442970098,1.3603829700671337,-0.7132462151666963,-0.21062144167323152,0.04697471264749732,0.6668671691045807,0,-1,0.04808782786130905,-1.593738857899801,-0.40280467668642217,-1.4840992132769983,0.3289119303226471,0.10417025536298752
2653,1734174010,678661108,-0.33061228127536474,0.235429077773877,1.358712093166894,-0.7133939075048544,-0.21317308209327812,0.047449993431939466,0.665864001076133,0,-1,0.048710256814956665,-1.5940268675433558,-0.40792733827699834,-1.4830082098590296,0.332973837852478,0.10546380281448364
2669,1734174010,694949865,-0.3344357089974798,0.23491231585430158,1.3570382392900153,-0.7135425085259535,-0.21569274167462565,0.047984215159067964,0.6648543034462069,0,-1,0.049320705235004425,-1.5943267981158655,-0.4128831068622034,-1.4819172064410608,0.33704808354377747,0.10670941323041916
2685,1734174010,710666418,-0.33824583565241956,0.23441422963817812,1.355334324180539,-0.7137007508216157,-0.21819022715113884,0.04846657517446841,0.6638337548989611,0,-1,0.04988321289420128,-1.594626251851217,-0.4179347197162073,-1.4807904402362269,0.3411819040775299,0.1080741211771965
2702,1734174010,726901292,-0.3420598690716488,0.23390302540586055,1.3536166822537257,-0.713857851097057,-0.22072851138617827,0.04897500262912058,0.6627875540516819,0,-1,0.050505269318819046,-1.594950024281637,-0.4229024092303675,-1.4797833601581019,0.34530410170555115,0.10937964916229248
2717,1734174010,742591142,-0.34586265956988854,0.2333692149469273,1.3518943170306894,-0.7140233845541775,-0.22319314980982247,0.04953255346875053,0.6617416039018799,0,-1,0.05109212175011635,-1.595273796712057,-0.42792970338930303,-1.478668514882223,0.34937798976898193,0.11076907068490982
2733,1734174010,758860588,-0.34967817592768946,0.232838843321119,1.3501304989769316,-0.7141905189318564,-0.22569317601298014,0.05006240963948286,0.6606725725426388,0,-1,0.05172616243362427,-1.5955618063556116,-0.43292075792421514,-1.4775531927691858,0.35347622632980347,0.1121225357055664
2749,1734174010,774517059,-0.35354028014679545,0.23229906814812878,1.3483124578198282,-0.7143568672957948,-0.22825745149617638,0.05053356278003787,0.6595749851355528,0,-1,0.052324626594781876,-1.5958612600909632,-0.4380682150470179,-1.4764865080462855,0.3576340079307556,0.11342807114124298
2765,1734174010,790839433,-0.35737320326672134,0.23175546401409775,1.3464929095091622,-0.7145239892724412,-0.2307817748860903,0.05102360159671389,0.6584769040860294,0,-1,0.052958667278289795,-1.596125904713766,-0.44314366975893194,-1.4754074255572718,0.36176779866218567,0.11474521458148956
2781,1734174010,806627511,-0.36107718342712114,0.23121854168157016,1.3446855943326153,-0.7146860740768967,-0.23327434851095522,0.05150142342011662,0.6573845885271755,0,-1,0.053569111973047256,-1.5964372793780726,-0.4481466452227991,-1.4744122664081019,0.36581847071647644,0.11605074256658554
2797,1734174010,822785139,-0.3648501627355061,0.23066692981252884,1.342850636603695,-0.7148521499301873,-0.23579440405802216,0.05196551047546054,0.6562674671779305,0,-1,0.05421551316976547,-1.5967133680926722,-0.45306665102113897,-1.4733575026141565,0.3699283301830292,0.11732032150030136
2813,1734174010,839185237,-0.368571710910554,0.23011038305338405,1.3409980629787555,-0.7150241632552532,-0.2382929290268996,0.0524768213771775,0.6551359470789659,0,-1,0.054778020828962326,-1.5970009008990687,-0.4582136313067835,-1.4722545782672327,0.3740505278110504,0.11863783746957779
2829,1734174010,854938507,-0.3722819395031383,0.22954014095430292,1.3391337291065164,-0.7151892999003151,-0.24080849614068153,0.05298100878986843,0.653994301352977,0,-1,0.055388469249010086,-1.59727651277651,-0.46324092546571904,-1.4712231794940394,0.3781847059726715,0.11991940438747406
2845,1734174010,870670795,-0.3759996310294207,0.2289835248170154,1.3372370193243306,-0.7153669367319895,-0.2432730878141037,0.05343630908003644,0.6528498383610001,0,-1,0.055986929684877396,-1.5975764433490198,-0.46824390092958623,-1.4701326529132288,0.38225895166397095,0.1212724968791008
2862,1734174010,886910438,-0.37965263576779384,0.2284160233707595,1.3353354661939318,-0.7155357265542835,-0.24575109730481684,0.05389023658131831,0.6516984460616133,0,-1,0.056561049073934555,-1.597816292439596,-0.47329551378359014,-1.4690654913531702,0.38639312982559204,0.12251810729503632
2877,1734174010,902600765,-0.383338084323567,0.22784206568920556,1.3334093272249765,-0.7157135284701204,-0.24824658156313417,0.05437238334370672,0.6505162748437531,0,-1,0.05718385428190231,-1.5980804602252405,-0.478370491658346,-1.4679744879352015,0.390455424785614,0.12381165474653244
2893,1734174010,918908834,-0.3870244794657369,0.22726099577306272,1.3314636636565416,-0.7158853971942666,-0.2507116174755309,0.05482379159891397,0.6493428484410442,0,-1,0.057769957929849625,-1.598356072102682,-0.48339778581728154,-1.4668954054461878,0.39452967047691345,0.12510520219802856
2909,1734174010,934684514,-0.3906683389049565,0.22668106905974666,1.3295162652647596,-0.7160614659845195,-0.25315131255926476,0.05528546157445633,0.6481619455198843,0,-1,0.05840437114238739,-1.5987041632281702,-0.4883530775653284,-1.4657805601703089,0.3985803425312042,0.1264103502035141
2925,1734174010,950750827,-0.3943521621808486,0.22610092452127395,1.3275215969932284,-0.7162462008715598,-0.2555964021687343,0.055738198913874,0.6469583542371898,0,-1,0.05894291400909424,-1.5989440123187464,-0.4934285322772425,-1.464677635823385,0.4026665985584259,0.12767992913722992
2941,1734174010,966540098,-0.39794491854183073,0.2255117582701202,1.3255337928742166,-0.716424443485422,-0.2580426028544076,0.056193218797998344,0.6457494514514479,0,-1,0.05956534296274185,-1.5992077032672327,-0.49850351015199834,-1.4636228720294397,0.4068123996257782,0.1289854645729065
2957,1734174010,982850551,-0.40154691964317163,0.22492626586446843,1.3235188708509067,-0.7166188043360217,-0.26046406998049876,0.056634026896,0.6445219503777567,0,-1,0.06011549383401871,-1.599459473286764,-0.5035308043109339,-1.462531868611471,0.41082674264907837,0.13027864694595337
2973,1734174010,999091148,-0.40517717362995254,0.22433370158422816,1.3214574036997302,-0.7168069611871843,-0.2629025990111918,0.0570437646778302,0.6432853276254132,0,-1,0.06073792651295662,-1.5997231642352503,-0.508641544972555,-1.461405102406637,0.4149257242679596,0.13156020641326904
2989,1734174011,14688014,-0.408705163814564,0.22373000316243058,1.3194390440308477,-0.7169839367173776,-0.26535046076262697,0.057507218068978565,0.6420405651765938,0,-1,0.06131279468536377,-1.5999630133258265,-0.5135973135577601,-1.4603260199176233,0.41907188296318054,0.1327938288450241
3005,1734174011,30983924,-0.4122325702983916,0.22312920416340767,1.317394573910945,-0.7171671006096457,-0.26777681123157765,0.05798496020297969,0.6407844205035429,0,-1,0.06189889833331108,-1.6002629438983362,-0.5185521284686487,-1.4592111746417444,0.4232659935951233,0.13409936428070068
3021,1734174011,46770572,-0.41576697180448424,0.222520438743317,1.3153331361664402,-0.7173512616651778,-0.2701944286301822,0.05842036520936972,0.6395226337303401,0,-1,0.06250934302806854,-1.6005147139178675,-0.523543659840719,-1.4581440130816858,0.4273645877838135,0.13528504967689514
3037,1734174011,62933921,-0.41925879553677065,0.22191855167209476,1.313262653640424,-0.7175479374363228,-0.27256109976314313,0.05888185894455079,0.638254127338021,0,-1,0.06308383494615555,-1.6008151213275355,-0.5286067167865198,-1.4571011702166956,0.4313909113407135,0.13661454617977142
3053,1734174011,78659534,-0.42281430483055454,0.22128281018447374,1.3111175623480633,-0.7177379944578346,-0.2750023318359552,0.05929389436426823,0.6369537839494728,0,-1,0.06368230283260345,-1.6010425726519983,-0.5336702505694788,-1.4560101667987269,0.4355614185333252,0.13788412511348724
3069,1734174011,94408512,-0.4263768742460065,0.22063805044354057,1.3089642950744131,-0.7179273265322067,-0.2774737162216026,0.059713815530723524,0.6356279972273519,0,-1,0.06430473178625107,-1.6012824217425745,-0.5387447516070765,-1.4549430052386683,0.43956416845321655,0.13924920558929443
3085,1734174011,110680103,-0.4299023077284995,0.21999411178652267,1.3068061356727114,-0.7181257578413681,-0.2798483137553108,0.060152546475071934,0.6343200992918593,0,-1,0.06489083170890808,-1.6015823523150843,-0.5437119642840784,-1.4538887182818812,0.4436863660812378,0.14057870209217072
3101,1734174011,126947164,-0.4333673498575011,0.2193521259942483,1.3046608265730932,-0.7183329072468095,-0.2822042897632743,0.06061617822896792,0.6329962497064784,0,-1,0.06551326811313629,-1.6018818060504358,-0.5487154165851038,-1.4528449217425745,0.44779694080352783,0.14196813106536865
3117,1734174011,142673730,-0.4368445071881841,0.21871375503633006,1.3024888894119417,-0.7185431843268352,-0.28454320104483805,0.06107305169880972,0.6316652130304494,0,-1,0.06612370908260345,-1.6021459738360804,-0.5537422339068812,-1.4517424742328089,0.45193150639533997,0.14328564703464508
3133,1734174011,158382654,-0.44032393537647824,0.21805666915691094,1.3002731604243971,-0.7187482940572099,-0.28694354911864456,0.06152059161498623,0.6303011234452852,0,-1,0.06673378497362137,-1.6024215857135218,-0.5587695280658167,-1.4506514708148401,0.4559941589832306,0.14461477100849152
3149,1734174011,174639463,-0.44382054140238497,0.21739767842994018,1.2980360188048512,-0.7189519108975589,-0.28931649798186065,0.06190672264405074,0.6289448874931197,0,-1,0.06736820191144943,-1.6027100721942347,-0.5638559500323694,-1.4495366255389612,0.46006879210472107,0.1459442675113678
3165,1734174011,190337896,-0.44727189292185277,0.21672333417232814,1.2957909079057928,-0.719158991685809,-0.2916752774261355,0.062355034358234876,0.6275728857320245,0,-1,0.06796703487634659,-1.6029017607318323,-0.5689314047442835,-1.4484456221209925,0.46416738629341125,0.14722545444965363
3181,1734174011,206577301,-0.4507014933241321,0.21605586212887648,1.2935236905539294,-0.7193557867682622,-0.2940739151104158,0.06273159475262263,0.6261888944355682,0,-1,0.06858909130096436,-1.6032493750201624,-0.5738986174212855,-1.4473908583270472,0.46831393241882324,0.14856694638729095
3197,1734174011,222962617,-0.45413802018209504,0.2153787042764867,1.2912556787640062,-0.7195639227413906,-0.2964676889943241,0.06315604231760881,0.6247767479589518,0,-1,0.06922350823879242,-1.603537384663717,-0.5788777510272425,-1.4462998549090784,0.47235262393951416,0.14983652532100677
3213,1734174011,238778829,-0.4575569882028677,0.21470754107369483,1.288968813864221,-0.7197689262286903,-0.298792384947673,0.0635609196056127,0.62339057823468,0,-1,0.06983357667922974,-1.6038368383990687,-0.5838688055621546,-1.445221249257223,0.4764755666255951,0.15109410881996155
3229,1734174011,254914999,-0.4609508668032044,0.21401380187015834,1.2866785815652086,-0.719975165575836,-0.3011495903566478,0.06399092459617918,0.6219725450141645,0,-1,0.07040806859731674,-1.6041248480426233,-0.5888960997210901,-1.4441302458392542,0.4805738031864166,0.15244758129119873
3245,1734174011,270644187,-0.46433948578722295,0.21334724020339624,1.2843362491071546,-0.7201998213350103,-0.30348867071850427,0.06436684485568393,0.6205350541088384,0,-1,0.07097095996141434,-1.6044123808490198,-0.594006363545553,-1.4430630842791956,0.48473232984542847,0.1537051796913147
3261,1734174011,286877393,-0.4677059362289616,0.2126793765583569,1.2819885795233024,-0.7204105743898896,-0.3057538402293078,0.06463206740720756,0.6191493271860433,0,-1,0.0715690404176712,-1.604640309010641,-0.5990813414203089,-1.4420202414142054,0.48863956332206726,0.15502269566059113
3277,1734174011,302633047,-0.47112221041338587,0.21198681498183605,1.279579052254768,-0.7206256211933549,-0.3081563907316252,0.0649864790871478,0.6176690946346635,0,-1,0.07210758328437805,-1.6049521605121058,-0.6041448752032679,-1.440953556691305,0.4927261769771576,0.15636417269706726
3293,1734174011,318826436,-0.4744880199792204,0.21127686749371194,1.2771980423828242,-0.7208426738931999,-0.31051461575520173,0.06538684868589013,0.6161907763962633,0,-1,0.07270605117082596,-1.6052878538714808,-0.6091473738299769,-1.4399221579181116,0.4968850910663605,0.15763337910175323
3309,1734174011,334550857,-0.47783812792190605,0.21059629680881964,1.2748011483569655,-0.7210721349019705,-0.31283372574836554,0.06576084992025343,0.6147076922571221,0,-1,0.07328016310930252,-1.6056001822101038,-0.6140549818622034,-1.4388435522662562,0.5010200142860413,0.15891456604003906
3326,1734174011,350900888,-0.48111701076392727,0.20991300748492608,1.2724251814668237,-0.7212918052079026,-0.3151199766501278,0.06613594140514005,0.6132402215367189,0,-1,0.07391495257616043,-1.6058996359454554,-0.6190937201129358,-1.4377525488482874,0.5051186084747314,0.1602320820093155
3341,1734174011,366618871,-0.48447418840428824,0.20919422778926006,1.2699700435746921,-0.7215172500189216,-0.31745887460222866,0.06649804186015393,0.6117276610471237,0,-1,0.07450143247842789,-1.6061518828021448,-0.6241567770587366,-1.436673943196432,0.5092651844024658,0.16158555448055267
3357,1734174011,382909774,-0.48777829015593266,0.20849624197125943,1.267501752876053,-0.7217513373043841,-0.31975514203629185,0.06687247532027206,0.6102128549000124,0,-1,0.07509952038526535,-1.6064274946795862,-0.6292551199542444,-1.4355467001544397,0.5133880972862244,0.16284315288066864
3373,1734174011,398588657,-0.4911213514277853,0.20775180917168015,1.264984554233814,-0.7219641186406129,-0.32211231145957353,0.0672066277182607,0.6086827904519666,0,-1,0.07567401230335236,-1.6067269484149378,-0.6344025770770472,-1.434455696736471,0.5174866914749146,0.16412471234798431
3390,1734174011,414879798,-0.49437565500837316,0.20704347153717012,1.2625297106487097,-0.7221863328352575,-0.32440113531046894,0.06755168275716708,0.6071635481745562,0,-1,0.07626086473464966,-1.6070268789874476,-0.6393216292010706,-1.4333651701556605,0.5215501189231873,0.16537033021450043
3405,1734174011,430647850,-0.49765720199347496,0.2063081848907844,1.260039656361285,-0.7224024784748369,-0.32666405344581806,0.0679006606147626,0.6056523388610328,0,-1,0.07691887766122818,-1.6073268095599573,-0.644240681325094,-1.4322741667376917,0.5256487131118774,0.16659197211265564
3421,1734174011,446908950,-0.5008542620175007,0.2055701654659874,1.2575819063601223,-0.7226189839704217,-0.3289395219631442,0.06828320068654094,0.6041175377360066,0,-1,0.0775413066148758,-1.6076749006854456,-0.649207894002096,-1.431183163319723,0.529687762260437,0.16792146861553192
3437,1734174011,462616682,-0.5040484414442423,0.20484799036296233,1.2550730628232323,-0.7228439893973163,-0.33118424228995863,0.06861281789908746,0.6025826465066391,0,-1,0.07815138250589371,-1.607950512562887,-0.6542585531817835,-1.4300807158099573,0.533690869808197,0.1691790670156479
3454,1734174011,478789091,-0.5073020827272052,0.20410204654545716,1.2524918095505524,-0.7230688612867971,-0.3334522143248185,0.0688743157204909,0.6010302581678595,0,-1,0.07872587442398071,-1.6082623640643519,-0.6593096891986292,-1.4289773146258753,0.5377418994903564,0.17055650055408478
3469,1734174011,494524955,-0.5105158028121736,0.20335592648786485,1.249927875698094,-0.7233056917278969,-0.3357363478726686,0.06922585771084051,0.5994311984334396,0,-1,0.07938425987958908,-1.6085260550128382,-0.6644204298602503,-1.4278863112079065,0.5418768525123596,0.17183806002140045
3485,1734174011,510825157,-0.5137181300425854,0.2025782163627981,1.247331731078756,-0.7235409020592536,-0.33799618732886927,0.06959813293457165,0.5978321171453165,0,-1,0.07995875179767609,-1.6088617483722132,-0.6694348494159144,-1.426795784627096,0.5460357666015625,0.1732027679681778
3501,1734174011,526506900,-0.5169036233120562,0.20182902470128478,1.2447443775873437,-0.7237970181493955,-0.3402359981732865,0.06996633435452088,0.5962063855092988,0,-1,0.0805811807513237,-1.6091974417315882,-0.6744259039508265,-1.4257171789752405,0.5502066612243652,0.17459218204021454
3518,1734174011,542849302,-0.520098973806888,0.20105288827134077,1.242128240935077,-0.7240289080711444,-0.3424960796163646,0.0703045333545584,0.5945888060790624,0,-1,0.08123956620693207,-1.6094735304461878,-0.6794050375567835,-1.424661938344137,0.5543419718742371,0.1758977174758911
3533,1734174011,559436798,-0.5232332018605654,0.20029967443524954,1.239503295860256,-0.7242731518744948,-0.3447417143211175,0.07062689704824257,0.5929531122222557,0,-1,0.08178971707820892,-1.6097973028766077,-0.6844561735736292,-1.4235709349261683,0.5584529042243958,0.1772032529115677
3549,1734174011,574879646,-0.5263534361557671,0.19954126378154508,1.2368483772113665,-0.7245192123387847,-0.34699110178493453,0.07094810635674337,0.5912997991192424,0,-1,0.08241214603185654,-1.610049072896139,-0.6895549933062952,-1.4225166479693812,0.5625878572463989,0.17843687534332275
3565,1734174011,590587854,-0.529455913785755,0.19877470992594648,1.2341816995567005,-0.7247558725573745,-0.3492122321010479,0.07120496410421827,0.5896690556842198,0,-1,0.0830342024564743,-1.6103251616107386,-0.6946890989886683,-1.4214494864093226,0.5666269063949585,0.17979034781455994
3581,1734174011,606833219,-0.5325892082488858,0.19799754613972997,1.2314842394649808,-0.7249883509752214,-0.35145058430465853,0.071475176343876,0.5880184324566321,0,-1,0.08360907435417175,-1.610588852559225,-0.6996801535235804,-1.4203460852252405,0.5707138776779175,0.18103595077991486
3597,1734174011,622555732,-0.5355108619137616,0.19727040647694877,1.2288971088166456,-0.7252320193112906,-0.3535845438171973,0.07181072782733304,0.5863955217326963,0,-1,0.08417157828807831,-1.6108887831317347,-0.704599682484762,-1.4192078749286097,0.57478928565979,0.18231751024723053
3613,1734174011,638812780,-0.5385815037018775,0.19646950452171946,1.2262285937070931,-0.7254769318421458,-0.3557661748143844,0.07214636923221546,0.5847294687541035,0,-1,0.08478165417909622,-1.611164395009176,-0.709482494984762,-1.4181645552264612,0.5789245963096619,0.18367061018943787
3629,1734174011,654567003,-0.5415158392309843,0.19571618118103212,1.223597195927259,-0.7257161357403594,-0.3578931695411356,0.07245091935683853,0.5830947039771748,0,-1,0.08536813408136368,-1.6114042440997522,-0.7144973913775843,-1.4170501867877405,0.5828681588172913,0.18491622805595398
3645,1734174011,670810222,-0.5445154652526407,0.19494388223294862,1.220885086212441,-0.7259678130456707,-0.36005592468310627,0.0727285592352786,0.5814129532387803,0,-1,0.08596696704626083,-1.6116440931903284,-0.7195003668414515,-1.4159587065326136,0.5870270729064941,0.1862337440252304
3661,1734174011,686528682,-0.5474800038188639,0.19414518371503714,1.2181651135569622,-0.7262096100459323,-0.36226596516732873,0.0730411853150194,0.579696436081934,0,-1,0.08652910590171814,-1.6119559446917933,-0.7245152632342737,-1.414880100880758,0.5911380052566528,0.18751530349254608
3677,1734174011,702826023,-0.5504494857154847,0.193362719452556,1.215410418081582,-0.7264624902519605,-0.36442945409199456,0.0733348001448056,0.5779839360525969,0,-1,0.08717550337314606,-1.6121962706195276,-0.7295783201800745,-1.4137776533709925,0.5952852964401245,0.18883244693279266
3693,1734174011,718519449,-0.5533531436521898,0.19259594925218126,1.2126883991154014,-0.72671521329939,-0.36655508697588973,0.07362526594930026,0.5762826452229972,0,-1,0.08773763477802277,-1.6124480406390589,-0.7345212141620081,-1.4127462545977991,0.5994325876235962,0.19013796746730804
3709,1734174011,734860897,-0.5563020422606538,0.19179517946147104,1.2099388288964303,-0.7269654403309439,-0.3687386073114942,0.07393760703637586,0.5745313901852107,0,-1,0.08836006373167038,-1.6127713362323206,-0.7394402662860315,-1.411703888569967,0.6035798788070679,0.1914195418357849
3725,1734174011,750679731,-0.5592132522997977,0.1909662975346344,1.2071800824982697,-0.7272121160343277,-0.37087781018335836,0.07424719236439407,0.5727997404263353,0,-1,0.08897088468074799,-1.6130474249469202,-0.7444670836078089,-1.4106248060809534,0.6076428890228271,0.1927250623703003
3741,1734174011,766777276,-0.5621523715886458,0.19017910683984793,1.2043373968852338,-0.7274720081541541,-0.3730578866897053,0.07446649093407691,0.5710227948678916,0,-1,0.08956897258758545,-1.6132991949664515,-0.7495539824115198,-1.409570042287008,0.6117546558380127,0.19404257833957672
3757,1734174011,783140659,-0.5650571705185079,0.18936672667547821,1.201477939902437,-0.7277190415562464,-0.37520736939108157,0.07463961585606697,0.5692744103294484,0,-1,0.09020338952541351,-1.6135390440570276,-0.7547724882708948,-1.408551041279928,0.6158060431480408,0.19525223970413208
3773,1734174011,798821210,-0.5679917138311698,0.18854355727841773,1.1985760845188482,-0.7279640814848255,-0.37742472752022793,0.07483521236557857,0.5674667938429832,0,-1,0.09078986942768097,-1.613814655934469,-0.7598827520953577,-1.4074361960040491,0.6199533343315125,0.19654540717601776
3789,1734174011,814595222,-0.5708700206126087,0.1877168070636882,1.1957148076632285,-0.7282124822271626,-0.3795774109671357,0.07506987861549323,0.5656784273212966,0,-1,0.09142390638589859,-1.6140902678119105,-0.7649100462542933,-1.406405274068014,0.6240886449813843,0.19779102504253387
3805,1734174011,830875635,-0.5737216927311819,0.18687410183466124,1.1928744163823777,-0.7284630610777953,-0.3816913359265277,0.07535304403884055,0.5638929078095161,0,-1,0.0920463427901268,-1.6143906752215784,-0.7697928587542933,-1.4053023497210901,0.6281640529632568,0.19907258450984955
3821,1734174011,846847295,-0.5764944535251535,0.18606645317555265,1.1900617804705271,-0.7287171833531569,-0.38375572353191195,0.0755807370233413,0.5621302015844272,0,-1,0.09264443069696426,-1.6146543661700647,-0.7747238318072718,-1.4042237440692347,0.6321914792060852,0.20039010047912598
3837,1734174011,862550497,-0.579252546102048,0.18524839627000944,1.1872246009010214,-0.7289832796628882,-0.3858119120661349,0.07588750193709577,0.5603335020588717,0,-1,0.09324326366186142,-1.6149066130267542,-0.779738728200094,-1.403132740651266,0.6362668871879578,0.2017315924167633
3853,1734174011,878818750,-0.5820439108630995,0.18442809844175911,1.1843100683651246,-0.7292481584367434,-0.3879203607263795,0.07612387479067452,0.5584980508805627,0,-1,0.09379378706216812,-1.6151583830462855,-0.7847779432879847,-1.4020422140704554,0.6404983997344971,0.20304910838603973
3869,1734174011,894520998,-0.5848208462617251,0.1835951966627316,1.181391125395183,-0.7295245397173649,-0.3899755248990217,0.07636712023687614,0.5566696496815914,0,-1,0.09437989443540573,-1.6154215971576136,-0.7899482885943812,-1.4009392897235315,0.6445258855819702,0.20447447896003723
3885,1734174011,910186767,-0.5875438871217211,0.182798742532628,1.1784657836394,-0.7298103979818084,-0.3919855810808613,0.07658792321710849,0.5548498690994028,0,-1,0.0950143113732338,-1.6157220045672815,-0.7949150244342249,-1.3998244444476526,0.6486495733261108,0.2057916224002838
3901,1734174011,926444292,-0.5903363267011338,0.181959044760716,1.1755254767609924,-0.7300853292391203,-0.3940482944845906,0.07682307462114711,0.5529914726732628,0,-1,0.09560078382492065,-1.6159856955157679,-0.7998459974872034,-1.3987577597247522,0.6527249217033386,0.2071450799703598
3917,1734174011,942705392,-0.5930644054668874,0.18111984466079553,1.1725903888594729,-0.7303520187236152,-0.39607266047835543,0.07704275418032802,0.5511594963313677,0,-1,0.09618726372718811,-1.6163213888751429,-0.8048608938800257,-1.3976429144488733,0.6568246483802795,0.20837871730327606
3933,1734174011,958447456,-0.5957726019748186,0.18030281746262933,1.1695981943766438,-0.7306291042692242,-0.3981195503230007,0.07721527378118521,0.5492902121285789,0,-1,0.09673778712749481,-1.6165850798236292,-0.8098996321307581,-1.3965519110309046,0.6608401536941528,0.20975615084171295
3949,1734174011,974665880,-0.5984591208800006,0.1794640956175345,1.1666336471841592,-0.7309058314919818,-0.4001291259251842,0.07742686862363439,0.5474289251514768,0,-1,0.09737183153629303,-1.6168492476092737,-0.8150222937213343,-1.395472828541891,0.6649395227432251,0.21102572977542877
3965,1734174011,991064071,-0.6011583067290542,0.1786372681371335,1.1635913269138518,-0.7311793214022229,-0.40219704911708176,0.07757191404666489,0.5455244557180121,0,-1,0.09797066450119019,-1.6171248594867151,-0.8201449553119105,-1.3943942228900355,0.6690871715545654,0.2122953087091446
3981,1734174012,6686687,-0.6038367874656719,0.17776462921235123,1.1605386727378149,-0.7314419727176766,-0.4042788473437286,0.07775180184218687,0.543604554292542,0,-1,0.09855714440345764,-1.6174128691302698,-0.8251598517047327,-1.3933394590960901,0.6732228398323059,0.21360084414482117
3997,1734174012,22816658,-0.6064994112792048,0.17693565973294945,1.1575149261267212,-0.7317232849749401,-0.40628748670568116,0.07790505379321282,0.5417031613027009,0,-1,0.09917920082807541,-1.6176884810077112,-0.8301265875445765,-1.3922846953021448,0.6773225665092468,0.2148943841457367
4013,1734174012,38423299,-0.6091545676436084,0.17606541259669145,1.1545005954307523,-0.7319981758743311,-0.40829212525201364,0.07811489568188462,0.5397909540242908,0,-1,0.09972972422838211,-1.6180480162249964,-0.835057560597555,-1.391181770955221,0.681433916091919,0.21619954705238342
4029,1734174012,54728984,-0.6117555572650102,0.1751804659031655,1.151502110099947,-0.7322492725079054,-0.4103228748935868,0.07833047822082052,0.5378758940800407,0,-1,0.10035216063261032,-1.618324104939596,-0.8400605360614222,-1.3900907675372522,0.6855579614639282,0.2174811065196991
4045,1734174012,70453405,-0.6143470074448469,0.17434330083152513,1.1484215598146088,-0.7325392172735498,-0.4123058037058242,0.07849127073435595,0.5359378133750736,0,-1,0.10097458958625793,-1.6186240355121058,-0.8450878302203577,-1.3889883200274866,0.6896213889122009,0.21877464652061462
4061,1734174012,86743593,-0.6169666101409134,0.17344171520301926,1.1453256623726933,-0.7328031437070515,-0.414332099083717,0.07865794533321227,0.5339863218078724,0,-1,0.10159701853990555,-1.618887726460592,-0.8502338568316858,-1.3879216353045862,0.6937094926834106,0.2201041579246521
4077,1734174012,102475404,-0.61952205033306,0.17259555894796963,1.1422023096231295,-0.7330823453060611,-0.4163174351578019,0.07876972396040013,0.5320389071970177,0,-1,0.10220708698034286,-1.619199577962057,-0.8552845160113733,-1.3868306318866175,0.6977968811988831,0.22136174142360687
4093,1734174012,118749380,-0.6221298130535924,0.17171945217502954,1.139061444609789,-0.7333621014154064,-0.41833155705951414,0.07890627019151933,0.530049560984824,0,-1,0.10279356688261032,-1.6196077505694788,-0.8602278868304651,-1.3857758680926722,0.701944887638092,0.2226792573928833
4109,1734174012,134467601,-0.624667743143032,0.1708533903607375,1.1359793605744095,-0.7336368514134316,-0.4202840813983245,0.07903425615958594,0.5281021184625697,0,-1,0.10341562330722809,-1.6198714415179651,-0.8651588598834437,-1.384637180958883,0.7059487700462341,0.22396083176136017
4125,1734174012,150775194,-0.6271560619844783,0.16996778529093992,1.1329014010139933,-0.7339062671152617,-0.4222148989182091,0.0791860572498256,0.5261613236999236,0,-1,0.10400247573852539,-1.62018329301943,-0.8701732794391077,-1.3835461775409144,0.7100005745887756,0.2252064347267151
4141,1734174012,166500329,-0.6296760368101851,0.16908418540983425,1.1297371901941753,-0.7341767139487513,-0.4241866879178638,0.07930995550340139,0.5241756742226165,0,-1,0.10461292415857315,-1.6204827467547815,-0.8752482573138636,-1.3824437300311487,0.7140883207321167,0.22649961709976196
4157,1734174012,182688236,-0.6321724660332061,0.16819306148651353,1.1265583425776307,-0.7344455035052472,-0.4261576797247023,0.07941085278946636,0.5221813390497898,0,-1,0.10519902408123016,-1.6207225958453577,-0.8804181257831019,-1.3814004103290003,0.7182479500770569,0.22775720059871674
4173,1734174012,198827505,-0.6346649199507814,0.16731637197950094,1.1233318909450172,-0.7347306576781846,-0.42814883045734214,0.07947071123312283,0.5201382947850444,0,-1,0.10579749196767807,-1.621070686970846,-0.8854454199420374,-1.3803938070880335,0.7222761511802673,0.2290387749671936
4189,1734174012,214406490,-0.637107796120065,0.1664563757052005,1.1201598258528842,-0.7350143354054484,-0.43008127479914554,0.0795788357968624,0.5181227969399191,0,-1,0.10638396441936493,-1.621310059224264,-0.8904364744769495,-1.3792789618121546,0.726399838924408,0.23033231496810913
4205,1734174012,230602264,-0.6394716820612241,0.16555865623365706,1.1170318455589316,-0.7352897675895134,-0.43199299585644624,0.07972204257183162,0.5161156896833371,0,-1,0.10699441283941269,-1.6216462294207972,-0.895355526600973,-1.3782361189471644,0.7305834889411926,0.2315659373998642
4221,1734174012,246327877,-0.641895514682399,0.16465209301753514,1.1138587369499608,-0.7355705421314094,-0.43392393965568204,0.07986836711782491,0.5140690965970711,0,-1,0.1076168417930603,-1.6219819227801722,-0.9002984205829065,-1.377169434224264,0.7346951961517334,0.23287147283554077
4237,1734174012,262780427,-0.6442349568356432,0.163801176382937,1.1106784601014246,-0.7358797179826945,-0.435781814087857,0.07997123000437842,0.5120350120290542,0,-1,0.10817898064851761,-1.6221979300128382,-0.9053733984576624,-1.3760550657855433,0.7388072609901428,0.23422494530677795
4253,1734174012,278310537,-0.6466011889542548,0.1629591785490693,1.1074316214744853,-0.7361828847403085,-0.4376630103469667,0.08001118384875675,0.5099843723572215,0,-1,0.10877744108438492,-1.6224616209613245,-0.9104598204242151,-1.3750594297992151,0.7429069876670837,0.23560237884521484
4269,1734174012,294581413,-0.6489548134674847,0.1620397733961006,1.1041722462348622,-0.7364782789601646,-0.43957498198462414,0.08013119485621102,0.5078903143829456,0,-1,0.10935231298208237,-1.6227253119098108,-0.915558163319723,-1.373896900807516,0.7470554113388062,0.23695547878742218
4285,1734174012,310271739,-0.6512502146674741,0.16114504110077146,1.1009500337101068,-0.7367789400227887,-0.4414068237933259,0.08025553672885717,0.5058417324341149,0,-1,0.10996238142251968,-1.6230252424823206,-0.9205258528338831,-1.3728302160846155,0.7511431574821472,0.23823703825473785
4301,1734174012,326483726,-0.6535953131948159,0.1602672811134352,1.0976797505292382,-0.7370780053656517,-0.4432844207848299,0.08031641528849648,0.5037501461348236,0,-1,0.110560841858387,-1.6233609358416956,-0.9255045096026819,-1.3717635313617151,0.7551833391189575,0.23954257369041443
4317,1734174012,342752456,-0.6558490619017845,0.15937904387223767,1.0944587114726239,-0.7373665196272792,-0.4451151383622422,0.08039333383185318,0.5016971608539513,0,-1,0.1111469492316246,-1.62360126176943,-0.9305070082293909,-1.3706486860858362,0.7592950463294983,0.2408241331577301
4333,1734174012,358449459,-0.6581113881404621,0.1584424603688962,1.0912143829225205,-0.7376467561557651,-0.4469700333418728,0.08051820483874066,0.4996117203557067,0,-1,0.11179334670305252,-1.6238887945758265,-0.935498062764303,-1.3695576826678675,0.7634314894676208,0.24210569262504578
4349,1734174012,374684333,-0.6603336470997965,0.1575627936073213,1.0879457966444823,-0.7379325040907018,-0.448807559044519,0.08056844209577713,0.49753001968643695,0,-1,0.11236821860074997,-1.624164883290426,-0.9406445662127894,-1.3684552351581019,0.7675192356109619,0.24336329102516174
4365,1734174012,390850067,-0.6625285030685277,0.15668218370295006,1.0846478827279025,-0.7382249979376639,-0.4506337476319956,0.08061798938584909,0.4954329598467002,0,-1,0.11301424354314804,-1.6243928114520472,-0.9457791487323206,-1.3674123922931116,0.7716193199157715,0.24469241499900818
4381,1734174012,406433582,-0.6647583852558991,0.15575339644922145,1.0812905923185052,-0.7385204237589967,-0.45249286521693916,0.08064275706378275,0.4932895056168826,0,-1,0.1135767474770546,-1.6247041861163538,-0.9507702032672327,-1.3663337866412562,0.7756834626197815,0.245961993932724
4397,1734174012,422589540,-0.6669098491407628,0.15482356196644298,1.0780208075185627,-0.7388114747234872,-0.4542999392380621,0.08072317946996274,0.491175058733095,0,-1,0.11421079188585281,-1.624932591115133,-0.9557011763202112,-1.3652308622943323,0.7798195481300354,0.24732744693756104
4413,1734174012,438593864,-0.669022461189732,0.15393467207002146,1.0747859149623193,-0.739101781925652,-0.4560742516833641,0.0807899631562006,0.48907853639165666,0,-1,0.11480962485074997,-1.6252439657794397,-0.9606202284442347,-1.364188019429342,0.7838481068611145,0.24864496290683746
4429,1734174012,454710483,-0.6711760439602059,0.15302017943615961,1.0714963469431076,-0.7394017134183686,-0.45783574357860796,0.08087431284197426,0.48696086456525683,0,-1,0.11543168127536774,-1.6255081335650843,-0.9656708876239222,-1.363061253224508,0.7879238724708557,0.24995049834251404
4445,1734174012,470296621,-0.6732729901327169,0.15211554750677908,1.0681421138952498,-0.7397179793835714,-0.4596019805555518,0.08091341824000498,0.48480547562379944,0,-1,0.1160421296954155,-1.625723663960592,-0.9707577864276331,-1.362018887196676,0.792084276676178,0.2512560188770294
4461,1734174012,486507177,-0.6753717675878707,0.15117707472209174,1.0647723246753227,-0.7400046280259575,-0.4614473067567168,0.08093926819409247,0.4826058106274122,0,-1,0.11666455864906311,-1.6259515921222132,-0.9758923689471644,-1.3609159628497522,0.796292245388031,0.2525855302810669
4477,1734174012,502592325,-0.6774540115070175,0.1502353796314657,1.0613806439842648,-0.7402838283849239,-0.46325689683259796,0.08094999241072451,0.4804373004851892,0,-1,0.11727463454008102,-1.6262033621417444,-0.9809792677508753,-1.359861199055807,0.8003447651863098,0.25381913781166077
4493,1734174012,518841743,-0.6795088956133845,0.14931429525764592,1.0580498904207813,-0.7405940299788669,-0.46500003518405353,0.08100811501181505,0.47826053082051706,0,-1,0.11786148697137833,-1.6265152136432093,-0.9858744780169886,-1.3587940374957483,0.8044568300247192,0.25514864921569824
4509,1734174012,534379959,-0.6815347919452474,0.14841125914977546,1.0547392766032067,-0.7408864781504512,-0.4667321711120398,0.0810544193600112,0.4761076433382205,0,-1,0.11849552392959595,-1.6267789045916956,-0.9907215277301233,-1.3576677481280726,0.8085689544677734,0.25644218921661377
4525,1734174012,550493478,-0.6835204873396264,0.14750156710809034,1.0514407577123528,-0.7411788249317834,-0.4684408488101752,0.08112482318255555,0.47395768134121696,0,-1,0.11914154887199402,-1.6270549933062952,-0.9957364241229456,-1.3565409819232386,0.8126933574676514,0.25769978761672974
4541,1734174012,566663503,-0.6855270929878633,0.14657780654447083,1.0479948950634492,-0.7414636200581788,-0.4702189427800382,0.08108464060496043,0.4717532480428812,0,-1,0.11969245225191116,-1.6273425261126917,-1.0010507742511194,-1.3554862181292933,0.816769540309906,0.25894540548324585
4557,1734174012,582248687,-0.68756235183253,0.14565138903781177,1.044482116205384,-0.7417713083761248,-0.4719577664365323,0.08100985151730102,0.46954083605939584,0,-1,0.12029054015874863,-1.6275470892535608,-1.0062091986285608,-1.354335133229391,0.8208699822425842,0.26021498441696167
4573,1734174012,598372697,-0.6895257307489884,0.14475307024779122,1.0410357541482853,-0.7420731670751944,-0.4737144576151938,0.08096678582869317,0.4672969151898009,0,-1,0.12085342407226562,-1.6278703848468226,-1.0112479368792933,-1.3532446066485804,0.8249701261520386,0.2615085244178772
4589,1734174012,614554166,-0.6914847916083986,0.14382757696573023,1.037624065560347,-0.7423629354821119,-0.47541873419651914,0.08094388568307251,0.4651047049513549,0,-1,0.12145151197910309,-1.628134552632467,-1.0162151495562952,-1.352166000996725,0.8290589451789856,0.2627897262573242
4605,1734174012,630697488,-0.6933910850037799,0.14293468011612429,1.0342619785360863,-0.7426818740594929,-0.47705802444126705,0.08097291638172584,0.46290675310726764,0,-1,0.12203798443078995,-1.6284340063678187,-1.0210984388934534,-1.3510993162738245,0.8330991268157959,0.26413118839263916
4621,1734174012,646809816,-0.695303376063094,0.1420237269083609,1.030854081556211,-0.743002034021359,-0.478705625398409,0.08095380847996704,0.46069011552737943,0,-1,0.12263645231723785,-1.6287577787982386,-1.0261014143573206,-1.350020710621969,0.8372595310211182,0.2654726803302765
4637,1734174012,662379741,-0.6971936939988305,0.14111729973588996,1.0273975551444092,-0.7433185276999541,-0.48036903106787254,0.0809226735323019,0.45844812277647123,0,-1,0.12321094423532486,-1.6290457884417933,-1.0312121550189417,-1.3489416281329554,0.841372013092041,0.2668381333351135
4653,1734174012,678524494,-0.69908679083373,0.14018871024604548,1.0238845863958743,-0.7436460497939341,-0.482043638411937,0.08086410627802285,0.4561638736334959,0,-1,0.12379742413759232,-1.6292975584613245,-1.036346737538473,-1.34788686433901,0.845436155796051,0.2681436836719513
4669,1734174012,694584846,-0.7009763062551272,0.13928452447478157,1.020328159954313,-0.7439771632508689,-0.48370624472667095,0.08075665637783047,0.45387730921944636,0,-1,0.12440749257802963,-1.6295378843890589,-1.0414932409869593,-1.3468082586871546,0.849513053894043,0.26952072978019714
4685,1734174012,710845947,-0.7028117385912035,0.13834392461744127,1.0168080069614895,-0.7442908051149338,-0.4853719702642625,0.08066951888860789,0.45159459321988343,0,-1,0.12500596046447754,-1.6298492590533655,-1.0464723745929163,-1.3458016554461878,0.8536490797996521,0.2708742022514343
4701,1734174012,726445198,-0.7046381163492281,0.13742219067502737,1.013360236526995,-0.7446071785724503,-0.48700197401334006,0.08063425664718342,0.4493187549840773,0,-1,0.1255568563938141,-1.6301735083209437,-1.0514033476458948,-1.3446863333331507,0.8577739000320435,0.2721201777458191
4717,1734174012,742653369,-0.7064025030330195,0.13651180596679263,1.0099407239571667,-0.7449063696321669,-0.48860406939583995,0.08058538469819347,0.4470867473145394,0,-1,0.12620288133621216,-1.6304610411273401,-1.0563233534442347,-1.3436439673053187,0.8619099855422974,0.27340173721313477
4733,1734174012,758872509,-0.7081644136748139,0.1355544866185067,1.006492432728841,-0.7452066847664822,-0.4902392220819017,0.08059028563430277,0.444789509738328,0,-1,0.12678936123847961,-1.6307247320758265,-1.0613377729998987,-1.3425291220294397,0.8659748435020447,0.2746713161468506
4749,1734174012,774601697,-0.7099399693430275,0.13462487534926,1.0029402422337832,-0.7455159361577737,-0.49186206226763335,0.08048743811297138,0.44249234224180617,0,-1,0.12738744914531708,-1.6310127417193812,-1.0664847532855433,-1.3414266745196741,0.8701112866401672,0.2759648859500885
4765,1734174012,790680646,-0.7116811132759564,0.13371199703151265,0.9993664390514159,-0.745829527556545,-0.4934870520117494,0.08035039126278606,0.4401734430260996,0,-1,0.1279982626438141,-1.6312764326678675,-1.0715354124652308,-1.3404081503497522,0.8742720484733582,0.27727001905441284
4781,1734174012,806457281,-0.7134282396616201,0.1327591111642301,0.9958109449485454,-0.7461403456657861,-0.4950959737833915,0.08027000835141329,0.43784847501445134,0,-1,0.1286083459854126,-1.6316240469561976,-1.0766223112689417,-1.339268986378805,0.8783725500106812,0.27861151099205017
4797,1734174012,822690248,-0.7151417746850978,0.1318187474444515,0.9922942421545521,-0.7464444939886525,-0.49668258399751014,0.08018670015398126,0.4355423300507037,0,-1,0.12923076748847961,-1.6319482962237757,-1.0814698378192347,-1.3381903807269495,0.8825089931488037,0.27986910939216614
4813,1734174012,838406324,-0.7168442590541726,0.1308813792365499,0.988797254531746,-0.7467554498316767,-0.49825327051835633,0.08012611908661953,0.43322024606955817,0,-1,0.12980526685714722,-1.6323078314410608,-1.0864008108722132,-1.3370755354510706,0.8866457939147949,0.2811746299266815
4829,1734174012,854529857,-0.7185121547360284,0.12992971044994617,0.9852697246466308,-0.7470666288099768,-0.49981194167575804,0.08006608165455681,0.4308931394734554,0,-1,0.13040335476398468,-1.6325834433185022,-1.0914157072650355,-1.3359969297992151,0.8906863331794739,0.282504141330719
4845,1734174012,870493412,-0.7201760802650938,0.1289853307902966,0.9816649146758747,-0.7473731068893624,-0.5013904558244928,0.07993505395662796,0.4285457234130331,0,-1,0.1310257762670517,-1.6328957716571253,-1.0965150038348597,-1.334942642842428,0.8947991728782654,0.2838100492954254
4861,1734174012,886746168,-0.7218212468275117,0.12806307975327713,0.9780286369197535,-0.7476974187687128,-0.5029377287008011,0.0797351884171448,0.42619773667156663,0,-1,0.1316482126712799,-1.6331713835345667,-1.1016858259784144,-1.333815876637594,0.8988996744155884,0.28511521220207214
4877,1734174012,902489185,-0.7234249616196581,0.12710565852493633,0.9744001173739286,-0.7479931804762346,-0.5045270884311586,0.07955144071158991,0.42382801615860094,0,-1,0.13224667310714722,-1.633446995412008,-1.106772247944967,-1.332796875630514,0.90300053358078,0.2863967716693878
4893,1734174012,918835401,-0.7250257856456205,0.12616726268372058,0.9708274003688454,-0.7483038079625296,-0.5060662218766353,0.07942571781689695,0.42146167727749134,0,-1,0.13286873698234558,-1.633782688771383,-1.1117270628558558,-1.3317058722125452,0.907041072845459,0.28764238953590393
4909,1734174012,934491157,-0.726538592772872,0.12524760206026148,0.9673427898231514,-0.7486162236591036,-0.507522507839385,0.07932941432571036,0.41916762486330456,0,-1,0.13345520198345184,-1.6340702215777796,-1.1166108290301722,-1.3305915037738245,0.9111175537109375,0.2889239490032196
4925,1734174012,950396299,-0.7280703872848859,0.12431234415892042,0.9638047365037414,-0.7489111233414846,-0.5090415931308736,0.07922350196222312,0.4168122149541918,0,-1,0.1340300738811493,-1.634406868611471,-1.1216018835650843,-1.3295491377459925,0.915266752243042,0.2901575565338135
4941,1734174012,966682910,-0.7295694542851947,0.12340571736271441,0.9602154068127946,-0.7492378577258735,-0.5105262199257112,0.07907405144029263,0.41443082137737536,0,-1,0.1346161812543869,-1.634646240864889,-1.12665301958193,-1.3284819761859339,0.9193791747093201,0.29146310687065125
4957,1734174012,982392311,-0.7310864912667951,0.12246294616590976,0.956518306138051,-0.7495473385445147,-0.5120501720869133,0.07884749256056302,0.41202728242618714,0,-1,0.13515472412109375,-1.6348865667926233,-1.13188344637026,-1.3273795286761683,0.9234800338745117,0.2927446663379669
4973,1734174012,998696804,-0.732531845841909,0.12158598577717768,0.9528732037556896,-0.7498715817053574,-0.513524199913542,0.07863480005182079,0.4096365160415661,0,-1,0.13577714562416077,-1.6351621786700647,-1.1369708220111292,-1.3262408415423792,0.9275449514389038,0.2940262258052826
4989,1734174013,14418125,-0.7339949820717683,0.12066161826768868,0.9492402122292293,-0.750189534699229,-0.5149842153371752,0.07846030866840459,0.40724795879779035,0,-1,0.13635164499282837,-1.6354740301715296,-1.1419737974749964,-1.325209919606344,0.9316094517707825,0.2953197658061981
5005,1734174013,30710935,-0.735416205938169,0.11972513055667766,0.9456507650843413,-0.7505150746051966,-0.5164304607105684,0.07833732454813086,0.4048332565677713,0,-1,0.13692614436149597,-1.6357858816729944,-1.1468451658831995,-1.3241074720965784,0.9358065724372864,0.29666125774383545
5021,1734174013,46405315,-0.7368253224038996,0.11880280361590959,0.942113052898532,-0.7508383260124065,-0.5178343378909549,0.07820926874932953,0.402458341910835,0,-1,0.137560173869133,-1.6361215750323694,-1.1517766157733362,-1.3230164686786097,0.9398595094680786,0.2979907691478729
5037,1734174013,62781095,-0.7381930258013276,0.11787252651353769,0.938507603456826,-0.7511758510303228,-0.5192326977590629,0.07806233875430554,0.4000481441963256,0,-1,0.13815902173519135,-1.6363251844989222,-1.156827751790182,-1.3219378630267542,0.944007933139801,0.299320250749588
5053,1734174013,78490972,-0.7395345462367376,0.11692892675887487,0.9348735789329355,-0.7514948104928103,-0.5206502922915267,0.07787459261279478,0.397635977703872,0,-1,0.1387331336736679,-1.6365888754474085,-1.1619146505938929,-1.3208230177508753,0.9481211304664612,0.30069732666015625
5069,1734174013,94755172,-0.7408744121413318,0.11599690311114581,0.9311825730544595,-0.7518066030870189,-0.522095260994556,0.07764820813502665,0.3951887217206529,0,-1,0.13936755061149597,-1.6368415991412562,-1.1670015493976038,-1.319732968007223,0.9522699117660522,0.3019908666610718
5085,1734174013,110392093,-0.74218625440572,0.11504170511137671,0.9275562425589278,-0.7521290689677571,-0.5234806835232158,0.07748623594092728,0.39276675117869697,0,-1,0.13998961448669434,-1.6371172110186976,-1.1720288435565394,-1.3187020460711878,0.9563591480255127,0.30329638719558716
5101,1734174013,126729011,-0.7434774405664061,0.11412097114514323,0.9239412248180691,-0.7524558752124723,-0.5248657638013235,0.07728056580129593,0.3903252489871968,0,-1,0.14061203598976135,-1.6373685042010706,-1.1769240538226526,-1.3176353613482874,0.9604001045227051,0.30457833409309387
5117,1734174013,142973423,-0.7447196206781725,0.11316918901363154,0.9203808377300886,-0.7527560739310261,-0.5262485738243861,0.0771276969651244,0.3879072699352296,0,-1,0.14122286438941956,-1.6376684347735804,-1.18195087114443,-1.316568676625387,0.9645488858222961,0.3058479130268097
5133,1734174013,158691644,-0.7459830471995995,0.11222389033571202,0.9167623581697477,-0.7530596302114908,-0.5276210358754225,0.0769321755438351,0.3854849883115701,0,-1,0.14184491336345673,-1.6379321257220667,-1.18689471880068,-1.3155258337603968,0.9686261415481567,0.3071650564670563
5149,1734174013,174398422,-0.7472343920632111,0.11125215012103418,0.9130070196905821,-0.7533749163686713,-0.5290096013777286,0.07665966794227148,0.3830122352453704,0,-1,0.1424793303012848,-1.638172451649801,-1.1921494642840784,-1.314387623463766,0.9726550579071045,0.3085065484046936
5165,1734174013,190573453,-0.7484240939718749,0.11035992370770471,0.9093023368835507,-0.7537048513706257,-0.5303468440655769,0.07636948655580253,0.38056395459011727,0,-1,0.1430654376745224,-1.6384480635272425,-1.1972125212298792,-1.313380543385641,0.9767199754714966,0.30980008840560913
5181,1734174013,206401586,-0.7496036268945301,0.10940138612914455,0.9056087145707454,-0.7540232132067552,-0.5317032676991235,0.07610466056881578,0.3780855851565088,0,-1,0.1436638981103897,-1.6386879126178187,-1.2022994200335901,-1.3123257795916956,0.980809211730957,0.31111758947372437
5197,1734174013,222650527,-0.7507799984340856,0.10847485258915773,0.9019712751897627,-0.7543437844298654,-0.5330217018084029,0.07587532166058239,0.3756278156050292,0,-1,0.14425037801265717,-1.6389997641192835,-1.2072070280658167,-1.3112357298480433,0.9849100708961487,0.31245946884155273
5213,1734174013,238437652,-0.7519642407757641,0.1075309069073269,0.8983250666090672,-0.7546652613370455,-0.5343249905791607,0.0757039847456486,0.37315687648400536,0,-1,0.14488479495048523,-1.639275375996725,-1.2121146360980433,-1.3101442495929163,0.9890229105949402,0.31378859281539917
5229,1734174013,254571199,-0.7530890924774443,0.10661815355216725,0.8946902989765869,-0.7549887012423222,-0.5356090523252002,0.07546352499577123,0.3707023879865695,0,-1,0.14551882445812225,-1.6395514647113245,-1.2171900908099573,-1.3089459578143519,0.9931604862213135,0.3150342106819153
5245,1734174013,270257472,-0.7541874937737114,0.10569097168765099,0.8909688144653067,-0.7553086426722156,-0.5369209564840264,0.07521857739438852,0.36819411511823186,0,-1,0.14606934785842896,-1.6398275534259241,-1.22227651277651,-1.3079388777362269,0.9973452091217041,0.31631577014923096
5261,1734174013,286683082,-0.7552667439190739,0.10477164805239747,0.8872448520668471,-0.7556296157282115,-0.538238128312509,0.07493703336917454,0.36566110279179237,0,-1,0.1466681957244873,-1.640066925679342,-1.2274239698993128,-1.3068483511554163,1.0014580488204956,0.3176093101501465
5277,1734174013,302245140,-0.7563267090280031,0.10385222405762587,0.8835192836177332,-0.7559385319182489,-0.5395335843729384,0.07463506668768788,0.36316670292786507,0,-1,0.14727826416492462,-1.6403668562518519,-1.2324393431292933,-1.3057459036456507,1.0055596828460693,0.31889086961746216
5293,1734174013,318556308,-0.7573901110382658,0.10294093866357844,0.8798279054259938,-0.7562554144470588,-0.5408184109844036,0.07436068915859277,0.3606434282884843,0,-1,0.14785276353359222,-1.6406543890582483,-1.2373226324664515,-1.3047030607806605,1.0096365213394165,0.3201488256454468
5309,1734174013,334279775,-0.7584078070667999,0.10198377123578675,0.8762368187107931,-0.7565532270706944,-0.5420711384177129,0.07416991469933958,0.35816884182873254,0,-1,0.1484748125076294,-1.6409786383258265,-1.242230240498678,-1.3035529295550745,1.0137497186660767,0.32135850191116333
5325,1734174013,350554466,-0.7594447605991111,0.10107077437349005,0.8725448450433184,-0.7568451705375155,-0.5433444531126667,0.07385698217656632,0.3556787023276857,0,-1,0.14907364547252655,-1.641278092061178,-1.247186009083883,-1.302485767995016,1.0178509950637817,0.32261571288108826
5341,1734174013,366493225,-0.7604159038819579,0.10015666459128741,0.8688280155919488,-0.7571699418911452,-0.5445685378624414,0.07354844541886249,0.35317051525203985,0,-1,0.14962416887283325,-1.6415184179889124,-1.2523329893695276,-1.3014071623431605,1.0219162702560425,0.3239092528820038
5357,1734174013,382774353,-0.7613586674244732,0.0992529902310074,0.8650642979911883,-0.757495866374428,-0.5457972058552655,0.07320261220289163,0.35063770486488294,0,-1,0.15024623274803162,-1.6418059507953089,-1.2574084440814417,-1.3003647963153284,1.026017427444458,0.32522714138031006
5373,1734174013,398377180,-0.7623298200857689,0.09832998996878813,0.8612955135673004,-0.7578162994784022,-0.5470367398314,0.07285413307483703,0.34807691220965487,0,-1,0.15083271265029907,-1.6420820395099085,-1.262543026600973,-1.299310032521383,1.0301306247711182,0.3265326917171478
5389,1734174013,414634466,-0.7632573375383032,0.09740260448101881,0.8575044813739655,-0.758146680782679,-0.5482516754943202,0.072509128932008,0.3455085193702155,0,-1,0.15146712958812714,-1.6424296537982386,-1.267606560383932,-1.2983034292804163,1.0342679023742676,0.32788577675819397
5405,1734174013,430452108,-0.7642295030104994,0.09647336010220012,0.8537277730917724,-0.7584905314711915,-0.5494373849023818,0.07217858333147856,0.34292991390143,0,-1,0.15204161405563354,-1.642717186604635,-1.2725146452533167,-1.2972124258624476,1.0384050607681274,0.32926321029663086
5421,1734174013,446740627,-0.7651241731478082,0.09556807534330579,0.8500735528840286,-0.7588249087653878,-0.5505769042597669,0.07189737916382047,0.34041239284477603,0,-1,0.15267565846443176,-1.6430051962481897,-1.2775052229510706,-1.2960379759417933,1.0424706935882568,0.3305807411670685
