yildirimyigit/pemp/data/ur10/raw/23_2024-12-14_14-01-49.csv
Time,ROS secs,ROS nsecs,________p_x________,________p_y________,________p_z________,________q_x________,________q_y________,________q_z________,________q_w________,gripper_position,gripper_force,shoulder_pan_joint,shoulder_lift_joint,elbow_joint,wrist_1_joint,wrist_2_joint,wrist_3_joint
0,1734174109,450279951,-0.00021410240477818,0.2561409951251873,1.4272999814054756,-0.7071067752217406,-0.00011428207884453165,-7.191144513628543e-05,0.7071067742596314,0,-1,1.1984225238848012e-05,-1.570916000996725,-0.00010759035219365387,-1.5708563963519495,1.1984225238848012e-05,-2.366701234990387e-05
15,1734174109,466140270,-0.0002523480865624395,0.2561410002164202,1.427299972127702,-0.7071067730831113,-0.00012247572549912896,-0.0001055274717426121,0.7071067708087929,0,-1,1.1984225238848012e-05,-1.5708921591388147,-5.990663637334137e-05,-1.570808235798971,3.5952674807049334e-05,-4.7985707418263246e-05
31,1734174109,481968879,-0.0002064494177095225,0.25614099536158524,1.4272999828588748,-0.7071067731476353,-0.00011423732190467613,-8.881494131988893e-05,0.7071067744198745,0,-1,2.3968450477696024e-05,-1.570916000996725,-5.990663637334137e-05,-1.5708444754229944,1.1984225238848012e-05,-2.366701234990387e-05
47,1734174109,498620510,-0.00020491744132230695,0.2561409977790372,1.4272999809550708,-0.7071067729530301,-0.00012266669151832113,-9.724431092048884e-05,0.707106772093422,0,-1,1.1984225238848012e-05,-1.5708683172809046,-8.374849428349762e-05,-1.5708320776568812,1.1984225238848012e-05,-2.366701234990387e-05
62,1734174109,514380693,-0.00021019698376401595,0.2561409951724475,1.4272999803464377,-0.7071067745311552,-0.00012694851217820148,-7.610375103566665e-05,0.7071067723508524,0,-1,1.1984225238848012e-05,-1.5708563963519495,-8.374849428349762e-05,-1.5708320776568812,3.5952674807049334e-05,-3.5587941304981996e-05
79,1734174109,530165195,-0.00020030072735652016,0.2561409955155808,1.4272999848270598,-0.7071067751246689,-9.31415192323298e-05,-7.619326546956801e-05,0.707106777008985,0,-1,2.3968450477696024e-05,-1.5708563963519495,-0.000119511281148732,-1.5708683172809046,1.1984225238848012e-05,-1.1746083394825746e-05
95,1734174109,546358346,-0.00019497921230283226,0.25614099792462297,1.4272999838926599,-0.7071067720111855,-0.00011436115203904619,-0.00010588702518563824,0.7071067731859073,0,-1,1.1984225238848012e-05,-1.5708563963519495,-7.18275653284195e-05,-1.5708683172809046,3.5952674807049334e-05,-1.1746083394825746e-05
111,1734174109,562151908,-0.00026373169476864644,0.25614100335176754,1.4272999693572412,-0.7071067711383134,-0.00012689843628809708,-0.0001267300444761805,0.7071067684915988,0,-1,-1.1746083394825746e-05,-1.570916000996725,-8.374849428349762e-05,-1.5708683172809046,3.5952674807049334e-05,-4.7985707418263246e-05
127,1734174109,578201055,-0.00016252991218965916,0.2561409927396625,1.42729998998241,-0.7071067724086791,-0.00010606073548177414,-8.04699632159016e-05,0.7071067774314469,0,-1,0.0,-1.5708802382098597,-7.18275653284195e-05,-1.5708444754229944,3.5952674807049334e-05,-2.366701234990387e-05
143,1734174109,594076633,-0.00017891506550899778,0.2561409959685733,1.4272999869932261,-0.7071067786262497,-8.465013636755578e-05,-4.227950253555197e-05,0.7071067774159755,0,-1,2.3968450477696024e-05,-1.5708802382098597,-0.00010759035219365387,-1.5708683172809046,0.0,-1.1746083394825746e-05
158,1734174109,610272884,-0.00019286555604917984,0.25614098913940403,1.4272999858100575,-0.7071067709293064,-0.00012694851246730545,-7.610375069855476e-05,0.7071067759527013,0,-1,-1.1746083394825746e-05,-1.5709040800677698,-0.000119511281148732,-1.5708802382098597,4.793690095539205e-05,-3.5587941304981996e-05
175,1734174109,626142263,-0.00020121610535550453,0.2561410002362831,1.4272999819508734,-0.7071067738734543,-0.00010997787986243005,-0.0001015037529742849,0.7071067726617598,0,-1,1.1984225238848012e-05,-1.5708921591388147,-0.000119511281148732,-1.5708563963519495,3.5952674807049334e-05,-3.5587941304981996e-05
190,1734174109,642875671,-0.00020972885286179568,0.256140997741239,1.427299980988532,-0.7071067724296595,-0.00011859821548229233,-0.00010164996174477857,0.7071067726912664,0,-1,0.0,-1.5708802382098597,-0.00010759035219365387,-1.5708444754229944,2.3968450477696024e-05,0.0
207,1734174109,657974720,-0.0002319931276142332,0.256140997455218,1.4272999777676896,-0.7071067708361887,-0.00010582501225640906,-0.00011408599015274803,0.7071067744146363,0,-1,-2.366701234990387e-05,-1.5708802382098597,-5.990663637334137e-05,-1.5708563963519495,2.3968450477696024e-05,-3.5587941304981996e-05
223,1734174109,674151897,-0.00025485300875927275,0.2561409971011466,1.427299970795936,-0.7071067702873293,-0.00015255141703937142,-0.00011018078281853904,0.7071067670458843,0,-1,2.3968450477696024e-05,-1.5708802382098597,-8.374849428349762e-05,-1.5708563963519495,1.1984225238848012e-05,-1.1746083394825746e-05
239,1734174109,690082073,-0.00022368325512692912,0.2561409948955492,1.4272999792524435,-0.7071067741122075,-0.00012271144843457592,-8.034081479055212e-05,0.7071067730490788,0,-1,0.0,-1.5708683172809046,-5.990663637334137e-05,-1.5708444754229944,4.793690095539205e-05,-4.7985707418263246e-05
255,1734174109,706514358,-0.00021110810428817166,0.2561409977247098,1.4272999806037172,-0.7071067717607079,-0.000122812900273915,-0.00010586464654914673,0.707106772022315,0,-1,5.992112710373476e-05,-1.5708802382098597,-0.000119511281148732,-1.5708444754229944,3.5952674807049334e-05,-2.366701234990387e-05
271,1734174109,722285985,-0.00020373714490225277,0.2561409977600773,1.4272999821481163,-0.7071067758938373,-0.00011004501541141893,-7.61485085602904e-05,0.7071067738160355,0,-1,2.3968450477696024e-05,-1.5708683172809046,-7.18275653284195e-05,-1.5708921591388147,2.3968450477696024e-05,-2.366701234990387e-05
287,1734174109,738766431,-0.0002174925922529218,0.2561409949975831,1.4272999796907675,-0.7071067729675681,-0.00013537788179182196,-8.453312062690863e-05,0.707106771393382,0,-1,3.5952674807049334e-05,-1.57092792192568,-9.566942323857575e-05,-1.5708320776568812,5.992112710373476e-05,-2.366701234990387e-05
303,1734174109,754209280,-0.0002232613543624467,0.2561410002164202,1.4272999781282754,-0.7071067736753683,-0.00011842962809865226,-0.00010148137433105884,0.7071067714980286,0,-1,2.3968450477696024e-05,-1.5708563963519495,-0.00010759035219365387,-1.5708563963519495,3.5952674807049334e-05,-1.1746083394825746e-05
318,1734174109,770176410,-0.00018981533245095557,0.25614100715362154,1.4272999832272482,-0.7071067772459572,-8.475158820792849e-05,-0.00010144193572285214,0.7071067727716502,0,-1,-2.366701234990387e-05,-1.5708563963519495,-9.566942323857575e-05,-1.5708320776568812,4.793690095539205e-05,-1.1746083394825746e-05
334,1734174109,785644531,-0.00022848953647271696,0.25614099202811336,1.427299977957966,-0.7071067749090888,-0.0001312697714513637,-6.347675663090421e-05,0.7071067724301724,0,-1,2.3968450477696024e-05,-1.57092792192568,-7.18275653284195e-05,-1.5708802382098597,0.0,-1.1746083394825746e-05
350,1734174109,802332401,-0.0001898181440304348,0.25614099788053907,1.4272999847119163,-0.7071067738987742,-0.00012709472101680655,-8.472408656510012e-05,0.7071067719766435,0,-1,1.1984225238848012e-05,-1.5708921591388147,-9.566942323857575e-05,-1.5708563963519495,7.190534961409867e-05,-3.5587941304981996e-05
367,1734174109,817722558,-0.0002035712226120451,0.2561410002164202,1.4272999818063012,-0.7071067765059006,-9.718761667593101e-05,-8.023936287865162e-05,0.7071067746356601,0,-1,-2.366701234990387e-05,-1.5709040800677698,-9.566942323857575e-05,-1.5708563963519495,2.3968450477696024e-05,-3.5587941304981996e-05
383,1734174109,833827257,-0.00024340128936961017,0.25614099424417264,1.4272999744505201,-0.7071067742343942,-0.00014385200791486254,-7.605899446552949e-05,0.7071067694156652,0,-1,0.0,-1.5708802382098597,-8.374849428349762e-05,-1.5708444754229944,1.1984225238848012e-05,-2.366701234990387e-05
399,1734174109,850191354,-0.00019718557893185024,0.25614100251714367,1.4272999814566303,-0.7071067765312922,-0.0001058697692146058,-8.875312434449031e-05,0.7071067723462986,0,-1,1.1984225238848012e-05,-1.5708802382098597,-0.00010759035219365387,-1.5708802382098597,0.0,-2.366701234990387e-05
414,1734174109,866035938,-0.00020116635091027622,0.2561410026234907,1.427299981634878,-0.7071067745545925,-9.737326405462797e-05,-0.0001056789991690252,0.7071067732170279,0,-1,-2.366701234990387e-05,-1.5708921591388147,-0.000119511281148732,-1.5708683172809046,2.3968450477696024e-05,-2.366701234990387e-05
430,1734174109,881997108,-0.00020089043923248668,0.25614099544185764,1.427299982409069,-0.7071067753632763,-0.0001143438960674229,-7.197326239721313e-05,0.7071067741018128,0,-1,1.1984225238848012e-05,-1.5708921591388147,-9.566942323857575e-05,-1.5708683172809046,1.1984225238848012e-05,0.0
446,1734174109,898191213,-0.00016789447576568767,0.2561410001833154,1.4272999854986648,-0.7071067733459911,-0.0001270499634024891,-0.0001016275833869299,0.7071067703100871,0,-1,1.1984225238848012e-05,-1.5709040800677698,-7.18275653284195e-05,-1.5708921591388147,4.793690095539205e-05,-1.1746083394825746e-05
462,1734174109,914108514,-0.0001968280358408179,0.25614099559219483,1.427299982581275,-0.7071067737654723,-0.00011002263710494954,-8.460025650091726e-05,0.7071067749872018,0,-1,3.5952674807049334e-05,-1.5709403196917933,-8.374849428349762e-05,-1.5708563963519495,2.3968450477696024e-05,-3.5587941304981996e-05
478,1734174109,929625272,-0.00021190190121950784,0.2561410002164202,1.4272999794541008,-0.707106772415373,-0.00012685899767844922,-0.00010991074393455819,0.7071067700359945,0,-1,2.3968450477696024e-05,-1.5708802382098597,-7.18275653284195e-05,-1.5708444754229944,4.793690095539205e-05,-1.1746083394825746e-05
494,1734174109,945601940,-0.0002643047502538581,0.2561409969282862,1.4272999691781443,-0.7071067728634629,-0.00014802193635910969,-9.717717478074815e-05,0.707106767339079,0,-1,0.0,-1.5708921591388147,-0.00010759035219365387,-1.5708444754229944,4.793690095539205e-05,-3.5587941304981996e-05
510,1734174109,961773395,-0.00019840624236211487,0.2561409955345048,1.4272999830817588,-0.7071067734658318,-0.00011847438535145993,-8.457787787279474e-05,0.7071067739239552,0,-1,1.1984225238848012e-05,-1.57092792192568,-0.00013143221010381012,-1.5708921591388147,1.1984225238848012e-05,-4.7985707418263246e-05
526,1734174109,977788448,-0.00017750278110088252,0.2561409939671589,1.4272999869083107,-0.7071067740413901,-0.0001186877293825398,-6.78429693692976e-05,0.7071067751162711,0,-1,3.5952674807049334e-05,-1.5708563963519495,-4.7985707418263246e-05,-1.5708444754229944,3.5952674807049334e-05,-1.1746083394825746e-05
543,1734174109,993935823,-0.0001771916328263839,0.2561409960098813,1.4272999862010864,-0.7071067763730603,-0.0001059145264630328,-6.354389273101789e-05,0.7071067752126163,0,-1,-1.1746083394825746e-05,-1.5709040800677698,-9.566942323857575e-05,-1.5708563963519495,3.5952674807049334e-05,-1.1746083394825746e-05
558,1734174110,9949922,-0.00017897962315419712,0.2561410001369687,1.4272999847517875,-0.7071067780104316,-0.00010167746332647294,-6.778095582107513e-05,0.7071067738037458,0,-1,2.3968450477696024e-05,-1.5708802382098597,-0.000119511281148732,-1.5708563963519495,4.793690095539205e-05,-2.366701234990387e-05
574,1734174110,26025295,-0.0001842129355096037,0.25614099579524485,1.4272999857425916,-0.7071067744378289,-0.00012290241483939524,-7.205765352637176e-05,0.7071067735829013,0,-1,1.1984225238848012e-05,-1.5708921591388147,-0.000119511281148732,-1.5708563963519495,3.5952674807049334e-05,-4.7985707418263246e-05
590,1734174110,42078256,-0.00021319128392905068,0.25614099250529593,1.4272999813141984,-0.7071067721121614,-0.0001482576585313247,-7.199051861392473e-05,0.7071067710538145,0,-1,4.793690095539205e-05,-1.5709040800677698,-4.7985707418263246e-05,-1.5708683172809046,3.5952674807049334e-05,-2.366701234990387e-05
606,1734174110,57739973,-0.00026066937775929004,0.25614099406201685,1.4272999723323472,-0.7071067704250723,-0.00013109606106150005,-0.0001056736805627249,0.7071067718993505,0,-1,-2.366701234990387e-05,-1.570916000996725,-0.000119511281148732,-1.5708683172809046,3.5952674807049334e-05,-3.5587941304981996e-05
623,1734174110,74031591,-0.00023784495424369317,0.2561410030479602,1.4272999751192765,-0.7071067739947058,-9.30518090888918e-05,-0.00010966327935222108,0.7071067737521158,0,-1,0.0,-1.570916000996725,-0.000119511281148732,-1.5708563963519495,1.1984225238848012e-05,-1.1746083394825746e-05
638,1734174110,90199947,-0.00017475879607080737,0.2561410002362831,1.4272999864974776,-0.7071067760925207,-9.311914062820105e-05,-8.46450137204909e-05,0.7071067750828649,0,-1,3.5952674807049334e-05,-1.5709040800677698,-5.990663637334137e-05,-1.5708683172809046,-1.1746083394825746e-05,-1.1746083394825746e-05
655,1734174110,106367349,-0.00019194640352603168,0.2561409979543479,1.4272999846573087,-0.7071067771449377,-8.475158822063529e-05,-6.780333444827242e-05,0.7071067768983519,0,-1,1.1984225238848012e-05,-1.57092792192568,-0.000119511281148732,-1.5708683172809046,5.992112710373476e-05,1.1984225238848012e-05
671,1734174110,122413635,-0.00020897045696124982,0.2561409928358118,1.4272999830495778,-0.7071067750665944,-0.000114304457153973,-6.34596971968875e-05,0.7071067752201775,0,-1,3.5952674807049334e-05,-1.570916000996725,-9.566942323857575e-05,-1.5708563963519495,1.1984225238848012e-05,-1.1746083394825746e-05
687,1734174110,138176679,-0.00018279684135111155,0.25614099801103063,1.4272999852541122,-0.7071067765279413,-0.00010589214783019726,-7.199564099185632e-05,0.7071067742510638,0,-1,4.793690095539205e-05,-1.5708802382098597,-9.566942323857575e-05,-1.5708683172809046,-2.366701234990387e-05,-1.1746083394825746e-05
703,1734174110,154121398,-0.0001706322889872804,0.25614100424706104,1.4272999861011546,-0.7071067775820918,-0.0001018460507632618,-8.468464790675302e-05,0.7071067723854456,0,-1,4.793690095539205e-05,-1.5709040800677698,-9.566942323857575e-05,-1.5708683172809046,2.3968450477696024e-05,-4.7985707418263246e-05
719,1734174110,170500278,-0.00016618530059674247,0.25614099442702026,1.427299989530304,-0.7071067764750197,-8.897159134471408e-05,-5.507508440796725e-05,0.7071067781558154,0,-1,0.0,-1.5708921591388147,-9.566942323857575e-05,-1.5708683172809046,2.3968450477696024e-05,-2.366701234990387e-05
735,1734174110,186403751,-0.00018490914211374276,0.25614099156729664,1.427299986470756,-0.7071067739170018,-0.0001269932694710237,-5.920025450009361e-05,0.7071067745742007,0,-1,0.0,-1.5708921591388147,-0.0001557509051721695,-1.5708444754229944,4.793690095539205e-05,-2.366701234990387e-05
751,1734174110,202096462,-0.000183107989889785,0.2561409958680754,1.4272999859942204,-0.7071067727318311,-0.00012709472068790466,-8.472408691470805e-05,0.7071067731435866,0,-1,1.1984225238848012e-05,-1.5709040800677698,-9.566942323857575e-05,-1.5708563963519495,1.1984225238848012e-05,-3.5587941304981996e-05
767,1734174110,218376398,-0.0002196802438049587,0.25614098747967007,1.4272999802231532,-0.7071067711238412,-0.00013963732378615969,-7.184430903630192e-05,0.7071067738118683,0,-1,3.5952674807049334e-05,-1.5708802382098597,-9.566942323857575e-05,-1.5708921591388147,-2.366701234990387e-05,-4.7985707418263246e-05
783,1734174110,234085798,-0.0001997101429643986,0.25614099542380087,1.4272999835274176,-0.7071067753881398,-0.00011851914261557051,-6.767438135005208e-05,0.7071067738139536,0,-1,1.1984225238848012e-05,-1.5709040800677698,-0.00010759035219365387,-1.5708444754229944,2.3968450477696024e-05,0.0
799,1734174110,250569820,-0.00021655120035270626,0.25614099765947845,1.4272999795600472,-0.7071067724296594,-0.00011859821548229233,-0.00010164996174477853,0.7071067726912664,0,-1,1.1984225238848012e-05,-1.5708802382098597,-9.566942323857575e-05,-1.5708802382098597,7.190534961409867e-05,-2.366701234990387e-05
815,1734174110,266757965,-0.00018708876185053033,0.25614099583225114,1.4272999860934361,-0.7071067745569415,-9.735620404560814e-05,-8.040795029437878e-05,0.707106776542277,0,-1,1.1984225238848012e-05,-1.5708921591388147,-8.374849428349762e-05,-1.5708563963519495,2.3968450477696024e-05,-1.1746083394825746e-05
831,1734174110,282319784,-0.00015882372906256045,0.2561409982519831,1.427299988794865,-0.7071067769936531,-0.00010585270957330875,-6.348207511118906e-05,0.7071067746068328,0,-1,3.5952674807049334e-05,-1.5708802382098597,-7.18275653284195e-05,-1.5708563963519495,3.5952674807049334e-05,-4.7985707418263246e-05
847,1734174110,298457622,-0.00021832323171928013,0.2561409948452548,1.4272999795328092,-0.707106773290902,-0.0001440205954105727,-7.622758173164487e-05,0.7071067703066863,0,-1,-1.1746083394825746e-05,-1.5708921591388147,-8.374849428349762e-05,-1.5708444754229944,3.5952674807049334e-05,-2.366701234990387e-05
863,1734174110,314310312,-0.00023556770385596947,0.2561409974315804,1.4272999737180811,-0.7071067703999708,-0.00013124226983731056,-0.00011429401615369023,0.7071067705565175,0,-1,-1.1746083394825746e-05,-1.5708921591388147,-7.18275653284195e-05,-1.5708563963519495,1.1984225238848012e-05,-2.366701234990387e-05
879,1734174110,330462455,-0.0001848497500860287,0.2561409980195329,1.4272999859223978,-0.707106776382649,-9.737858269373636e-05,-7.195620201574704e-05,0.7071067756240603,0,-1,2.3968450477696024e-05,-1.5709040800677698,-0.000119511281148732,-1.5708444754229944,4.793690095539205e-05,-5.990663637334137e-05
895,1734174110,346170902,-0.00021761930319354758,0.2561410002362831,1.4272999783562763,-0.7071067726131922,-0.0001184072494567003,-0.00010993312258014403,0.7071067713004784,0,-1,1.1984225238848012e-05,-1.5709040800677698,-8.374849428349762e-05,-1.5708683172809046,2.3968450477696024e-05,-2.366701234990387e-05
911,1734174110,362398862,-0.00019288779542823395,0.25614099558732195,1.4272999847119163,-0.7071067738947515,-0.00012711709963231468,-7.627233835141381e-05,0.7071067729388045,0,-1,1.1984225238848012e-05,-1.570916000996725,-7.18275653284195e-05,-1.5708683172809046,4.793690095539205e-05,-1.1746083394825746e-05
927,1734174110,378226280,-0.00021083379838995778,0.2561409977081342,1.4272999806973876,-0.7071067735706003,-0.00011845200672566146,-9.302962610917742e-05,0.707106772761502,0,-1,-1.1746083394825746e-05,-1.570916000996725,-0.00010759035219365387,-1.5708563963519495,3.5952674807049334e-05,-1.1746083394825746e-05
943,1734174110,394408702,-0.0002336322773726835,0.256140989311112,1.4272999777746669,-0.7071067721224557,-0.00012677992478329667,-7.593516364113571e-05,0.7071067748079233,0,-1,1.1984225238848012e-05,-1.5708921591388147,-0.00016767183412724762,-1.5708563963519495,3.5952674807049334e-05,-3.5587941304981996e-05
959,1734174110,410091876,-0.00022288432813724878,0.25614098968729526,1.427299979051139,-0.7071067722042327,-0.00014387438759207603,-6.760724521544962e-05,0.7071067722998644,0,-1,-1.1746083394825746e-05,-1.5708921591388147,-5.990663637334137e-05,-1.5708563963519495,4.793690095539205e-05,-4.7985707418263246e-05
975,1734174110,426314592,-0.0002220074584884162,0.2561409873931884,1.427299980988532,-0.7071067709798161,-0.00012694851246306302,-7.610375070582374e-05,0.7071067759021916,0,-1,3.5952674807049334e-05,-1.5709040800677698,-7.18275653284195e-05,-1.5708444754229944,2.3968450477696024e-05,-1.1746083394825746e-05
991,1734174110,442371606,-0.0002522397030503506,0.256140997132465,1.4272999726910882,-0.7071067733759301,-0.00013535550312790198,-9.298486887481687e-05,0.7071067699284055,0,-1,3.5952674807049334e-05,-1.5708802382098597,-9.566942323857575e-05,-1.5708683172809046,3.5952674807049334e-05,-2.366701234990387e-05
1007,1734174110,458437919,-0.00023774985090161424,0.25614098903427684,1.4272999775196422,-0.7071067721392553,-0.0001396373238223979,-7.18443090049688e-05,0.7071067727964542,0,-1,1.1984225238848012e-05,-1.5708802382098597,-8.374849428349762e-05,-1.5708683172809046,3.5952674807049334e-05,-3.5587941304981996e-05
1023,1734174110,474113702,-0.00018976678369376262,0.2561409934202999,1.4272999851027859,-0.7071067725152402,-0.0001398059112893944,-7.201289628067172e-05,0.707106772370008,0,-1,2.3968450477696024e-05,-1.5708683172809046,-9.566942323857575e-05,-1.5708683172809046,2.3968450477696024e-05,1.1984225238848012e-05
1039,1734174110,490195512,-0.00021110810428817166,0.2561409977247098,1.4272999806037172,-0.7071067725084252,-0.00011842962808488017,-0.00010148137435881585,0.7071067726649718,0,-1,2.3968450477696024e-05,-1.5708921591388147,-0.000119511281148732,-1.5708563963519495,1.1984225238848012e-05,-4.7985707418263246e-05
1055,1734174110,506328105,-0.00020379416837911857,0.25614099540536456,1.427299982113968,-0.7071067759997844,-0.00010150887595844156,-6.761236845211092e-05,0.7071067758547546,0,-1,3.5952674807049334e-05,-1.5708921591388147,-5.990663637334137e-05,-1.5708683172809046,1.1984225238848012e-05,-3.5587941304981996e-05
1071,1734174110,522416830,-0.00024203283128855678,0.2561409888753107,1.4272999767414087,-0.7071067732328558,-0.00012680230309709394,-6.748341572260145e-05,0.7071067745506212,0,-1,2.3968450477696024e-05,-1.5708921591388147,-0.000119511281148732,-1.5708563963519495,2.3968450477696024e-05,-2.366701234990387e-05
1087,1734174110,538062810,-0.00014990368389913156,0.25614099671689883,1.4272999902945696,-0.7071067754177446,-9.737858268686198e-05,-7.195620202141075e-05,0.7071067765889646,0,-1,2.3968450477696024e-05,-1.5709040800677698,-0.000119511281148732,-1.5708683172809046,4.793690095539205e-05,-2.366701234990387e-05
1103,1734174110,554117918,-0.0001709877724979029,0.25614099619168307,1.4272999883079815,-0.7071067773055463,-8.88030042831188e-05,-5.4906496692968024e-05,0.7071067773595919,0,-1,0.0,-1.5708683172809046,-9.566942323857575e-05,-1.5708683172809046,2.3968450477696024e-05,-5.990663637334137e-05
1119,1734174110,570369005,-0.000183107989889785,0.2561409958680754,1.4272999859942204,-0.7071067749186822,-0.00011428207887362749,-7.191144509992569e-05,0.7071067745626898,0,-1,0.0,-1.5708802382098597,-0.00010759035219365387,-1.5708563963519495,4.793690095539205e-05,-3.5587941304981996e-05
1135,1734174110,586180686,-0.00020680679629760874,0.25614099530005174,1.4272999821481163,-0.7071067752217406,-0.00011428207884453165,-7.191144513628543e-05,0.7071067742596314,0,-1,5.992112710373476e-05,-1.5708563963519495,-9.566942323857575e-05,-1.5708802382098597,-2.366701234990387e-05,-1.1746083394825746e-05
1151,1734174110,601924657,-0.0001964415364117752,0.25614099784750954,1.4272999828037862,-0.707106775225357,-0.00011425970022898157,-8.036319336607051e-05,0.7071067733495943,0,-1,1.1984225238848012e-05,-1.5709040800677698,-9.566942323857575e-05,-1.5708563963519495,2.3968450477696024e-05,-1.1746083394825746e-05
1167,1734174110,618170976,-0.00019730146132481842,0.2561410025714725,1.4272999828588748,-0.7071067756679438,-9.739564267015682e-05,-9.722725092590252e-05,0.7071067733132209,0,-1,2.3968450477696024e-05,-1.5709040800677698,-7.18275653284195e-05,-1.5708921591388147,3.5952674807049334e-05,-1.1746083394825746e-05
1183,1734174110,633949041,-0.0001843153730346693,0.2561409980460604,1.4272999860306574,-0.7071067756729021,-8.057634202257322e-05,-8.040795028245165e-05,0.7071067775375135,0,-1,2.3968450477696024e-05,-1.5708683172809046,-9.566942323857575e-05,-1.5708444754229944,3.5952674807049334e-05,-2.366701234990387e-05
1199,1734174110,650344133,-0.00016069422902524564,0.25614100212227997,1.4272999871119645,-0.7071067756729023,-7.21469723687324e-05,-9.718781233685698e-05,0.7071067763406141,0,-1,1.1984225238848012e-05,-1.57092792192568,-7.18275653284195e-05,-1.5708683172809046,3.5952674807049334e-05,-1.1746083394825746e-05
1215,1734174110,666036128,-0.00022014034274397647,0.25614099756349773,1.4272999785665992,-0.7071067768377007,-0.00010584739055907795,-7.195088380438585e-05,0.7071067739525612,0,-1,1.1984225238848012e-05,-1.570916000996725,-8.374849428349762e-05,-1.5708683172809046,3.5952674807049334e-05,-2.366701234990387e-05
1231,1734174110,682294368,-0.00020042230839160402,0.2561409978593917,1.427299982982034,-0.7071067733494697,-0.00010576319504614794,-9.728906817908263e-05,0.7071067744211517,0,-1,0.0,-1.5709040800677698,-5.990663637334137e-05,-1.5708683172809046,3.5952674807049334e-05,-4.7985707418263246e-05
1247,1734174110,698112249,-0.00019126335852841106,0.25614099352539704,1.4272999858418074,-0.7071067755071642,-9.746277821253332e-05,-6.356627132750259e-05,0.7071067772919426,0,-1,0.0,-1.5708921591388147,-9.566942323857575e-05,-1.5708683172809046,3.5952674807049334e-05,-5.990663637334137e-05
1262,1734174110,714437723,-0.00021516698336510485,0.256141002682008,1.4272999782622826,-0.707106775991397,-0.00011853620255559508,-9.294543019721971e-05,0.7071067703376683,0,-1,-1.1746083394825746e-05,-1.5708921591388147,-8.374849428349762e-05,-1.5708563963519495,3.5952674807049334e-05,0.0
1279,1734174110,730203151,-0.00015837408400500648,0.2561409964145621,1.4272999903919321,-0.7071067776112034,-9.727713118774689e-05,-4.6432369772529753e-05,0.7071067765461555,0,-1,1.1984225238848012e-05,-1.570916000996725,-5.990663637334137e-05,-1.5708683172809046,2.3968450477696024e-05,-2.366701234990387e-05
1295,1734174110,746463060,-0.00021893780695376734,0.25614099003538227,1.427299980988532,-0.7071067717278116,-0.00012271144873358608,-8.034081446115082e-05,0.7071067754334748,0,-1,0.0,-1.5708921591388147,-9.566942323857575e-05,-1.5708444754229944,3.5952674807049334e-05,-5.990663637334137e-05
1311,1734174110,762341260,-0.0002283091026163272,0.2561410029158279,1.4272999752732751,-0.7071067737418016,-0.00011866003271768444,-0.00011001751407404393,0.7071067701163691,0,-1,2.3968450477696024e-05,-1.5708921591388147,-7.18275653284195e-05,-1.5708683172809046,2.3968450477696024e-05,-2.366701234990387e-05
1327,1734174110,778188705,-0.00016343618554650585,0.2561409982761579,1.4272999882499373,-0.7071067751463163,-0.00010597653972413592,-8.0554159038802e-05,0.707106774696847,0,-1,1.1984225238848012e-05,-1.5708921591388147,-0.00014382997621709137,-1.5708683172809046,5.992112710373476e-05,-3.5587941304981996e-05
1342,1734174110,794323444,-0.0001716948079363353,0.2561409961945994,1.4272999866948748,-0.7071067765902571,-8.884244288968727e-05,-6.342006222183596e-05,0.7071067773576012,0,-1,7.190534961409867e-05,-1.5708802382098597,-8.374849428349762e-05,-1.5708563963519495,1.1984225238848012e-05,-2.366701234990387e-05
1359,1734174110,810036897,-0.0001614010953102648,0.25614100412790064,1.427299987066177,-0.7071067771449379,-8.475158822063532e-05,-9.301256610366253e-05,0.7071067740317089,0,-1,-1.1746083394825746e-05,-1.5708921591388147,-7.18275653284195e-05,-1.5708802382098597,3.5952674807049334e-05,-2.366701234990387e-05
1375,1734174110,826289892,-0.00017013839797290392,0.2561410064003923,1.4272999846383132,-0.707106777743115,-9.744039956059913e-05,-9.71824939347792e-05,0.707106771238036,0,-1,1.1984225238848012e-05,-1.5708921591388147,-9.566942323857575e-05,-1.5708320776568812,3.5952674807049334e-05,-2.366701234990387e-05
1391,1734174110,842043399,-0.00020881773234858477,0.25614099520550604,1.4272999807707685,-0.7071067750732276,-0.00012273382738876542,-7.188906620685841e-05,0.7071067729939443,0,-1,3.5952674807049334e-05,-1.5708802382098597,-9.566942323857575e-05,-1.5708802382098597,3.5952674807049334e-05,-1.1746083394825746e-05
1406,1734174110,857780694,-0.0002334276591563128,0.2561409974572272,1.4272999765215215,-0.7071067725589348,-0.00011842962807882498,-0.00010148137436547632,0.7071067726144621,0,-1,2.3968450477696024e-05,-1.5708802382098597,-0.000119511281148732,-1.5708683172809046,1.1984225238848012e-05,-3.5587941304981996e-05
1423,1734174110,874070167,-0.00021987116696197214,0.2561410002362831,1.4272999797846542,-0.7071067744153934,-0.00010576319506511498,-9.728906816011561e-05,0.707106773355228,0,-1,1.1984225238848012e-05,-1.5708921591388147,-0.000119511281148732,-1.5708563963519495,0.0,-4.7985707418263246e-05
1438,1734174110,890348434,-0.00019055821206723114,0.2561410001833154,1.4272999835580256,-0.7071067780244316,-9.305712737385033e-05,-6.763474736501056e-05,0.7071067749907501,0,-1,0.0,-1.5709040800677698,-9.566942323857575e-05,-1.5708683172809046,2.3968450477696024e-05,-3.5587941304981996e-05
1455,1734174110,906053781,-0.00023204840773462216,0.25614099747375646,1.4272999769227785,-0.7071067717607079,-0.000122812900273915,-0.00010586464654914673,0.707106772022315,0,-1,1.1984225238848012e-05,-1.5708921591388147,-0.000119511281148732,-1.5708563963519495,1.1984225238848012e-05,-3.5587941304981996e-05
1470,1734174110,922357320,-0.00022262453976190576,0.25614099748737984,1.4272999778215096,-0.7071067731738913,-0.00013535550315332687,-9.298486884697073e-05,0.7071067701304443,0,-1,2.3968450477696024e-05,-1.5708563963519495,-7.18275653284195e-05,-1.5708683172809046,2.3968450477696024e-05,-2.366701234990387e-05
1487,1734174110,938035249,-0.00020649212345887443,0.2561410025801124,1.4272999793422836,-0.7071067777866438,-0.00010595396534633348,-8.036319303696754e-05,0.7071067720816315,0,-1,-2.366701234990387e-05,-1.5708921591388147,-0.00010759035219365387,-1.5708683172809046,4.793690095539205e-05,0.0
1502,1734174110,953802585,-0.0001934732495172757,0.25614099339297786,1.4272999853385502,-0.7071067749150651,-0.00011430445716761297,-6.345969717779965e-05,0.7071067753717067,0,-1,1.1984225238848012e-05,-1.5708802382098597,-0.0001557509051721695,-1.5708320776568812,7.190534961409867e-05,-3.5587941304981996e-05
1519,1734174110,970091104,-0.00020602238676258833,0.2561409977326905,1.4272999806507543,-0.7071067733722461,-0.0001269037546258028,-9.300724780022515e-05,0.7071067714964833,0,-1,2.3968450477696024e-05,-1.5708921591388147,-7.18275653284195e-05,-1.5708444754229944,3.5952674807049334e-05,-5.990663637334137e-05
1534,1734174110,985804796,-0.00019437923999701174,0.2561409933604051,1.4272999844478884,-0.7071067736537361,-0.0001227338267748748,-7.18890668232329e-05,0.7071067744134361,0,-1,2.3968450477696024e-05,-1.570916000996725,-5.990663637334137e-05,-1.5708802382098597,2.3968450477696024e-05,-4.7985707418263246e-05
1551,1734174111,2118349,-0.00019348263733946178,0.256140997836623,1.4272999829594208,-0.7071067737660731,-0.00013114081837183774,-8.877018403351211e-05,0.7071067708741556,0,-1,4.793690095539205e-05,-1.5708921591388147,-9.566942323857575e-05,-1.5708320776568812,-1.1746083394825746e-05,1.1984225238848012e-05
1566,1734174111,18382310,-0.00015586627105759225,0.2561409983337727,1.4272999888221594,-0.7071067765493163,-0.00010161564582653825,-6.77191388716764e-05,0.7071067752796703,0,-1,3.5952674807049334e-05,-1.5708921591388147,-9.566942323857575e-05,-1.5708444754229944,2.3968450477696024e-05,-2.366701234990387e-05
1583,1734174111,34067869,-0.00025031590304647444,0.2561409971555203,1.4272999705077378,-0.7071067688226095,-0.00016098078654732412,-0.00011861015240222031,0.7071067652781062,0,-1,0.0,-1.5708921591388147,-0.000119511281148732,-1.5708563963519495,4.793690095539205e-05,-2.366701234990387e-05
1598,1734174111,50359725,-0.00019281555133941408,0.2561410002429041,1.42729998291086,-0.7071067713207315,-0.00011855345821796322,-0.00011855345819366366,0.7071067711757015,0,-1,2.3968450477696024e-05,-1.5708683172809046,-9.566942323857575e-05,-1.5708563963519495,1.1984225238848012e-05,-1.1746083394825746e-05
1615,1734174111,66088676,-0.0002212744090725022,0.25614099501287413,1.4272999790914638,-0.7071067698491822,-0.0001270275850246692,-0.00011007933137166897,0.7071067725456949,0,-1,3.5952674807049334e-05,-1.5708802382098597,-3.5587941304981996e-05,-1.5708563963519495,4.793690095539205e-05,-1.1746083394825746e-05
1630,1734174111,82114458,-0.00017803306573115427,0.256140991976366,1.4272999874748336,-0.7071067744390553,-0.00010992118560593807,-5.9076424299328557e-05,0.7071067769224842,0,-1,3.5952674807049334e-05,-1.5709040800677698,-0.00010759035219365387,-1.5708444754229944,0.0,-1.1746083394825746e-05
1646,1734174111,98466157,-0.00020594703613005698,0.25614099762765813,1.427299981592171,-0.7071067759371126,-0.00012273382772557832,-7.188906582688016e-05,0.7071067721300596,0,-1,2.3968450477696024e-05,-1.5709040800677698,-9.566942323857575e-05,-1.5708444754229944,0.0,-1.1746083394825746e-05
1663,1734174111,113883495,-0.0002100754025770382,0.25614099274973934,1.4272999827847772,-0.7071067746652654,-0.00012275620572394598,-6.343731824776664e-05,0.7071067742067716,0,-1,4.793690095539205e-05,-1.5708802382098597,-5.990663637334137e-05,-1.5708563963519495,1.1984225238848012e-05,-1.1746083394825746e-05
1679,1734174111,130298376,-0.0001923314616927866,0.2561409956999708,1.427299984786014,-0.7071067744499546,-0.00010586976953048014,-8.044738893241783e-05,0.7071067754213579,0,-1,3.5952674807049334e-05,-1.5709040800677698,-9.566942323857575e-05,-1.5708320776568812,3.5952674807049334e-05,-2.366701234990387e-05
1694,1734174111,146662473,-0.0002126113343008324,0.2561409951609259,1.4272999773499107,-0.7071067722332665,-0.00013552409017764762,-9.315345664277379e-05,0.7071067710165884,0,-1,2.3968450477696024e-05,-1.570916000996725,-9.566942323857575e-05,-1.5708683172809046,2.3968450477696024e-05,0.0
1711,1734174111,161912918,-0.00023933234360648726,0.2561409913800681,1.4272999729339084,-0.7071067736660589,-0.00015656319850572306,-6.334780382005914e-05,0.7071067685368295,0,-1,3.5952674807049334e-05,-1.5708683172809046,-0.0002992788897913101,-1.570820156727926,0.00015579492901451886,-2.366701234990387e-05
1726,1734174111,178360223,-0.0003925762119125828,0.25614097304103856,1.4272999134985926,-0.7071067759235317,-0.0002583264717179753,-4.102671716962718e-06,0.7071067392506102,0,-1,9.58738019107841e-05,-1.5708444754229944,-0.0006588141070764664,-1.5706999937640589,0.0004550260491669178,5.992112710373476e-05
1743,1734174111,194015741,-0.0007943837574960263,0.2561408814305711,1.4272996213649956,-0.7071067779158977,-0.0005419993226837906,6.813773622064401e-05,0.7071065734522487,0,-1,0.00016777915880084038,-1.5708563963519495,-0.0013049284564417007,-1.5705440680133265,0.00097034772625193,0.00025166873820126057
1759,1734174111,210024118,-0.001406298445752554,0.25614057043946153,1.427298779657516,-0.7071068381376551,-0.0009266714727371865,0.00020833136518034093,0.7071060863385294,0,-1,0.00032282507163472474,-1.5708563963519495,-0.0023348967181604507,-1.570244614277975,0.0017609321512281895,0.000514947168994695
1774,1734174111,226246833,-0.0024141365804625893,0.256139785455781,1.4272964291436554,-0.7071069952374637,-0.0015745269284818347,0.00037319552063503367,0.707104715637154,0,-1,0.0005025884602218866,-1.5708802382098597,-0.0038073698626917007,-1.5698965231524866,0.00297058979049325,0.0008864581468515098
1791,1734174111,242328166,-0.003782653818298379,0.25613816301003745,1.4272911375856212,-0.707107405215508,-0.002454802886238962,0.0005601222178280605,0.7071016742274636,0,-1,0.0007179299718700349,-1.5709403196917933,-0.005831066762105763,-1.569477383290426,0.004479852970689535,0.0013774369144812226
1807,1734174111,258040428,-0.005649441966888189,0.25613479256853766,1.4272802787335732,-0.7071083230403179,-0.0036530078673348925,0.0008186478986086833,0.7070953293837038,0,-1,0.0010411295806989074,-1.5710724035846155,-0.008345905934469044,-1.5689733664142054,0.00651604775339365,0.002000242006033659
1823,1734174111,274274110,-0.007952137695631675,0.256128507114463,1.427261285871766,-0.7071097786428465,-0.005143387621921008,0.0011575576973063696,0.707084129769303,0,-1,0.0013763133902102709,-1.571240250264303,-0.011291329060689748,-1.5683859030352991,0.008935738354921341,0.002790451981127262
1839,1734174111,290361404,-0.01075480857944789,0.25611914527352375,1.4272296965914795,-0.7071126417242465,-0.006933592670255879,0.0015180484530505267,0.7070652959489206,0,-1,0.0017474498599767685,-1.5714438597308558,-0.014823738728658498,-1.5677264372455042,0.011810453608632088,0.003724846988916397
1855,1734174111,306428670,-0.01392692878600182,0.25610537859890764,1.4271823773944514,-0.7071169885987093,-0.00896142573185959,0.0019376317807403907,0.7070371297654935,0,-1,0.002238054061308503,-1.5717080275165003,-0.018834892903463185,-1.566922966633932,0.015068665146827698,0.004730772692710161
1871,1734174111,322523832,-0.017467040469388188,0.25608529310669503,1.4271154756762947,-0.7071233371003687,-0.01121332150125651,0.002428985552179628,0.7069971340664226,0,-1,0.0027646110393106937,-1.5720074812518519,-0.023133103047506154,-1.5660832563983362,0.01864970102906227,0.005868525244295597
1887,1734174111,338173389,-0.02138194540319773,0.25605728344960355,1.4270250519423622,-0.7071308559002614,-0.013718776203094528,0.0029545693696866895,0.7069434336162214,0,-1,0.0033391048200428486,-1.5722959677325647,-0.02787477174867803,-1.5651009718524378,0.022446827962994576,0.007042230572551489
1903,1734174111,354263544,-0.025556031257380474,0.2560212228034273,1.4269086507312678,-0.7071407923190062,-0.01636818289627377,0.003530641060466964,0.7068744704689967,0,-1,0.003973519895225763,-1.57267934480776,-0.03287965456117803,-1.5640690962420862,0.026507608592510223,0.008287466131150723
1919,1734174111,370273828,-0.029947913334603248,0.25597684503458734,1.4267633756070142,-0.7071529451636773,-0.019186278336414897,0.004106362349635689,0.7067883252135595,0,-1,0.004607560113072395,-1.57300311723818,-0.038063828145162404,-1.5629904905902308,0.03083166666328907,0.009581013582646847
1935,1734174111,386438369,-0.034464454014181266,0.25592517254057084,1.4265894249621942,-0.7071681582235598,-0.022076160046086823,0.0047115068964351525,0.7066849657768888,0,-1,0.005265943240374327,-1.5733626524554651,-0.04342824617494756,-1.5618751684771937,0.03519167751073837,0.010922498069703579
1951,1734174111,402012109,-0.039042962063500816,0.25586244459559415,1.4263896576187471,-0.707185522492106,-0.024956857798997895,0.0054012637399382555,0.7065667826726496,0,-1,0.005924326833337545,-1.57367450395693,-0.048864189778463185,-1.560580078755514,0.03958763927221298,0.012395434081554413
1967,1734174111,418245077,-0.04368909868105289,0.25579186804431575,1.426160773903605,-0.7072060867808507,-0.027866743828715856,0.0061283599550996685,0.7064314818952799,0,-1,0.006594319827854633,-1.57399827638735,-0.054407898579732716,-1.559345547352926,0.04417535290122032,0.013772870413959026
1983,1734174111,434270858,-0.04829606656053375,0.25571104811292644,1.425908111457345,-0.7072280367217366,-0.030826655009945622,0.006889327434716144,0.7062795187339875,0,-1,0.007276671938598156,-1.5743101278888147,-0.05995160738100225,-1.5581463019000452,0.04866718873381615,0.015293744392693043
1999,1734174111,450496673,-0.05297339186510252,0.2556249578823665,1.4256235810972449,-0.7072554021212318,-0.033790367921909044,0.007594553870707132,0.7061092903775884,0,-1,0.007935055531561375,-1.574646298085348,-0.06541139284242803,-1.5569356123553675,0.05323093384504318,0.01679064892232418
2015,1734174111,466121673,-0.057518119213489344,0.2555339254401475,1.4253210806528427,-0.7072849440588865,-0.03671025028579382,0.008342152529676523,0.7059254733488116,0,-1,0.008545126765966415,-1.5748980681048792,-0.0708230177508753,-1.555784050618307,0.05774673819541931,0.018263958394527435
2031,1734174111,482305765,-0.06193010500335548,0.25543769211316636,1.42500461992409,-0.7073150859588134,-0.03953271209908222,0.009058748122932399,0.7057339958735253,0,-1,0.009191526100039482,-1.5751860777484339,-0.07604343095888311,-1.5546091238604944,0.062083154916763306,0.019653379917144775
2047,1734174111,498427629,-0.06624418983919292,0.2553352258242549,1.424672692025617,-0.7073463638084443,-0.0422865357035037,0.00976708053359569,0.7055335389923135,0,-1,0.009742051362991333,-1.5754616896258753,-0.08108455339540654,-1.5534818808185022,0.06631171703338623,0.020994490012526512
2063,1734174111,514542818,-0.07048159792730392,0.2552319243995171,1.4243239177813016,-0.7073795808151084,-0.04496340463589529,0.010364574074111187,0.7053261631994466,0,-1,0.01032852940261364,-1.5757129828082483,-0.08602887788881475,-1.552427117024557,0.07034852355718613,0.022288037464022636
2079,1734174111,530142545,-0.07457334527147531,0.2551234771149102,1.4239672136238792,-0.7074122428401485,-0.04759749969064727,0.010970383710351661,0.7051113723266114,0,-1,0.010855086147785187,-1.5759652296649378,-0.09091359773744756,-1.5513718763934534,0.07421755790710449,0.02350967936217785
2095,1734174111,546268939,-0.07841610310080334,0.2550166773310485,1.4236117080361839,-0.7074463335673183,-0.050061403232945396,0.011575950639545552,0.7048968281921105,0,-1,0.011345691047608852,-1.5761931578265589,-0.09554702440370733,-1.5503886381732386,0.07799109071493149,0.024683009833097458
2111,1734174111,562372922,-0.08222911339391432,0.2549061285267291,1.423241618361551,-0.7074801491317687,-0.052483497645858114,0.012103967648286012,0.7046778093756867,0,-1,0.011872622184455395,-1.5764454046832483,-0.09992963472475225,-1.5493930021869105,0.08169234544038773,0.025856714695692062
2127,1734174111,578527688,-0.08583993541766365,0.2547954592421451,1.4228752545517198,-0.7075141622826951,-0.05479835965323844,0.012662527164651763,0.7044576001112736,0,-1,0.012398804537951946,-1.576649014149801,-0.10428744951357061,-1.5484941641436976,0.08516664803028107,0.02698248252272606
2143,1734174111,594082355,-0.08943835174959834,0.2546783925645435,1.4224946527047695,-0.7075493385014362,-0.057125397856605344,0.013206707455935775,0.7042273818761082,0,-1,0.012901767157018185,-1.5768888632403772,-0.1085737387286585,-1.547570530568258,0.08871210366487503,0.028060315176844597
2159,1734174111,610252141,-0.09299605946907114,0.2545594613716692,1.4221028079486335,-0.7075855322900636,-0.059392524387803104,0.01375979157210002,0.7039928342508353,0,-1,0.01347626093775034,-1.5771048704730433,-0.11285955110658819,-1.5466116110431116,0.09221000224351883,0.029210051521658897
2175,1734174111,626408100,-0.09653503981403486,0.2544359669251419,1.4216942701483153,-0.707624766232467,-0.061658732352098414,0.014328895052761826,0.7037471660374525,0,-1,0.013978850096464157,-1.5772727171527308,-0.11732560793031865,-1.545556370412008,0.09585170447826385,0.03033619374036789
2191,1734174111,642994642,-0.10028955907971732,0.254295764899886,1.421248915410325,-0.7076632504193067,-0.06405929812436308,0.014888732520279236,0.7034823778700752,0,-1,0.014529375359416008,-1.577512566243307,-0.12188703218568975,-1.544537369404928,0.09950502216815948,0.03148593008518219
2207,1734174111,658417463,-0.10411260363719718,0.2541561654409267,1.4207731620892554,-0.7077070933577353,-0.06651317737078645,0.015434881483292561,0.7031987142200878,0,-1,0.015079900622367859,-1.5777643362628382,-0.12662870088686162,-1.543530289326803,0.10335046052932739,0.03271918371319771
2223,1734174111,674030780,-0.1080538408299796,0.2540033697273444,1.4202641537243663,-0.7077546446849338,-0.06904569259222613,0.016026658444934644,0.7028934495927902,0,-1,0.015654394403100014,-1.5780518690692347,-0.13142949739565069,-1.542523209248678,0.10738764703273773,0.033976778388023376
2239,1734174111,690159082,-0.11221277374452533,0.2538282194452472,1.419714454756602,-0.707802620131308,-0.07173725160139278,0.016642310231054253,0.7025612081364209,0,-1,0.016252482309937477,-1.5783756414996546,-0.13634998003114873,-1.5415399710284632,0.11138887703418732,0.03522238880395889
2254,1734174111,706303834,-0.11641686013887965,0.25365563781371775,1.4191353494303356,-0.7078562144985265,-0.07438532208742309,0.017189140526130825,0.7022185819969016,0,-1,0.016922850161790848,-1.5787237326251429,-0.14139062563051397,-1.5405085722552698,0.11541370302438736,0.03651556000113487
2271,1734174111,721932649,-0.120769737565427,0.25346446275278334,1.418520582935889,-0.7079111985802583,-0.07712458402688076,0.01778562667437399,0.7018526946212733,0,-1,0.017509328201413155,-1.579083267842428,-0.14655048051942998,-1.539417568837301,0.11958234757184982,0.03784506022930145
2287,1734174111,738169670,-0.12509008501606825,0.2532672944334434,1.4178776960398911,-0.7079666827369463,-0.07992573092914182,0.018368164723857078,0.7014682203739265,0,-1,0.01816733554005623,-1.5794194380389612,-0.151710335408346,-1.538314167653219,0.123811274766922,0.03910265490412712
2303,1734174111,753916978,-0.1295533601879058,0.2530615672461675,1.4171922533542174,-0.7080285576610075,-0.08275345585756472,0.018937066473554743,0.7010626324327089,0,-1,0.018801750615239143,-1.5797069708453577,-0.15697795549501592,-1.5372474829303187,0.12809975445270538,0.040431778877973557
2319,1734174111,770178079,-0.1338864288283089,0.2528509756205253,1.4164998110435896,-0.7080891350567122,-0.08555911336864126,0.019542839516959783,0.700647908979841,0,-1,0.019460508599877357,-1.5800426642047327,-0.16218597093691045,-1.53615647951235,0.132340669631958,0.041689373552799225
2334,1734174111,786269903,-0.1382127194184423,0.25262997264447495,1.4157826464619274,-0.7081511073374586,-0.0883712110402958,0.020173189251098924,0.700218237888333,0,-1,0.020070206373929977,-1.5803545157061976,-0.16742974916567022,-1.5350292364703577,0.13668908178806305,0.04310276359319687
2351,1734174111,802072525,-0.14264403744426474,0.2523968796502963,1.4150346362548138,-0.7082199633034417,-0.09119382047072032,0.020864755867125596,0.6997662700138033,0,-1,0.020716605708003044,-1.5806906859027308,-0.17264968553651983,-1.5338905493365687,0.1410738080739975,0.04447982832789421
2366,1734174111,818287849,-0.14699476563694677,0.25216182133817533,1.4142654554124596,-0.7082915201562278,-0.09401465484864466,0.02151247712409625,0.6993007796910107,0,-1,0.0213154423981905,-1.580954376851217,-0.1779411474810999,-1.5327752272235315,0.14542220532894135,0.04586924612522125
2383,1734174111,834022998,-0.15137037592465208,0.2519243149247101,1.4134698641796004,-0.7083680742318782,-0.09680349251280795,0.022163777735939836,0.6988222393447527,0,-1,0.021949857473373413,-1.5812543074237269,-0.18325645128359014,-1.5316603819476526,0.14975899457931519,0.0473066046833992
2399,1734174111,850330114,-0.1558123195554789,0.2516696798949274,1.4126416346520012,-0.708444284129657,-0.099636491488289,0.02280038529334265,0.698326147497283,0,-1,0.022583898156881332,-1.581601921712057,-0.188608471547262,-1.5304854551898401,0.15408380329608917,0.0487072616815567
2415,1734174111,866082906,-0.16017182904438904,0.25141347135506725,1.4118009750315783,-0.7085257633484715,-0.10239181953280425,0.023477830635629235,0.6978222907251329,0,-1,0.02324228174984455,-1.5819256941424769,-0.19385177293886358,-1.5293105284320276,0.15826480090618134,0.0501326359808445
2430,1734174111,881820917,-0.16448188230696226,0.2511573878972429,1.4109480603195075,-0.7086022598127404,-0.10511612028716164,0.024058097957119145,0.6973196157908784,0,-1,0.023864712566137314,-1.5822613875018519,-0.19893962541689092,-1.5281713644610804,0.1624218374490738,0.051473744213581085
2447,1734174111,898144006,-0.16871517504344938,0.25089683304562743,1.410088801640834,-0.7086822295394055,-0.10778830819836661,0.02467024317882425,0.6968088383855997,0,-1,0.02441486343741417,-1.5825732390033167,-0.20402795473207647,-1.5270922819720667,0.1665908396244049,0.05277927592396736
2463,1734174111,913915157,-0.1729040187316679,0.250631234649767,1.4092231206575745,-0.7087624778777329,-0.11043795439645546,0.025277221042425378,0.6962903634818701,0,-1,0.02502530999481678,-1.5828736464129847,-0.20908052126039678,-1.5259411970721644,0.17074787616729736,0.054120760411024094
2479,1734174111,930152177,-0.17705678921512044,0.2503644309147748,1.4083308615348176,-0.7088480779127206,-0.113105749679664,0.02591222862704076,0.6957514270459118,0,-1,0.02562377229332924,-1.5832093397723597,-0.2140720526324671,-1.5248859564410608,0.17480939626693726,0.05543827638030052
2494,1734174111,945777416,-0.18111975896836877,0.25009598635976144,1.4074285373865307,-0.7089292932365612,-0.11575095378807251,0.02646637962055737,0.6952125607596873,0,-1,0.02626979537308216,-1.5834491888629358,-0.21916038194765264,-1.5237472693072718,0.17893047630786896,0.05665954574942589
2511,1734174111,962162733,-0.18518676427191624,0.2498166612818848,1.4065088404087882,-0.7090115122235526,-0.11838576908637051,0.0270614745746628,0.6946619046746011,0,-1,0.026808712631464005,-1.5837486425982874,-0.224128548298971,-1.522668186818258,0.18302758038043976,0.05801301449537277
2526,1734174111,977875471,-0.18932862539380696,0.24951746436732203,1.405558974856038,-0.7090974323103567,-0.12104303409031682,0.02769608947923783,0.6940910185390873,0,-1,0.027431143447756767,-1.5839765707599085,-0.22914439836610967,-1.5215771834002894,0.1871250569820404,0.059306561946868896
2543,1734174111,994254350,-0.19341297555037165,0.24922888954585853,1.4045979751024138,-0.70919094768107,-0.12364741501926003,0.02831262073352923,0.6935112919004851,0,-1,0.028005260974168777,-1.5842283407794397,-0.2341249624835413,-1.520522419606344,0.191270112991333,0.06062370166182518
2559,1734174112,10574102,-0.1974823477065863,0.24893431650168893,1.4036131398740574,-0.709280782321443,-0.1263039458958273,0.028881689434940194,0.6929169741722376,0,-1,0.028651660308241844,-1.584564510975973,-0.2391284147845667,-1.5194552580462855,0.19536758959293365,0.061929233372211456
2575,1734174112,26262998,-0.20158054606233847,0.24862126146988045,1.402602632047137,-0.7093708283192929,-0.12896312289084713,0.02947788067578044,0.6923096095062563,0,-1,0.029262106865644455,-1.5848282019244593,-0.2441924254046839,-1.5183518568622034,0.1994766741991043,0.06321079283952713
2591,1734174112,42038202,-0.20568298650198485,0.2483100723166624,1.401563260662183,-0.7094657185292432,-0.13164357195413556,0.030055295259026726,0.6916827621256971,0,-1,0.029848584905266762,-1.5851400534259241,-0.249244515095846,-1.5173209349261683,0.20362210273742676,0.06450434029102325
2607,1734174112,58514833,-0.20976739830537916,0.24798432359214456,1.4005110063484538,-0.7095612320666822,-0.1343056585186534,0.03063932005733171,0.6910470896431787,0,-1,0.03044704720377922,-1.5854037443744105,-0.25426036516298467,-1.5162537733661097,0.2076956182718277,0.06582148373126984
2623,1734174112,74186086,-0.2139105508519474,0.2476612693730871,1.3994238222491406,-0.709659871751308,-0.13693942875913934,0.031171599730192723,0.6904048020163955,0,-1,0.03104550950229168,-1.5856917540179651,-0.25938398042787725,-1.515162769948141,0.2117927223443985,0.06709106266498566
2639,1734174112,90546369,-0.21798725771715682,0.2473237939933144,1.3983307556853841,-0.7097586102716379,-0.1395667174147572,0.03174810537497274,0.6897506102501413,0,-1,0.03163161501288414,-1.585991684590475,-0.2643521467791956,-1.5140836874591272,0.21583028137683868,0.06843254715204239
2655,1734174112,106404781,-0.22203825283810244,0.2469905188497472,1.3972202777748215,-0.709859690468443,-0.14216647648474856,0.032323924022037126,0.6890885841078601,0,-1,0.03227801248431206,-1.5862672964679163,-0.2694042364703577,-1.5129569212542933,0.21990379691123962,0.06971411406993866
2671,1734174112,122570276,-0.22608787091938662,0.24664637815464607,1.3960864816080567,-0.7099602327398131,-0.14479321482667526,0.032867594432353396,0.6884120235036696,0,-1,0.03285288065671921,-1.5865190664874476,-0.2744076887713831,-1.5118773619281214,0.22397731244564056,0.07097133249044418
2687,1734174112,138484477,-0.23012539780857263,0.24631168132814432,1.394931001058231,-0.7100687355687814,-0.14738707019227995,0.0334063092148283,0.6877233897523999,0,-1,0.033415015786886215,-1.5868309179889124,-0.2794836203204554,-1.5107868353473108,0.2280508130788803,0.07215701788663864
2703,1734174112,154036283,-0.2340720972042006,0.24596259718558794,1.393773361260305,-0.7101728373622794,-0.1499911450454128,0.03399800099878281,0.687023531917839,0,-1,0.03400149568915367,-1.5870588461505335,-0.28449947038759404,-1.5097077528582972,0.23223218321800232,0.07347453385591507
2719,1734174112,170174121,-0.2380458661038024,0.24560065916735974,1.3925978618999466,-0.7102815985710847,-0.15259251203737972,0.03461190199614631,0.6863072141844611,0,-1,0.03457598760724068,-1.587323013936178,-0.28943139711488897,-1.5086043516742151,0.2362937182188034,0.0747680813074112
2735,1734174112,186543941,-0.24200032488011294,0.24524331102985514,1.3913986569204138,-0.7103915264779875,-0.1551618789000515,0.03517024278739345,0.6855885970950482,0,-1,0.03517407551407814,-1.5875385443316858,-0.2944710890399378,-1.5075739065753382,0.24039119482040405,0.07604964822530746
2751,1734174112,202145814,-0.24593419126613422,0.2448750746843888,1.3901884335221466,-0.7105042664355257,-0.15776521668206647,0.03578914419021427,0.6848452094745997,0,-1,0.035760555416345596,-1.5878384749041956,-0.2993434111224573,-1.5064705053912562,0.244464710354805,0.07736678421497345
2767,1734174112,218315124,-0.24987401079314095,0.24451224326077808,1.3889497011781,-0.7106294709525766,-0.16029007000580073,0.03635509053044167,0.6840987910117369,0,-1,0.03635939210653305,-1.588102165852682,-0.3044069449054163,-1.5054152647601526,0.2485981434583664,0.07874422520399094
2783,1734174112,234065055,-0.25384752902803276,0.2441189713021256,1.3876721349619305,-0.710749671688271,-0.16291979781972693,0.03695935837589451,0.6833198734866681,0,-1,0.03698144480586052,-1.5883539358722132,-0.3094828764544886,-1.5043967405902308,0.25274357199668884,0.08013364672660828
2799,1734174112,250285387,-0.257907551478973,0.24372070770057885,1.3863537068946212,-0.7108686964739492,-0.16555851363148397,0.03749048896595976,0.6825324447780157,0,-1,0.03753197193145752,-1.588653866444723,-0.31466609636415654,-1.5033171812640589,0.2568294405937195,0.08146277070045471
2815,1734174112,266709327,-0.261910033376235,0.24333174848749006,1.3850283626812065,-0.7109884141074289,-0.1680633575290262,0.0379115365442143,0.6817718813928385,0,-1,0.03820233792066574,-1.5888937155352991,-0.31982595125307256,-1.50220233598818,0.26080745458602905,0.08274433761835098
2831,1734174112,282266855,-0.2659207911607932,0.2429219328153266,1.3836809762733977,-0.7111122030627457,-0.1707327418094586,0.03850125745042201,0.6809459734106732,0,-1,0.038812410086393356,-1.589194122944967,-0.3247459570514124,-1.5012190977679651,0.2649049460887909,0.08407383412122726
2847,1734174112,298442602,-0.2699129633772894,0.24250318490589048,1.382329030512704,-0.71123444647267,-0.1733545046788217,0.0390674488235905,0.6801231596561692,0,-1,0.039410874247550964,-1.5895054976092737,-0.3297494093524378,-1.5001280943499964,0.26897844672203064,0.08536738157272339
2863,1734174112,314298629,-0.27382407983034146,0.24209806712017035,1.380969922588049,-0.7113636341069114,-0.17589380627001244,0.03963816427504624,0.6793025577156029,0,-1,0.039985742419958115,-1.5897811094867151,-0.3347051779376429,-1.499061409627096,0.273088276386261,0.08663658797740936
2879,1734174112,330544233,-0.2777569314749396,0.24167703407601104,1.379591276359625,-0.7114827068822489,-0.17846885711142832,0.040177644434737377,0.6784740096249261,0,-1,0.04060779884457588,-1.5900333563434046,-0.3396852652179163,-1.4979460875140589,0.2771618068218231,0.08790616691112518
2895,1734174112,346178531,-0.28161706312270623,0.24126213663429846,1.3781994988078716,-0.711614098581802,-0.18098552439046764,0.040760904330618714,0.6776342400874286,0,-1,0.041230227798223495,-1.590308968220846,-0.344736401234762,-1.496819321309225,0.2812955975532532,0.08921169489622116
2911,1734174112,362051010,-0.2855682863437575,0.2408249153094214,1.3767569999303266,-0.7117459488974597,-0.18355622060650384,0.04129776377463163,0.6767712411235616,0,-1,0.041780754923820496,-1.5905488173114222,-0.3497398535357874,-1.4957287947284144,0.28538110852241516,0.09052883833646774
2927,1734174112,378380298,-0.28940016654110334,0.2403931138972351,1.3753268457749017,-0.7118799703505183,-0.1860787763714671,0.0418628609360405,0.6759061308141039,0,-1,0.04236685857176781,-1.590860668812887,-0.354743782673971,-1.4946253935443323,0.2893711030483246,0.09182238578796387
2943,1734174112,394011020,-0.2933533993341982,0.23994157278008113,1.3738580003092264,-0.7120101841494938,-0.18866747234386677,0.042420816521278916,0.6750159678647967,0,-1,0.04301363229751587,-1.59111196199526,-0.3597953955279749,-1.4935463110553187,0.29352888464927673,0.09309159219264984
2959,1734174112,410155534,-0.29729330665791315,0.23950337172561026,1.3723494486013699,-0.7121509900913078,-0.19126337961446685,0.042947329150239126,0.6741029697674409,0,-1,0.04356415569782257,-1.5914600531207483,-0.36482268968691045,-1.49245530763735,0.29767468571662903,0.09438513964414597
2975,1734174112,426555395,-0.301168451431894,0.2390509685253824,1.3708466263306103,-0.7122898002013286,-0.19380354382632428,0.04349225761735645,0.6731952543332839,0,-1,0.04425811767578125,-1.5917242209063929,-0.3698504606830042,-1.4913762251483362,0.3017845153808594,0.09564273059368134
2991,1734174112,442402601,-0.30512493417478354,0.23857325186324846,1.3692926064695368,-0.7124247902919058,-0.19642169660163558,0.04402446628610849,0.6722583444256325,0,-1,0.04480864480137825,-1.5920241514789026,-0.37489015260805303,-1.490213696156637,0.3059063255786896,0.09694826602935791
3007,1734174112,458199977,-0.30903544488322876,0.2381183111868725,1.3677320418698542,-0.7125684174448866,-0.19895807790249787,0.04451870666396378,0.671327057740414,0,-1,0.045383136719465256,-1.5923236052142542,-0.37998944917787725,-1.4891579786883753,0.30999183654785156,0.09824181348085403
3023,1734174112,474172592,-0.3129461531913386,0.23763085830424613,1.3661458873851262,-0.712705303096001,-0.20156872885756194,0.04502143526230605,0.6703687558743365,0,-1,0.04599320888519287,-1.5926111380206507,-0.3851845900165003,-1.4880793730365198,0.31413763761520386,0.09953498095273972
3039,1734174112,490217208,-0.31697695689936306,0.23714444106231222,1.3644952881645882,-0.7128524974189674,-0.20420223047949365,0.04549876094351661,0.6693822739984572,0,-1,0.04657968878746033,-1.5928991476642054,-0.39021188417543584,-1.4870365301715296,0.31818753480911255,0.10082852840423584
3055,1734174112,506271600,-0.32075333573231735,0.23668247860523164,1.3629125495519865,-0.7130016207780756,-0.20668236736179016,0.04599943119455394,0.6684273633831433,0,-1,0.04716654121875763,-1.5932229200946253,-0.39508372942079717,-1.485969368611471,0.3222618103027344,0.10205017030239105
3071,1734174112,522135019,-0.32464767482853363,0.2361988213471597,1.3612704553610637,-0.713149705489976,-0.20925612568685026,0.04648651457629323,0.6674341730722495,0,-1,0.04776462912559509,-1.593499008809225,-0.40014726320375615,-1.4849265257464808,0.3264555335044861,0.10331974923610687
3087,1734174112,538081169,-0.3285253057036349,0.23568665132883576,1.3596075869787598,-0.7132857165969715,-0.21187238822913257,0.04699194407238222,0.6664272914558097,0,-1,0.04839904233813286,-1.5937870184527796,-0.4052465597735804,-1.4837878386126917,0.330517441034317,0.10460131615400314
3103,1734174112,554388999,-0.3323949518031049,0.2351907743775427,1.3579152836832213,-0.7134429407915007,-0.21440391836480086,0.047456258887206684,0.6654156847542937,0,-1,0.048985522240400314,-1.5940869490252894,-0.4102137724505823,-1.4826844374286097,0.3346036970615387,0.10589448362588882
3119,1734174112,570157051,-0.3361390724618327,0.234690199200394,1.3562584301491132,-0.7135938436227641,-0.21687333522262447,0.048017037189600834,0.664412633047143,0,-1,0.049559641629457474,-1.5943625609027308,-0.4152773062335413,-1.4815695921527308,0.33868956565856934,0.10718803107738495
3135,1734174112,586312770,-0.340003453903961,0.23417307078916172,1.3545343339358493,-0.7137510505380588,-0.21941331036681277,0.048517434155224685,0.6633726672637996,0,-1,0.05020603910088539,-1.5946982542621058,-0.4202807585345667,-1.4805024305926722,0.3428357243537903,0.10851753503084183
3151,1734174112,602012395,-0.34379569899613777,0.23365034574645183,1.352816379555666,-0.7139105661071331,-0.22191735937893295,0.04903978310558534,0.6623288374212852,0,-1,0.05082884430885315,-1.5949981848346155,-0.4251645247088831,-1.4794476667987269,0.34686169028282166,0.10984703153371811
3167,1734174112,618371725,-0.34752333554054426,0.23313262575579674,1.351098765236345,-0.7140818440884317,-0.22435102431643714,0.04961016064219814,0.6612810066775587,0,-1,0.05142693221569061,-1.5952618757831019,-0.4302638212787073,-1.478332821522848,0.35099586844444275,0.11121248453855515
3183,1734174112,634162425,-0.35133614841100086,0.23260933441088286,1.3493248214404387,-0.7142480397695484,-0.22684982305325782,0.050089303709030676,0.6602120546612333,0,-1,0.052037376910448074,-1.595609490071432,-0.43535072008241826,-1.4772537390338343,0.35511767864227295,0.11260153353214264
3199,1734174112,649961471,-0.3551667463346356,0.2320607640570791,1.3475044319681961,-0.7144118037101539,-0.22940461956691832,0.05057601516752564,0.6591140735341161,0,-1,0.052647825330495834,-1.5958731810199183,-0.4404504934894007,-1.4761861006366175,0.3592638671398163,0.11390706151723862
3214,1734174112,666474342,-0.35898188145678,0.23150724899870812,1.3456750902540198,-0.7145753056553547,-0.23193515608891518,0.051073566331198424,0.6580119351043564,0,-1,0.05325789749622345,-1.5961616675006312,-0.4455016295062464,-1.475107494984762,0.3632901906967163,0.1152365654706955
3231,1734174112,682047843,-0.36269989087285864,0.23096137705139386,1.3438770719880997,-0.7147422716245273,-0.23441750147546744,0.05159039128094606,0.6569096982709942,0,-1,0.05388032644987106,-1.596485439931051,-0.4504330793963831,-1.474088493977682,0.3674359619617462,0.11651775240898132
3246,1734174112,698447942,-0.36643601602620296,0.2304174406757002,1.342045623503442,-0.7149154023337477,-0.23689058157605367,0.0520833626402526,0.6557942842100856,0,-1,0.05449114739894867,-1.5967491308795374,-0.45538837114443,-1.4730098883258265,0.37158215045928955,0.11784687638282776
3263,1734174112,714158535,-0.37014030471324433,0.22984538032174384,1.3401957307759498,-0.715074387956414,-0.2394450116672835,0.05258549332359755,0.6546521763259694,0,-1,0.055101219564676285,-1.5970729033099573,-0.46035606065859014,-1.471978489552633,0.3756680190563202,0.11909248679876328
3278,1734174112,730345249,-0.37378978958197717,0.22929948910614578,1.3383471941085494,-0.7152485218482638,-0.24188183295880325,0.053078366789976836,0.6535253765977812,0,-1,0.05568769946694374,-1.5973370710956019,-0.46539527574648076,-1.4709113279925745,0.37977859377861023,0.12039802223443985
3295,1734174112,746121406,-0.377461898220655,0.22872817831308104,1.3364602740925917,-0.7154208968417979,-0.2443538568051643,0.053582843462933634,0.6523749013511676,0,-1,0.056310128420591354,-1.5976007620440882,-0.4704225699054163,-1.4698565641986292,0.38385286927223206,0.12172751873731613
3310,1734174112,762314796,-0.38119030348408683,0.22816758749206995,1.3345231285263222,-0.7155923613207569,-0.24685303505327622,0.05397667265611962,0.6512124617306886,0,-1,0.05687226355075836,-1.5978763739215296,-0.4754856268512171,-1.4687541166888636,0.3879866600036621,0.12299709767103195
3327,1734174112,778124332,-0.38487258398789104,0.2275939637419689,1.3325761040885462,-0.715770949196051,-0.24931512552346954,0.054432895899952385,0.6500392113681648,0,-1,0.05748271197080612,-1.598128620778219,-0.48057300249208623,-1.467686955128805,0.3920489549636841,0.12432660162448883
3343,1734174112,794403076,-0.38853456894259736,0.22701151919844545,1.3306299455960415,-0.7159509638347991,-0.25175660780346953,0.05491074397441673,0.6488587196050372,0,-1,0.05809315666556358,-1.5984280745135706,-0.4855759779559534,-1.4665840307818812,0.3961355686187744,0.12560778856277466
3359,1734174112,810185909,-0.3921873521369512,0.22642603362114033,1.3286711930488821,-0.7161226384454905,-0.2542387231512303,0.05537555269364115,0.6476608576409224,0,-1,0.05866765230894089,-1.5987041632281702,-0.4905436674701136,-1.465433422719137,0.4001499116420746,0.12687736749649048
3375,1734174112,826454877,-0.3958062530696343,0.22584895664341753,1.3266918757816824,-0.7163053428375765,-0.25665508570512596,0.05582465364111703,0.6464661095911262,0,-1,0.059254128485918045,-1.5989440123187464,-0.4955952803241175,-1.4643657843219202,0.40432003140449524,0.1281948834657669
3391,1734174112,842053890,-0.3994589706717621,0.22527693671817567,1.3246648930357798,-0.7165018552188652,-0.25907904407550864,0.05625147648301209,0.6452432965806976,0,-1,0.0598042793571949,-1.599267307912008,-0.5007417837726038,-1.4632275740252894,0.40839430689811707,0.12947644293308258
3407,1734174112,858240604,-0.4030982999181576,0.22468143304583382,1.3226226815999667,-0.7166879746578438,-0.26153588166875225,0.05667904149019292,0.6440068445570585,0,-1,0.0603911317884922,-1.5995433966266077,-0.5058048407184046,-1.4621484915362757,0.4124809205532074,0.130793958902359
3423,1734174112,873966693,-0.40659880106074053,0.2240747409105824,1.320614144783014,-0.7168690554766112,-0.2639390434970713,0.05717661978098763,0.6427797233643443,0,-1,0.061013564467430115,-1.599795166646139,-0.5108321348773401,-1.4610455671893519,0.4165551960468292,0.13208751380443573
3439,1734174112,890146017,-0.4101905905830221,0.22345890599780233,1.3185684422706363,-0.7170472408967689,-0.2664081409495012,0.05763729078788224,0.6415199914802303,0,-1,0.06157569959759712,-1.60002309480776,-0.5157273451434534,-1.459954563771383,0.4207732677459717,0.1333211362361908
3454,1734174112,906257629,-0.4137354934092154,0.22284513820049628,1.3165184149340348,-0.7172375208700018,-0.2688188848551587,0.05813954286249596,0.6402550580489174,0,-1,0.06216217577457428,-1.600334946309225,-0.5207307974444788,-1.4588397184955042,0.42484790086746216,0.13457873463630676
3471,1734174112,922385692,-0.4172501761135153,0.22223158249211183,1.3144513023702455,-0.71741854090677,-0.2712312810995881,0.058561480567911293,0.6389951348093127,0,-1,0.06277262419462204,-1.600574795399801,-0.5257223288165491,-1.4577844778644007,0.42895811796188354,0.13582396507263184
3487,1734174112,937996149,-0.4207694286834586,0.22162448013538294,1.312341100558212,-0.7176172596068533,-0.27364201237837865,0.05898592585227492,0.6377038327681678,0,-1,0.06337108463048935,-1.6008389631854456,-0.5308092276202601,-1.4567411581622522,0.4330447316169739,0.13714148104190826
3503,1734174112,953997611,-0.42430041428488385,0.2209902483921844,1.310195446009457,-0.7178051720722988,-0.2761009799983529,0.05940964395887525,0.636391764556147,0,-1,0.06399351358413696,-1.6010788122760218,-0.5358722845660608,-1.4556506315814417,0.43716731667518616,0.13841105997562408
3519,1734174112,970118999,-0.4278246710336286,0.22035852684007795,1.3080492871152027,-0.7180030625952114,-0.2784901042669541,0.059838878414828364,0.6350859568273678,0,-1,0.06456801295280457,-1.6013663450824183,-0.5409830252276819,-1.4546197096454065,0.44121798872947693,0.13975216448307037
3534,1734174112,986217975,-0.4313118305206533,0.21973282033928163,1.3058979633697174,-0.7182148236436394,-0.2808557113021065,0.06027927451880912,0.6337617419748606,0,-1,0.06521403789520264,-1.6016181151019495,-0.5459507147418421,-1.453552548085348,0.4453161954879761,0.1411415934562683
3551,1734174113,1825571,-0.43485857132609446,0.21906986736597295,1.3037190504302651,-0.7184156280486447,-0.2832268827395709,0.060714649368123486,0.6324359648384986,0,-1,0.0658244788646698,-1.6019538084613245,-0.5509055296527308,-1.4524615446673792,0.4494507610797882,0.1424710899591446
3567,1734174113,17966985,-0.43829234416333895,0.2184249421860482,1.3015442503278172,-0.7186220414545205,-0.2855876123072419,0.061187091387920466,0.631092875161709,0,-1,0.0663989707827568,-1.602206055318014,-0.5559566656695765,-1.4513233343707483,0.45353737473487854,0.14382418990135193
3583,1734174113,34089565,-0.44177218783203337,0.21777770000990848,1.2993222748638915,-0.7188271088649045,-0.28797028200729763,0.061601760297194115,0.6297348071766776,0,-1,0.06699743866920471,-1.6025174299823206,-0.5610078016864222,-1.4502556959735315,0.45760002732276917,0.14511772990226746
3598,1734174113,50221204,-0.44525242090573347,0.2171121263285474,1.297073299526734,-0.7190310168915579,-0.2903331720265007,0.062003105982422146,0.6283762096208411,0,-1,0.06761986762285233,-1.6027339140521448,-0.5660947004901331,-1.4492009321795862,0.46169865131378174,0.14641128480434418
3615,1734174113,65939188,-0.4487149977392169,0.2164534150883171,1.2948110438826341,-0.7192275014602367,-0.29274641110306454,0.06239595293964089,0.6269912957819229,0,-1,0.06821795552968979,-1.6030095259295862,-0.5711458365069788,-1.448050324116842,0.4658092260360718,0.14766886830329895
3631,1734174113,82017898,-0.4521343614671262,0.2157791573389402,1.2925522993344407,-0.7194348260578365,-0.2951015943785844,0.06281885590605993,0.6256056037097187,0,-1,0.06885237246751785,-1.6033209005938929,-0.5761249701129358,-1.4470308462726038,0.46995577216148376,0.14901036024093628
3646,1734174113,98172426,-0.45557961461000074,0.21511218581144062,1.2902680968413174,-0.719647853906419,-0.2974576160449939,0.06322222849557663,0.624202597598542,0,-1,0.06946281343698502,-1.6036089102374476,-0.581116024647848,-1.4459040800677698,0.47400644421577454,0.1502799391746521
3662,1734174113,113853216,-0.4590268861465033,0.21441356752959495,1.2879708900836837,-0.7198475386077132,-0.29982711565886155,0.06363881336366377,0.6227947682100174,0,-1,0.07006090134382248,-1.6038969198810022,-0.5860832373248499,-1.4448016325580042,0.4781290292739868,0.15159745514392853
3679,1734174113,129904031,-0.4624018559296557,0.21372563815833856,1.2856760053115224,-0.7200608908004883,-0.30214975792958865,0.06406720461265838,0.6213801015608867,0,-1,0.07063577324151993,-1.604196850453512,-0.5910380522357386,-1.443794075642721,0.48221564292907715,0.15296253561973572
3695,1734174113,146052598,-0.46575511783824286,0.2130443684982513,1.2833385164398117,-0.720271077210423,-0.30450544181450195,0.06443496257585228,0.6199468903360513,0,-1,0.07125820219516754,-1.6044843832599085,-0.5961254278766077,-1.4427397886859339,0.4862786531448364,0.15421974658966064
3711,1734174113,162139654,-0.4691083857851518,0.21236862621558378,1.28099646837037,-0.7204807464092867,-0.3068556756365705,0.0647849300082848,0.6185062661177836,0,-1,0.07182034105062485,-1.6047361532794397,-0.6011760870562952,-1.4416845480548304,0.4903532862663269,0.15551330149173737
3726,1734174113,178259849,-0.47244143460358073,0.21169514015710886,1.2786189696802277,-0.7207068405633159,-0.3091733433537064,0.06513563205300202,0.6170501139792378,0,-1,0.0724068135023117,-1.6049640814410608,-0.606239144002096,-1.4405935446368616,0.49446389079093933,0.1568068414926529
3743,1734174113,193814039,-0.4757212725412104,0.2110160709827105,1.2762764584138366,-0.7209288114466317,-0.31147934743990097,0.0655609329834754,0.6155842988664484,0,-1,0.07300528138875961,-1.6053240934955042,-0.6111343542682093,-1.4395626227008265,0.4986707270145416,0.15808841586112976
3759,1734174113,209948301,-0.4790411966855308,0.21031336349078622,1.273909048915807,-0.7211447795039388,-0.3137925276920337,0.06598538574941491,0.6141094246356756,0,-1,0.07360374182462692,-1.605624024068014,-0.616065804158346,-1.4384482542621058,0.5027933120727539,0.1594059318304062
3775,1734174113,226166725,-0.48244239034136116,0.20958893075397628,1.2714365000708034,-0.721360218797403,-0.3161377803600011,0.06627535491619044,0.6126205317293468,0,-1,0.07417823374271393,-1.6059234778033655,-0.6211045424090784,-1.437392536793844,0.5068807005882263,0.16066351532936096
3790,1734174113,242121934,-0.4857148605539713,0.20888477730302984,1.2690140344561784,-0.7215852719112475,-0.3184477827021155,0.06666109954923227,0.6111153760622987,0,-1,0.07474037259817123,-1.606175724660055,-0.6262391249286097,-1.4363139311419886,0.5110032558441162,0.16204096376895905
3807,1734174113,258213996,-0.4890428332903898,0.20819246857198948,1.2665202442197343,-0.7218232291953166,-0.3207745135908,0.06700288612374597,0.6095781742120688,0,-1,0.0753747820854187,-1.6064394156085413,-0.6313741842852991,-1.4351871649371546,0.5150778889656067,0.1632506102323532
3822,1734174113,273947954,-0.4924091023815899,0.20746555417626697,1.2639930434578754,-0.7220426756282805,-0.3231270151507565,0.06732091174074725,0.608038815778821,0,-1,0.07594965398311615,-1.6067870298968714,-0.6363766829120081,-1.4341562430011194,0.5192248225212097,0.16452018916606903
3839,1734174113,290033817,-0.4956322286500001,0.20674249706641393,1.2615487341834837,-0.7222639952871058,-0.32538028267232694,0.06769269418761834,0.6065311961586195,0,-1,0.07659567892551422,-1.6070626417743128,-0.641331974660055,-1.4330170790301722,0.5232758522033691,0.16578976809978485
3855,1734174113,306105852,-0.49886838344505646,0.2059984629757448,1.2590699739270563,-0.7224667033277623,-0.3277074999134075,0.06804575332594337,0.6049953987738451,0,-1,0.07725406438112259,-1.6074350515948694,-0.6462510267840784,-1.4319146315204065,0.527434766292572,0.16708295047283173
3871,1734174113,322367668,-0.5020909166680007,0.20524571751733278,1.2565978135316267,-0.7226846263702972,-0.3299546572274942,0.06845410031054126,0.6034657331883767,0,-1,0.07780458778142929,-1.6077106634723108,-0.6512659231769007,-1.4307640234576624,0.5314738154411316,0.1683521419763565
3887,1734174113,338517427,-0.5053304456835132,0.20451734667620816,1.2540358027379261,-0.7229195114593566,-0.33221899353913875,0.06875612036387634,0.6019057369686014,0,-1,0.07841465622186661,-1.6079981962787073,-0.6563647429095667,-1.4296849409686487,0.5355244874954224,0.16962172091007233
3903,1734174113,353987932,-0.508550532028397,0.20379117774645117,1.2514786652307992,-0.7231532649751372,-0.3344671112237172,0.06906024846847876,0.6003430593809947,0,-1,0.07901349663734436,-1.608298126851217,-0.6614158789264124,-1.4286177794085901,0.5396237969398499,0.17096321284770966
3919,1734174113,370166301,-0.5117469495661299,0.20302395134465587,1.2489031388660543,-0.7233788869736589,-0.33673741075490865,0.06941064296816081,0.5987596051184289,0,-1,0.07965914160013199,-1.6085737387286585,-0.6664903799640101,-1.4275153318988245,0.5437347888946533,0.1723286658525467
3934,1734174113,386293649,-0.514923870879567,0.20225595252955197,1.2463254203320842,-0.7236292831407567,-0.33897520792965374,0.06980385850019714,0.5971464563477934,0,-1,0.08025798201560974,-1.6089099089251917,-0.6714456717120569,-1.4264605681048792,0.5479655861854553,0.17369411885738373
3951,1734174113,402404546,-0.5181330820411273,0.20149141250164326,1.2437150668512122,-0.7238738086680427,-0.3412453728687341,0.0701453071626115,0.5955148533018834,0,-1,0.08088041096925735,-1.6092456022845667,-0.6764252821551722,-1.4253690878497522,0.5520765781402588,0.17501163482666016
3967,1734174113,418033838,-0.5212823337716116,0.20072762543136977,1.2411149107035229,-0.7241097071025049,-0.3434759867498485,0.07051413950977173,0.5938999366352373,0,-1,0.08149048686027527,-1.6095455328570765,-0.6814640204059046,-1.4242785612689417,0.5562114715576172,0.17632915079593658
3983,1734174113,434117317,-0.524437114728219,0.19994623811035395,1.238479726550485,-0.7243382252022209,-0.34576421099701354,0.0708209748892713,0.5922547048527708,0,-1,0.08211291581392288,-1.6097973028766077,-0.6864784399615687,-1.4232237974749964,0.5603587627410889,0.1776226907968521
3998,1734174113,450280666,-0.5275143974189839,0.1992109422568096,1.2358255280878272,-0.7245940366205068,-0.3479717449061154,0.07110876585939971,0.5906121318250634,0,-1,0.08271137624979019,-1.610049072896139,-0.6915772596942347,-1.4221327940570276,0.5644333958625793,0.17889226973056793
4015,1734174113,466279506,-0.5306769092796697,0.1984350755462878,1.2331240215687485,-0.7248281063905061,-0.35021950661212997,0.0713634786563741,0.5889632987621306,0,-1,0.08327388763427734,-1.6103370825396937,-0.6966522375689905,-1.4210179487811487,0.5684848427772522,0.1801854521036148
4031,1734174113,481907129,-0.5337452064866569,0.1976665590604286,1.2304554737597457,-0.7250730515550887,-0.3524144171413944,0.07167280172686304,0.5873126577829774,0,-1,0.0838843360543251,-1.6106365362750452,-0.7016552130328577,-1.4199870268451136,0.5725957751274109,0.18145503103733063
4047,1734174113,498051166,-0.5367488422149138,0.19689870963995867,1.2278076464760401,-0.7252994860361444,-0.35462054896620854,0.07197302930247508,0.5856661206349866,0,-1,0.08448242396116257,-1.6109007040606897,-0.7066577116595667,-1.4188483397113245,0.576707124710083,0.18277254700660706
4062,1734174113,514127254,-0.5397472908030622,0.1961334891791892,1.2251591075397459,-0.725558922796094,-0.3567508419630478,0.07231086041526863,0.5840070425736592,0,-1,0.08506889641284943,-1.6112125555621546,-0.7116010824786585,-1.417781178151266,0.580746591091156,0.1841016709804535
4078,1734174113,530240774,-0.5427748501405159,0.19535631027217337,1.2224404379395637,-0.7257961458834882,-0.35892942690221413,0.07257857596174318,0.582341799492092,0,-1,0.08565537631511688,-1.6114524046527308,-0.7166045347796839,-1.416654411946432,0.5847856402397156,0.1853712499141693
4095,1734174113,545846223,-0.5457170575878388,0.19459922190357665,1.2197492777505388,-0.7260559357718196,-0.3610512053989741,0.07288108503452385,0.5806661283858787,0,-1,0.08625383675098419,-1.6117280165301722,-0.7217143217669886,-1.415623966847555,0.5889089703559875,0.1867007464170456
4111,1734174113,561971664,-0.5487479558693463,0.19377370079505093,1.2169758062675426,-0.7262948002811457,-0.363290805902828,0.0731740946790002,0.578931088558002,0,-1,0.0868762731552124,-1.6119921843158167,-0.7267058531390589,-1.414520565663473,0.593043863773346,0.18801826238632202
4127,1734174113,578072786,-0.5516785755258873,0.19301674974775979,1.2142319173971803,-0.726556894866645,-0.36543070314111104,0.07347289462234456,0.5772150495953359,0,-1,0.08746274560689926,-1.6122563521014612,-0.7317803541766565,-1.413405720387594,0.5971795320510864,0.1892998218536377
4142,1734174113,594148397,-0.554640161973119,0.19219999927770426,1.211485030178655,-0.7268038071040087,-0.3676187015740164,0.07378473395513171,0.5754724400588822,0,-1,0.08806083351373672,-1.6125558058368128,-0.7366879622088831,-1.4123747984515589,0.6013264656066895,0.19059337675571442
4158,1734174113,610297679,-0.5575209186541387,0.19140896888067593,1.2087560276855864,-0.7270472738133752,-0.3697592319600821,0.07406778813111811,0.5737545945630352,0,-1,0.08862371742725372,-1.6128199736224573,-0.7415946165667933,-1.4112961927997034,0.6054015159606934,0.19192250072956085
4175,1734174113,625918388,-0.5604067189398019,0.19060541960499922,1.2059876505774496,-0.727298843190874,-0.3718867206636431,0.0743629212293567,0.5720199433878982,0,-1,0.08924615383148193,-1.6130712668048304,-0.7466333548175257,-1.4102891127215784,0.6095611453056335,0.19322803616523743
4191,1734174113,643182277,-0.5633577155153654,0.18980471485263256,1.2031297482827361,-0.7275561517180739,-0.3740574266390804,0.07457054954471262,0.570247596061514,0,-1,0.08988019078969955,-1.6133468786822718,-0.7517922560321253,-1.4091265837298792,0.6136001944541931,0.19447363913059235
4206,1734174113,658164739,-0.5662873665687582,0.18898912070742097,1.200235816305349,-0.7278034025261779,-0.3762461280334378,0.07474863273395985,0.5684660942532702,0,-1,0.09047865122556686,-1.6136229673968714,-0.756998364125387,-1.4081075827227991,0.6177238821983337,0.1957072615623474
4223,1734174113,673857688,-0.5692186683398636,0.1881713124313769,1.1973217037379082,-0.7280618405036902,-0.3784230738281933,0.07496128555763892,0.5666592796949036,0,-1,0.09106475859880447,-1.6139105002032679,-0.7620847860919397,-1.4070528189288538,0.6218711733818054,0.1970367729663849
4239,1734174113,689996242,-0.5720873442265811,0.18734194945215504,1.1944717383275976,-0.7283133260824033,-0.38057552044383425,0.07520437003567265,0.5648595179486925,0,-1,0.09171115607023239,-1.6141746679889124,-0.7670882383929651,-1.4060099760638636,0.6259705424308777,0.1982823759317398
4255,1734174113,706133604,-0.5749467531792415,0.18650757667030002,1.1916192543441864,-0.7285586045510773,-0.3826814901184626,0.07543116316530887,0.5630873613204511,0,-1,0.09230999648571014,-1.614462677632467,-0.7719352881060999,-1.4048827330218714,0.629997968673706,0.19956393539905548
4271,1734174113,722169637,-0.5776930407788362,0.1857031222841441,1.188809632768399,-0.7288156372981056,-0.3847310326884215,0.07571341134455757,0.561317449095275,0,-1,0.09294403344392776,-1.6147382895099085,-0.7769258658038538,-1.4037802855121058,0.6340853571891785,0.2008335143327713
4287,1734174113,738261461,-0.5804638932788685,0.18488382724420246,1.185941462235379,-0.7290821924027739,-0.3867906530184322,0.07598367610538165,0.5595164237305742,0,-1,0.09348257631063461,-1.6149786154376429,-0.7820013205157679,-1.402689282094137,0.638221025466919,0.20217500627040863
4303,1734174113,753874063,-0.5832612839446234,0.18405959008130895,1.1830038709640087,-0.7293532531121846,-0.3889071923955121,0.07621412924948409,0.5576615769267743,0,-1,0.09408066421747208,-1.6151822249041956,-0.7871235052691858,-1.4015982786761683,0.6423563361167908,0.20355206727981567
4319,1734174113,769983768,-0.5859938355800273,0.18322401805670546,1.180120057402847,-0.7296256648015204,-0.39091980867142123,0.07649261315163591,0.5558569713374771,0,-1,0.09469110518693924,-1.615457836781637,-0.7921622435199183,-1.4004834334002894,0.6463958024978638,0.20490553975105286
4335,1734174113,786087751,-0.5887438778603254,0.18240708644433162,1.177184174639596,-0.7299015447107043,-0.3929753665436401,0.07669687496969249,0.5540141565778828,0,-1,0.09528994560241699,-1.6158059279071253,-0.7970688978778284,-1.3994048277484339,0.6505550742149353,0.20621106028556824
4350,1734174113,802060365,-0.5914701740974704,0.18156716617526147,1.1742703872351015,-0.7301684282235034,-0.395017297816704,0.07694259851626696,0.5521731950980348,0,-1,0.095876045525074,-1.6160934607135218,-0.8020604292498987,-1.3982904593097132,0.654606819152832,0.20755255222320557
4366,1734174113,818180084,-0.5942238915132421,0.18076399467946208,1.1712789111445088,-0.7304535880686479,-0.3970444342204262,0.07710157249777977,0.550316836422973,0,-1,0.09647451341152191,-1.6163814703570765,-0.807075325642721,-1.3972108999835413,0.6586586236953735,0.20886969566345215
4383,1734174113,834007263,-0.5969070358169157,0.1799482081821835,1.1683214554111534,-0.7307274675931759,-0.39906579398732744,0.0772968954649051,0.5484606185731257,0,-1,0.09704900532960892,-1.616680924092428,-0.8121617476092737,-1.396144215260641,0.6627463698387146,0.21013964712619781
4399,1734174113,850140333,-0.5996614453568189,0.17908097294124553,1.1652343892325483,-0.7309830481797425,-0.40117152566674674,0.07740681357413627,0.5465650697587305,0,-1,0.09768342226743698,-1.6169212500201624,-0.817427937184469,-1.3950417677508753,0.6668457388877869,0.21140922605991364
4415,1734174113,865968227,-0.6023778649856184,0.17821311509809684,1.1621936872297196,-0.7312525890917114,-0.40325466188805736,0.07758745239319485,0.5446425578701606,0,-1,0.09825791418552399,-1.6172211805926722,-0.8225267569171351,-1.39398700395693,0.6709574460983276,0.21269041299819946
4430,1734174113,882143735,-0.6050656247404964,0.1773507017176068,1.1591230569344237,-0.7315186597881935,-0.4053444378414858,0.07774118570174521,0.5427086190013399,0,-1,0.09883203357458115,-1.6174967924701136,-0.8275530974017542,-1.3929436842547815,0.6750568151473999,0.21399594843387604
4446,1734174113,897714138,-0.6076993542295924,0.17652956663779307,1.1561099569121271,-0.731806996748356,-0.40732352716553316,0.07791356341547877,0.5408100779048806,0,-1,0.0994185134768486,-1.6178324858294886,-0.8323887030230921,-1.3918769995318812,0.6792048215866089,0.21534903347492218
4462,1734174113,913846015,-0.6102663403147885,0.17565117023975696,1.153155429332415,-0.7320738659174394,-0.40931447531024934,0.07816499020881637,0.5389060673696722,0,-1,0.10007689148187637,-1.61810809770693,-0.8373554388629358,-1.3908103148089808,0.683316171169281,0.216607004404068
4479,1734174113,930032491,-0.6129159485421555,0.17479270548125958,1.150090689410166,-0.7323515227113787,-0.41133053417832743,0.078357409987655,0.5369623405183303,0,-1,0.10066299885511398,-1.6183722654925745,-0.842442814503805,-1.389719311391012,0.6874278783798218,0.21793612837791443
4494,1734174113,946137189,-0.6154769976699007,0.17392304087498384,1.1470181293250863,-0.732621219898389,-0.4133347478153822,0.07851114118180935,0.5350294712567902,0,-1,0.10130976885557175,-1.6186836401568812,-0.8474567572223108,-1.388604466115133,0.6914916634559631,0.2192656248807907
4510,1734174113,961734294,-0.6180444509020125,0.1730569006162111,1.1439370890842802,-0.7329010266607355,-0.4152976467092219,0.07867241322274274,0.5330990537931314,0,-1,0.1018838882446289,-1.6189120451556605,-0.8526156584369105,-1.3874781767474573,0.6956512928009033,0.22051124274730682
4527,1734174113,977953433,-0.6206370269588126,0.17219500771654156,1.1407973108571385,-0.7331816494857697,-0.41729546176993176,0.07879822632637375,0.531130874616947,0,-1,0.10249433666467667,-1.619223419819967,-0.8575823942767542,-1.3864229361163538,0.6997270584106445,0.2218407392501831
4543,1734174113,994077205,-0.6232151036482448,0.1713257132398644,1.1376793377434662,-0.7334570896834085,-0.41927806792960876,0.07890876012935635,0.5291691666388041,0,-1,0.10310478508472443,-1.6195715109454554,-0.8625496069537562,-1.3853443304644983,0.7038387656211853,0.22313392162322998
4559,1734174114,10236263,-0.625742484998441,0.17044959508281043,1.1345925723159067,-0.7337397727247403,-0.4212072767380324,0.07908476274501171,0.527215303501655,0,-1,0.10369126498699188,-1.6199191252337855,-0.8675163427935999,-1.384205166493551,0.7078549861907959,0.22441548109054565
4575,1734174114,26399135,-0.628261155224518,0.16955454714156687,1.1314656057045298,-0.7339939080685842,-0.42320016295265844,0.07921121867683066,0.5252429417239048,0,-1,0.10432567447423935,-1.6202552954303187,-0.8725193182574671,-1.3831504026996058,0.711882472038269,0.22564947605133057
4591,1734174114,42119026,-0.6307731401779862,0.16867172243621759,1.1282908325537522,-0.734269595379762,-0.42516572071520997,0.07930530253387016,0.523252272063455,0,-1,0.10491178184747696,-1.6205547491656702,-0.8776658217059534,-1.382036034260885,0.7160181403160095,0.22696661949157715
4607,1734174114,58245182,-0.6332942452871799,0.16778932849029948,1.1250369655307455,-0.7345537814385702,-0.42715823797112357,0.07935370485034435,0.5212193122230093,0,-1,0.10548627376556396,-1.6207945982562464,-0.882848087941305,-1.381005589162008,0.7201661467552185,0.2281886339187622
4622,1734174114,73826789,-0.6357655621083649,0.16691074884121132,1.1218382236015476,-0.7348231726035976,-0.42915303461612,0.07944545283706103,0.5191830100341043,0,-1,0.10610870271921158,-1.6211064497577112,-0.887827221547262,-1.3799737135516565,0.7242538928985596,0.22947019338607788
4638,1734174114,90080022,-0.638193486605461,0.16603360732491973,1.1186864515732797,-0.7351080434947579,-0.43105481334316914,0.07954704929963283,0.5171848598235611,0,-1,0.10670679062604904,-1.6213939825641077,-0.8928058783160608,-1.3789075056659144,0.7283779978752136,0.23072779178619385
4654,1734174114,105806112,-0.6405529402306802,0.16516309049171746,1.115568436137668,-0.7353960271293092,-0.43296727869059504,0.07972858368010667,0.5151459713615676,0,-1,0.1073295995593071,-1.6217182318316858,-0.897677246724264,-1.3778050581561487,0.7325133085250854,0.23200935125350952
4670,1734174114,122150421,-0.6429138175343884,0.1642826406275199,1.1124136512776623,-0.735682538901461,-0.4348434713610916,0.0798585108628148,0.5131325127225027,0,-1,0.1078437939286232,-1.6220300833331507,-0.9026683012591761,-1.3767498175250452,0.7366014122962952,0.2333628237247467
4686,1734174114,137802839,-0.6453154840632286,0.16340074819572456,1.1091597190190299,-0.7359880060181156,-0.4367307354197592,0.0799346959556667,0.5110756931411133,0,-1,0.10847821086645126,-1.6222580114947718,-0.9077428022967737,-1.3756945768939417,0.7406771779060364,0.234703928232193
4702,1734174114,154036760,-0.6476125459701993,0.1625328611088228,1.1059746986954175,-0.7362903185440011,-0.43858053871855773,0.08005490845003152,0.5090332891950882,0,-1,0.10907705128192902,-1.622509781514303,-0.9128058592425745,-1.374580208455221,0.7448132038116455,0.23608137667179108
4718,1734174114,170122146,-0.6499459234323679,0.16162962754186053,1.1027007121662786,-0.7365962418568059,-0.44046789621688487,0.08016894719724993,0.506938801819299,0,-1,0.10966315120458603,-1.6227858702289026,-0.9179280439959925,-1.3734772841082972,0.7489612698554993,0.2374468296766281
4735,1734174114,185774326,-0.652261514323223,0.16075293329498602,1.0994710695470078,-0.7368928535698444,-0.4423195345946905,0.08025184804205117,0.5048781957655373,0,-1,0.11024963110685349,-1.6231210867511194,-0.9228351751910608,-1.3724225203143519,0.7530373930931091,0.23870441317558289
4751,1734174114,201921701,-0.6545693130979794,0.15983869104245751,1.0962280686902515,-0.737170431640254,-0.4441785980011281,0.0803200623057685,0.5028258300686942,0,-1,0.11082412302494049,-1.6234090963946741,-0.9278624693499964,-1.371307675038473,0.7570772171020508,0.24004590511322021
4766,1734174114,217892408,-0.6568194823669655,0.15895307977333945,1.0929932934319406,-0.737468590975689,-0.446007347307266,0.08041583473106444,0.5007502541155362,0,-1,0.11149411648511887,-1.6236851851092737,-0.9328530470477503,-1.3702409903155726,0.7612136602401733,0.24130350351333618
4783,1734174114,234085798,-0.6590760678984878,0.15803041983237284,1.0897172478774653,-0.7377526611497238,-0.4478750222638084,0.08049661696660007,0.49864744063880084,0,-1,0.11203303188085556,-1.6239483992206019,-0.937939469014303,-1.369138542805807,0.7652894258499146,0.24263262748718262
4798,1734174114,249782085,-0.6613558225969671,0.1571178366951398,1.0863649098050874,-0.7380512487270542,-0.4497240163642827,0.0805394109397451,0.4965300259229983,0,-1,0.11266706883907318,-1.6241772810565394,-0.9430626074420374,-1.368035618458883,0.7694018483161926,0.24392616748809814
4815,1734174114,265901088,-0.6635304019643303,0.15622843207704354,1.0830794702969617,-0.7383368473420189,-0.45157425781588784,0.08057638166704198,0.49441565130214643,0,-1,0.11326553672552109,-1.6244528929339808,-0.9481490294085901,-1.366993252431051,0.7732259631156921,0.24523170292377472
4831,1734174114,282080650,-0.6657286333516607,0.1553339471942597,1.0797622500410498,-0.7386361432717965,-0.4533503142183431,0.08059326003961965,0.49233613201438087,0,-1,0.11391156166791916,-1.6247285048114222,-0.9531400839435022,-1.3659260908709925,0.7775058150291443,0.2465372383594513
4846,1734174114,298127889,-0.6678644432880336,0.15442209466907633,1.0765305139460661,-0.7389368896449309,-0.45511177843017014,0.08068379828421017,0.4902404174998587,0,-1,0.11451002210378647,-1.6250041166888636,-0.9580710569964808,-1.3648112455951136,0.781593918800354,0.24781879782676697
4862,1734174114,313759565,-0.6699842764796061,0.15351324959441912,1.0732713818865054,-0.7392143951967531,-0.45691355495118513,0.08074813781190607,0.48813094500930615,0,-1,0.11510885506868362,-1.62526780763735,-0.962966267262594,-1.363720719014303,0.785574197769165,0.24914829432964325
4879,1734174114,329971551,-0.6720831359624516,0.1526122806091217,1.0699802809014323,-0.7395090168967515,-0.45867677851913385,0.08081445976542426,0.4860154831572057,0,-1,0.11573091149330139,-1.6255319754229944,-0.9680770079242151,-1.3626540342914026,0.7897465825080872,0.250465452671051
4894,1734174114,345878839,-0.6741702745709686,0.15169930760992914,1.0666243943065128,-0.7398176332482244,-0.4604578263184963,0.08083902096692955,0.48385277968215656,0,-1,0.1163293793797493,-1.6257837454425257,-0.9732115904437464,-1.3616111914264124,0.7939305901527405,0.25173503160476685
4911,1734174114,362055778,-0.6762740999496337,0.15075852396884246,1.0632268245044685,-0.7401072191439898,-0.4622945925820855,0.08086561513653291,0.4816490071918597,0,-1,0.11696341633796692,-1.6259992758380335,-0.9783223311053675,-1.3605082670794886,0.798007071018219,0.2530285716056824
4926,1734174114,377659082,-0.6783144200544053,0.14986761018401237,1.0598839137360165,-0.7404026805743048,-0.4640618391394998,0.08087537186320949,0.4794889511540768,0,-1,0.11752592772245407,-1.6262992064105433,-0.9832652250873011,-1.3595016638385218,0.8021307587623596,0.2543221116065979
4943,1734174114,393938779,-0.6803807343876842,0.14892196808116795,1.0565590556769846,-0.7406984463896523,-0.4658180722047012,0.08091836397686132,0.4773170366692973,0,-1,0.11816071718931198,-1.626599136983053,-0.9881847540484827,-1.358387295399801,0.8062432408332825,0.2556156516075134
4958,1734174114,410214424,-0.6823972918515561,0.14800125866598302,1.0532440610745244,-0.7409854859058701,-0.46754907904518245,0.08099407037746381,0.47516137145661763,0,-1,0.11883071064949036,-1.6268633047686976,-0.993079964314596,-1.3572242895709437,0.8103673458099365,0.25688523054122925
4975,1734174114,425924777,-0.6843885214962178,0.14711328757001044,1.0499006437544625,-0.7413015379108856,-0.4692386532697911,0.0810345322473862,0.472991036650755,0,-1,0.11938123404979706,-1.6271269957171839,-0.9981425444232386,-1.356133762990133,0.8144434690475464,0.2581428289413452
4990,1734174114,442211627,-0.6864334634387074,0.14620750493493903,1.0464107461393621,-0.7415821811177544,-0.4710468082779406,0.08092681094166043,0.4707670595215981,0,-1,0.11996734142303467,-1.6273787657367151,-1.0033491293536585,-1.3550666014300745,0.818544328212738,0.25941240787506104
5007,1734174114,457888841,-0.688399065889305,0.14524211810719548,1.0429789424413098,-0.7418706914123524,-0.4728039980918345,0.0809305004787997,0.46854509996796007,0,-1,0.12053022533655167,-1.6276429335223597,-1.008399788533346,-1.353999439870016,0.8226204514503479,0.26065802574157715
5022,1734174114,474129199,-0.6903723501726748,0.1443387693926036,1.0395406024418035,-0.7421784876636758,-0.4745063381415536,0.08090245940921006,0.4663363802817595,0,-1,0.12112868577241898,-1.627918545399801,-1.0134504477130335,-1.3528969923602503,0.8266969323158264,0.2619156241416931
5039,1734174114,489813327,-0.6923277069863255,0.14343336335535156,1.036117256450047,-0.7424785388109282,-0.4762131959536132,0.0808686009543333,0.46411946822399447,0,-1,0.12167883664369583,-1.6282184759723108,-1.018381420766012,-1.3517707029925745,0.83085697889328,0.2632690966129303
5055,1734174114,506083726,-0.6941958985472062,0.1425459224393606,1.0327666545490226,-0.7427910537544772,-0.4778491721590956,0.08087905810145582,0.4619309440704332,0,-1,0.1223132461309433,-1.6284940878497522,-1.0233128706561487,-1.3507159391986292,0.8348495960235596,0.2645985782146454
5070,1734174114,521728515,-0.6961173456644325,0.14160889921842482,1.029346458059149,-0.7431079751029,-0.4794883876559744,0.08087743027637598,0.4597175923471187,0,-1,0.12288736552000046,-1.6288178602801722,-1.0283516089068812,-1.3496249357806605,0.8390219807624817,0.265916109085083
5087,1734174114,538060903,-0.6979875911661643,0.14069169483784763,1.0258834452118673,-0.7434286201863118,-0.48115740715180805,0.08086179025162815,0.45745251896576916,0,-1,0.12349818646907806,-1.6290696302997034,-1.0334866682635706,-1.3485820929156702,0.8430981040000916,0.26731714606285095
5102,1734174114,554267406,-0.6998626886273235,0.139801820294298,1.0223704412624235,-0.7437550676631405,-0.4828105784652093,0.0807577933257786,0.4551928420621727,0,-1,0.12407268583774567,-1.629333798085348,-1.0385850111590784,-1.3475154081927698,0.8472229242324829,0.26864662766456604
5119,1734174114,570001125,-0.7017606911804168,0.13886181730420244,1.018767953066485,-0.7440674105722419,-0.48452229272134134,0.0806202056486219,0.4528821246434301,0,-1,0.12468275427818298,-1.6296098867999476,-1.0436838308917444,-1.3464487234698694,0.8512631058692932,0.2699761390686035
5134,1734174114,585681200,-0.7035891545544495,0.13795130203376355,1.0153231411979962,-0.7443828663746866,-0.4861578258104182,0.08056664182333133,0.45061483872194374,0,-1,0.12523365020751953,-1.6299451033221644,-1.0486391226397913,-1.3454178015338343,0.8553879261016846,0.2712576985359192
5151,1734174114,601963281,-0.7053943673735861,0.1370242615336737,1.0118598634838782,-0.7446927096566178,-0.4877816137541012,0.08053206929024648,0.4483485823369582,0,-1,0.12586769461631775,-1.6302569548236292,-1.0536063353167933,-1.3443391958819788,0.8595240116119385,0.27251529693603516
5166,1734174114,618066072,-0.7071456132928491,0.13610856356882045,1.0084117065401805,-0.7449977354793784,-0.4894103177440822,0.08047885539840295,0.4460706993851957,0,-1,0.1264781355857849,-1.630556885396139,-1.0585253874408167,-1.3432243506061,0.8636488318443298,0.2738088369369507
5182,1734174114,634128332,-0.7089216506038744,0.1351507538330646,1.0049250348670544,-0.7452893122889548,-0.49102309329708493,0.08042169631953282,0.44381585550530733,0,-1,0.12705226242542267,-1.630796257649557,-1.0635884443866175,-1.3421457449542444,0.8677013516426086,0.2751023769378662
5198,1734174114,649683952,-0.7106584290718219,0.13423217574320567,1.0013890293080714,-0.7456012643936333,-0.4926293545890508,0.08033659787367438,0.4415213523419609,0,-1,0.12763911485671997,-1.631120506917135,-1.068770710621969,-1.341079060231344,0.8718621134757996,0.2763599753379822
5215,1734174114,665847301,-0.7124343007222316,0.13329812824702653,0.9977955188561504,-0.74591714668674,-0.49427682384455546,0.08022082564555301,0.43916130387546265,0,-1,0.12826155126094818,-1.6313722769366663,-1.0738213698016565,-1.3399761358844202,0.876010537147522,0.2777014672756195
5231,1734174114,682002544,-0.7141353696869353,0.13235026256870894,0.994275950595269,-0.7462306038729271,-0.4958659914972363,0.08016013861501187,0.43684225585116115,0,-1,0.12888360023498535,-1.6316846052752894,-1.078824822102682,-1.3389094511615198,0.8800986409187317,0.2789590656757355
5247,1734174114,698267936,-0.7158479755099352,0.1314101818769218,0.9907718636417853,-0.7465516032303645,-0.4974113711181893,0.08009221668540115,0.43454328716816476,0,-1,0.12950603663921356,-1.6320441404925745,-1.0836480299579065,-1.3378308455096644,0.8842474222183228,0.28031253814697266
5263,1734174114,714153051,-0.7174928406689702,0.13046475771857774,0.9873543887538124,-0.746848417791871,-0.4989592929734859,0.0800714752304456,0.4322564327475047,0,-1,0.13012808561325073,-1.6323440710650843,-1.0885432402240198,-1.3366921583758753,0.888323962688446,0.2816540002822876
5279,1734174114,730269670,-0.7191512357409697,0.12949791676442088,0.9837985278032999,-0.7471595992613989,-0.5005132536953859,0.08000341610226802,0.4299284469755071,0,-1,0.13069097697734833,-1.6326435248004358,-1.0935938994037073,-1.335625473652975,0.8924128413200378,0.2829591631889343
5295,1734174114,746366977,-0.7208082033316796,0.1285734180347842,0.9801870128047149,-0.7474811356488614,-0.5020733399910418,0.07982471658460487,0.4275772769237343,0,-1,0.1313253939151764,-1.6328957716571253,-1.0987175146686,-1.3345349470721644,0.8964773416519165,0.28422874212265015
5311,1734174114,762119054,-0.722405876120583,0.1276488367116948,0.9765669581240205,-0.7477924952373126,-0.5036160837806569,0.07964309034192577,0.4252460492291209,0,-1,0.13195942342281342,-1.6331833044635218,-1.103851620350973,-1.3334677855121058,0.9005542397499084,0.28554627299308777
5327,1734174114,778225898,-0.7240104780288242,0.12669475116180362,0.9729719950952588,-0.7480969765822311,-0.5051753368709311,0.07951646937696179,0.42287814290134296,0,-1,0.13255788385868073,-1.6335070768939417,-1.1088545958148401,-1.3324616591082972,0.9047030210494995,0.28684017062187195
5343,1734174114,794141292,-0.7255959152557154,0.1257524012634484,0.9694127181155461,-0.7484102093087759,-0.5067034903301226,0.07936749197413837,0.4205169826622948,0,-1,0.13316796720027924,-1.6338666121112269,-1.1137622038470667,-1.3312986532794397,0.9087076187133789,0.28815770149230957
5359,1734174114,810243129,-0.7271448953508906,0.12483817830774394,0.9658725296115026,-0.7487280441042524,-0.5081820533318302,0.07925268164312468,0.4181821721398928,0,-1,0.1337428241968155,-1.6341541449176233,-1.1187055746661585,-1.3302672545062464,0.9128204584121704,0.28939133882522583
5375,1734174114,826357364,-0.728686905565546,0.12391649762334062,0.9622856993762338,-0.7490242814271985,-0.5097198344097706,0.07909906800617565,0.4158024214483358,0,-1,0.1343289315700531,-1.6344426313983362,-1.1237567106830042,-1.3291648069964808,0.9169572591781616,0.2906126081943512
5391,1734174114,842158794,-0.730201398841767,0.1230101362992923,0.9586395790064257,-0.7493572633838845,-0.5111987129630438,0.07890454166030135,0.41341703035085636,0,-1,0.1349034309387207,-1.6346944014178675,-1.1289151350604456,-1.3281105200396937,0.9210817217826843,0.2919061481952667
