yildirimyigit/pemp/data/ur10/raw/2_2024-12-14_13-28-36.csv
Time,ROS secs,ROS nsecs,________p_x________,________p_y________,________p_z________,________q_x________,________q_y________,________q_z________,________q_w________,gripper_position,gripper_force,shoulder_pan_joint,shoulder_lift_joint,elbow_joint,wrist_1_joint,wrist_2_joint,wrist_3_joint
0,1734172116,952532052,-0.00020774662641732876,0.2561410259528331,1.427299977183026,-0.7071067697276868,-4.374840493326359e-06,-0.000190248052792282,0.7071067670386243,0,-1,-0.00014335313905888825,-1.5708921591388147,-7.18275653284195e-05,-1.5707600752459925,-0.000119511281148732,-1.1746083394825746e-05
12,1734172116,968389272,-0.0002038379675726448,0.2561410314371374,1.4272999766834749,-0.7071067716432832,-4.374840539286992e-06,-0.00019024805274632135,0.7071067651230278,0,-1,-0.00013143221010381012,-1.57092792192568,-7.18275653284195e-05,-1.5707719961749476,-0.00013143221010381012,-5.990663637334137e-05
28,1734172116,984665393,-0.0002006500974354805,0.25614102539363465,1.427299977974789,-0.7071067717287819,-2.5279677047829208e-05,-0.0001942941501114763,0.7071067634989934,0,-1,-0.000119511281148732,-1.57092792192568,-9.566942323857575e-05,-1.5707719961749476,-0.00014335313905888825,-7.18275653284195e-05
44,1734172117,68426,-0.00020412694334615833,0.25614102848775283,1.4272999776254807,-0.7071067717740737,3.885941832219651e-06,-0.00018198727065652122,0.7071067671694148,0,-1,-0.00010711351503545075,-1.57092792192568,-8.374849428349762e-05,-1.5707476774798792,-0.00015527406801396637,-8.374849428349762e-05
60,1734172117,16016483,-0.00013188548327468805,0.25614102125204735,1.4272999885780093,-0.7071067753786446,2.5296540975401292e-05,-0.0001518101276044048,0.7071067702457566,0,-1,-0.00013143221010381012,-1.57092792192568,-0.00010759035219365387,-1.5707719961749476,-0.000119511281148732,-7.18275653284195e-05
76,1734172117,32248735,-0.00017251860084208526,0.2561410244713057,1.4272999824132857,-0.7071067736792638,-4.206252867776677e-06,-0.0001816500958438516,0.7071067653490897,0,-1,-0.00013143221010381012,-1.5709403196917933,-8.374849428349762e-05,-1.5707839171039026,-0.00013143221010381012,-4.7985707418263246e-05
92,1734172117,48551797,-0.000206900240459262,0.25614102614059725,1.427299977543021,-0.7071067729388897,-1.7187482125071477e-05,-0.00018620195538709863,0.7071067647091009,0,-1,-0.00013143221010381012,-1.570916000996725,-4.7985707418263246e-05,-1.5707357565509241,-0.00014335313905888825,-4.7985707418263246e-05
108,1734172117,64216375,-0.00020460684439501853,0.256141025996035,1.4272999773306183,-0.7071067718775847,-2.140216720224821e-05,-0.00018165009578824355,0.7071067668393869,0,-1,-0.000119511281148732,-1.5709527174579065,-5.990663637334137e-05,-1.5707600752459925,-0.00015527406801396637,-4.7985707418263246e-05
124,1734172117,80652713,-0.0002167026025270473,0.25614101556043906,1.4272999778702462,-0.7071067728605614,-8.758112424284624e-06,-0.0001521473023969169,0.7071067730896206,0,-1,-0.00013143221010381012,-1.5709403196917933,-8.374849428349762e-05,-1.5707600752459925,-0.00013143221010381012,-4.7985707418263246e-05
140,1734172117,96614122,-0.00023126002554827612,0.25614103232134555,1.427299970728248,-0.707106771545219,-1.701889509005913e-05,-0.0001856961931439116,0.7071067662398504,0,-1,-0.00014335313905888825,-1.5709403196917933,-0.00010759035219365387,-1.5707839171039026,-0.000119511281148732,-7.18275653284195e-05
156,1734172117,112509965,-0.00023130152316495737,0.25614102842658254,1.4272999725608766,-0.7071067656551508,-3.2874337175242065e-07,-0.0002030606943950652,0.707106767561277,0,-1,-0.00015527406801396637,-1.5709403196917933,-7.18275653284195e-05,-1.5707839171039026,-0.00010711351503545075,-5.990663637334137e-05
172,1734172117,128702163,-0.0001646841666062159,0.2561410229885799,1.4272999836478384,-0.7071067699132473,1.7035758428756357e-05,-0.00018569619328016372,0.707106767871416,0,-1,-0.00010711351503545075,-1.5709403196917933,-8.374849428349762e-05,-1.5707719961749476,-0.00010711351503545075,-4.7985707418263246e-05
188,1734172117,144333839,-0.00018343564429125348,0.25614102614685963,1.4272999809445401,-0.7071067748303935,8.431856062821958e-09,-0.00016023949715168566,0.7071067693865352,0,-1,-0.00013143221010381012,-1.57092792192568,-8.374849428349762e-05,-1.5707839171039026,-0.00010711351503545075,-3.5587941304981996e-05
204,1734172117,160651206,-0.0001768488651097572,0.25614103273281014,1.4272999808239366,-0.7071067740702188,2.9342638330107225e-05,-0.00017338931369071525,0.7071067664357088,0,-1,-0.000119511281148732,-1.5709527174579065,-5.990663637334137e-05,-1.5707600752459925,-0.00013143221010381012,-2.366701234990387e-05
220,1734172117,176309823,-0.00020703231166604492,0.25614102900751906,1.4272999750224786,-0.7071067710371857,-1.280421020544065e-05,-0.0001902480527342741,0.7071067656267302,0,-1,-0.0001671949969690445,-1.5709403196917933,-8.374849428349762e-05,-1.5707839171039026,-0.00013143221010381012,-9.566942323857575e-05
236,1734172117,192537307,-0.00016135318378286687,0.25614103000410254,1.4272999832163644,-0.7071067726785525,3.389449784622019e-05,-0.00017726682371379783,0.707106766662403,0,-1,-0.00015527406801396637,-1.5709403196917933,-5.990663637334137e-05,-1.570723835621969,-0.00014335313905888825,-5.990663637334137e-05
252,1734172117,208535194,-0.0002544237254262512,0.2561410344157172,1.4272999673601192,-0.707106765327718,-3.2874319372987893e-07,-0.0002199194334503061,0.7071067628463937,0,-1,-0.00010711351503545075,-1.5709646383868616,-0.00010759035219365387,-1.570796314870016,-0.000119511281148732,-4.7985707418263246e-05
268,1734172117,224489927,-0.00020322095282418543,0.2561410283686766,1.4272999780858828,-0.7071067723280189,3.885941908501552e-06,-0.0001819872706599969,0.7071067666154695,0,-1,-0.00014335313905888825,-1.5709646383868616,-0.00013143221010381012,-1.5707839171039026,-0.00014335313905888825,-4.7985707418263246e-05
284,1734172117,240742921,-0.00020087595079873485,0.2561410303822797,1.4272999775388253,-0.707106767082085,3.885941636454604e-06,-0.0002157047487151929,0.7071067623796868,0,-1,-0.000119511281148732,-1.5709527174579065,-9.566942323857575e-05,-1.5707600752459925,-0.0001671949969690445,-7.18275653284195e-05
300,1734172117,256799221,-0.00019402093977574327,0.25614103015936013,1.4272999785312417,-0.707106773958924,8.269214082187174e-06,-0.00016883745412616421,0.7071067682089723,0,-1,-0.00013143221010381012,-1.5709527174579065,-5.990663637334137e-05,-1.5707357565509241,-0.00014335313905888825,-4.7985707418263246e-05
316,1734172117,272206544,-0.00016220840362195737,0.2561410274059747,1.4272999835838434,-0.7071067716292673,2.5296540884965153e-05,-0.0001942941501768192,0.7071067635979049,0,-1,-0.00013143221010381012,-1.5709403196917933,-8.374849428349762e-05,-1.5707719961749476,-0.00015527406801396637,-3.5587941304981996e-05
332,1734172117,288568019,-0.00017622965669587668,0.25614103016566503,1.4272999811544844,-0.7071067740137096,4.054529276645831e-06,-0.00018148150841949522,0.7071067650588188,0,-1,-0.00013143221010381012,-1.57092792192568,-8.374849428349762e-05,-1.5707719961749476,-0.000119511281148732,-8.374849428349762e-05
348,1734172117,304674625,-0.0001958330411029725,0.25614102494746654,1.4272999801130855,-0.7071067733944424,-1.3309972196534662e-05,-0.00017355790106600953,0.7071067675536702,0,-1,-0.00014335313905888825,-1.5709403196917933,-4.7985707418263246e-05,-1.5707600752459925,-0.00013143221010381012,-3.5587941304981996e-05
364,1734172117,320817232,-0.00019244253823326164,0.25614102427483154,1.4272999803457884,-0.7071067717547389,-8.589525158111413e-06,-0.00018603336803049803,0.7071067660943414,0,-1,-0.00014335313905888825,-1.5709403196917933,-8.374849428349762e-05,-1.5707719961749476,-9.519258608037262e-05,-5.990663637334137e-05
380,1734172117,336813926,-0.00015697062273368415,0.2561410198845278,1.4272999857286306,-0.7071067733401741,8.437801726280823e-06,-0.00017743541111457572,0.7071067667205045,0,-1,-0.00015527406801396637,-1.5709040800677698,-7.18275653284195e-05,-1.5707719961749476,-0.00015527406801396637,-7.18275653284195e-05
396,1734172117,352806329,-0.0001754251741602805,0.25614102224106455,1.4272999835917457,-0.7071067734203933,8.269214240762726e-06,-0.00016917462895462606,0.7071067686669147,0,-1,-0.00014335313905888825,-1.570916000996725,-0.00010759035219365387,-1.5707719961749476,-0.000119511281148732,-5.990663637334137e-05
412,1734172117,368072748,-0.00024670730806187075,0.25614103422209156,1.4272999683835634,-0.7071067694962926,-2.983153690758968e-05,-0.0002072753790827348,0.707106761868046,0,-1,-0.00014335313905888825,-1.5709527174579065,-4.7985707418263246e-05,-1.5707719961749476,-0.00014335313905888825,-3.5587941304981996e-05
428,1734172117,384392976,-0.00013293650445828884,0.25614101716318916,1.427299988973754,-0.7071067752703026,2.5465128497011104e-05,-0.00015197871500501194,0.7071067703118328,0,-1,-0.00013143221010381012,-1.5709646383868616,-8.374849428349762e-05,-1.5707476774798792,-0.00013143221010381012,-8.374849428349762e-05
444,1734172117,400111913,-0.00018963482556204195,0.25614102407718536,1.427299979991504,-0.7071067736982843,4.391704139785861e-06,-0.0001646227693759174,0.7071067694981147,0,-1,-0.000119511281148732,-1.5709403196917933,-5.990663637334137e-05,-1.5707476774798792,-0.00014335313905888825,-4.7985707418263246e-05
460,1734172117,416028976,-0.00017546854156892544,0.2561410270813743,1.4272999811994829,-0.7071067713767797,1.686717110699401e-05,-0.00018586478066420515,0.7071067663676316,0,-1,-0.000119511281148732,-1.5709403196917933,-7.18275653284195e-05,-1.5707839171039026,-0.000119511281148732,-4.7985707418263246e-05
476,1734172117,432272672,-0.00021340652427459945,0.2561410239125752,1.4272999759394684,-0.7071067705510857,-2.9662949359817344e-05,-0.0001899108779541916,0.7071067656972191,0,-1,-0.00014335313905888825,-1.5709884802447718,-9.566942323857575e-05,-1.5707600752459925,-0.00014335313905888825,-5.990663637334137e-05
492,1734172117,448331594,-0.00015702139352907687,0.2561410224344735,1.4272999847788173,-0.7071067740822793,1.2652486423312352e-05,-0.00016479135676697546,0.7071067689752911,0,-1,-0.0001671949969690445,-1.5709403196917933,-7.18275653284195e-05,-1.5707476774798792,-0.00013143221010381012,-5.990663637334137e-05
508,1734172117,464086294,-0.00014671119634826002,0.25614102499966024,1.4272999858992677,-0.7071067719318973,3.372591055712195e-05,-0.0001858647806549981,0.7071067652093975,0,-1,-0.00014335313905888825,-1.570916000996725,-0.00010759035219365387,-1.5707476774798792,-0.00014335313905888825,-7.18275653284195e-05
524,1734172117,480634689,-0.00020927510317829485,0.2561410320786607,1.4272999758828573,-0.7071067711824541,8.269213932583754e-06,-0.0001860333680234495,0.7071067666704446,0,-1,-0.000119511281148732,-1.570916000996725,-0.000119511281148732,-1.5707600752459925,-0.000119511281148732,-7.18275653284195e-05
540,1734172117,496438741,-0.00020303554602430008,0.25614103156281054,1.4272999771125965,-0.7071067747419505,-8.926699951905354e-06,-0.00017760399839872594,0.7071067652704012,0,-1,-0.00013143221010381012,-1.5709527174579065,-7.18275653284195e-05,-1.5707600752459925,-0.00010711351503545075,-3.5587941304981996e-05
556,1734172117,512446165,-0.00022566004701556744,0.2561410249361763,1.427299974292763,-0.7071067695040488,-1.7356069626023372e-05,-0.00019446273755505494,0.7071067659162643,0,-1,-0.00010711351503545075,-1.5709403196917933,-9.566942323857575e-05,-1.5707600752459925,-0.00013143221010381012,-2.366701234990387e-05
572,1734172117,528521060,-0.00016707550487848424,0.2561410237559076,1.4272999837178926,-0.7071067731356966,8.606388874250897e-06,-0.00016883745415135202,0.7071067690281764,0,-1,-0.0001671949969690445,-1.57092792192568,-3.5587941304981996e-05,-1.5707719961749476,-0.00015527406801396637,-7.18275653284195e-05
588,1734172117,544002532,-0.00015338248187013792,0.25614102619964996,1.4272999853659152,-0.7071067708393958,1.248389883240019e-05,-0.0001986774223193805,0.7071067635120712,0,-1,-0.00010711351503545075,-1.5709527174579065,-9.566942323857575e-05,-1.5707600752459925,-0.000119511281148732,-8.374849428349762e-05
604,1734172117,559890508,-0.00023009273743321052,0.2561410223591935,1.4272999741280066,-0.7071067688998603,-1.7356069709080052e-05,-0.00018603336799575195,0.7071067687883862,0,-1,-0.00014335313905888825,-1.5709403196917933,-4.7985707418263246e-05,-1.5707839171039026,-0.000119511281148732,-5.990663637334137e-05
620,1734172117,576096534,-0.00019593130480445036,0.25614102754848916,1.4272999787501288,-0.7071067731175803,8.43780147923676e-06,-0.00016900604154225027,0.7071067690080504,0,-1,-0.00014335313905888825,-1.570916000996725,-8.374849428349762e-05,-1.5707600752459925,-0.000119511281148732,-7.18275653284195e-05
636,1734172117,592012643,-0.00020703538645668311,0.2561410350601743,1.4272999748899715,-0.7071067743770164,-8.589525217719119e-06,-0.00018569619312534927,0.707106763560691,0,-1,-0.000119511281148732,-1.5709527174579065,-9.566942323857575e-05,-1.5707476774798792,-0.00010711351503545075,-3.5587941304981996e-05
652,1734172117,608204841,-0.00016965232060333165,0.2561410265365176,1.4272999832779716,-0.7071067739781568,1.6698583836833173e-05,-0.0001691746289334615,0.7071067679603313,0,-1,-0.000119511281148732,-1.5709403196917933,-4.7985707418263246e-05,-1.5707839171039026,-0.00014335313905888825,-4.7985707418263246e-05
667,1734172117,624155044,-0.00020929906162104052,0.2561410198481464,1.427299978040702,-0.7071067676081462,-4.54342763478017e-06,-0.0001985088349615742,0.7071067668862736,0,-1,-0.000119511281148732,-1.5709646383868616,-8.374849428349762e-05,-1.5707476774798792,-0.00014335313905888825,-8.374849428349762e-05
684,1734172117,640199184,-0.00022486529337420512,0.25614103416255374,1.4272999715672283,-0.7071067685202326,4.223116254058927e-06,-0.00019850883488557164,0.7071067659761727,0,-1,-0.0001671949969690445,-1.570916000996725,-0.00010759035219365387,-1.5707600752459925,-0.000119511281148732,-5.990663637334137e-05
700,1734172117,656172752,-0.0002142888319203193,0.2561410268857101,1.4272999754182856,-0.7071067712529638,8.431744265774076e-09,-0.0001774354110908654,0.7071067688580583,0,-1,-0.000119511281148732,-1.570916000996725,-7.18275653284195e-05,-1.570796314870016,-9.519258608037262e-05,-1.1746083394825746e-05
715,1734172117,672185420,-0.0001871968404150372,0.2561410261115824,1.4272999801687865,-0.7071067709612537,-4.206252932579078e-06,-0.00019850883492940298,0.707106763535252,0,-1,-0.000119511281148732,-1.57092792192568,-8.374849428349762e-05,-1.5707600752459925,-0.00013143221010381012,-4.7985707418263246e-05
732,1734172117,688337087,-0.00021283431991793008,0.2561410238512844,1.4272999772433086,-0.7071067721257742,-4.543427855935163e-06,-0.00016479135672958217,0.707106771030397,0,-1,-0.00014335313905888825,-1.5709646383868616,-8.374849428349762e-05,-1.5707719961749476,-0.00013143221010381012,-3.5587941304981996e-05
748,1734172117,704715490,-0.00020050026295822873,0.25614102786008064,1.4272999775809192,-0.7071067713727381,1.7035758498698273e-05,-0.0001772668237346429,0.7071067685753533,0,-1,-0.00014335313905888825,-1.570916000996725,-5.990663637334137e-05,-1.5707719961749476,-0.00010711351503545075,-4.7985707418263246e-05
764,1734172117,720166921,-0.00022977659567289665,0.2561410412931452,1.4272999696602773,-0.7071067697295805,2.9511225267964695e-05,-0.00019007946541620073,0.7071067664797746,0,-1,-0.00015527406801396637,-1.570916000996725,-7.18275653284195e-05,-1.5707476774798792,-0.00010711351503545075,-3.5587941304981996e-05
780,1734172117,736542224,-0.00018467030656993318,0.25614102855148585,1.4272999808174154,-0.7071067727853974,1.2315311580884657e-05,-0.00018198727065686898,0.707106766061524,0,-1,-0.00013143221010381012,-1.5709403196917933,-4.7985707418263246e-05,-1.570808235798971,-0.00014335313905888825,-3.5587941304981996e-05
796,1734172117,752557039,-0.00019315800767648843,0.25614102976822445,1.4272999788327219,-0.707106771806891,-1.601555679578314e-07,-0.00019446273753934558,0.7071067638264079,0,-1,-0.00013143221010381012,-1.5709646383868616,-8.374849428349762e-05,-1.5707719961749476,-0.00010711351503545075,-4.7985707418263246e-05
812,1734172117,768779993,-0.0002009794490702224,0.25614102514407905,1.4272999787711729,-0.7071067696628144,-8.758112670781372e-06,-0.00019463132494545226,0.7071067658698807,0,-1,-0.00014335313905888825,-1.5709646383868616,-7.18275653284195e-05,-1.5707600752459925,-0.00010711351503545075,-5.990663637334137e-05
828,1734172117,784398317,-0.0002095612053561415,0.2561410321196743,1.4272999752575264,-0.7071067706468482,-8.589525310411097e-06,-0.00020289210702707826,0.7071067625658791,0,-1,-0.00015527406801396637,-1.5709403196917933,-8.374849428349762e-05,-1.5707600752459925,-0.000119511281148732,-3.5587941304981996e-05
844,1734172117,800527572,-0.0001779038442422751,0.25614102784892384,1.427299981291989,-0.7071067744632502,-4.374840283543878e-06,-0.00018148150841134912,0.707106764607369,0,-1,-0.00013143221010381012,-1.5709884802447718,-8.374849428349762e-05,-1.5707600752459925,-0.00014335313905888825,-4.7985707418263246e-05
860,1734172117,816541671,-0.0001891089573902102,0.256141026651813,1.4272999802631954,-0.7071067731175802,8.43780147923675e-06,-0.00016900604154225027,0.7071067690080504,0,-1,-0.000119511281148732,-1.5709527174579065,-8.374849428349762e-05,-1.5707476774798792,-0.000119511281148732,-2.366701234990387e-05
876,1734172117,832283020,-0.00018939864807845046,0.25614102417848394,1.4272999799077386,-0.7071067748939158,8.606388996135567e-06,-0.0001516415402181726,0.7071067711667725,0,-1,-0.000119511281148732,-1.57092792192568,-5.990663637334137e-05,-1.5707719961749476,-9.519258608037262e-05,-4.7985707418263246e-05
892,1734172117,848520517,-0.0002554373379201206,0.25614103536949867,1.4272999668619024,-0.7071067692778188,-2.140216743696885e-05,-0.0001988460095710538,0.7071067648125687,0,-1,-9.519258608037262e-05,-1.5709403196917933,-8.374849428349762e-05,-1.5707719961749476,-0.00010711351503545075,-4.7985707418263246e-05
908,1734172117,864389896,-0.00017198389878793965,0.25614102937688443,1.427299981811852,-0.7071067716046464,-8.589525333391443e-06,-0.0002028921069812623,0.707106761608081,0,-1,-0.00015527406801396637,-1.5709403196917933,-0.000119511281148732,-1.5707719961749476,-0.00013143221010381012,-4.7985707418263246e-05
924,1734172117,880634307,-0.00012635896387167141,0.2561410242911512,1.4272999880460326,-0.7071067759711918,4.232386785639693e-05,-0.00016040808448510152,0.7071067669408655,0,-1,-0.00013143221010381012,-1.570916000996725,-9.566942323857575e-05,-1.5707719961749476,-0.00015527406801396637,-5.990663637334137e-05
940,1734172117,896366834,-0.0002074963187343949,0.25614102340903677,1.427299978010262,-0.7071067723006909,-2.1739341921253382e-05,-0.0001732207262626074,0.7071067685211901,0,-1,-0.000119511281148732,-1.5709527174579065,-5.990663637334137e-05,-1.5707600752459925,-0.00010711351503545075,-4.7985707418263246e-05
956,1734172117,911863803,-0.0002151018393336508,0.25614102712078085,1.4272999758037375,-0.7071067726440552,-1.6015559142180843e-07,-0.00016917462892385385,0.7071067694915866,0,-1,-0.00013143221010381012,-1.5709527174579065,-0.00013143221010381012,-1.5707719961749476,-9.519258608037262e-05,-1.1746083394825746e-05
972,1734172117,928013324,-0.00019133884718371648,0.2561410191997301,1.4272999810951472,-0.7071067751794299,-8.589525112386874e-06,-0.0001432121706047022,0.7071067726389285,0,-1,-0.00013143221010381012,-1.5709527174579065,-8.374849428349762e-05,-1.5707839171039026,-0.000119511281148732,-7.18275653284195e-05
988,1734172117,944250822,-0.00020881331046631669,0.25614102700185265,1.427299974324229,-0.7071067786577679,-3.3709046721421605e-05,-0.00013495138819182186,0.7071067700340998,0,-1,-0.000119511281148732,-1.5709040800677698,-0.00027496019472295075,-1.5707719961749476,-4.7985707418263246e-05,-2.366701234990387e-05
1004,1734172117,960569858,-0.0004487793050055435,0.25614102692528695,1.4272998816740279,-0.7071067745964906,-0.00019881130158307968,-0.00015643042108497303,0.7071067425243076,0,-1,-9.519258608037262e-05,-1.5709040800677698,-0.0005987326251428726,-1.5706761519061487,0.00032357408781535923,4.793690095539205e-05
1020,1734172117,976154804,-0.000806927058112141,0.2561410373808126,1.4272995950256775,-0.707106800157055,-0.00043578882221653964,-0.00012250072338698892,0.7071066173168837,0,-1,0.0,-1.5709040800677698,-0.001233402882711232,-1.5704963842975062,0.0008269115351140499,0.00014381069922819734
1036,1734172117,992445707,-0.0014153739540491573,0.2561407829051548,1.427298749052355,-0.7071068566213461,-0.0008803767364393873,4.3037865774620176e-05,0.7071061563892816,0,-1,0.00015579492901451886,-1.5708683172809046,-0.002346817647115529,-1.5702927748309534,0.0016171213937923312,0.0003954794374294579
1052,1734172118,8254528,-0.0023477620327959484,0.2561402733798898,1.4272964946320466,-0.7071070682795183,-0.001494096706263015,0.00022535443476960135,0.7071048796886892,0,-1,0.00033480930142104626,-1.5709527174579065,-0.0037835280047815445,-1.5699685255633753,0.002827153541147709,0.0007546317065134645
1068,1734172118,24456977,-0.003799927440271304,0.2561386274462668,1.4272910086006587,-0.7071074415910079,-0.0024466107576342376,0.0004073065458540961,0.7071017707825358,0,-1,0.0006100719911046326,-1.5709884802447718,-0.005771462117330373,-1.5695608297931116,0.004348026588559151,0.0012456104159355164
1084,1734172118,40173292,-0.0055818127757111275,0.2561357195064616,1.4272805250326628,-0.7071082838322742,-0.0035853846004093195,0.0006489990433843566,0.7070958907766928,0,-1,0.0008857091306708753,-1.5710724035846155,-0.008273903523580373,-1.5690572897540491,0.00634826859459281,0.0019043682841584086
1100,1734172118,56496143,-0.00787338749262255,0.2561303994390357,1.427261610536084,-0.7071100600224488,-0.005071203516547186,0.00100094541860628,0.7070846088115704,0,-1,0.0012448613997548819,-1.571252171193258,-0.011207405720845998,-1.5684455076800745,0.008863832801580429,0.002682593883946538
1116,1734172118,72222948,-0.01060402664119406,0.2561215902363654,1.4272309664893557,-0.7071129399192579,-0.0068152703245906235,0.0013993721471845025,0.7070663929552446,0,-1,0.00159165496006608,-1.5715039412127894,-0.014715496693746388,-1.5677865187274378,0.011690611951053143,0.0036050048656761646
1132,1734172118,88401317,-0.013772608524967308,0.2561077833270139,1.4271847378911504,-0.7071169785706892,-0.008851481696925149,0.001836010646415667,0.707038795932539,0,-1,0.002130570588633418,-1.5717676321612757,-0.01869088808168584,-1.5670068899737757,0.014888902194797993,0.004610930569469929
1148,1734172118,104706287,-0.017376491291492675,0.2560887288734287,1.4271169301233515,-0.7071234974831979,-0.011128569229564417,0.002293706419371586,0.7069987646134145,0,-1,0.0026208001654595137,-1.5720794836627405,-0.02298909822572881,-1.5660956541644495,0.01849428191781044,0.005748683121055365
1164,1734172118,120283126,-0.02121831950249349,0.25606075180563775,1.4270290819829734,-0.7071307467021577,-0.013596117403379866,0.0028823821977928938,0.7069462104947366,0,-1,0.0032552152406424284,-1.5723555723773401,-0.027671162282125294,-1.565124813710348,0.022303016856312752,0.006934372242540121
1180,1734172118,136346101,-0.025430367714178462,0.2560258441753846,1.4269123622557691,-0.7071407865084175,-0.01626702466312092,0.0034118121092553398,0.7068773949582752,0,-1,0.0038300834130495787,-1.5727394262896937,-0.03265220323671514,-1.5641053358661097,0.026411734521389008,0.008227544836699963
1196,1734172118,152449607,-0.0297885025132089,0.25598333978191457,1.426768227005641,-0.7071537545886869,-0.01905095133238436,0.0040219947128632486,0.7067916610876107,0,-1,0.004476108122617006,-1.5730751196490687,-0.037848774586812794,-1.563014332448141,0.030675871297717094,0.009509108029305935
1212,1734172118,168599367,-0.034320101027299973,0.2559300164149302,1.4265958582360707,-0.7071682008225544,-0.021936685945050074,0.004639534452426929,0.7066897425852482,0,-1,0.005134491715580225,-1.5733626524554651,-0.043224636708394826,-1.5618394056903284,0.03503625839948654,0.010826623998582363
1228,1734172118,184201717,-0.0389420056345604,0.25586761747926734,1.4263944725505635,-0.7071854641371755,-0.024834115239118566,0.0053298018642424115,0.7065717084949452,0,-1,0.005792500451207161,-1.573770825062887,-0.04869681993593389,-1.5606039206134241,0.03944383189082146,0.012311544269323349
1244,1734172118,200331687,-0.043596311257729344,0.2557973176797358,1.4261669188774795,-0.7072059586898215,-0.027773659911446084,0.006078098716249187,0.706435710114324,0,-1,0.006510430481284857,-1.5740583578692835,-0.054180447255269826,-1.559356991444723,0.044007573276758194,0.013748902827501297
1260,1734172118,216718912,-0.04826827364892467,0.25571877691531963,1.4259099148165548,-0.7072295326838065,-0.03075028702614781,0.00680509263308348,0.7062821664617545,0,-1,0.00718079786747694,-1.5743821302997034,-0.05975991884340459,-1.5581100622760218,0.04860726743936539,0.015245807357132435
1276,1734172118,232388019,-0.052894746977370524,0.25563144739494414,1.4256296529484769,-0.7072556770489282,-0.03369281467581519,0.0075567760912782465,0.7061140818992279,0,-1,0.007839181460440159,-1.5746820608722132,-0.06521970430483037,-1.5569112936602991,0.05315902829170227,0.016766680404543877
1292,1734172118,248633146,-0.057468372148429356,0.25553959310415364,1.4253263817862731,-0.7072849898608636,-0.03661739238399249,0.008291229880194873,0.7059308501543112,0,-1,0.008413675241172314,-1.575005833302633,-0.07064325014223272,-1.5557721296893519,0.057627271860837936,0.018216023221611977
1308,1734172118,264309644,-0.06191293106903888,0.25544504852508076,1.4250082155838548,-0.7073149037878943,-0.03945258045021494,0.008961801297939671,0.7057399003123158,0,-1,0.009071684442460537,-1.5752700010882776,-0.07586366335024053,-1.5546091238604944,0.062011249363422394,0.019581474363803864
1324,1734172118,280228853,-0.06620958209403746,0.25534297847541765,1.4246786643224192,-0.7073475246777464,-0.042197805543241665,0.009712317798907237,0.7055384436177612,0,-1,0.009670521132647991,-1.575545612965719,-0.08095199266542608,-1.553434197102682,0.06617988646030426,0.020958537235856056
1340,1734172118,296437740,-0.07035940566448444,0.25524259217504186,1.4243355260872912,-0.7073798649147321,-0.04485349171337691,0.010322749486197927,0.7053334898027873,0,-1,0.010221046395599842,-1.5757735411273401,-0.08589727083315069,-1.5523665587054651,0.07022906094789505,0.022264068946242332
1356,1734172118,312540531,-0.07443282390467115,0.25513288221875485,1.4239815405970475,-0.7074125378864552,-0.04743717659490796,0.010953450090491933,0.7051221436381524,0,-1,0.010807150043547153,-1.5760491530047815,-0.09074622789491826,-1.5513594786273401,0.07413367182016373,0.02350967936217785
1372,1734172118,328507184,-0.07836372119365682,0.25502522772327135,1.423619013039157,-0.7074481837532154,-0.04994368268153573,0.011550597560883951,0.704903737797204,0,-1,0.011286144144833088,-1.576313320790426,-0.0952838102923792,-1.5503523985492151,0.07790720462799072,0.024671025574207306
1388,1734172118,344272613,-0.0821829453277658,0.25491286198369684,1.4232501834617561,-0.7074805719907575,-0.05239062777478959,0.012095917541131776,0.7046844337402609,0,-1,0.011812700890004635,-1.5765650908099573,-0.09977323213686162,-1.5494053999530237,0.08156051486730576,0.02583274617791176
1404,1734172118,360044240,-0.08586331122092902,0.25480385016763335,1.4228786596699097,-0.7075159764491946,-0.0547011816232898,0.012624335692066852,0.7044640160764015,0,-1,0.01230293046683073,-1.576756779347555,-0.10413152376283819,-1.5484584013568323,0.08507077395915985,0.02698248252272606
1420,1734172118,376301765,-0.0893946299483386,0.25468822908062594,1.422502892790268,-0.707552005445571,-0.0569820961162784,0.013190182713479935,0.7042366217345779,0,-1,0.012865814380347729,-1.5769966284381312,-0.10841781297792608,-1.5475347677813929,0.08858028054237366,0.02807229943573475
1436,1734172118,392157077,-0.09297517189527951,0.2545690286404164,1.422108623725896,-0.7075889058076752,-0.0592743818482403,0.013751320483543866,0.7039995662068016,0,-1,0.01333245076239109,-1.577200714741842,-0.11276370683778936,-1.5464919249164026,0.09216206520795822,0.0292340200394392
1452,1734172118,408321619,-0.09655213054007489,0.2544454483542165,1.4216979572918054,-0.7076275621192737,-0.061557557056048325,0.014295546602449532,0.7037538901105712,0,-1,0.013835413381457329,-1.5773804823504847,-0.11715776125063115,-1.5455086866961878,0.09573186188936234,0.03034817799925804
1468,1734172118,424323797,-0.10022030098302068,0.2543089773482335,1.421258260136772,-0.7076667824436811,-0.06392411203682694,0.014889117795836185,0.703491113730211,0,-1,0.014433501288294792,-1.5776084105121058,-0.12173158327211553,-1.5444415251361292,0.09938555210828781,0.03149791434407234
1484,1734172118,440613031,-0.1041069343464806,0.2541669895773838,1.4207772713288875,-0.7077096698276217,-0.0664117855917393,0.015384425516947528,0.7032068098493565,0,-1,0.014948073774576187,-1.5779083410846155,-0.12642461458315069,-1.5434463659869593,0.10324260592460632,0.0326712466776371
1500,1734172118,456278562,-0.10802370019586441,0.25401271318267626,1.420275024412863,-0.7077561841663434,-0.0689150490117929,0.01600577450438837,0.7029051962935782,0,-1,0.01553492620587349,-1.5781477133380335,-0.13129789033998662,-1.5424507300006312,0.1069326177239418,0.03391685709357262
1516,1734172118,472594738,-0.1121195639810001,0.25384684511632216,1.4197315565066104,-0.7078047982683494,-0.07152258790495157,0.01656256086435533,0.7025827841224792,0,-1,0.016156982630491257,-1.5784600416766565,-0.13617068925966436,-1.5414560476886194,0.11114881932735443,0.03519842028617859
1532,1734172118,488635063,-0.11634919489420242,0.25367227792774033,1.4191485008197289,-0.7078589937548055,-0.07422562284955557,0.017122040674766484,0.7022343181560988,0,-1,0.01677941344678402,-1.5788076559649866,-0.14128238359560186,-1.5404370466815394,0.11518600583076477,0.03651556000113487
1548,1734172118,504374742,-0.12074345841816299,0.2534797553592542,1.4185230867755338,-0.7079125570968811,-0.07702360233508872,0.017659318989300843,0.701865602975894,0,-1,0.017437797039747238,-1.5791438261615198,-0.1464784781085413,-1.5393698851214808,0.11931906640529633,0.03786902874708176
1564,1734172118,520655870,-0.12515267561836024,0.2532785318571409,1.4178739875406794,-0.707969028804219,-0.07981181184364632,0.018280143256040975,0.7014811225591063,0,-1,0.018072212114930153,-1.579503361378805,-0.15167457262148076,-1.5382426420794886,0.12359556555747986,0.039126623421907425
1580,1734172118,536407232,-0.12952201253575882,0.2530749742242663,1.4171976563765458,-0.708030749985605,-0.08261031890895572,0.018878684429246055,0.7010788739926509,0,-1,0.01869426853954792,-1.5798032919513147,-0.1569302717791956,-1.537163559590475,0.1278604418039322,0.040431778877973557
1596,1734172118,552012681,-0.13400116880934979,0.25285891488520396,1.4164871119299518,-0.7080919747870582,-0.08548305123508385,0.019433457380830736,0.7006573655703132,0,-1,0.019340667873620987,-1.5801509062396448,-0.16223413148988897,-1.5361207167254847,0.13213694095611572,0.041749294847249985
1612,1734172118,568316936,-0.13839627156265952,0.25264180677084597,1.4157612639166945,-0.7081563486408321,-0.0882994191906577,0.020025195652591768,0.7002262420027917,0,-1,0.019939130172133446,-1.5804746786700647,-0.16745359102358037,-1.534957234059469,0.13647373020648956,0.04311474785208702
1628,1734172118,584047079,-0.14275037403802485,0.25241364941774524,1.415018251934483,-0.7082243297436738,-0.09113074071308352,0.02070835616334903,0.6997747143482828,0,-1,0.02059713751077652,-1.5807984511004847,-0.17270929018129522,-1.533806625996725,0.1408221423625946,0.04446784406900406
1643,1734172118,600362062,-0.14710876963805758,0.2521809570131949,1.4142549568969363,-0.7082961732587397,-0.09390893820055572,0.02137397666413435,0.6993145182209722,0,-1,0.021219568327069283,-1.5811103026019495,-0.17792922655214483,-1.5326913038836878,0.14515893161296844,0.04584527760744095
1660,1734172118,616117954,-0.15145955757935123,0.2519453705804841,1.4134580708334232,-0.7083720557107455,-0.09668977616219361,0.021991270622332172,0.6988393963495854,0,-1,0.02181803062558174,-1.5813863913165491,-0.18323260942567998,-1.5315526167498987,0.149519681930542,0.047282636165618896
1676,1734172118,632415056,-0.1558547515080765,0.2516940199634926,1.4126377853021181,-0.7084522726473568,-0.09946381071217143,0.022687126185808513,0.6983463482004024,0,-1,0.02245207130908966,-1.581721607838766,-0.18852454820741826,-1.5304134527789515,0.15386809408664703,0.048731230199337006
1692,1734172118,648135423,-0.16021235839710996,0.25144223360088525,1.4117944596847005,-0.7085347212143727,-0.10222791096546162,0.023339176908587982,0.69784187741532,0,-1,0.02306251786649227,-1.5820096174823206,-0.19386369386781865,-1.529250446950094,0.1580251157283783,0.050180573016405106
1708,1734172118,664425134,-0.16457041805414369,0.25118141004236255,1.4109352191485736,-0.7086130375453976,-0.10496908811484736,0.023944452224138393,0.6973347236218115,0,-1,0.023744869977235794,-1.5823333899127405,-0.1989520231830042,-1.5280516783343714,0.1622180938720703,0.051533665508031845
1724,1734172118,680175781,-0.16874840732501717,0.25092481154190227,1.4100826461266547,-0.7086925561251859,-0.10763661720186131,0.024552965240176958,0.6968259262025236,0,-1,0.02431936375796795,-1.5826213995562952,-0.2040637175189417,-1.5269845167743128,0.16637513041496277,0.052803244441747665
1740,1734172118,696481943,-0.17290819340128616,0.2506504517687179,1.409219231777711,-0.708769732027612,-0.11030361422417723,0.025193070946397673,0.6963073235482166,0,-1,0.024881873279809952,-1.5829451719867151,-0.20903236070741826,-1.525881592427389,0.17048458755016327,0.054192665964365005
1756,1734172118,712245702,-0.17705637849205702,0.2503912522709786,1.4083291300698872,-0.7088536104407235,-0.11294629227893016,0.025787111685776378,0.6957763425817945,0,-1,0.02552827261388302,-1.583245102559225,-0.21410829225649053,-1.5248139540301722,0.17459368705749512,0.05547385662794113
1772,1734172118,728614091,-0.18126055436606767,0.2501066938921222,1.4074062782330452,-0.708934426885582,-0.11566266006286019,0.026344358937173025,0.69522665526847,0,-1,0.026066439226269722,-1.5835087935077112,-0.21914846101869756,-1.5236991087542933,0.17872674763202667,0.05671946704387665
1788,1734172118,744255304,-0.18529228686090915,0.24982989399992359,1.4064925942915754,-0.7090198096645146,-0.11828892467104783,0.026972793735028536,0.6946733823903075,0,-1,0.026688870042562485,-1.583796803151266,-0.22411662737001592,-1.5226200262652796,0.1827762871980667,0.05806095153093338
1804,1734172118,760014772,-0.18932274502869778,0.2495479510523228,1.4055614608244156,-0.7091100896046841,-0.12085398520166572,0.02761655443257974,0.6941141988196069,0,-1,0.02729969099164009,-1.5840485731707972,-0.2291324774371546,-1.5214932600604456,0.18694530427455902,0.059354495257139206
1820,1734172118,776333570,-0.1934477399349884,0.24926101142712045,1.4045885221090992,-0.7091990838923306,-0.12352171568720441,0.028161868015514024,0.6935315092696548,0,-1,0.0278618261218071,-1.5843480269061487,-0.23414880434145147,-1.520426098500387,0.19101881980895996,0.060659654438495636
1836,1734172118,792640209,-0.19746149439846042,0.2489666850156838,1.4036148482891035,-0.7092891297329482,-0.1261199950470111,0.02879028094720358,0.6929457388677701,0,-1,0.028508225455880165,-1.5846484343158167,-0.23915273347963506,-1.5193350950824183,0.19513988494873047,0.06195320188999176
1852,1734172118,808329820,-0.20160659707840495,0.24864581809567354,1.4025970711162614,-0.7093783129693096,-0.12882069967402168,0.029377474353332864,0.6923327237859922,0,-1,0.029094703495502472,-1.5848882834063929,-0.2441924254046839,-1.5182440916644495,0.19929729402065277,0.06323476135730743
1868,1734172118,824307680,-0.20572768571562153,0.24833354335372965,1.401554728294336,-0.7094744465645345,-0.1315141201375515,0.029976084630393193,0.6917018723602131,0,-1,0.029728742316365242,-1.5851882139789026,-0.249244515095846,-1.517200771962301,0.20341837406158447,0.06454029679298401
1884,1734172118,840369939,-0.20982593058423807,0.24801261986224202,1.4005028895143872,-0.7095701528652889,-0.1341715673842629,0.030556370566556745,0.6910676500069873,0,-1,0.030303237959742546,-1.5854757467852991,-0.25433236757387334,-1.5161336104022425,0.20752783119678497,0.06583347171545029
1900,1734172118,856240987,-0.21394140560633107,0.24768717666061585,1.3994188352183714,-0.709667702987134,-0.13678911894438167,0.031080017034795872,0.6904306777776473,0,-1,0.030913682654500008,-1.5857756773578089,-0.2593959013568323,-1.5150788466082972,0.2116013467311859,0.06712701916694641
1916,1734172118,872563123,-0.2180476411455221,0.24735061820157708,1.3983187044689322,-0.7097678808472091,-0.13943292513661384,0.03167339475671649,0.6897715641936064,0,-1,0.031535740941762924,-1.5860875288592737,-0.2644723097430628,-1.51393968263735,0.21572242677211761,0.06843254715204239
1932,1734172118,888284206,-0.22215044791137448,0.24701291565621697,1.3971945897331555,-0.7098699657180908,-0.14208234521599725,0.03223131150714451,0.6890996890928396,0,-1,0.03214656189084053,-1.5863750616656702,-0.2694638411151331,-1.5128486792193812,0.2197360098361969,0.06971411406993866
1948,1734172118,904571533,-0.22618234031924447,0.24667824798155336,1.3960656448531157,-0.7099692071492287,-0.14468040166024418,0.032755179595192974,0.6884318444733745,0,-1,0.03275700658559799,-1.58667499223818,-0.2744558493243616,-1.5117581526385706,0.22379754483699799,0.07098331302404404
1964,1734172118,920234918,-0.23010236833011075,0.24633237378923278,1.3949371988376358,-0.7100755254151143,-0.14724540479851558,0.03336528797085003,0.6877487161244235,0,-1,0.033319141715765,-1.5868786017047327,-0.27943545976747686,-1.5106547514544886,0.22785906493663788,0.07227686047554016
1980,1734172118,936533689,-0.2341073772632607,0.24599647917228346,1.3937686645048353,-0.7101867852559783,-0.1498201181115002,0.03390174177392424,0.6870511874391376,0,-1,0.033905621618032455,-1.5871308485614222,-0.28445178667177373,-1.5096119085894983,0.23202845454216003,0.07354643940925598
1996,1734172118,952371358,-0.23803190483233033,0.24563954669136012,1.392601477103082,-0.7102929146173809,-0.15242174726742042,0.034508489421532174,0.6863386558850789,0,-1,0.03445614501833916,-1.5873706976519983,-0.28944379488100225,-1.5085566679583948,0.23611395061016083,0.0748160183429718
2012,1734172118,968227863,-0.24194651672523232,0.24529123396689134,1.3914086745587768,-0.7104089125799269,-0.15497815323709305,0.03509649095518475,0.6856159167266018,0,-1,0.035054609179496765,-1.5876105467425745,-0.29444724718202764,-1.507441822682516,0.24018746614456177,0.07612117379903793
2028,1734172118,984116792,-0.24592607265801636,0.2449069658986261,1.3901877594676681,-0.7105169996792584,-0.15760287667407535,0.03568496770782213,0.6848748130209874,0,-1,0.03560513257980347,-1.5878866354571741,-0.2993553320514124,-1.5063508192645472,0.24432089924812317,0.07741472125053406
2044,1734172119,357151,-0.2498419896690781,0.24453766422449935,1.3889610113799584,-0.7106320979866265,-0.16017014936796706,0.036294387667430685,0.6841273726334994,0,-1,0.03621558099985123,-1.5881503264056605,-0.30438310304750615,-1.5053556601153772,0.2483944147825241,0.0788041427731514
2060,1734172119,16104221,-0.25391305127276187,0.24415673398400206,1.3876578338742689,-0.710758591675597,-0.16280308216191006,0.036827006416677105,0.6833455585545943,0,-1,0.03682602569460869,-1.588437859212057,-0.3095667997943323,-1.5042765776263636,0.2525038719177246,0.08014562726020813
2076,1734172119,32396554,-0.25795006232141865,0.24376318963296845,1.3863411260026104,-0.7108807047872212,-0.1654295483583894,0.03735336965199674,0.6825587255810334,0,-1,0.03742411360144615,-1.5887258688556116,-0.31470233598818,-1.5032451788531702,0.25658974051475525,0.08145079016685486
2092,1734172119,48319339,-0.26204913284401476,0.24335801650271627,1.384992156069248,-0.7109995402032985,-0.16807001047394124,0.03786181697453505,0.6817614012434073,0,-1,0.038022950291633606,-1.589013401662008,-0.3198140303241175,-1.5021541754352015,0.2607235610485077,0.08274433761835098
2108,1734172119,64462423,-0.26602197472626055,0.24294966003047322,1.3836536445614982,-0.7111233472228098,-0.1706859622006221,0.03843905138420837,0.6809495771868553,0,-1,0.038681335747241974,-1.5892780462848108,-0.32478124300111944,-1.5010994116412562,0.2649049460887909,0.08407383412122726
2124,1734172119,80217599,-0.26999655648025556,0.24254098783338301,1.3823024955488972,-0.7112498402166803,-0.1732864380278358,0.0390103155742535,0.6801276868839917,0,-1,0.03929140418767929,-1.5896013418780726,-0.3297970930682581,-1.500080410634176,0.26895448565483093,0.08535539358854294
2140,1734172119,96500873,-0.27391266735407555,0.2421244375311139,1.380942002251465,-0.7113738747799776,-0.17584715031854464,0.039567830794741354,0.6793080131807416,0,-1,0.03990185260772705,-1.5898411909686487,-0.33476478258241826,-1.4989412466632288,0.2730283737182617,0.08666055649518967
2156,1734172119,112211942,-0.27782415117196996,0.2417043485214448,1.3795658649247293,-0.7114997017065646,-0.17844150443304235,0.04017783675468121,0.6784633707141869,0,-1,0.04052390903234482,-1.5901172796832483,-0.33970910707582647,-1.4978259245501917,0.2771857678890228,0.08790616691112518
2172,1734172119,128496885,-0.2817103741583432,0.24128020129905509,1.3781721320064162,-0.7116254493172033,-0.18096330172474534,0.04074868189563273,0.6776289901094372,0,-1,0.04106244817376137,-1.5903328100787562,-0.34476024309267217,-1.4967110792743128,0.281307578086853,0.08923566341400146
2188,1734172119,144195795,-0.2856484442334039,0.2408518401604973,1.376734942527923,-0.7117589464796648,-0.18353777554115633,0.041307172735747806,0.6767619999203124,0,-1,0.041720833629369736,-1.5906208197223108,-0.3497880140887659,-1.4956205526935022,0.28535714745521545,0.09052883833646774
2204,1734172119,160491466,-0.2895410824740911,0.24041239940053669,1.3752899791341433,-0.7118863000352492,-0.1860858047696406,0.041830472725861975,0.6758995344257083,0,-1,0.042319294065237045,-1.590860668812887,-0.3548038641559046,-1.4945052305804651,0.289419025182724,0.09179841727018356
2220,1734172119,176231145,-0.29342195747537814,0.23998106423589957,1.373827264771938,-0.7120198751388706,-0.18865776477788393,0.04236457189044072,0.6750119911859193,0,-1,0.04294172674417496,-1.5911720434771937,-0.35981923738588506,-1.4934266249286097,0.2935648262500763,0.09306762367486954
2236,1734172119,191956520,-0.29736543554637584,0.23951175016381268,1.3723344207111747,-0.7121560161109698,-0.19125450490148577,0.042981612856276094,0.6740979928972589,0,-1,0.04350423440337181,-1.5915082136737269,-0.36483508745302373,-1.492335621510641,0.2977345883846283,0.09440910816192627
2252,1734172119,208231210,-0.3012989520897035,0.2390654971587397,1.370808178737147,-0.7122961853147846,-0.1938063627981986,0.0434551255908185,0.6731900847344866,0,-1,0.044114306569099426,-1.5918081442462366,-0.36987477937807256,-1.491220776234762,0.30182045698165894,0.0957266241312027
2268,1734172119,224514245,-0.3051983490568956,0.2386032976199269,1.3692678526842483,-0.712440923768411,-0.19639442644833704,0.0440167953494908,0.6722497163459448,0,-1,0.044724754989147186,-1.5920961538897913,-0.37498552003969365,-1.4901893774615687,0.3059782385826111,0.09697223454713821
2284,1734172119,240283966,-0.30922531843417983,0.2381242674165332,1.3676735495994736,-0.7125813554109065,-0.19900433342261914,0.04450871588466499,0.6713002766348846,0,-1,0.04529962316155434,-1.592407528554098,-0.38004905382265264,-1.4890864531146448,0.3100877106189728,0.0982893705368042
2300,1734172119,256555080,-0.3130991294258013,0.23765634303846314,1.3660875448286538,-0.7127269019723755,-0.20158501662502964,0.045007468044334246,0.6703418322746868,0,-1,0.04587411507964134,-1.5926955381976526,-0.3851125876056116,-1.4880073706256312,0.314209520816803,0.09960688650608063
2316,1734172119,272256374,-0.31698260845525666,0.23717168094261987,1.3644968163483737,-0.7128698009867949,-0.20414250702332712,0.04553318308646603,0.6693797225083028,0,-1,0.04650815576314926,-1.5929949919330042,-0.3900564352618616,-1.4869406859027308,0.318295419216156,0.1008644849061966
2332,1734172119,288635969,-0.32083352914169927,0.23669449018284408,1.3628936200420996,-0.7130136430829032,-0.20666803109726434,0.04603703170421968,0.6684163832611311,0,-1,0.04713058844208717,-1.5932710806476038,-0.395059887562887,-1.4858611265765589,0.32236966490745544,0.10213406383991241
2348,1734172119,304355382,-0.3246256649083541,0.23621242240788126,1.3612848648640514,-0.7131621931040811,-0.20919726693776358,0.04657107033077868,0.6674333863697508,0,-1,0.047716692090034485,-1.5935710112201136,-0.4000752607928675,-1.4847944418536585,0.32656338810920715,0.10337967425584793
2364,1734172119,320508241,-0.3284935509636141,0.2357209600330627,1.3596264866743397,-0.713309291014651,-0.2117590961968778,0.047064452369748336,0.6664329507558827,0,-1,0.048327136784791946,-1.5938828627215784,-0.40510303178896123,-1.483703915272848,0.33063727617263794,0.10474512726068497
2380,1734172119,336436510,-0.3323619683636666,0.235210165524935,1.3579419143902736,-0.7134598430556448,-0.21428833947081072,0.047566422991790674,0.6654269271059169,0,-1,0.04891398921608925,-1.594147030507223,-0.4101298491107386,-1.4825766722308558,0.3347111642360687,0.10599035769701004
2396,1734172119,352440357,-0.33616294094907384,0.23472098764064522,1.3562540151509404,-0.7136164355060607,-0.2168085555476107,0.04807230431966793,0.6644055138049203,0,-1,0.04954765737056732,-1.5944584051715296,-0.4151695410357874,-1.4814618269549769,0.3387255072593689,0.10727192461490631
2412,1734172119,368170261,-0.34002430897684305,0.23419452974467123,1.3545422478031544,-0.7137689978330334,-0.21932968182329793,0.04857658899151129,0.6633766828926593,0,-1,0.05009855702519417,-1.5947583357440394,-0.4201253096209925,-1.4804065863238733,0.3428836762905121,0.10857745260000229
2428,1734172119,384448051,-0.3438097328678334,0.2336830876876306,1.352827849581432,-0.7139302782004961,-0.2218333808986724,0.04910018157419374,0.6623312473053101,0,-1,0.050744954496622086,-1.5950821081744593,-0.4251287619220179,-1.4793275038348597,0.3469815254211426,0.10991893708705902
2444,1734172119,400145053,-0.34757799146800505,0.23316338606783776,1.3510961854912298,-0.7141037810459172,-0.22428680068943396,0.04965669754077277,0.6612756107114242,0,-1,0.0513550266623497,-1.5954178015338343,-0.43014413515199834,-1.4782488981830042,0.3510673940181732,0.11135592311620712
2460,1734172119,416420698,-0.35141433208634676,0.23260629510846803,1.34932134318413,-0.7142568600629078,-0.2268358214805183,0.05015988966554599,0.6602019641102822,0,-1,0.051929522305727005,-1.5956934134112757,-0.4352191130267542,-1.4771936575519007,0.35523751378059387,0.11261351406574249
2476,1734172119,432179450,-0.355209709502414,0.23207776535499217,1.3475089780548895,-0.7144242480176767,-0.2294018339442306,0.05064387260162871,0.6590963439401791,0,-1,0.05257591977715492,-1.5959814230548304,-0.4403184095965784,-1.4761384169207972,0.35937172174453735,0.11393103003501892
2492,1734172119,448453426,-0.35897322694206146,0.23153327271094043,1.3457021431136906,-0.7145865816235033,-0.23188927495428885,0.05113868004046338,0.6580108030484983,0,-1,0.05318599194288254,-1.59625751176943,-0.4453938643084925,-1.4750478903399866,0.3633980453014374,0.11518862843513489
2508,1734172119,464152812,-0.36274831220200365,0.23099485681099743,1.3438687378456713,-0.7147539558478383,-0.2343950757004152,0.05157202740987158,0.6569064294677732,0,-1,0.053796812891960144,-1.5965569655047815,-0.45028955141176397,-1.4740522543536585,0.36753183603286743,0.11651775240898132
2524,1734172119,480438947,-0.36644838687976056,0.23042960828078085,1.3420538266637876,-0.714920712887118,-0.23690142661087224,0.05212222722827675,0.6557814893571426,0,-1,0.0543832890689373,-1.5968449751483362,-0.4552806059466761,-1.472961727772848,0.3716900050640106,0.1178232878446579
2540,1734172119,496179342,-0.37013386285299615,0.22987785810637612,1.3402124672293483,-0.7150886464697239,-0.2393906473036593,0.0526171713930114,0.6546539383126262,0,-1,0.05501732975244522,-1.5971205870257776,-0.46029645601381475,-1.4719308058368128,0.375800222158432,0.11909248679876328
2556,1734172119,512458801,-0.3737948451119971,0.22931366070229942,1.3383643783151253,-0.7152501269515756,-0.2418697107978698,0.05311873311665963,0.653524826679439,0,-1,0.05563976243138313,-1.5973847548114222,-0.4654191176043909,-1.4708274046527308,0.3798624873161316,0.12039802223443985
2572,1734172119,528159856,-0.3775602418065197,0.22875639705996526,1.336411868045586,-0.7154338810890001,-0.24436251682465832,0.0535290905592936,0.6523618310607571,0,-1,0.05622623860836029,-1.5976365248309534,-0.4705422560321253,-1.4697726408587855,0.3839367628097534,0.12170355021953583
2588,1734172119,544429063,-0.3813376022292712,0.22818115161889024,1.3344620543549717,-0.7156083584065597,-0.2468967096946969,0.05396608930243425,0.6511792021602064,0,-1,0.05677676573395729,-1.5979121367083948,-0.47556955019106084,-1.468682114277975,0.3880825340747833,0.12299709767103195
2604,1734172119,560190439,-0.3849710535912108,0.22761448027842923,1.332541649642103,-0.7157852985650364,-0.2493472647722058,0.05443648852570558,0.6500107819304014,0,-1,0.05738721042871475,-1.5982006231891077,-0.48065692583193,-1.4676383177386683,0.39210885763168335,0.12426667660474777
2620,1734172119,576461791,-0.38864442633947116,0.22703762453603477,1.3305819658987346,-0.7159634674620416,-0.25178505877135593,0.05487799579125327,0.6488366535709661,0,-1,0.057985298335552216,-1.5985119978534144,-0.48565990129579717,-1.4664881865130823,0.3962434232234955,0.1255958080291748
2636,1734172119,592171192,-0.39227115363432385,0.2264490696892269,1.328628038227602,-0.7161383109643311,-0.2542546439710911,0.05537081501657717,0.6476376829931135,0,-1,0.05860773101449013,-1.5988119284259241,-0.4906514326678675,-1.4654091040240687,0.400341659784317,0.12686538696289062
2652,1734172119,608429193,-0.3959628632129152,0.22587863452824222,1.3266170487405171,-0.7163318901519229,-0.2566879302026847,0.05583079852447752,0.6464231211642683,0,-1,0.05914627015590668,-1.5990517775165003,-0.4957383314715784,-1.4642942587481897,0.4044279158115387,0.12815892696380615
2668,1734172119,624731063,-0.39951397055187776,0.22529552267041153,1.3246321740780094,-0.7165041356075713,-0.25905870938039366,0.0561743344146574,0.6452556492619667,0,-1,0.05973312258720398,-1.5993154684649866,-0.5008500258075159,-1.463203255330221,0.40839430689811707,0.12951239943504333
2684,1734172119,640499353,-0.40317654063428526,0.22470415680152084,1.3225818521306352,-0.7166980260051886,-0.26153337811893523,0.05663827408337097,0.6440002620797767,0,-1,0.06029525771737099,-1.5995672384845179,-0.5058768431292933,-1.4621122519122522,0.41246894001960754,0.130793958902359
2700,1734172119,656018495,-0.4067476665881218,0.2240952981568189,1.3205438411437878,-0.7168764006859414,-0.26396439801405636,0.0570722543106955,0.6427703948600478,0,-1,0.06090570613741875,-1.5998428503619593,-0.5108802954303187,-1.4610217253314417,0.4165551960468292,0.13207551836967468
2716,1734172119,672331809,-0.41027064690860005,0.22350196533675118,1.3185228297819365,-0.7170652909388315,-0.2663801976536777,0.057572297631100916,0.6415172557104544,0,-1,0.06148019805550575,-1.6000950972186487,-0.515787426625387,-1.459954563771383,0.42070135474205017,0.13333311676979065
2732,1734172119,687904596,-0.41379579598206223,0.22287677060109867,1.3164846993187098,-0.7172487890736968,-0.268796545682436,0.05807014507425205,0.6402581118990691,0,-1,0.062078285962343216,-1.6003592650042933,-0.5207069555865687,-1.458827320729391,0.42477598786354065,0.13457873463630676
2748,1734172119,703990697,-0.41724695827866487,0.2222964583127941,1.314445697280987,-0.7174385412875677,-0.27114443487565093,0.05851336924810889,0.6390139439248297,0,-1,0.06265315413475037,-1.6006467978106897,-0.525710407887594,-1.4577844778644007,0.42889857292175293,0.1358359456062317
2764,1734172119,720373868,-0.42078938806624944,0.22167459101594936,1.3123292176787833,-0.717625914089964,-0.27358953700106187,0.05891270633670578,0.6377233771018381,0,-1,0.06326323002576828,-1.6008628050433558,-0.530797306691305,-1.4566815535174769,0.43294885754585266,0.13716545701026917
2779,1734172119,736120462,-0.4243259396032263,0.22103613365395658,1.3101846116837568,-0.7178256963960157,-0.27602574497859167,0.05935377007380186,0.6364064642039825,0,-1,0.06389763951301575,-1.6011503378497522,-0.5358484427081507,-1.4556506315814417,0.43709540367126465,0.13842304050922394
2796,1734172119,752288818,-0.4278226139346732,0.22040208324157257,1.3080549741238718,-0.718018026938413,-0.27840513288673513,0.05979693846737901,0.6351102432835706,0,-1,0.06447213888168335,-1.6013787428485315,-0.5409353415118616,-1.454559628163473,0.44113409519195557,0.13977614045143127
2812,1734172119,768831253,-0.4313687150941349,0.21976918218108005,1.3058798859462601,-0.7182228378812241,-0.2807843148477826,0.06020911480825994,0.6337909641003949,0,-1,0.06508220732212067,-1.6016901175128382,-0.5459263960467737,-1.4534686247455042,0.44519636034965515,0.14118953049182892
2828,1734172119,784384965,-0.4348672809563773,0.21912144913579673,1.3037044311608836,-0.7184353447843379,-0.28316378691465943,0.060664157253859326,0.6324466658694929,0,-1,0.06570501625537872,-1.6019895712481897,-0.5509651342975062,-1.452437702809469,0.4494028389453888,0.14257894456386566
2844,1734172119,800768136,-0.4383703280268981,0.2184450210396724,1.3015059555797943,-0.7186394429654229,-0.28555586349547074,0.061174229827791235,0.631088673201064,0,-1,0.06630347669124603,-1.6022895018206995,-0.5560167471515101,-1.4512389341937464,0.45351341366767883,0.1439080685377121
2860,1734172119,816017389,-0.44189462513352823,0.21779643082974612,1.2992611187834582,-0.7188411420841568,-0.287951127586589,0.0615513833211917,0.6297324731820687,0,-1,0.06691354513168335,-1.6025775114642542,-0.561103645955221,-1.4502318541156214,0.4576120376586914,0.14516566693782806
2875,1734172119,832048892,-0.44538146832099024,0.21713956291339692,1.2970022163234352,-0.7190549235091447,-0.2903186857185693,0.06195084901403978,0.6283607005584773,0,-1,0.06755994260311127,-1.6028059164630335,-0.5661905447589319,-1.4491646925555628,0.4616263508796692,0.1465071588754654
2891,1734172119,848625183,-0.4488156543632563,0.21646465405081675,1.2947617934441675,-0.7192467196554323,-0.29270657865611643,0.06236376794756349,0.6269910489980802,0,-1,0.06813444197177887,-1.60309344926943,-0.5711935202227991,-1.448050324116842,0.46573731303215027,0.1477767378091812
2908,1734172119,864083290,-0.45222549137223433,0.2158063527633146,1.2925142588896796,-0.7194524985584514,-0.2950662107847815,0.06276861138347718,0.6256070132248379,0,-1,0.06876847892999649,-1.6033814589129847,-0.5761130491839808,-1.4469831625567835,0.4698958396911621,0.1490582972764969
2924,1734172119,880335330,-0.4556480428210211,0.21512103459097082,1.290244681391043,-0.7196504379808406,-0.297430196952553,0.06318635414451232,0.6242163164357962,0,-1,0.06942686438560486,-1.6036689917193812,-0.581127945576803,-1.4458678404437464,0.4739465117454529,0.15031589567661285
2940,1734172119,896224498,-0.45901201672597897,0.21443396018825323,1.287987014102023,-0.7198527824478679,-0.2997651134455374,0.06362553063861949,0.6228199099370545,0,-1,0.06997738778591156,-1.6039565245257776,-0.5860713163958948,-1.4448016325580042,0.47804513573646545,0.15163341164588928
2956,1734172119,912439584,-0.46239080092500434,0.21376582494772767,1.285671021552852,-0.7200726453851534,-0.3021010165642447,0.0640297074079418,0.6213940438466805,0,-1,0.07057584822177887,-1.6042206923114222,-0.5910981337176722,-1.4437344709979456,0.48214372992515564,0.15295054018497467
2972,1734172119,928490638,-0.46577628000136456,0.21310956522690538,1.2833096976537888,-0.7202905801990771,-0.3044504602183863,0.06436220113012585,0.6199587925136436,0,-1,0.07116232812404633,-1.6044963041888636,-0.5962331930743616,-1.442667309437887,0.48624271154403687,0.15419578552246094
2988,1734172119,944757699,-0.46918597487258856,0.21241445760242061,1.2809329377114014,-0.7205031553639129,-0.30682644447440627,0.0646939829748838,0.6185041832103361,0,-1,0.07174843549728394,-1.6047962347613733,-0.6012957731830042,-1.4416125456439417,0.49029338359832764,0.1554773449897766
3004,1734172119,960360765,-0.47251557484702217,0.21172580359510978,1.278570299054772,-0.7207155812972807,-0.30914809730523696,0.06506361721120493,0.6170601514627794,0,-1,0.07231131941080093,-1.605096165333883,-0.6063106695758265,-1.4405816237079065,0.4943919777870178,0.15681883692741394
3020,1734172119,976398706,-0.4759280778224842,0.21101968424072953,1.2761586755943999,-0.7209398539031774,-0.31151698073858614,0.06545259039062311,0.6155638522336556,0,-1,0.07287382334470749,-1.6053960959063929,-0.6112898031817835,-1.4395507017718714,0.4986228048801422,0.15811237692832947
3036,1734172119,992377281,-0.47928713571953196,0.21032399232839122,1.273752011519661,-0.721157595300474,-0.3138781640857159,0.06582149818530704,0.614068197537749,0,-1,0.0735078677535057,-1.605743710194723,-0.6162570158587855,-1.4384482542621058,0.5027093887329102,0.15936997532844543
3052,1734172120,8155822,-0.48256718347595207,0.20962392932292756,1.271345203284738,-0.721373780194043,-0.31617470138580134,0.06617125169359822,0.6125967620722937,0,-1,0.07413029670715332,-1.6060193220721644,-0.6212599913226526,-1.437392536793844,0.5068566799163818,0.16068749129772186
3068,1734172120,24499177,-0.4858827674440911,0.20894713618620087,1.2688922145773371,-0.7216159530148398,-0.31844936366622456,0.0665151735430141,0.6110942241779116,0,-1,0.07468082010746002,-1.606295410786764,-0.6263950506793421,-1.4362662474261683,0.5109073519706726,0.1620050072669983
3084,1734172120,40543794,-0.48920153042777137,0.2082238918483294,1.266417284533277,-0.7218354735622721,-0.32078526616144326,0.06687054197053138,0.6095725491993794,0,-1,0.07526730000972748,-1.6065591017352503,-0.631505314503805,-1.4351514021502894,0.515053927898407,0.1632266491651535
3100,1734172120,56062221,-0.4925335930813747,0.2075010475141682,1.263905657265028,-0.7220505529194876,-0.3231318774366119,0.06718182790084481,0.6080422607128997,0,-1,0.07586576044559479,-1.6068828741656702,-0.6365683714496058,-1.4340842405902308,0.5191169381141663,0.16449622809886932
3116,1734172120,72241067,-0.49580313536148996,0.20675056119250804,1.2614361131186769,-0.7222569680507301,-0.32543398824635766,0.0675530563948768,0.6065263192706042,0,-1,0.076499804854393,-1.60718280473818,-0.6414998213397425,-1.432981316243307,0.5231679677963257,0.1657538264989853
3132,1734172120,88117361,-0.4989828054780098,0.2060489806666687,1.25898554287111,-0.7224834646786843,-0.3276689064610015,0.0679033728001253,0.6050122833190272,0,-1,0.07712223380804062,-1.607507054005758,-0.6463950316058558,-1.431866470967428,0.5272905826568604,0.16701140999794006
3147,1734172120,104413509,-0.5022007942354123,0.20530161460020324,1.2565122985866573,-0.72270437711754,-0.32993287682195305,0.06829899915694722,0.6034715625456577,0,-1,0.07767313718795776,-1.6077945868121546,-0.6513741652118128,-1.4307759443866175,0.5313539505004883,0.16831694543361664
3163,1734172120,120616912,-0.505480567523821,0.20455212791979221,1.253940255651324,-0.7229274645018242,-0.3322236144981935,0.0686089485508175,0.6019104279022508,0,-1,0.07829519361257553,-1.6081064383136194,-0.6564844290362757,-1.4296730200396937,0.5353926420211792,0.16962172091007233
3180,1734172120,136113405,-0.5086897336467752,0.20382167700210416,1.2513801857114617,-0.7231654538907015,-0.3344700283204364,0.06891075357006016,0.6003439301740199,0,-1,0.078929603099823,-1.608393971120016,-0.6615117231952112,-1.428605858479635,0.5394796133041382,0.17096321284770966
3196,1734172120,152304410,-0.5119023241316597,0.2030522063024837,1.2487946182222125,-0.7233879254058179,-0.33676716112177046,0.06924811562364798,0.5987507720659944,0,-1,0.07956402003765106,-1.608729664479391,-0.6665743033038538,-1.4274910132037562,0.5436629056930542,0.17229270935058594
3212,1734172120,168722867,-0.515100139724065,0.20230564512145405,1.2462023926159322,-0.7236427870645211,-0.33899963644998876,0.0696320906139137,0.5971362785604333,0,-1,0.08015012741088867,-1.6090057531939905,-0.6715653578387659,-1.4264243284808558,0.5478693246841431,0.17365816235542297
3228,1734172120,184333324,-0.518249279360872,0.201539648541535,1.243624465890873,-0.723888593118659,-0.3412400539805454,0.07002432449469169,0.5955141680019922,0,-1,0.08077255636453629,-1.6093171278582972,-0.6765683333026331,-1.425345245991842,0.5519686937332153,0.1749756783246994
3244,1734172120,200695753,-0.5214308769171261,0.2007680498202264,1.2409920469434115,-0.724119670999457,-0.343519641058829,0.07033609449153275,0.5938836519808656,0,-1,0.0813586562871933,-1.6095812956439417,-0.6815956274615687,-1.4243148008929651,0.5561276078224182,0.17629319429397583
3260,1734172120,216494560,-0.5245648829614076,0.20001119022498182,1.238362549827635,-0.7243687955650128,-0.3457535499436909,0.07068884106972635,0.5922393253248617,0,-1,0.0819694772362709,-1.6098931471454065,-0.6866582075702112,-1.4232237974749964,0.5602748990058899,0.17763468623161316
3276,1734172120,232636451,-0.5276448990368993,0.19924167412603583,1.2357182931583615,-0.7246006080885036,-0.34798342826980627,0.07097825848306175,0.5906128844091323,0,-1,0.08257992565631866,-1.610145394002096,-0.6917689482318323,-1.4221447149859827,0.5643615126609802,0.1789282262325287
3292,1734172120,248463153,-0.5307637367621018,0.19848550717553815,1.2330315549259723,-0.7248457164883267,-0.35021664174827355,0.07125448968589075,0.5889565254165107,0,-1,0.08320198208093643,-1.6104090849505823,-0.69684344926943,-1.421053711568014,0.5684372782707214,0.18020941317081451
3308,1734172120,264786720,-0.5338513224206106,0.1977220578610263,1.2303462088545065,-0.7250872874566191,-0.3524379111558778,0.07152692681890302,0.5872987681655112,0,-1,0.08376449346542358,-1.6106489340411585,-0.7018230597125452,-1.41992694536318,0.5725718140602112,0.18144303560256958
3324,1734172120,281010389,-0.5369042848264793,0.1969322548462759,1.2276843271655338,-0.7253092117867467,-0.3546455504748531,0.07184187968533598,0.5856550393780917,0,-1,0.0843869224190712,-1.6109607855426233,-0.706801716481344,-1.4188359419452112,0.5766112804412842,0.18274857103824615
3340,1734172120,296129703,-0.5398903754955698,0.19617088892044415,1.2250312405231802,-0.7255701248868984,-0.35680047716089663,0.072191408462097,0.583977579975144,0,-1,0.08497302234172821,-1.611260239277975,-0.7118046919452112,-1.417781178151266,0.5806626677513123,0.18404175341129303
3355,1734172120,312095642,-0.5428497480177877,0.19540645540836452,1.2223632027111935,-0.725819212151512,-0.35892815287217633,0.07249667465604032,0.5823240373806856,0,-1,0.08558384329080582,-1.6115244070636194,-0.7168195883380335,-1.416666332875387,0.5847377181053162,0.18538323044776917
3371,1734172120,328083753,-0.5458986312558455,0.19462101493815176,1.2195952623591608,-0.7260596839574419,-0.36114560019710357,0.07272594545353671,0.5806221901096982,0,-1,0.08615796267986298,-1.611811939870016,-0.7218583265887659,-1.4156115690814417,0.5888609886169434,0.1866767853498459
3387,1734172120,344196319,-0.5489061921020653,0.19381920701519068,1.2168519827532627,-0.7263079175152212,-0.3633322584362762,0.07302199026310673,0.5789078232951361,0,-1,0.08674444258213043,-1.6121123472796839,-0.7269094626056116,-1.4144848028766077,0.5929839611053467,0.1879703253507614
3404,1734172120,360365629,-0.5518367360866933,0.1930381013482253,1.2141004873112622,-0.7265634933809645,-0.3654883211903302,0.07331709518203763,0.5771900732978618,0,-1,0.08734328299760818,-1.6123397986041468,-0.7319119612323206,-1.4134181181537073,0.5971072912216187,0.18931181728839874
3419,1734172120,376365661,-0.5547645927081033,0.19226518175816668,1.2113671164786444,-0.7268197505864905,-0.3676231988959064,0.0736124862651248,0.5754714898731295,0,-1,0.08796495944261551,-1.6126154104815882,-0.7368076483355921,-1.4123509565936487,0.6012186408042908,0.19058139622211456
3435,1734172120,392300367,-0.5576434666976289,0.1914606316400504,1.208636737817031,-0.7270660316376243,-0.369766042847333,0.07392046156827532,0.5737454353258721,0,-1,0.08857578039169312,-1.6128795782672327,-0.7417624632464808,-1.4112842718707483,0.6053415536880493,0.1918865442276001
3452,1734172120,407819747,-0.5605630134719386,0.19064150875551622,1.2058564719770064,-0.7273138764208766,-0.3719158406881807,0.0742041510059089,0.5720025144912686,0,-1,0.08917424827814102,-1.613131348286764,-0.7468131224261683,-1.4102290312396448,0.6094892621040344,0.19316810369491577
3468,1734172120,423776626,-0.5634567776611298,0.18985075704106869,1.203036918845613,-0.7275708822155831,-0.3740691531605128,0.0744527637774217,0.5702365000346071,0,-1,0.08974836766719818,-1.6133831183062952,-0.7519715468036097,-1.4091265837298792,0.6135163307189941,0.1944856196641922
3484,1734172120,440942287,-0.5664279954974181,0.18905267015324512,1.200100558441814,-0.7278326044217669,-0.37625900360948267,0.0745779260276564,0.5684426049240507,0,-1,0.0903707966208458,-1.6136348883258265,-0.7571895758258265,-1.4081676642047327,0.6176280379295349,0.19571925699710846
3500,1734172120,456730127,-0.5693511419274245,0.18822204147630223,1.197215789651745,-0.7280861933481033,-0.37843085276739075,0.0748238778407809,0.5666409551333911,0,-1,0.09098124504089355,-1.6139467398272913,-0.7622283140765589,-1.4070647398578089,0.621739387512207,0.197012796998024
3516,1734172120,471971988,-0.5721878829226847,0.18739973321884096,1.1943794256473104,-0.7283264323839757,-0.38055582688657974,0.07506281935885425,0.5648747150151098,0,-1,0.09160367399454117,-1.614222828541891,-0.7672198454486292,-1.4059856573687952,0.6258986592292786,0.19831833243370056
3532,1734172120,487950086,-0.5750656337088711,0.18655722533245944,1.1915066564961183,-0.7285811790349667,-0.3826931884098735,0.07532433521699833,0.5630645021885329,0,-1,0.09223809093236923,-1.6145466009723108,-0.7721503416644495,-1.4048946539508265,0.6299500465393066,0.19958791136741638
3548,1734172120,504209995,-0.577835452696822,0.18576068226534853,1.1886799267088592,-0.7288406678031506,-0.3846684397428832,0.07549588491773597,0.5613571445902521,0,-1,0.0928361788392067,-1.6148107687579554,-0.7770698706256312,-1.4037922064410608,0.6339295506477356,0.20091740787029266
3564,1734172120,520037412,-0.580584569840319,0.18491421443120626,1.1858219558481122,-0.7290986696716979,-0.38679057620895074,0.07583189974597666,0.5595155967618992,0,-1,0.09342265129089355,-1.6150620619403284,-0.7821443716632288,-1.4026654402362269,0.6380771994590759,0.20224690437316895
3580,1734172120,536563873,-0.5833896338316038,0.18409750285019122,1.1828955164183377,-0.729366894476188,-0.3889012967213562,0.07604926853228917,0.557670353709351,0,-1,0.09403309971094131,-1.6153019110309046,-0.7872193495379847,-1.4015863577472132,0.6422005295753479,0.203623965382576
3595,1734172120,552457571,-0.5861386150527361,0.1832664767124641,1.179968951263314,-0.7296525008606696,-0.39092527452199044,0.07630113426262768,0.5558442179585154,0,-1,0.09457164257764816,-1.615554157887594,-0.7923539320575159,-1.4004715124713343,0.646228015422821,0.20501339435577393
3611,1734172120,568226337,-0.5888721700955458,0.18245905954154396,1.1770510671216206,-0.7299298643674719,-0.3929528405787727,0.07652518168862349,0.55401656541396,0,-1,0.09520605951547623,-1.6158416906939905,-0.7972491423236292,-1.399428669606344,0.6503992676734924,0.20630693435668945
3627,1734172120,584450721,-0.5916293915567938,0.18161145326124356,1.1741090295198293,-0.7302057510257027,-0.3950119967705,0.07679823944789359,0.5521477284152095,0,-1,0.09581612795591354,-1.6161416212665003,-0.802227799092428,-1.398254696522848,0.6544510722160339,0.20760048925876617
3644,1734172120,600212812,-0.5943030538960875,0.18079485482476898,1.1711915070484522,-0.7304707945540374,-0.39699941979619074,0.07698144799095541,0.5503432889118361,0,-1,0.09634306281805038,-1.6164410750018519,-0.8072064558612269,-1.3971989790545862,0.6584548950195312,0.2089056372642517
3660,1734172120,615723609,-0.5970095205021645,0.17998457609751375,1.1682173717297286,-0.7307403237561195,-0.399039573215404,0.07714142754371206,0.5484844559341568,0,-1,0.09697747230529785,-1.616680924092428,-0.812329117451803,-1.3961084524737757,0.6625063419342041,0.21017560362815857
3675,1734172120,631823778,-0.5997398395244271,0.1791538325110837,1.1651754185928924,-0.7310214136821049,-0.4010742522837529,0.07729512317727555,0.5466009520905128,0,-1,0.09752762317657471,-1.6169574896441858,-0.8174756209002894,-1.3950417677508753,0.6666539907455444,0.21151670813560486
3692,1734172120,647804260,-0.6024174528212023,0.1782672244537017,1.1621574945374475,-0.7312791338495236,-0.4031725304044116,0.07751366569755772,0.5446782268034234,0,-1,0.09820997714996338,-1.6172331015216272,-0.82251483598818,-1.3939631620990198,0.6707773208618164,0.21277430653572083
3708,1734172120,663846492,-0.6051274150840827,0.1774281588190449,1.159075398646553,-0.731553944623045,-0.4052318906172039,0.07762873007057361,0.5427612008986082,0,-1,0.09874814003705978,-1.6175926367389124,-0.8275654951678675,-1.3929198423968714,0.6748530864715576,0.21407945454120636
3723,1734172120,679914951,-0.6077728721802343,0.176589753224273,1.1560703175674603,-0.7318381933675179,-0.4072295388049948,0.07781946780582653,0.5408521904214278,0,-1,0.09935858845710754,-1.6179044882403772,-0.8324244658099573,-1.391841236745016,0.6790127158164978,0.21538498997688293
3740,1734172120,695863485,-0.6103792830208506,0.17571267183201736,1.1530710370552324,-0.7321040510437983,-0.4092476988848713,0.07805422472455446,0.5389318300168826,0,-1,0.0999574288725853,-1.618216339741842,-0.8374035994159144,-1.3907626310931605,0.6831244230270386,0.2166665494441986
3756,1734172120,711866378,-0.6129182667564319,0.17485577317670364,1.150083259239847,-0.7323717577200181,-0.4112283860201848,0.07826850696154959,0.5370259433615238,0,-1,0.10057948529720306,-1.6184800306903284,-0.8424304167376917,-1.3896353880511683,0.6872481107711792,0.21794810891151428
3772,1734172120,727778911,-0.6155731175800585,0.173965482894559,1.1469549782971262,-0.732636347897381,-0.41328132364451675,0.07841881854388634,0.5350635646018191,0,-1,0.10117794573307037,-1.618767563496725,-0.8475168387042444,-1.3885687033282679,0.6913118958473206,0.2192896008491516
3787,1734172120,743753433,-0.618159352563489,0.17310694384930525,1.1438404656391092,-0.7329267720754932,-0.4152462343913467,0.07853332439707922,0.5331242149423976,0,-1,0.10177603363990784,-1.6190436522113245,-0.8526395002948206,-1.3874419371234339,0.6953996419906616,0.22058314085006714
3803,1734172120,760318994,-0.6207534140002683,0.17224436942998173,1.1407090672902216,-0.7331948221242497,-0.4172595932373276,0.07866111964375899,0.531161192970646,0,-1,0.1024104505777359,-1.6193555037127894,-0.8575943152057093,-1.3863871733294886,0.6995233297348022,0.2218167781829834
3819,1734172120,776276826,-0.6232673506305364,0.17137175926238388,1.1376464485106106,-0.733467463932096,-0.41923060345414004,0.07883150310348229,0.5292039064471677,0,-1,0.10300928354263306,-1.6196678320514124,-0.862525765095846,-1.3853204886065882,0.7036230564117432,0.22312192618846893
3836,1734172120,791875839,-0.6257947527320583,0.1705232221646223,1.134546236674544,-0.7337489168759265,-0.421150303365938,0.07893610903376924,0.5272703667463132,0,-1,0.10363133996725082,-1.6199911276446741,-0.8675521055804651,-1.384205166493551,0.7076389193534851,0.2244274616241455
3852,1734172120,808010816,-0.6283344851384937,0.16963431925594658,1.1314062990080207,-0.7340309015571909,-0.4230950445981048,0.0790826010045884,0.5252953083875909,0,-1,0.10421781986951828,-1.620314900075094,-0.8725550810443323,-1.3831384817706507,0.711738646030426,0.22570939362049103
3867,1734172120,823966979,-0.6308625167466387,0.1687548046718218,1.1282160190626773,-0.7342977660983083,-0.4250940894395346,0.07916795107272487,0.5232917363665832,0,-1,0.1048278883099556,-1.6206029097186487,-0.8776901404010218,-1.382036034260885,0.7158383727073669,0.2269190549850464
3883,1734172120,839968204,-0.6333898757333052,0.16783300197717815,1.1249776361309187,-0.7345621805853015,-0.4271281862325791,0.079238512672028,0.5212496268477884,0,-1,0.10543833673000336,-1.6209147612201136,-0.8828123251544397,-1.3809931913958948,0.7199504375457764,0.2281886339187622
3899,1734172120,855967283,-0.6358250163848779,0.1669862951087749,1.1218027726650919,-0.7348545717580472,-0.4290381292431346,0.0793367803359323,0.5192501490686124,0,-1,0.10600122064352036,-1.6212504545794886,-0.8878629843341272,-1.3799737135516565,0.7240142226219177,0.22947019338607788
3915,1734172120,872089624,-0.6382554441230773,0.16608244596495267,1.1186461213519807,-0.7351231183033259,-0.43099279719969463,0.0794530076810479,0.5172295711465197,0,-1,0.10663526505231857,-1.6214898268329065,-0.8927701155291956,-1.3789075056659144,0.7281503081321716,0.2307637482881546
3931,1734172120,888101577,-0.6406710938066457,0.16520329927690197,1.1154829733651366,-0.7354007298645969,-0.4329323693115261,0.07956415510686081,0.5151940171809624,0,-1,0.10722173750400543,-1.621826473866598,-0.897677246724264,-1.3778169790851038,0.7322975993156433,0.23202134668827057
3947,1734172120,904128074,-0.6430106455244443,0.16431481889082836,1.1123451360588172,-0.7356927313906668,-0.4347966396556792,0.07974465577041942,0.5131752887650836,0,-1,0.10782020539045334,-1.622077767048971,-0.902656380330221,-1.3767378965960901,0.7363976836204529,0.23335084319114685
3963,1734172120,920003414,-0.645348520676103,0.16344601173567563,1.1091340010577841,-0.7360004768433756,-0.4366673133239275,0.07985279541131107,0.5111247270733302,0,-1,0.1083827093243599,-1.6223300139056605,-0.9077308813678187,-1.3756831328021448,0.7404614686965942,0.23466798663139343
3979,1734172120,936029672,-0.6476684020674621,0.16259290454794395,1.105925610471214,-0.7362948702505603,-0.4385367032879873,0.07991789991814285,0.5090859978281548,0,-1,0.1089572086930275,-1.6225937048541468,-0.9128535429583948,-1.374580208455221,0.7445974946022034,0.23606938123703003
3995,1734172120,952090740,-0.6499798918503299,0.16167588933393062,1.1026959617255632,-0.7365950298726536,-0.4404143234242866,0.08008265833588471,0.5070007431192686,0,-1,0.10956727713346481,-1.622833553944723,-0.9179523626910608,-1.3734772841082972,0.7487695217132568,0.23738689720630646
4012,1734172120,968018293,-0.6522938422709883,0.1608261292086476,1.0994450410410974,-0.7369016577000373,-0.44224868028217423,0.0801181243329415,0.5049486486970567,0,-1,0.11017772555351257,-1.623181168233053,-0.9228594938861292,-1.3723986784564417,0.752821683883667,0.23870441317558289
4028,1734172120,984167575,-0.6545793872808957,0.15990701040021738,1.0962267976897506,-0.7371789342940249,-0.44413947599003745,0.08022518490548661,0.5028630672532048,0,-1,0.11077655851840973,-1.6234090963946741,-0.9278505484210413,-1.371307675038473,0.7569094300270081,0.24002192914485931
4043,1734172121,135660,-0.6568434452655606,0.1590098950234816,1.0929792829595577,-0.737474734420795,-0.44593516911640185,0.08032632396563606,0.5008198505593321,0,-1,0.1113986149430275,-1.6237686316119593,-0.9328292051898401,-1.3702166716205042,0.7609975337982178,0.24121960997581482
4059,1734172121,16340017,-0.6591596061197551,0.15810074958451664,1.089639484919582,-0.7377638409844646,-0.4478381269422255,0.08036439402488944,0.49868536289502313,0,-1,0.1119491383433342,-1.6240323225604456,-0.9379513899432581,-1.369138542805807,0.765109658241272,0.242584690451622
4076,1734172121,32023191,-0.6613869811513328,0.15717912561778577,1.0863329112802547,-0.7380513478274707,-0.44969586613490375,0.0804211288272243,0.49657454424223924,0,-1,0.11258318275213242,-1.6242731253253382,-0.9430745283709925,-1.368011776600973,0.7692217230796814,0.24386624991893768
4092,1734172121,48199892,-0.663572489428252,0.15629178800714677,1.0830427313622397,-0.7383382087346434,-0.45152051212988714,0.08046132736715685,0.4944814369081996,0,-1,0.11316966265439987,-1.6245487372027796,-0.9482091108905237,-1.366969410573141,0.7733098268508911,0.2451358288526535
4107,1734172121,64240694,-0.665760304319865,0.15538082382744103,1.07974671887845,-0.7386381360553498,-0.4533398881613579,0.0805285187886603,0.4923533359572477,0,-1,0.11381606012582779,-1.6248367468463343,-0.9531639258014124,-1.3659017721759241,0.777445912361145,0.24647732079029083
4124,1734172121,80657243,-0.6679212723512601,0.15446208336077802,1.0764728458559283,-0.7389322228989148,-0.4551386393938103,0.08061446964806117,0.4902339198543706,0,-1,0.11442650854587555,-1.6250880400287073,-0.9580948988543909,-1.3648112455951136,0.7814860939979553,0.24779482185840607
4140,1734172121,96135616,-0.6700130075869815,0.15357564298364657,1.0732424566515688,-0.7392358721030163,-0.4568781028383392,0.08069119200581239,0.4881410206852257,0,-1,0.11502496898174286,-1.6253398100482386,-0.962966267262594,-1.363708798085348,0.7855382561683655,0.2491363137960434
4155,1734172121,112076759,-0.6721213977918938,0.15266431922261003,1.0699397816050251,-0.7395226954959988,-0.4586576614719466,0.08076675405938243,0.4860206413910099,0,-1,0.11563503742218018,-1.6255677382098597,-0.9680889288531702,-1.3626297155963343,0.789674699306488,0.2504534423351288
4171,1734172121,128067731,-0.6742103903822426,0.15173397037247102,1.066584012573184,-0.7398267912935914,-0.46046228118594107,0.0807901668420611,0.4838426969903544,0,-1,0.11626945436000824,-1.625831429158346,-0.9731996695147913,-1.3616345564471644,0.7938706874847412,0.25173503160476685
4187,1734172121,144251823,-0.6763086842706767,0.15082159154076308,1.0631996027678858,-0.7401202476037623,-0.46226656269650734,0.08080175625223104,0.4816666069868833,0,-1,0.11690349876880646,-1.626035515462057,-0.9782984892474573,-1.3604720274554651,0.7979591488838196,0.25300461053848267
4203,1734172121,160270690,-0.6783932851071555,0.14989558189902064,1.0598130348497663,-0.7404132109945488,-0.4640472846264155,0.08080049333182075,0.4794994003050751,0,-1,0.11749035120010376,-1.6262992064105433,-0.9832776228534144,-1.3594415823565882,0.8020948171615601,0.25435805320739746
4220,1734172121,175850152,-0.6803972494868954,0.1489700721417243,1.0565348969950699,-0.7407257426166673,-0.4657677817671349,0.08089735560956603,0.477327314898371,0,-1,0.11807682365179062,-1.6266115347491663,-0.9881604353534144,-1.3583267370807093,0.8062432408332825,0.2556396424770355
4236,1734172121,192255020,-0.6824431742178164,0.14806194971331793,1.053181933850909,-0.7410192120733106,-0.4675042637751685,0.08094383135378334,0.4751614324164556,0,-1,0.118746817111969,-1.6269233862506312,-0.9931157271014612,-1.3571999708758753,0.8102594614028931,0.25693318247795105
4251,1734172121,208283662,-0.6844585701313097,0.14709772217487171,1.0498349296509932,-0.7412966743175761,-0.46926466998869076,0.08099792005819985,0.4729791190870399,0,-1,0.11928535997867584,-1.6271870771991175,-0.998202149068014,-1.356133762990133,0.8143715262413025,0.2581667900085449
4267,1734172121,224149227,-0.6864805934175567,0.14621310202139975,1.0463678269650345,-0.741598826084926,-0.4710230821379459,0.08089999247511348,0.47076918809566987,0,-1,0.1198718398809433,-1.627463165913717,-1.0033610502826136,-1.3550308386432093,0.8184484243392944,0.25943636894226074
4284,1734172121,240885496,-0.688446746267855,0.1453230220899585,1.0429178587842256,-0.7419034298967919,-0.47274506604731853,0.08085120720703431,0.46856641528011533,0,-1,0.1204463317990303,-1.62769061723818,-1.0084236303912562,-1.353999439870016,0.822548508644104,0.26072993874549866
4300,1734172121,256428003,-0.6904252200848573,0.1443845677908176,1.03951030525636,-0.7421976130664901,-0.47447248634954653,0.0808518480563664,0.466349162668439,0,-1,0.12105678021907806,-1.6279900709735315,-1.0134385267840784,-1.3529093901263636,0.8266849517822266,0.2620234787464142
4315,1734172121,272174119,-0.6923679150911148,0.1434819043678927,1.036071960382117,-0.7425116917896075,-0.47615146517043,0.08083287495465488,0.46413598879892165,0,-1,0.12164288014173508,-1.6283143202411097,-1.018393341694967,-1.3518064657794397,0.8307251334190369,0.2633409798145294
4331,1734172121,288262605,-0.6942764968673767,0.14257906762114358,1.0327271380983134,-0.7428366844438832,-0.47778095479727206,0.08086567233171496,0.46193047368166285,0,-1,0.12228928506374359,-1.628578011189596,-1.0232647101031702,-1.3507397810565394,0.8348495960235596,0.26468247175216675
4348,1734172121,303805589,-0.6961341916022762,0.14166432889875374,1.0293440567883496,-0.7431479904003322,-0.4794260680755117,0.08086941920478602,0.4597193128976454,0,-1,0.1228753849864006,-1.6288417021380823,-1.0282796064959925,-1.3496125380145472,0.8389740586280823,0.2659640312194824
4364,1734172121,320250511,-0.6979938641581852,0.140745662026531,1.0259085452076513,-0.7434638847388605,-0.4810717991622921,0.0808540263667607,0.4574866146239044,0,-1,0.1234382688999176,-1.629129711781637,-1.0333307425128382,-1.3486059347735804,0.8430741429328918,0.2673530876636505
4379,1734172121,336137771,-0.6998539421531806,0.13982093131173073,1.022429862149157,-0.7437823987351113,-0.4827413653602451,0.08080029816770773,0.4552140478038652,0,-1,0.1239887923002243,-1.6293814818011683,-1.0384658018695276,-1.347527329121725,0.8471630215644836,0.26869457960128784
4396,1734172121,352264881,-0.7017416040033887,0.1388790937953297,1.0188554783055694,-0.7440841151984364,-0.48443901765645164,0.08065792293862209,0.4529370454584604,0,-1,0.12463481724262238,-1.6296456495868128,-1.0435522238360804,-1.3464725653277796,0.8512750864028931,0.2699761390686035
4412,1734172121,368278026,-0.7035901595998627,0.13798658980019896,1.0153529294158117,-0.7444049787533895,-0.4861057712926568,0.08057038003751238,0.45063379875875686,0,-1,0.12523365020751953,-1.6299932638751429,-1.0485308806048792,-1.3454297224627894,0.8553879261016846,0.27131763100624084
4428,1734172121,383949995,-0.7053536579242405,0.1370674385267358,1.011937397540347,-0.74470756381113,-0.48771672743801586,0.08054393527096418,0.44839236464363486,0,-1,0.1258077770471573,-1.6302812735186976,-1.0534146467791956,-1.3443272749530237,0.859499990940094,0.27253925800323486
4444,1734172121,400019884,-0.7071457839417198,0.13610854192985777,1.0084996608703167,-0.7450074674214525,-0.4893544769942439,0.080556737074671,0.4461016492278924,0,-1,0.1264301985502243,-1.6306408087359827,-1.0584052244769495,-1.3432601133929651,0.8635888695716858,0.2738327980041504
4459,1734172121,416609048,-0.7089387349376078,0.13518427881728015,1.0049708353162528,-0.7453112225415474,-0.4909630859422926,0.08044004303111012,0.4438421220127695,0,-1,0.12700432538986206,-1.6308806578265589,-1.0634802023517054,-1.3421338240252894,0.8676654100418091,0.27511435747146606
4476,1734172121,431865692,-0.7106947976735991,0.13425584812332986,1.0014034424785114,-0.7456152718067592,-0.4926016612111623,0.08031041373789365,0.4415333591766132,0,-1,0.12763911485671997,-1.6311801115619105,-1.0686033407794397,-1.341079060231344,0.8718141913414001,0.27637195587158203
4492,1734172121,448481082,-0.7124408386799229,0.13330326533024317,0.9978659763087397,-0.7459260623025217,-0.49421883436971165,0.08024560643348597,0.439206894276741,0,-1,0.12826155126094818,-1.6314681212054651,-1.0736420790301722,-1.3399880568133753,0.8759386539459229,0.27768948674201965
4508,1734172121,464435100,-0.7141460040605538,0.13238166826511186,0.9943241427573709,-0.7462394705106336,-0.49581104035250995,0.08014749702552831,0.4368917985464066,0,-1,0.12888360023498535,-1.631768528615133,-1.0786331335650843,-1.3389456907855433,0.8800267577171326,0.2790069878101349
4523,1734172121,479859113,-0.7158341934171485,0.13143301972989718,0.9908317510961409,-0.7465347050401395,-0.4974073012866784,0.08007555032768622,0.4345800467543967,0,-1,0.12949404120445251,-1.632092301045553,-1.0835402647601526,-1.3378070036517542,0.8841515779495239,0.2802765667438507
4540,1734172121,496001720,-0.7175019120536139,0.1305107263371125,0.9873629000521317,-0.7468498600459212,-0.49893897078082183,0.0800275236225429,0.43228553694104244,0,-1,0.13008014857769012,-1.6323798338519495,-1.088435475026266,-1.3367040793048304,0.8882640600204468,0.28157010674476624
4556,1734172121,511872529,-0.7191605177886705,0.12957762723173338,0.9838276762714695,-0.7471607806835006,-0.5004880341990329,0.0799482537136689,0.4299660127965286,0,-1,0.13067898154258728,-1.6326916853534144,-1.0935223738299769,-1.335625473652975,0.892340898513794,0.28287526965141296
4572,1734172121,528228282,-0.7208143437132795,0.1286104625673372,0.9802084644035028,-0.747464569901126,-0.5020803327137869,0.07977869773642651,0.4276066131761969,0,-1,0.13126546144485474,-1.6329672972308558,-1.0986335913287562,-1.3345707098590296,0.8964054584503174,0.28413286805152893
4588,1734172121,543651580,-0.7223884068383222,0.127686712150325,0.9766351146213824,-0.7477729089739802,-0.5036197822708186,0.07963420222923895,0.42527777433742925,0,-1,0.13187554478645325,-1.633219067250387,-1.1038277784930628,-1.333480183278219,0.9005182981491089,0.2854623794555664
4603,1734172121,559772968,-0.7240519015864716,0.12672576536838556,0.9729296961523488,-0.748085560934101,-0.5052111525069675,0.07942744007886599,0.4228722817435678,0,-1,0.13249796628952026,-1.6335552374469202,-1.108818833027975,-1.332473103200094,0.9045831561088562,0.28674429655075073
4619,1734172121,575745820,-0.7256089915843871,0.1258227330255103,0.9694225768533193,-0.7483964136739849,-0.5067038174135752,0.07930943208839966,0.4205520935630251,0,-1,0.13304848968982697,-1.6339266935931605,-1.1137025992022913,-1.3313348929034632,0.9086237549781799,0.2880258858203888
4636,1734172121,592115163,-0.7271575216638203,0.12488142976815281,0.9658944998116744,-0.7487116754600479,-0.5081919346797775,0.07921451101230653,0.41820670224341666,0,-1,0.13365894556045532,-1.6342147032367151,-1.1186216513263147,-1.3302438894854944,0.9127485752105713,0.2892954647541046
4651,1734172121,608166694,-0.7287186482082945,0.12396197702242245,0.9622704940751706,-0.749019556399198,-0.5097116182660529,0.0790296366117979,0.4158342059921926,0,-1,0.13426901400089264,-1.6345027128802698,-1.1236971060382288,-1.329177204762594,0.9168373942375183,0.2905530333518982
4667,1734172121,624157905,-0.7302198320340045,0.12302062004011605,0.9586461779516433,-0.7493402424998038,-0.5112009015081805,0.07888499587323085,0.4134489045742401,0,-1,0.13480792939662933,-1.634754482899801,-1.1288555304156702,-1.3281105200396937,0.9210097789764404,0.291882187128067
4683,1734172121,640193462,-0.7316695579644754,0.12210977820308502,0.9550248002652264,-0.749649157631442,-0.5127031272749142,0.07869123991935631,0.41105879446247934,0,-1,0.13540638983249664,-1.6350062529193323,-1.1339662710772913,-1.327019993458883,0.9250750541687012,0.29315176606178284
4699,1734172121,656229734,-0.7331570090871362,0.12118518401899409,0.9513349266757952,-0.7499763899625677,-0.5141682325381646,0.07848686240423067,0.4086639885984989,0,-1,0.13601645827293396,-1.6353057066546839,-1.1390650908099573,-1.325881306325094,0.929103672504425,0.2944932281970978
4716,1734172121,672342300,-0.7345536969890185,0.12027709828942654,0.9477816434921345,-0.7503057709544995,-0.5155916353790861,0.07834393708979605,0.40628652835254564,0,-1,0.13659095764160156,-1.6355579535113733,-1.143996540700094,-1.324838940297262,0.9333007335662842,0.29582273960113525
4732,1734172121,688425064,-0.7359813356157632,0.11933772120859135,0.944208659093665,-0.7506315339436521,-0.5170338004094213,0.07822674633777757,0.40386746048796196,0,-1,0.13720102608203888,-1.635857407246725,-1.1488917509662073,-1.3237479368792933,0.9373892545700073,0.2971526086330414
4747,1734172121,703719139,-0.7373617090831368,0.11841114307436566,0.9406535764245293,-0.7509542490864812,-0.5184264085042634,0.07809941993176009,0.4015000066633278,0,-1,0.13779985904693604,-1.636169735585348,-1.153930966054098,-1.3226092497455042,0.9414781332015991,0.2985056936740875
4764,1734172121,720212459,-0.7387193669964067,0.11749102874735162,0.9370450040339693,-0.7512948669115801,-0.5198161341211813,0.07793912427467573,0.3990898427258176,0,-1,0.1384103149175644,-1.6364572683917444,-1.158910099660055,-1.3215668837176722,0.945615291595459,0.29987114667892456
4780,1734172121,736141681,-0.740089740429999,0.11653533182382306,0.9333595778362963,-0.7516164787032429,-0.5212559848484676,0.07776156909574429,0.39663333895823666,0,-1,0.1390203833580017,-1.636637036000387,-1.1640332380877894,-1.3204038778888147,0.9496917724609375,0.30117669701576233
4795,1734172121,752098083,-0.7413648866265851,0.11561649438797345,0.9297388200104867,-0.7519223459796047,-0.5226651663939829,0.077554279087881,0.3942324736117471,0,-1,0.13963082432746887,-1.6369250456439417,-1.1690962950335901,-1.3193734327899378,0.9537806510925293,0.302458256483078
4812,1734172121,767992019,-0.7427047228998466,0.11464514392542943,0.9261011368227744,-0.7522466897535043,-0.5240703975908778,0.0773700500955827,0.39177673676730895,0,-1,0.14025288820266724,-1.6372488180743616,-1.1740391890155237,-1.3183663527118128,0.9578939080238342,0.30379974842071533
4827,1734172121,783998966,-0.7439795485700444,0.11374438292426023,0.9224890724496656,-0.752559582594625,-0.5254505188956583,0.07716629142350884,0.3893599752224532,0,-1,0.140899658203125,-1.637501064931051,-1.1789830366717737,-1.3172515074359339,0.9619707465171814,0.3050449788570404
4843,1734172121,799988746,-0.7452542522566914,0.11276470754060641,0.918890777377054,-0.7528596430271446,-0.5268338781827698,0.07698192842224093,0.38693953713252893,0,-1,0.1414857655763626,-1.6377766768084925,-1.1839621702777308,-1.3161729017840784,0.9661558866500854,0.3063145577907562
4859,1734172121,816256999,-0.7464752095148204,0.11183640351849797,0.915225413203078,-0.7531688279098525,-0.5282282917058473,0.07676252405500264,0.3844725001962124,0,-1,0.14209620654582977,-1.6380522886859339,-1.1890972296344202,-1.3151066938983362,0.9701608419418335,0.30764442682266235
4875,1734172121,831704616,-0.7477126803303716,0.11089050219330657,0.911507496281859,-0.7534937924706031,-0.5295622828159117,0.07649008848346923,0.38204732650662415,0,-1,0.142730250954628,-1.6382682959186,-1.1941841284381312,-1.314063851033346,0.9742257595062256,0.3089379668235779
4892,1734172121,848439693,-0.7489028032981204,0.10995756650796194,0.9078130391837322,-0.7538058423812832,-0.530931455695988,0.07622395005504932,0.379576673127299,0,-1,0.14336466789245605,-1.6385319868670862,-1.1992829481707972,-1.3130090872394007,0.9782910346984863,0.3102794587612152
4908,1734172121,864605665,-0.7500792909579737,0.10902456452258773,0.904117166887605,-0.7541205939524577,-0.5322787758619382,0.0759608259883476,0.377109251356788,0,-1,0.14395152032375336,-1.6387961546527308,-1.2042983214007776,-1.3119304815875452,0.9823799133300781,0.31160858273506165
4924,1734172121,879959583,-0.7512452170932065,0.10808842308016162,0.9004981962469579,-0.754454041330745,-0.533567955693997,0.07577406754853848,0.3746500058232816,0,-1,0.14454960823059082,-1.6391313711749476,-1.2092059294330042,-1.3108156363116663,0.9864927530288696,0.3129260838031769
4939,1734172121,896498680,-0.7523945513333761,0.10717442770226251,0.8968736345440085,-0.7547865704521253,-0.5348401824416966,0.07554538889323978,0.37220438810930306,0,-1,0.14514806866645813,-1.6393831411944788,-1.214161221181051,-1.3097131888019007,0.9905340671539307,0.31418368220329285
4956,1734172121,911637544,-0.7535375126458718,0.10620860206049307,0.8931972751893461,-0.7550727924165022,-0.5361835956779251,0.07532746091874709,0.3697269310041829,0,-1,0.14575813710689545,-1.6396835486041468,-1.219248119984762,-1.3086102644549769,0.9947191476821899,0.3155255615711212
4971,1734172121,927765846,-0.7546193439823754,0.10530912956540764,0.889475452552484,-0.7554095762559392,-0.5374846894001752,0.07504356268223396,0.36719891674837135,0,-1,0.1463569700717926,-1.6398871580706995,-1.2244074980365198,-1.3075197378741663,0.9988799095153809,0.3167831599712372
4988,1734172121,943819761,-0.7557118979066213,0.1043730176076057,0.8857034955602595,-0.7557262653295564,-0.5387954206790531,0.07474777478397368,0.3646780452826403,0,-1,0.14693109691143036,-1.6401990095721644,-1.2294705549823206,-1.306476895009176,1.0029336214065552,0.3181002736091614
5003,1734172121,960167884,-0.75676531063911,0.1035158328420339,0.8819849376573929,-0.7560647056415793,-0.5400500877564848,0.07442263270424529,0.36217859591463164,0,-1,0.14750559628009796,-1.6404746214496058,-1.2344377676593226,-1.3054106871234339,1.0070583820343018,0.31935787200927734
5020,1734172121,976001977,-0.7578174340412367,0.10253705764070722,0.8783522473433365,-0.7563637464522198,-0.5413310621367303,0.07419508468164429,0.35967993220051236,0,-1,0.14811640977859497,-1.6407864729510706,-1.2393696943866175,-1.3042834440814417,1.0111476182937622,0.32062745094299316
5035,1734172121,992024421,-0.7588522476907262,0.10163460396879491,0.8747022643649018,-0.7566578625177106,-0.5425887405718025,0.07392289495003874,0.3572138621288937,0,-1,0.14870251715183258,-1.6411102453814905,-1.244265381489889,-1.3032167593585413,1.0152488946914673,0.32181352376937866
5051,1734172122,8096694,-0.7598414514621749,0.10067536845838068,0.8710317817813426,-0.7569586062593328,-0.5438339751795396,0.07365559083853192,0.35472965732875394,0,-1,0.14933693408966064,-1.6413620154010218,-1.2492926756488245,-1.3020904699908655,1.0192902088165283,0.323155015707016
5067,1734172122,24263381,-0.760804831460788,0.09981227859577352,0.8672654604534292,-0.757298165188277,-0.5450596019031123,0.07329789021692193,0.3521887827081352,0,-1,0.1498870849609375,-1.6416381041156214,-1.254427735005514,-1.3010476271258753,1.0233790874481201,0.32438862323760986
5084,1734172122,40020942,-0.7617922275678066,0.09886952895224466,0.8634632478967665,-0.7576028970132942,-0.5463323489951647,0.07294900481667435,0.3496244521979924,0,-1,0.15054546296596527,-1.6419017950641077,-1.2595389525042933,-1.3000410238849085,1.0275166034698486,0.32574209570884705
5100,1734172122,56215524,-0.7627192204812683,0.09797897381032994,0.859711287633282,-0.7579492743553202,-0.5475269800790846,0.07261207831409691,0.34706568495405693,0,-1,0.15111996233463287,-1.6421540419207972,-1.2646139303790491,-1.2989500204669397,1.0316418409347534,0.3270712196826935
5116,1734172122,72061300,-0.7636521389852664,0.09701819303513562,0.8559900610646678,-0.7582611296630579,-0.5487303986165591,0.07230816798217361,0.3445381513262026,0,-1,0.15173040330410004,-1.6425135771380823,-1.2695935408221644,-1.2978957335101526,1.0357550382614136,0.3284250795841217
5132,1734172122,88381290,-0.7646064554469495,0.09611780110527907,0.8522039700153301,-0.7585983843189427,-0.5499231675063113,0.07195367959827054,0.34195857810674185,0,-1,0.15231651067733765,-1.6428497473346155,-1.2745731512652796,-1.2968290487872522,1.0399165153503418,0.3297306001186371
5148,1734172122,104110002,-0.7654476309643942,0.09520712163781689,0.8485411845799171,-0.7589399150477448,-0.5510518907477858,0.07170543967632821,0.33942650010191694,0,-1,0.15292732417583466,-1.6431730429278772,-1.2795880476581019,-1.295666519795553,1.0440053939819336,0.3310960531234741
5164,1734172122,120475053,-0.7663348906067765,0.09428175435022801,0.8447596631058529,-0.7592557473259591,-0.5522331707237769,0.0713417123967786,0.3368673260753535,0,-1,0.153537780046463,-1.6434252897845667,-1.2846639792071741,-1.2945759932147425,1.0480467081069946,0.3323652744293213
5180,1734172122,136143684,-0.7671649176974548,0.09336574250992855,0.8409774716682837,-0.7595779700572968,-0.5533903718861376,0.07096863170866455,0.3343110183956832,0,-1,0.15413586795330048,-1.643677059804098,-1.2898228804217737,-1.293497387562887,1.0520880222320557,0.33367079496383667
5196,1734172122,151664972,-0.7680106179442359,0.09244709743569013,0.8371366037054698,-0.7598933181628065,-0.5545519708399244,0.07055404363609943,0.3317474695844281,0,-1,0.15477026998996735,-1.6440122763263147,-1.2948506514178675,-1.2923949400531214,1.0562375783920288,0.33496472239494324
5211,1734172122,167747735,-0.7688136534593263,0.09152280929071013,0.8334286585240082,-0.7602033286179218,-0.5557094896774375,0.07022462903480989,0.32916008828167076,0,-1,0.1553683578968048,-1.6443122068988245,-1.299769703541891,-1.291328255330221,1.060350775718689,0.3362223207950592
5228,1734172122,184036493,-0.7696168106722328,0.09059872432695878,0.8297043063030071,-0.7605061911470061,-0.5568269466020487,0.06987772030038292,0.3266361721710167,0,-1,0.1559552103281021,-1.6446598211871546,-1.3046897093402308,-1.2901890913592737,1.0644524097442627,0.3375278413295746
5243,1734172122,200373172,-0.7703675389134654,0.08972074614525061,0.8260614789616276,-0.7608299344003447,-0.5579042886539072,0.06957145016413074,0.32409941213153215,0,-1,0.15656529366970062,-1.6449363867389124,-1.3096211592303675,-1.289062801991598,1.0685056447982788,0.33882102370262146
5260,1734172122,215915918,-0.7711021168468933,0.08880963114864765,0.8223010164634253,-0.7611378625415595,-0.559017481018472,0.069187917875585,0.32153015743701174,0,-1,0.15711581707000732,-1.645247761403219,-1.314732853566305,-1.2879841963397425,1.0725473165512085,0.3400906026363373
5276,1734172122,232020854,-0.7718103820949801,0.0879148979074664,0.8184350806373859,-0.7614781113831768,-0.5601119400414188,0.06875527241030155,0.3189018862019062,0,-1,0.15773823857307434,-1.6455119291888636,-1.3199036757098597,-1.286917511616842,1.0766844749450684,0.3414444327354431
5292,1734172122,248153686,-0.7725155223269156,0.08701282526243956,0.8145714305186552,-0.7617877829031693,-0.5612400672754254,0.0682679801422589,0.31627273608619166,0,-1,0.15828877687454224,-1.6458113829242151,-1.3250153700457972,-1.285863224660055,1.0808100700378418,0.3427259922027588
5307,1734172122,264293193,-0.7731915308333653,0.08612283232908022,0.8107822971033283,-0.7621126807330718,-0.5623087014096433,0.0678460403061691,0.3136719640000126,0,-1,0.1589231789112091,-1.6461356321917933,-1.3300188223468226,-1.284832779561178,1.084923267364502,0.3440195322036743
5324,1734172122,279891967,-0.7738555547988838,0.08524574010243338,0.807105437210332,-0.7624611045190687,-0.5633170664865108,0.06751712003237824,0.3110761726701793,0,-1,0.15944936871528625,-1.6464470068561,-1.3348549048053187,-1.2837179342852991,1.089049220085144,0.34532469511032104
5340,1734172122,296008110,-0.77448491096778,0.08434250271511412,0.8034043412843794,-0.762780547213894,-0.5643399548970386,0.0671556402963002,0.30850668076279125,0,-1,0.1600721776485443,-1.646771256123678,-1.3397749106036585,-1.2826035658465784,1.0931144952774048,0.34663060307502747
5356,1734172122,312125444,-0.7750592111770929,0.0834439324868099,0.7996706803303941,-0.763087828876912,-0.5653888806944358,0.06675447787232192,0.30590230252648865,0,-1,0.16065827012062073,-1.6469867865191858,-1.3448622862445276,-1.2815244833575647,1.0972280502319336,0.34791216254234314
5371,1734172122,328238964,-0.7756253796024346,0.08257775810960968,0.7959450930303018,-0.7634101042252447,-0.5663855482609155,0.06635485925104066,0.30333060534960493,0,-1,0.16124475002288818,-1.647226635609762,-1.3500331083880823,-1.2804582754718226,1.1012214422225952,0.34922969341278076
5387,1734172122,344357967,-0.7761791666430827,0.08171167364679016,0.7920831820268357,-0.7637307777817293,-0.5674127448005823,0.06584603987380368,0.3007031345691651,0,-1,0.16183160245418549,-1.6475022474872034,-1.355060879384176,-1.2793915907489222,1.1053110361099243,0.35048729181289673
5404,1734172122,360043525,-0.7767074448713326,0.08083871377455641,0.7882848109004594,-0.7640508587320423,-0.5684176173807347,0.06537273863569125,0.2980840528530616,0,-1,0.16245366632938385,-1.647766415272848,-1.36011249223818,-1.2783368269549769,1.1094486713409424,0.35178083181381226
5420,1734172122,376314878,-0.7772244775278867,0.07993641877748317,0.7845858638188098,-0.7643460092935324,-0.5694250699405572,0.06495932990972758,0.2954835921974723,0,-1,0.1630401462316513,-1.6481025854693812,-1.3650324980365198,-1.2772224585162562,1.1135382652282715,0.3529665172100067
