yildirimyigit/pemp/data/ur10/raw/3_2024-12-14_13-32-16.csv
Time,ROS secs,ROS nsecs,________p_x________,________p_y________,________p_z________,________q_x________,________q_y________,________q_z________,________q_w________,gripper_position,gripper_force,shoulder_pan_joint,shoulder_lift_joint,elbow_joint,wrist_1_joint,wrist_2_joint,wrist_3_joint
0,1734172336,781250000,-0.00018274719888222875,0.25614099775154897,1.4272999875479695,-0.707106776574559,1.2685307262247348e-05,-3.772251866914316e-05,0.7071067846785457,0,-1,0.0,-1.5709040800677698,-3.5587941304981996e-05,-1.5707719961749476,-9.519258608037262e-05,8.388957940042019e-05
14,1734172336,797030687,-0.00016005067764478058,0.25614100190585093,1.427299989655335,-0.7071067780504945,1.6900188218371428e-05,-4.185813045342872e-05,0.7071067828817152,0,-1,2.3968450477696024e-05,-1.5709403196917933,-2.366701234990387e-05,-1.570796314870016,-8.32716571252945e-05,7.190534961409867e-05
30,1734172336,813548564,-0.0001640287534286831,0.2561409992955434,1.4272999894057483,-0.707106773803185,3.40511493537185e-05,-6.731482670427833e-05,0.7071067845459303,0,-1,0.0,-1.57092792192568,-3.5587941304981996e-05,-1.5707719961749476,-7.135072817021637e-05,4.793690095539205e-05
46,1734172336,829037904,-0.000218620194556107,0.25614099465875045,1.4272999821560282,-0.7071067767867579,8.381108383790134e-06,-4.19819604857096e-05,0.7071067842904026,0,-1,3.5952674807049334e-05,-1.5709646383868616,-7.18275653284195e-05,-1.5707476774798792,-0.000119511281148732,0.00013182648399379104
62,1734172336,844908714,-0.000194975675459874,0.2561409997139847,1.427299985467268,-0.7071067743479444,1.2516718140197438e-05,-6.322397387454737e-05,0.7071067850878721,0,-1,1.1984225238848012e-05,-1.57092792192568,-4.7985707418263246e-05,-1.5707600752459925,-0.000119511281148732,7.190534961409867e-05
78,1734172336,861504316,-0.00022602367548510627,0.2561409918645505,1.4272999814168426,-0.7071067751626907,-8.646219107617734e-06,-5.053516145760321e-05,0.707106785351732,0,-1,2.3968450477696024e-05,-1.57092792192568,-5.990663637334137e-05,-1.5707719961749476,-9.519258608037262e-05,0.00011984225420746952
95,1734172336,877106189,-0.00016781938254973287,0.2561409960594166,1.4272999897330785,-0.7071067785022337,8.487878588614435e-06,-2.5016451041733838e-05,0.7071067833773947,0,-1,1.1984225238848012e-05,-1.570916000996725,-5.990663637334137e-05,-1.5707719961749476,-7.135072817021637e-05,9.58738019107841e-05
111,1734172336,893227577,-0.00022146842602867507,0.25614099737247864,1.427299981393977,-0.707106776912968,-1.286090486895089e-05,-5.483936130176359e-05,0.707106783216648,0,-1,1.1984225238848012e-05,-1.57092792192568,-5.990663637334137e-05,-1.5707600752459925,-0.00010711351503545075,0.00011984225420746952
126,1734172336,908692598,-0.00017728935619379377,0.2561409977188811,1.4272999879439388,-0.7071067771831028,2.5222786791286094e-05,-3.3614409044670694e-05,0.7071067839411587,0,-1,2.3968450477696024e-05,-1.5709403196917933,-3.5587941304981996e-05,-1.5707719961749476,-0.00010711351503545075,0.000107858024421148
143,1734172336,924975395,-0.0001361991186992379,0.2561409967323318,1.4272999931748955,-0.7071067784872537,2.1131933147723014e-05,-2.0801766206768577e-05,0.7071067832641021,0,-1,-1.1746083394825746e-05,-1.5709527174579065,-3.5587941304981996e-05,-1.5707839171039026,-8.32716571252945e-05,9.58738019107841e-05
158,1734172336,940448760,-0.0001679698247293825,0.25614099808286567,1.4272999894169796,-0.7071067784750097,-3.9257729407919075e-06,-3.781203460313267e-05,0.7071067828762018,0,-1,2.3968450477696024e-05,-1.570916000996725,-2.366701234990387e-05,-1.5707476774798792,-8.32716571252945e-05,8.388957940042019e-05
174,1734172336,956970453,-0.00018752533147840678,0.25614100166691117,1.4272999858293476,-0.7071067728692354,2.9650814987889762e-05,-7.159152629057031e-05,0.7071067852580246,0,-1,1.1984225238848012e-05,-1.5709403196917933,-1.1746083394825746e-05,-1.5707719961749476,-7.135072817021637e-05,9.58738019107841e-05
190,1734172336,973091602,-9.952174606484678e-05,0.2561409987489416,1.4272999955771655,-0.7071067786831862,4.6633385917111905e-05,-3.774440454226462e-06,0.7071067821421094,0,-1,1.1984225238848012e-05,-1.57092792192568,-5.990663637334137e-05,-1.5707476774798792,-8.32716571252945e-05,9.58738019107841e-05
206,1734172336,988820552,-0.00019373526506535763,0.2561410044820337,1.4272999844396554,-0.707106776112086,2.083951540451566e-05,-6.320691215710802e-05,0.7071067831289508,0,-1,2.3968450477696024e-05,-1.5709403196917933,-7.18275653284195e-05,-1.5707719961749476,-7.135072817021637e-05,7.190534961409867e-05
222,1734172337,5095481,-0.00014519397002095657,0.2561410017313428,1.4272999911787028,-0.7071067781958984,8.31929052451494e-06,-5.043902820022221e-05,0.7071067823293101,0,-1,-2.366701234990387e-05,-1.5709403196917933,-1.1746083394825746e-05,-1.5707600752459925,-9.519258608037262e-05,0.00011984225420746952
238,1734172337,20792245,-0.00021455432394599437,0.25614098993246864,1.427299984166556,-0.7071067766742792,-1.9447045126119803e-07,-2.5179915593217248e-05,0.7071067852504634,0,-1,0.0,-1.570916000996725,-4.7985707418263246e-05,-1.5707600752459925,-9.519258608037262e-05,0.00013182648399379104
254,1734172337,37017583,-0.00019797743731600956,0.25614099546511526,1.4272999848374865,-0.7071067776092776,-2.940484804100906e-05,-4.638761303815342e-05,0.707106782630861,0,-1,-1.1746083394825746e-05,-1.5709403196917933,-3.5587941304981996e-05,-1.5707839171039026,-8.32716571252945e-05,7.190534961409867e-05
270,1734172337,52806138,-0.00018254683187345587,0.2561409977539503,1.4272999873189458,-0.7071067766758046,4.211179740044095e-06,-4.61966462848466e-05,0.7071067841756927,0,-1,0.0,-1.5709403196917933,-2.366701234990387e-05,-1.5707719961749476,-8.32716571252945e-05,9.58738019107841e-05
286,1734172337,68540573,-0.00017687237442609048,0.2561409973452684,1.4272999883009088,-0.70710677399053,2.9858841153030537e-05,-5.460363816241575e-05,0.7071067856438642,0,-1,1.1984225238848012e-05,-1.5709765593158167,-3.5587941304981996e-05,-1.5707476774798792,-7.135072817021637e-05,7.190534961409867e-05
303,1734172337,85083246,-0.0001923038859290494,0.256140995472561,1.427299986409659,-0.7071067776418609,4.379766210001016e-06,-2.9124563254978636e-05,0.7071067841178738,0,-1,1.1984225238848012e-05,-1.5709403196917933,-4.7985707418263246e-05,-1.5707719961749476,-0.00013143221010381012,7.190534961409867e-05
318,1734172337,100668907,-0.000147334446179102,0.2561409979666892,1.4272999918604696,-0.707106776577126,2.9606059015277786e-05,-3.7660506472642324e-05,0.7071067841732774,0,-1,0.0,-1.57092792192568,-1.1746083394825746e-05,-1.5707476774798792,-7.135072817021637e-05,9.58738019107841e-05
334,1734172337,116856813,-0.00019534341334420224,0.2561409909383537,1.4272999867034704,-0.7071067785575833,7.55689274638167e-08,-1.6480506839884737e-05,0.7071067836234524,0,-1,0.0,-1.5708802382098597,-7.18275653284195e-05,-1.5707839171039026,-9.519258608037262e-05,7.190534961409867e-05
350,1734172337,132690906,-0.0002250103601423902,0.2561409997139847,1.4272999802748998,-0.7071067739744,-4.577744079567559e-06,-8.031843621375041e-05,0.707106783822295,0,-1,-1.1746083394825746e-05,-1.5709403196917933,-3.5587941304981996e-05,-1.570796314870016,-7.135072817021637e-05,0.000107858024421148
366,1734172337,149032592,-0.0001813127773447805,0.25614099776873944,1.4272999876665864,-0.7071067770533367,1.2032447372834508e-07,-5.02875016766205e-05,0.7071067835315933,0,-1,4.793690095539205e-05,-1.5709403196917933,-5.990663637334137e-05,-1.5707839171039026,-4.7985707418263246e-05,7.190534961409867e-05
382,1734172337,164942026,-0.00019744920657173727,0.2561410045699316,1.4272999837138147,-0.7071067747046557,1.2454900842457944e-05,-7.159152639258314e-05,0.7071067839345824,0,-1,1.1984225238848012e-05,-1.5709403196917933,-3.5587941304981996e-05,-1.570796314870016,-7.135072817021637e-05,0.00011984225420746952
399,1734172337,181164026,-0.00017704309168539234,0.25614100638603954,1.427299986574415,-0.7071067765886562,2.5245165281741062e-05,-5.880126229629517e-05,0.7071067828889025,0,-1,3.5952674807049334e-05,-1.5708921591388147,-5.990663637334137e-05,-1.5707839171039026,-7.135072817021637e-05,0.00011984225420746952
415,1734172337,197080612,-0.00021600428724998264,0.2561410025630867,1.4272999810221108,-0.7071067767177461,4.0255312929630056e-06,-5.473278711121787e-05,0.7071067835256261,0,-1,-2.366701234990387e-05,-1.5709403196917933,-4.7985707418263246e-05,-1.5707719961749476,-9.519258608037262e-05,9.58738019107841e-05
431,1734172337,213110446,-0.00016054769914370745,0.2561409997139847,1.4272999899868555,-0.7071067760962519,1.7001442441654943e-05,-5.873924996664423e-05,0.7071067836327244,0,-1,-1.1746083394825746e-05,-1.5709040800677698,-3.5587941304981996e-05,-1.5707719961749476,-0.00010711351503545075,8.388957940042019e-05
446,1734172337,228887557,-0.00018867940839309216,0.25614100412167395,1.42729998486454,-0.7071067751873192,3.803542957216525e-05,-6.320691215081822e-05,0.7071067833378367,0,-1,0.0,-1.570916000996725,-2.366701234990387e-05,-1.5707719961749476,-7.135072817021637e-05,9.58738019107841e-05
462,1734172337,245089292,-0.00016040348034438015,0.25614099623716424,1.427299990663837,-0.7071067784419746,1.2786758315327658e-05,-2.0717571285658714e-05,0.7071067835120048,0,-1,5.992112710373476e-05,-1.57092792192568,-4.7985707418263246e-05,-1.5707719961749476,-0.000119511281148732,0.000107858024421148
478,1734172337,260408163,-0.00020905931135186879,0.2561409974362187,1.4272999833225375,-0.7071067752571195,-4.34201961365791e-06,-5.474984533552804e-05,0.7071067849830595,0,-1,-1.1746083394825746e-05,-1.5709403196917933,-4.7985707418263246e-05,-1.5707476774798792,-0.000119511281148732,8.388957940042019e-05
494,1734172337,276556968,-0.00022000700134565155,0.2561410025251294,1.4272999803036068,-0.7071067764778186,1.6669585842722535e-05,-5.051810226960101e-05,0.7071067838941969,0,-1,1.1984225238848012e-05,-1.57092792192568,-5.990663637334137e-05,-1.5707476774798792,-4.7985707418263246e-05,9.58738019107841e-05
510,1734172337,292523860,-0.00018410228690121357,0.2561409956691406,1.427299987619962,-0.7071067779561355,1.2032610855137597e-07,-3.3384003463016404e-05,0.7071067836288846,0,-1,2.3968450477696024e-05,-1.570916000996725,-1.1746083394825746e-05,-1.5707357565509241,-9.519258608037262e-05,9.58738019107841e-05
526,1734172337,308610677,-0.0001878131860385438,0.2561410043418758,1.4272999852707797,-0.7071067753194011,2.1052857990919805e-05,-6.299356937068303e-05,0.7071067839343541,0,-1,-1.1746083394825746e-05,-1.57092792192568,-3.5587941304981996e-05,-1.5707839171039026,-0.00010711351503545075,0.000107858024421148
543,1734172337,325072288,-0.0001781844134348394,0.25614100400281326,1.4272999867931695,-0.7071067750806374,2.117669013755775e-05,-7.12991070029683e-05,0.7071067833807324,0,-1,1.1984225238848012e-05,-1.5708921591388147,-1.1746083394825746e-05,-1.5707476774798792,-8.32716571252945e-05,0.000107858024421148
558,1734172337,340739488,-0.00021915015142854572,0.2561409948290976,1.427299982495247,-0.7071067766627896,-8.770050565848249e-06,-4.22743799102377e-05,0.7071067843922322,0,-1,0.0,-1.570916000996725,-2.366701234990387e-05,-1.5707839171039026,-7.135072817021637e-05,0.000107858024421148
574,1734172337,356478929,-0.0001789570446127519,0.2561410020429532,1.4272999868211735,-0.7071067772952772,3.386550011116082e-05,-3.332218817837472e-05,0.7071067834817079,0,-1,-2.366701234990387e-05,-1.5709040800677698,-2.366701234990387e-05,-1.5707719961749476,-9.519258608037262e-05,9.58738019107841e-05
590,1734172337,373162031,-0.00021644282502754122,0.25614099220900777,1.427299983020455,-0.7071067759697529,8.257278133887956e-06,-3.363166420080961e-05,0.707106785555329,0,-1,1.1984225238848012e-05,-1.570916000996725,-1.1746083394825746e-05,-1.5707839171039026,-7.135072817021637e-05,8.388957940042019e-05
607,1734172337,389126539,-0.00019478126883662334,0.25614099982516303,1.4272999847873693,-0.7071067752189268,4.233558258564716e-06,-6.307776420997348e-05,0.7071067843280552,0,-1,-1.1746083394825746e-05,-1.57092792192568,-4.7985707418263246e-05,-1.5707839171039026,-9.519258608037262e-05,7.190534961409867e-05
622,1734172337,404534339,-0.0001776241297348769,0.25614100419880714,1.427299986663953,-0.7071067765922774,3.3887880246599965e-05,-4.1729177610436036e-05,0.7071067837374823,0,-1,0.0,-1.5709403196917933,-2.366701234990387e-05,-1.5707600752459925,-9.519258608037262e-05,9.58738019107841e-05
638,1734172337,420510292,-0.00014462461450479963,0.25614100331973133,1.427299990934099,-0.7071067770331287,3.803542967142974e-05,-4.601099806742093e-05,0.7071067828200458,0,-1,2.3968450477696024e-05,-1.57092792192568,-4.7985707418263246e-05,-1.570796314870016,-8.32716571252945e-05,9.58738019107841e-05
655,1734172337,437019109,-0.00018097446130519194,0.256140997674718,1.4272999871346952,-0.7071067760216069,4.188802092831501e-06,-5.464839361171604e-05,0.7071067842273443,0,-1,-2.366701234990387e-05,-1.5709403196917933,-1.1746083394825746e-05,-1.5707600752459925,-9.519258608037262e-05,0.000107858024421148
670,1734172337,452704191,-0.00017247596940323878,0.256141001966826,1.427299987844712,-0.7071067769432411,3.3887880292667444e-05,-3.329980791702736e-05,0.707106783833726,0,-1,-1.1746083394825746e-05,-1.5709646383868616,-4.7985707418263246e-05,-1.5707839171039026,-9.519258608037262e-05,0.000107858024421148
686,1734172337,468580961,-0.0002227171766239205,0.25614100780223203,1.4272999788399088,-0.7071067738832538,1.2241558135806363e-05,-8.866360847707777e-05,0.7071067828251442,0,-1,0.0,-1.57092792192568,-8.374849428349762e-05,-1.5707839171039026,-4.7985707418263246e-05,0.000107858024421148
702,1734172337,484773397,-0.00021464607850625017,0.2561409974542391,1.4272999826630575,-0.7071067769773377,-8.623839819750252e-06,-5.060229621403695e-05,0.7071067835325572,0,-1,4.793690095539205e-05,-1.5709646383868616,-3.5587941304981996e-05,-1.5707719961749476,-8.32716571252945e-05,8.388957940042019e-05
718,1734172337,500813484,-0.00019728024162820693,0.2561409973681276,1.4272999853282724,-0.7071067744102516,8.27965471414757e-06,-5.8986910383232315e-05,0.7071067854540227,0,-1,-1.1746083394825746e-05,-1.57092792192568,-2.366701234990387e-05,-1.5707600752459925,-0.00010711351503545075,0.000107858024421148
734,1734172337,517118930,-0.0002701416256524813,0.2561409963654159,1.4272999716748702,-0.7071067726515058,-4.240567731314875e-06,-8.027367722415159e-05,0.7071067851523742,0,-1,0.0,-1.57092792192568,-2.366701234990387e-05,-1.5707600752459925,-8.32716571252945e-05,0.00011984225420746952
750,1734172337,532674551,-0.0002144230738705916,0.2561409949423983,1.4272999824396608,-0.7071067772434021,-1.2546108663495179e-05,-4.6050438209309234e-05,0.7071067835188699,0,-1,0.0,-1.57092792192568,-4.7985707418263246e-05,-1.5707839171039026,-7.135072817021637e-05,7.190534961409867e-05
767,1734172337,548824071,-0.0001777670516153281,0.2561409978962057,1.4272999875806047,-0.7071067788311793,2.0985724366959674e-05,-2.0992732247442858e-05,0.7071067829188872,0,-1,3.5952674807049334e-05,-1.5709403196917933,-3.5587941304981996e-05,-1.5707839171039026,-5.990663637334137e-05,8.388957940042019e-05
782,1734172337,564951896,-0.00019350582302313674,0.25614100236806564,1.427299985022413,-0.7071067779188097,8.57739100666966e-06,-4.208873264871506e-05,0.7071067831496499,0,-1,-1.1746083394825746e-05,-1.5709403196917933,-2.366701234990387e-05,-1.570820156727926,-7.135072817021637e-05,8.388957940042019e-05
798,1734172337,580603599,-0.00018738917033176856,0.2561410066561593,1.4272999843118475,-0.7071067760425859,3.3843122359006744e-05,-5.8632674897218424e-05,0.7071067830897345,0,-1,2.3968450477696024e-05,-1.570916000996725,-3.5587941304981996e-05,-1.5707600752459925,-0.00010711351503545075,7.190534961409867e-05
814,1734172337,596671581,-0.00011299023778374202,0.25614099982516303,1.42729999484105,-0.7071067782347049,2.956130220367726e-05,-3.775002076087533e-05,0.7071067825127979,0,-1,-2.366701234990387e-05,-1.57092792192568,-5.990663637334137e-05,-1.5707476774798792,-0.00014335313905888825,8.388957940042019e-05
831,1734172337,612998962,-0.00015459591127162285,0.25614100191102657,1.4272999902465902,-0.7071067783675382,1.2938285648083836e-05,-3.7727838103425134e-05,0.7071067828806991,0,-1,1.1984225238848012e-05,-1.5709403196917933,-7.18275653284195e-05,-1.5707600752459925,-9.519258608037262e-05,0.000107858024421148
846,1734172337,628666162,-0.0002456404933120652,0.2561409970827951,1.4272999772492,-0.7071067763764404,-8.579084597115155e-06,-5.055754082528606e-05,0.7071067841372003,0,-1,2.3968450477696024e-05,-1.570916000996725,-2.366701234990387e-05,-1.5707600752459925,-0.000119511281148732,9.58738019107841e-05
862,1734172337,644719839,-0.00018582435980320434,0.25614100007746016,1.4272999864577356,-0.7071067770022151,-1.68622435296777e-05,-5.922263193167952e-05,0.7071067826897747,0,-1,4.793690095539205e-05,-1.5709527174579065,0.0,-1.5707719961749476,-0.00010711351503545075,0.00011984225420746952
879,1734172337,660814285,-0.00020988969713990315,0.2561410046236581,1.4272999816949332,-0.707106772854518,2.1052857828822876e-05,-8.018948336904505e-05,0.7071067846582249,0,-1,3.5952674807049334e-05,-1.5709403196917933,-2.366701234990387e-05,-1.5707476774798792,-8.32716571252945e-05,8.388957940042019e-05
894,1734172337,676925182,-0.00020333682412249231,0.25614100007746016,1.4272999838379146,-0.7071067779569901,4.4245234153051644e-06,-3.793586502605167e-05,0.7071067833846438,0,-1,-1.1746083394825746e-05,-1.5708921591388147,0.0,-1.5707600752459925,-0.00010711351503545075,8.388957940042019e-05
910,1734172337,693216800,-0.00018996046969241154,0.2561409953456797,1.4272999864063654,-0.7071067763222365,1.2640548467156958e-05,-3.7722520260233626e-05,0.7071067849316697,0,-1,3.5952674807049334e-05,-1.5709765593158167,1.1920928955078125e-05,-1.5707600752459925,-8.32716571252945e-05,0.000107858024421148
926,1734172337,708697795,-0.0001951165807475815,0.2561409997139847,1.4272999848408643,-0.707106774007255,-1.7209165330556662e-07,-7.591278372964207e-05,0.707106784290939,0,-1,-3.5587941304981996e-05,-1.5709403196917933,-3.5587941304981996e-05,-1.5707600752459925,-9.519258608037262e-05,0.000107858024421148
943,1734172337,725047588,-0.00019119881585430665,0.25614099531599843,1.4272999867319494,-0.7071067763852856,8.403485993939464e-06,-4.1959582784135636e-05,0.7071067846929376,0,-1,3.5952674807049334e-05,-1.57092792192568,-1.1746083394825746e-05,-1.5707600752459925,-0.000119511281148732,9.58738019107841e-05
959,1734172337,740717649,-0.00014902484609643707,0.25614099621566483,1.4272999918824636,-0.7071067763834558,4.2294873011304265e-05,-1.649756545963743e-05,0.7071067845322738,0,-1,-2.366701234990387e-05,-1.5709403196917933,-7.18275653284195e-05,-1.5707600752459925,-0.000119511281148732,9.58738019107841e-05
974,1734172337,756789922,-0.0002521245246967724,0.25614099692011555,1.427299975122489,-0.7071067752023033,-8.74767204734886e-06,-5.915549782446861e-05,0.7071067846422524,0,-1,2.3968450477696024e-05,-1.570916000996725,-4.7985707418263246e-05,-1.5707839171039026,-9.519258608037262e-05,9.58738019107841e-05
990,1734172337,773078203,-0.0001816314353322331,0.25614100007746016,1.4272999869844973,-0.7071067779177834,8.661588470451388e-06,-3.369879993762185e-05,0.7071067835992654,0,-1,3.5952674807049334e-05,-1.570916000996725,-7.18275653284195e-05,-1.5707476774798792,-9.519258608037262e-05,9.58738019107841e-05
1006,1734172337,788789272,-0.0001479844240832827,0.2561409927848447,1.4272999928248995,-0.7071067762715587,2.5577020640222986e-05,-2.503370845492736e-05,0.7071067851958239,0,-1,1.1984225238848012e-05,-1.57092792192568,-1.1746083394825746e-05,-1.5707719961749476,-7.135072817021637e-05,0.000107858024421148
1022,1734172337,804960727,-0.0001922158849730575,0.2561409999232389,1.4272999853322494,-0.7071067769891072,8.425865570777123e-06,-5.045608746185549e-05,0.7071067835336223,0,-1,0.0,-1.570916000996725,-2.366701234990387e-05,-1.5707600752459925,-0.000119511281148732,0.000107858024421148
1038,1734172337,820633172,-0.00016737004670861982,0.2561409997139847,1.4272999889682676,-0.7071067759816829,2.12385074854256e-05,-5.450218487635442e-05,0.7071067839720022,0,-1,1.1984225238848012e-05,-1.57092792192568,-7.18275653284195e-05,-1.5707839171039026,-9.519258608037262e-05,8.388957940042019e-05
1054,1734172337,836902141,-0.00021626293785399967,0.2561409970111102,1.4272999819275625,-0.7071067741630538,4.16642184493798e-06,-7.186668790993075e-05,0.7071067845456867,0,-1,1.1984225238848012e-05,-1.57092792192568,-2.366701234990387e-05,-1.5707719961749476,-8.32716571252945e-05,0.00011984225420746952
1070,1734172337,852616548,-0.000181770717634157,0.2561410020760029,1.4272999866723561,-0.7071067770775321,2.1030480501670767e-05,-4.615720774377421e-05,0.7071067834763405,0,-1,0.0,-1.5709403196917933,-5.990663637334137e-05,-1.5707839171039026,-7.135072817021637e-05,8.388957940042019e-05
1086,1734172337,868918895,-0.00020593666013856527,0.2561409949627551,1.4272999844396554,-0.7071067764191317,-2.3922892013353247e-07,-5.060229779253401e-05,0.7071067841433105,0,-1,-1.1746083394825746e-05,-1.570916000996725,-3.5587941304981996e-05,-1.570808235798971,-8.32716571252945e-05,9.58738019107841e-05
1102,1734172337,884721755,-0.000178959716785139,0.25614099944655305,1.427299987284428,-0.7071067748949059,3.388256200530447e-05,-5.9054044475468854e-05,0.7071067842004605,0,-1,2.3968450477696024e-05,-1.570916000996725,-1.1746083394825746e-05,-1.5707719961749476,-0.000119511281148732,8.388957940042019e-05
1118,1734172337,900752305,-0.0001864339345598913,0.25614100430923303,1.427299985388503,-0.7071067757212737,2.1030480397546864e-05,-6.301594706986397e-05,0.7071067835311535,0,-1,1.1984225238848012e-05,-1.57092792192568,-5.990663637334137e-05,-1.5707600752459925,-5.990663637334137e-05,9.58738019107841e-05
1134,1734172337,916723489,-0.0002092911260193171,0.2561409926491798,1.427299983913645,-0.707106777643571,-4.094359395066993e-06,-2.9124562611868776e-05,0.7071067841178738,0,-1,2.3968450477696024e-05,-1.570916000996725,-4.7985707418263246e-05,-1.5707476774798792,-0.00010711351503545075,8.388957940042019e-05
1150,1734172337,932816028,-0.00021361226936837175,0.25614100471176027,1.4272999808239366,-0.7071067740653452,2.945985001418016e-05,-7.178249147043191e-05,0.7071067840505365,0,-1,0.0,-1.57092792192568,-4.7985707418263246e-05,-1.5707719961749476,-9.519258608037262e-05,0.000107858024421148
1166,1734172337,948909759,-0.0002108697665995334,0.2561409972052677,1.4272999827204738,-0.7071067743629981,1.2685307142980047e-05,-5.458125788969238e-05,0.7071067857897598,0,-1,-1.1746083394825746e-05,-1.57092792192568,-5.990663637334137e-05,-1.5707476774798792,-0.000119511281148732,9.58738019107841e-05
1182,1734172337,964602708,-0.00017385522088390553,0.25614100198302675,1.42729998776387,-0.7071067770865365,2.1199067896411883e-05,-4.598862035069627e-05,0.7071067834732867,0,-1,2.3968450477696024e-05,-1.5709527174579065,-2.366701234990387e-05,-1.5707600752459925,-9.519258608037262e-05,9.58738019107841e-05
1198,1734172337,980637550,-0.00020315311102902972,0.25614099740892404,1.427299984343,-0.7071067759206294,1.2662927034756843e-05,-4.617426856722617e-05,0.7071067848314849,0,-1,3.5952674807049334e-05,-1.5709403196917933,0.0,-1.5707839171039026,-0.00010711351503545075,9.58738019107841e-05
1214,1734172337,996698141,-0.0002186401617947287,0.25614099732139967,1.4272999815644376,-0.7071067741093551,-2.5482579309028744e-05,-7.589040509748542e-05,0.7071067837320938,0,-1,2.3968450477696024e-05,-1.5709403196917933,2.384185791015625e-05,-1.5707839171039026,-9.519258608037262e-05,8.388957940042019e-05
1230,1734172338,12960433,-0.00018038263269224702,0.2561410042640927,1.4272999864529436,-0.7071067765874823,1.2747320507151047e-05,-6.286973737892316e-05,0.707106782875799,0,-1,2.3968450477696024e-05,-1.570916000996725,-5.990663637334137e-05,-1.5707600752459925,-5.990663637334137e-05,0.000107858024421148
1246,1734172338,29196739,-0.00016778611160091228,0.25614099587716466,1.4272999898429475,-0.7071067767368627,1.2786758254024326e-05,-3.7576310571393676e-05,0.7071067845221995,0,-1,0.0,-1.5709040800677698,-2.366701234990387e-05,-1.5707719961749476,-8.32716571252945e-05,9.58738019107841e-05
1262,1734172338,44818401,-0.00023357187578561337,0.25614100007746016,1.4272999786822247,-0.7071067776957972,-4.19581132570591e-06,-4.6556199764141514e-05,0.7071067831322098,0,-1,1.1984225238848012e-05,-1.57092792192568,-3.5587941304981996e-05,-1.570796314870016,-7.135072817021637e-05,0.000107858024421148
1279,1734172338,60932874,-0.00018827450432611976,0.25614099538608964,1.427299986763237,-0.7071067774225251,1.6580073474169396e-05,-3.378299547297525e-05,0.7071067839491726,0,-1,0.0,-1.570916000996725,-2.366701234990387e-05,-1.5707719961749476,-5.990663637334137e-05,8.388957940042019e-05
1294,1734172338,77125549,-0.00023335384258172818,0.2561409944886571,1.4272999794129033,-0.7071067763123391,-1.2816148034941299e-05,-4.6320477339894943e-05,0.7071067844274522,0,-1,3.5952674807049334e-05,-1.570916000996725,0.0,-1.570796314870016,-0.0001671949969690445,0.00011984225420746952
1310,1734172338,92684507,-0.00019332349459229718,0.2561409972860217,1.4272999857366024,-0.7071067744942521,1.7023821603615054e-05,-5.900928808794192e-05,0.7071067852117021,0,-1,-1.1746083394825746e-05,-1.5709403196917933,-7.18275653284195e-05,-1.570796314870016,-8.32716571252945e-05,0.000107858024421148
1327,1734172338,108886957,-0.00021187244747018953,0.2561410001367529,1.4272999819301886,-0.707106778225335,-1.6716036291021455e-05,-5.0647055153934735e-05,0.7071067821363594,0,-1,-1.1746083394825746e-05,-1.57092792192568,-4.7985707418263246e-05,-1.570796314870016,-8.32716571252945e-05,0.000107858024421148
1343,1734172338,124804496,-0.00019621958660721744,0.2561410047238795,1.427299984001726,-0.7071067773306319,4.12698324509945e-06,-6.306070503845098e-05,0.7071067822185018,0,-1,2.3968450477696024e-05,-1.57092792192568,-3.5587941304981996e-05,-1.5707476774798792,-5.990663637334137e-05,9.58738019107841e-05
1358,1734172338,141048669,-0.00018340011971204406,0.2561409999232389,1.4272999867538558,-0.7071067776286516,1.2618170248834124e-05,-4.626378289504154e-05,0.7071067831184119,0,-1,0.0,-1.570916000996725,-4.7985707418263246e-05,-1.5707839171039026,-8.32716571252945e-05,9.58738019107841e-05
1374,1734172338,156530380,-0.00016894241724120252,0.25614099982516303,1.427299988926366,-0.7071067763927534,2.5497947607104475e-05,-4.181337502217432e-05,0.7071067842843435,0,-1,-1.1746083394825746e-05,-1.570916000996725,-4.7985707418263246e-05,-1.5707719961749476,-7.135072817021637e-05,8.388957940042019e-05
1390,1734172338,172839879,-0.0001867155929051024,0.2561409956065037,1.4272999871483087,-0.7071067771394794,-1.6951758536009318e-05,-5.0456088117690024e-05,0.7071067832302554,0,-1,2.3968450477696024e-05,-1.5709403196917933,-3.5587941304981996e-05,-1.570796314870016,-8.32716571252945e-05,7.190534961409867e-05
1406,1734172338,188927888,-0.0002042522206621564,0.256140997493828,1.427299984172363,-0.707106776688344,-2.588273514067975e-08,-5.043370880406657e-05,0.7071067838861828,0,-1,2.3968450477696024e-05,-1.57092792192568,-7.18275653284195e-05,-1.5707719961749476,-7.135072817021637e-05,7.190534961409867e-05
1422,1734172338,205110311,-0.00021858716175792548,0.2561409921319131,1.4272999830315845,-0.707106775602872,-4.431534244262176e-06,-4.632047664328162e-05,0.7071067852391776,0,-1,0.0,-1.57092792192568,-3.5587941304981996e-05,-1.5707600752459925,-0.000119511281148732,0.000107858024421148
1438,1734172338,220644950,-0.00018286725420707978,0.2561409997139847,1.4272999868806906,-0.7071067752239873,2.973501259238131e-05,-4.6005679554708496e-05,0.7071067850272968,0,-1,1.1984225238848012e-05,-1.570916000996725,-4.7985707418263246e-05,-1.5707839171039026,-8.32716571252945e-05,7.190534961409867e-05
1454,1734172338,236766099,-0.00017497399961813166,0.2561410039268323,1.4272999868821805,-0.7071067756573632,4.6110562536240324e-05,-4.636523471715257e-05,0.7071067836922005,0,-1,0.0,-1.570916000996725,-1.1746083394825746e-05,-1.5707719961749476,-9.519258608037262e-05,0.00011984225420746952
1471,1734172338,252858400,-0.00016562116326697995,0.25614099592905515,1.4272999899688694,-0.7071067774466353,1.691724826315814e-05,-3.344582068703463e-05,0.7071067839331047,0,-1,1.1984225238848012e-05,-1.57092792192568,-2.366701234990387e-05,-1.570796314870016,-8.32716571252945e-05,8.388957940042019e-05
1486,1734172338,269146442,-0.00014477034976294125,0.25614099982516303,1.4272999917288542,-0.7071067770315664,2.969025486922149e-05,-3.762106789407815e-05,0.7071067837174061,0,-1,0.0,-1.57092792192568,-3.5587941304981996e-05,-1.5707839171039026,-5.990663637334137e-05,0.00011984225420746952
1502,1734172338,284725189,-0.0001968256250575327,0.25614099773705123,1.4272999852860992,-0.7071067783641085,-1.2568486592574138e-05,-4.645474830437142e-05,0.7071067823713199,0,-1,-1.1746083394825746e-05,-1.570916000996725,-1.1746083394825746e-05,-1.5707600752459925,-8.32716571252945e-05,0.000107858024421148
1519,1734172338,301053047,-0.00014699686992165794,0.2561409962642723,1.427299991873492,-0.7071067773056979,3.402876993898818e-05,-2.4763668714240462e-05,0.707106783814972,0,-1,-1.1746083394825746e-05,-1.570916000996725,-1.1746083394825746e-05,-1.5707600752459925,-8.32716571252945e-05,9.58738019107841e-05
1534,1734172338,317154645,-0.00015007975296595975,0.25614099780426436,1.427299991138495,-0.7071067767183641,3.841204313043405e-05,-3.762106693453304e-05,0.7071067836106056,0,-1,3.5952674807049334e-05,-1.57092792192568,-3.5587941304981996e-05,-1.5707719961749476,-7.135072817021637e-05,0.00011984225420746952
1551,1734172338,333312511,-0.0002209834826035678,0.2561409972933168,1.4272999812194767,-0.7071067759605653,4.087350127189554e-06,-4.632047570205686e-05,0.7071067848835578,0,-1,1.1984225238848012e-05,-1.5709527174579065,-3.5587941304981996e-05,-1.5707600752459925,-8.32716571252945e-05,9.58738019107841e-05
1567,1734172338,348844051,-0.00021083964272728775,0.25614099473405993,1.4272999832836637,-0.7071067757185484,1.2618170823270648e-05,-4.6174267590404474e-05,0.7071067850343661,0,-1,2.3968450477696024e-05,-1.5709040800677698,-1.1746083394825746e-05,-1.5707476774798792,-8.32716571252945e-05,8.388957940042019e-05
1583,1734172338,364928960,-0.0001977544914993575,0.2561410001367529,1.427299984193926,-0.7071067784115778,-4.004846263307239e-06,-3.793586505043223e-05,0.7071067829325577,0,-1,0.0,-1.5709040800677698,-3.5587941304981996e-05,-1.5707719961749476,-9.519258608037262e-05,7.190534961409867e-05
1599,1734172338,381209611,-0.00015501672008668148,0.2561410014229695,1.4272999901775305,-0.7071067751971694,3.822639461794915e-05,-5.4586577374863315e-05,0.7071067840356985,0,-1,2.3968450477696024e-05,-1.570916000996725,-3.5587941304981996e-05,-1.5707719961749476,-9.519258608037262e-05,8.388957940042019e-05
1614,1734172338,397221565,-0.00016969495982990628,0.25614100130646456,1.4272999884579194,-0.7071067727438572,4.2463456951256e-05,-6.720825409237734e-05,0.707106785160256,0,-1,0.0,-1.5709646383868616,0.0,-1.5707719961749476,-0.000119511281148732,8.388957940042019e-05
1631,1734172338,413447618,-0.00018067756843571995,0.2561410020631626,1.427299986663953,-0.7071067770865365,2.1199067896411883e-05,-4.598862035069627e-05,0.7071067834732867,0,-1,3.5952674807049334e-05,-1.57092792192568,-3.5587941304981996e-05,-1.5707600752459925,-9.519258608037262e-05,7.190534961409867e-05
1647,1734172338,428978681,-0.00024189367138125972,0.2561410056217993,1.427299975346584,-0.7071067743969757,-4.024963528806804e-07,-8.444892362695309e-05,0.7071067829331874,0,-1,0.0,-1.5708921591388147,-3.5587941304981996e-05,-1.5707719961749476,-0.00010711351503545075,8.388957940042019e-05
1663,1734172338,445087909,-0.00021168277399073005,0.2561409973067027,1.427299982902074,-0.7071067756167317,-1.9447016772793868e-07,-5.9031665822229116e-05,0.7071067842922548,0,-1,2.3968450477696024e-05,-1.5709040800677698,-4.7985707418263246e-05,-1.570796314870016,-9.519258608037262e-05,8.388957940042019e-05
1679,1734172338,461058378,-0.0001647549763564976,0.25614100007746016,1.4272999891809641,-0.7071067784622439,4.379768173741409e-06,-3.7980620388718546e-05,0.7071067828772661,0,-1,-1.1746083394825746e-05,-1.5709403196917933,0.0,-1.5707719961749476,-0.00014335313905888825,8.388957940042019e-05
1694,1734172338,477320671,-0.0001531396263479042,0.2561410036193321,1.427299989899173,-0.7071067771908369,4.223305256532684e-05,-3.338400545230663e-05,0.7071067831329759,0,-1,-2.366701234990387e-05,-1.5709040800677698,-7.18275653284195e-05,-1.5707719961749476,-7.135072817021637e-05,0.00011984225420746952
1711,1734172338,493213653,-0.00021988437297491581,0.2561409972084129,1.4272999814168426,-0.7071067750082946,-1.7120346289814073e-05,-7.595754204862947e-05,0.7071067830778563,0,-1,1.1984225238848012e-05,-1.570916000996725,-1.1746083394825746e-05,-1.5707839171039026,-8.32716571252945e-05,0.000107858024421148
1727,1734172338,508776664,-0.00017619024655489098,0.25614099762087483,1.4272999880623582,-0.7071067763770194,3.367453409452978e-05,-3.359203134468629e-05,0.707106784396318,0,-1,0.0,-1.5709403196917933,0.0,-1.5707839171039026,-5.990663637334137e-05,0.000107858024421148
1743,1734172338,524961233,-0.00016612898262810988,0.25614099803567897,1.427299989655335,-0.7071067779340103,2.1221447200533432e-05,-2.0757009231146695e-05,0.7071067838159798,0,-1,1.1984225238848012e-05,-1.57092792192568,-5.990663637334137e-05,-1.5707600752459925,-0.00010711351503545075,7.190534961409867e-05
1758,1734172338,541066646,-0.00024591763100277424,0.25614099678524616,1.42729997680061,-0.707106772286064,-2.1627449489672288e-05,-8.889401453078911e-05,0.7071067841686233,0,-1,0.0,-1.5709403196917933,-1.1746083394825746e-05,-1.5707600752459925,-7.135072817021637e-05,9.58738019107841e-05
1774,1734172338,557183265,-0.00014292059336969474,0.2561410067375048,1.4272999902102086,-0.707106775407037,5.116286609076489e-05,-6.727538991781056e-05,0.707106781914758,0,-1,-1.1746083394825746e-05,-1.570916000996725,0.0,-1.5707476774798792,-9.519258608037262e-05,8.388957940042019e-05
1790,1734172338,572851181,-0.00015911125164770918,0.2561409960850876,1.4272999907402975,-0.7071067771384737,1.2764380641376834e-05,-3.75986882704752e-05,0.7071067841198032,0,-1,2.3968450477696024e-05,-1.570916000996725,-4.7985707418263246e-05,-1.5707839171039026,-0.000119511281148732,0.00011984225420746952
1807,1734172338,588947057,-0.00014370451106766343,0.2561409999232389,1.4272999917046347,-0.7071067781832259,2.9606060047310115e-05,-2.927589316362622e-05,0.7071067829640313,0,-1,1.1984225238848012e-05,-1.5709403196917933,-3.5587941304981996e-05,-1.5707600752459925,-8.32716571252945e-05,0.000107858024421148
1822,1734172338,604991197,-0.00020315311102902972,0.25614099740892404,1.427299984343,-0.7071067760216069,4.188802092831501e-06,-5.464839361171603e-05,0.7071067842273443,0,-1,2.3968450477696024e-05,-1.570916000996725,-4.7985707418263246e-05,-1.5707719961749476,-8.32716571252945e-05,9.58738019107841e-05
1838,1734172338,620565652,-0.0001880179875949581,0.2561410045297722,1.4272999853137105,-0.7071067775315143,1.2578733163723289e-05,-5.460895512851943e-05,0.707106782621009,0,-1,-1.1746083394825746e-05,-1.5709403196917933,-1.1746083394825746e-05,-1.5707839171039026,-7.135072817021637e-05,7.190534961409867e-05
1854,1734172338,636672735,-0.0001757647648061149,0.25614099982516303,1.4272999879077781,-0.7071067765328455,2.1260885133233618e-05,-4.605043754212406e-05,0.7071067840210985,0,-1,-1.1746083394825746e-05,-1.570916000996725,-1.1746083394825746e-05,-1.5707476774798792,-9.519258608037262e-05,9.58738019107841e-05
1871,1734172338,652920484,-0.00018636238728874193,0.25614099761014786,1.4272999859738582,-0.7071067763352509,1.2809136826528449e-05,-4.602805887839354e-05,0.7071067844237624,0,-1,-1.1746083394825746e-05,-1.57092792192568,-3.5587941304981996e-05,-1.5707839171039026,-9.519258608037262e-05,8.388957940042019e-05
1886,1734172338,669104099,-0.00027551218241147037,0.2561409999232389,1.4272999696084696,-0.7071067732227846,-2.9843473005647622e-05,-8.87254255821509e-05,0.7071067829540512,0,-1,2.3968450477696024e-05,-1.5709403196917933,-2.366701234990387e-05,-1.5707476774798792,-9.519258608037262e-05,9.58738019107841e-05
1902,1734172338,684670209,-0.0002462317835954177,0.25614099409501934,1.4272999776240356,-0.7071067757656624,-1.7097968335262834e-05,-5.9031667447051104e-05,0.707106783936635,0,-1,1.1984225238848012e-05,-1.5709403196917933,-4.7985707418263246e-05,-1.5707476774798792,-9.519258608037262e-05,0.000107858024421148
1919,1734172338,700728893,-0.0001970748060501489,0.2561410021576901,1.427299984343,-0.707106775984811,8.341668065058797e-06,-6.727538980849516e-05,0.7071067831387314,0,-1,-2.366701234990387e-05,-1.570916000996725,-3.5587941304981996e-05,-1.5707719961749476,-7.135072817021637e-05,8.388957940042019e-05
1935,1734172338,716864824,-0.0001681230540605324,0.2561410038758692,1.4272999877464938,-0.7071067767985983,2.5368994887096858e-05,-5.86774328078683e-05,0.707106782684815,0,-1,1.1984225238848012e-05,-1.5709527174579065,-2.366701234990387e-05,-1.570796314870016,-0.00010711351503545075,8.388957940042019e-05
1950,1734172338,732919454,-0.000211490632819144,0.2561409925701017,1.427299984001726,-0.7071067773299597,-4.240569170886619e-06,-2.9270772310616934e-05,0.7071067844245862,0,-1,-3.5587941304981996e-05,-1.5709527174579065,-3.5587941304981996e-05,-1.5707476774798792,-9.519258608037262e-05,9.58738019107841e-05
1966,1734172338,748949527,-0.00015761397078165038,0.25614099805275126,1.4272999907171404,-0.707106777742123,4.312631716172178e-06,-4.609519453721468e-05,0.7071067831153836,0,-1,-1.1746083394825746e-05,-1.57092792192568,-1.1746083394825746e-05,-1.5707476774798792,-0.00013143221010381012,0.00011984225420746952
1982,1734172338,764763116,-0.00015120302606289672,0.25614099958446024,1.4272999911147897,-0.7071067757670465,2.5599399532281025e-05,-5.8907837357563087e-05,0.7071067836889059,0,-1,-2.366701234990387e-05,-1.5709040800677698,-4.7985707418263246e-05,-1.5707476774798792,-8.32716571252945e-05,7.190534961409867e-05
1998,1734172338,781132698,-0.00017747306930572358,0.25614100007746016,1.427299987593417,-0.7071067788621791,1.2747320656484226e-05,-2.9613067958687454e-05,0.7071067827759293,0,-1,0.0,-1.5709403196917933,-2.366701234990387e-05,-1.5707476774798792,-0.00010711351503545075,7.190534961409867e-05
2014,1734172338,797281026,-0.00023129283384180194,0.25614098903200044,1.4272999814700242,-0.7071067745874844,-1.7266555114304977e-05,-5.0681369847747356e-05,0.7071067857585227,0,-1,2.3968450477696024e-05,-1.5709403196917933,-5.990663637334137e-05,-1.5707839171039026,-0.00010711351503545075,7.190534961409867e-05
2030,1734172338,812579154,-0.00021740601186770515,0.25614099712693583,1.4272999817359284,-0.7071067744609371,2.5205529548265132e-05,-4.206103541148093e-05,0.7071067862119554,0,-1,0.0,-1.57092792192568,-7.18275653284195e-05,-1.5707600752459925,-9.519258608037262e-05,7.190534961409867e-05
2046,1734172338,829171419,-0.00021015842097643685,0.2561409975080202,1.4272999830989668,-0.707106775667788,-2.55049594457238e-05,-6.748341576842786e-05,0.7071067830251596,0,-1,-1.1746083394825746e-05,-1.57092792192568,-5.990663637334137e-05,-1.5707600752459925,-5.990663637334137e-05,0.000107858024421148
2063,1734172338,845220804,-0.0002450220353993394,0.2561409970902069,1.4272999766906116,-0.7071067762972346,-1.2984734464813834e-05,-5.4963190737066965e-05,0.7071067838205041,0,-1,0.0,-1.570916000996725,-9.566942323857575e-05,-1.5707476774798792,-8.32716571252945e-05,8.388957940042019e-05
2079,1734172338,860499382,-0.0002601152037649131,0.256141003290087,1.42729996916299,-0.7071067782420303,-3.7975107297572386e-05,-6.301594717449151e-05,0.707106780303412,0,-1,4.793690095539205e-05,-1.5708921591388147,-0.00022727647890263825,-1.5707476774798792,3.5952674807049334e-05,8.388957940042019e-05
2094,1734172338,877056837,-0.0004101044246341495,0.2561409843663884,1.427299915777036,-0.7071067873649931,-0.00015629977796504957,-1.2239621774773142e-05,0.7071067576278206,0,-1,9.58738019107841e-05,-1.5709403196917933,-0.0005868116961877945,-1.5706637541400355,0.00033555831760168076,0.00016777915880084038
2110,1734172338,892966508,-0.0007628430178537156,0.2561409142925226,1.4272996696673166,-0.7071068014624058,-0.0004232739045152298,3.4064060793772514e-05,0.7071066334043594,0,-1,0.00015579492901451886,-1.5708921591388147,-0.0012572447406213882,-1.5704963842975062,0.000874848454259336,0.00032357408781535923
2127,1734172338,909145832,-0.0014083660268481143,0.2561406660586294,1.427298794756991,-0.7071068843262633,-0.000837825618943757,0.00016185612589821044,0.707106163167336,0,-1,0.00031121534993872046,-1.5708802382098597,-0.002251450215474904,-1.5701964537249964,0.0016890267143025994,0.000550899829249829
2143,1734172338,924852132,-0.0023790126236230814,0.25613989944982885,1.4272965525414538,-0.7071070613036627,-0.001494244797517642,0.0003690014209909784,0.707104825980515,0,-1,0.0004786200006492436,-1.57092792192568,-0.0037835280047815445,-1.5699084440814417,0.0028870748355984688,0.0009343950659967959
2158,1734172338,941259622,-0.003808420402842067,0.2561382154732595,1.4272910861463963,-0.7071074435505947,-0.0024338653124721275,0.0005217409994669555,0.7071017376313771,0,-1,0.0007179299718700349,-1.5709884802447718,-0.005807224904195607,-1.5695012251483362,0.004395963624119759,0.0013894210569560528
2175,1734172338,956901073,-0.0056503570940218805,0.25613478060167266,1.4272803811839867,-0.7071082800553551,-0.0036191482290368737,0.0007844507205570316,0.7070955852501986,0,-1,0.0010171610629186034,-1.5710962454425257,-0.00828582445253545,-1.5690215269671839,0.006372237112373114,0.002000242006033659
2190,1734172338,973185300,-0.007942551256673095,0.25612921823340756,1.4272611986736357,-0.7071100065215242,-0.005096690728964344,0.0010856182926701336,0.7070843541287459,0,-1,0.0013163922121748328,-1.571252171193258,-0.011231247578756154,-1.568373982106344,0.008887801319360733,0.002802436240017414
2207,1734172338,988865852,-0.010641049150395725,0.25612028536157416,1.4272309018181866,-0.7071129855859123,-0.0068112466058473185,0.0015050802272068844,0.7070661689466987,0,-1,0.0017714182613417506,-1.571479622517721,-0.014775578175679982,-1.5677502791034144,0.011702596209943295,0.003712862730026245
2222,1734172339,4645586,-0.013876312214727439,0.25610596241659406,1.4271832780083085,-0.7071171741013521,-0.008876779919334688,0.001912122607319917,0.7070380814753308,0,-1,0.0022144601680338383,-1.5717318693744105,-0.018762890492574513,-1.5669587294207972,0.014972791075706482,0.0047187888994812965
2239,1734172339,20999670,-0.017482912279123148,0.25608542017306435,1.4271158911585413,-0.7071229847280502,-0.01117949991421786,0.0023865540161136746,0.7069981666248434,0,-1,0.0027526267804205418,-1.572043244038717,-0.02307302156557256,-1.566059414540426,0.018518250435590744,0.005904478020966053
2254,1734172339,36738395,-0.021353698148470355,0.2560587613546375,1.427025999275595,-0.7071314196036492,-0.013634156810566228,0.0029375162359801823,0.7069445778671452,0,-1,0.0033391048200428486,-1.5723555723773401,-0.027767483388082326,-1.5650647322284144,0.022326985374093056,0.007042230572551489
2270,1734172339,53109169,-0.025466020641162587,0.2560220902641449,1.4269113506160418,-0.707140531236827,-0.01628795155493116,0.0035261738900460213,0.7068766072052035,0,-1,0.003961535636335611,-1.5726912657367151,-0.032784287129537404,-1.564045254384176,0.026411734521389008,0.00833540316671133
2286,1734172339,68825006,-0.02988835352587142,0.2559788591711192,1.4267663226556848,-0.7071532877216924,-0.019067723483524885,0.004089662814858754,0.7067912876115678,0,-1,0.004559623077511787,-1.5730631987201136,-0.03794461885561162,-1.5629304091082972,0.030687855556607246,0.00960498210042715
2302,1734172339,85097551,-0.03436308029312907,0.25592498760310695,1.426595150852504,-0.70716766391873,-0.021936530253127886,0.004758027698662258,0.7066894968234625,0,-1,0.005265943240374327,-1.5733869711505335,-0.04333240190614873,-1.5617793242083948,0.03499992936849594,0.010958450846374035
2318,1734172339,100760221,-0.038983976127022334,0.25586379958222605,1.4263933344080957,-0.7071858978768631,-0.02481301562697474,0.0054183757776327815,0.7065713419772435,0,-1,0.0059003583155572414,-1.5737102667437952,-0.048792664204732716,-1.5605557600604456,0.039431847631931305,0.01244337111711502
2334,1734172339,116612672,-0.04357077136695893,0.2557920643402786,1.4261675980492377,-0.7072060566167119,-0.027743847798604903,0.006183588467666496,0.7064358680217409,0,-1,0.006582335568964481,-1.57402211824526,-0.05428821245302373,-1.5592611471759241,0.043959636241197586,0.013820807449519634
2350,1734172339,132931947,-0.048207649305203215,0.2557133901968305,1.4259128590756078,-0.7072293328395212,-0.030695422606852287,0.006902306902009499,0.7062838097831373,0,-1,0.007288656197488308,-1.574334446583883,-0.05980807939638311,-1.558026138936178,0.048595283180475235,0.015389617532491684
2366,1734172339,148652791,-0.05290393213602042,0.25562588097123773,1.4256300701972817,-0.7072564443243701,-0.03366340402373993,0.007662342928687875,0.7061135784645605,0,-1,0.00791108701378107,-1.574658219014303,-0.06533986726869756,-1.5568516890155237,0.05313505977392197,0.016946444287896156
2383,1734172339,164972066,-0.057525968056233986,0.25553453463500253,1.4253241715422562,-0.7072874079934185,-0.036574959013773514,0.00838431141336923,0.705929527778245,0,-1,0.008521158248186111,-1.5749219099627894,-0.07069141069521123,-1.555688206349508,0.05760330334305763,0.018383800983428955
2398,1734172339,180675268,-0.0618993035521557,0.25543726037379644,1.4250093151910483,-0.7073167763603657,-0.039409981428893015,0.009105590591364572,0.7057385631116789,0,-1,0.009167557582259178,-1.575209919606344,-0.07589990297426397,-1.554572884236471,0.06199926510453224,0.0197728481143713
2415,1734172339,196981430,-0.06627215268580165,0.2553349751897782,1.4246758928481358,-0.7073497423928287,-0.04215104912333301,0.009817873519685966,0.7055375541770637,0,-1,0.009742051362991333,-1.5754855314837855,-0.080940071736471,-1.553434197102682,0.0661679059267044,0.02110234834253788
2430,1734172339,212741374,-0.0703372850765288,0.2552348624097548,1.4243373182275436,-0.7073829279917669,-0.0447731505036948,0.01047036152103935,0.7053333465173661,0,-1,0.010316545143723488,-1.5757373015033167,-0.08593303362001592,-1.5523665587054651,0.0702170729637146,0.022419864311814308
2447,1734172339,229022502,-0.07448718688485029,0.25512370741132934,1.4239765129240278,-0.7074143269924461,-0.04742838787918559,0.011046596028545843,0.7051194868284297,0,-1,0.01087905466556549,-1.5760133902179163,-0.09072238603700811,-1.551300350819723,0.07407374680042267,0.023701053112745285
2462,1734172339,244746685,-0.07840399776577049,0.25501592248874344,1.42361595872037,-0.7074490243556039,-0.04992221583422545,0.011639321840427565,0.7049029553715889,0,-1,0.01139362808316946,-1.5762413183795374,-0.09539157549013311,-1.5503047148333948,0.07785926759243011,0.024838805198669434
2478,1734172339,260967969,-0.08212672900344622,0.25490612950000274,1.4232544598720835,-0.707482904523879,-0.05232696259425331,0.012209937218645144,0.7046848559641624,0,-1,0.011932543478906155,-1.5764692465411585,-0.0997851530658167,-1.5493453184710901,0.0815485343337059,0.026000525802373886
2494,1734172339,276702165,-0.08573233277993966,0.2547975434306051,1.4228892595365095,-0.7075169567193492,-0.054553696121337814,0.012670624271268673,0.7044736371750667,0,-1,0.01242277305573225,-1.5767090956317347,-0.10416728654970342,-1.5483863989459437,0.08491497486829758,0.027126293629407883
2511,1734172339,293014287,-0.08931029184536535,0.2546822184949915,1.4225114397635894,-0.7075523838155718,-0.05688467682012538,0.013253592422766714,0.7042429268284225,0,-1,0.01293771993368864,-1.5769127050982874,-0.10844165483583623,-1.5474866072284144,0.08846081048250198,0.02820412442088127
2526,1734172339,309184789,-0.09293362649183994,0.25456110623391415,1.4221116865761627,-0.7075880045579948,-0.05921506647286515,0.013785300475830337,0.704004799130688,0,-1,0.013428324833512306,-1.5771406332599085,-0.11275178590883428,-1.5464800039874476,0.09200626611709595,0.029329894110560417
2543,1734172339,325142383,-0.09655117504920527,0.25443517035986374,1.421697347726144,-0.7076276228985454,-0.06151961082461489,0.014349984363373088,0.7037560392236167,0,-1,0.014002818614244461,-1.5773566404925745,-0.11720592180360967,-1.5454967657672327,0.09560003876686096,0.030491240322589874
2559,1734172339,341351270,-0.10031537232088242,0.25429816953564777,1.4212489179707304,-0.7076669973857594,-0.0639112853514074,0.014901612064104277,0.7034917983698498,0,-1,0.014553343877196312,-1.5775840918170374,-0.12188703218568975,-1.5443938414203089,0.09932563453912735,0.031665317714214325
2575,1734172339,357167005,-0.1040547041374728,0.25415640587625876,1.4207821833137533,-0.7077103611904871,-0.06633990355596786,0.015490112524335027,0.7032105788978139,0,-1,0.015079900622367859,-1.5777762571917933,-0.12654477754701787,-1.5434344450580042,0.1031111478805542,0.03286299109458923
2591,1734172339,373384237,-0.10799630742697965,0.254004309524315,1.4202772648479434,-0.7077564707162766,-0.0688518687747995,0.016052012236108235,0.7029100449051997,0,-1,0.015654394403100014,-1.578076187764303,-0.13138133684267217,-1.5424030462848108,0.10711238533258438,0.03410860151052475
2607,1734172339,389237165,-0.11218386756366568,0.2538363919688423,1.4197231664114398,-0.7078080991921635,-0.07152647602746337,0.01664251664681473,0.7025771734014206,0,-1,0.01627645082771778,-1.578423325215475,-0.1363142172442835,-1.541419808064596,0.11118477582931519,0.03536619618535042
2623,1734172339,404904842,-0.11645482723049991,0.2536517476996448,1.4191379844266392,-0.7078586292681937,-0.07423810476851721,0.01722706920523488,0.7022307974288302,0,-1,0.016922850161790848,-1.5787718931781214,-0.14143830934633428,-1.5403888861285608,0.11523394286632538,0.03663540259003639
2639,1734172339,421062231,-0.12080625338938536,0.2534659053687365,1.4185166495903883,-0.7079140555774325,-0.07701899009763981,0.01775611912176279,0.7018621554935024,0,-1,0.017509328201413155,-1.5791075865374964,-0.1465981642352503,-1.5393098036395472,0.11936700344085693,0.03795291855931282
2654,1734172339,436844825,-0.12517007028114138,0.25326981446110874,1.417870571503044,-0.7079713859583681,-0.07979072381709647,0.018334534668191495,0.7014797230821659,0,-1,0.01817931979894638,-1.5794671217547815,-0.1517704168902796,-1.5382311979876917,0.12363151460886002,0.039246466010808945
2671,1734172339,453130960,-0.12958718511269116,0.2530631576204317,1.4171886613029487,-0.7080325404701724,-0.08263121981013628,0.018924549569874674,0.7010733660406878,0,-1,0.0188377033919096,-1.5797670523272913,-0.15707427660097295,-1.537163559590475,0.1279083788394928,0.04056360572576523
2687,1734172339,468869209,-0.1339907624179716,0.2528435387799222,1.4164872608398116,-0.7080924484561771,-0.08547017387948042,0.01953856783777336,0.7006555346125486,0,-1,0.019436540082097054,-1.5801146666156214,-0.16235334077943975,-1.536048714314596,0.13218487799167633,0.04190509021282196
2703,1734172339,485027790,-0.13839425879408324,0.25262575453785685,1.4157598319368967,-0.7081589952825226,-0.08827405088124149,0.020142773584623488,0.7002233915071553,0,-1,0.020118143409490585,-1.5804508368121546,-0.16762143770326787,-1.5349333922015589,0.13650968670845032,0.04328252747654915
2718,1734172339,500898599,-0.14278966800138532,0.2523916113650243,1.4150115573479956,-0.7082238589004922,-0.09114334475855394,0.02079597381913368,0.699770950999849,0,-1,0.020704995840787888,-1.5807388464557093,-0.17280513445009404,-1.5338543097125452,0.14088205993175507,0.04463561996817589
2735,1734172339,517117023,-0.14720386476902736,0.25215978863169614,1.4142372146201772,-0.7082984512836351,-0.09395081054424097,0.02144871027595705,0.6993042985244564,0,-1,0.021351395174860954,-1.581062142048971,-0.1781085173236292,-1.532679859791891,0.1452188491821289,0.046001072973012924
2751,1734172339,532869815,-0.1515370028160676,0.2519163615531492,1.4134462314403902,-0.7083709869794078,-0.09675270481455629,0.02211235639527762,0.6988279492203608,0,-1,0.02197345159947872,-1.5813501516925257,-0.18340045610536748,-1.5315282980548304,0.14954328536987305,0.047461651265621185
2767,1734172339,549041986,-0.15594609088753236,0.2516695399637926,1.4126204299592775,-0.7084523912255374,-0.09952663147736056,0.02276614364768222,0.6983347060665115,0,-1,0.022607866674661636,-1.5816739241229456,-0.18867999712099248,-1.530365292225973,0.15384411811828613,0.048910994082689285
2782,1734172339,564844608,-0.1603232659114758,0.2514167924600567,1.4117769541799954,-0.7085316679380936,-0.10230340959593809,0.023397396096738618,0.6978319638493217,0,-1,0.0232302974909544,-1.5819619337665003,-0.1939476172076624,-1.5291789213763636,0.1581209897994995,0.05026446282863617
2799,1734172339,581435680,-0.1645901728482339,0.25115973427933225,1.4109306536062705,-0.7086100954791229,-0.1050027073112955,0.02401953826232305,0.6973300694965272,0,-1,0.023804791271686554,-1.5823095480548304,-0.19904786745180303,-1.5280516783343714,0.16225405037403107,0.05160557106137276
2815,1734172339,596979141,-0.168778400113051,0.2508985572232126,1.4100802438901852,-0.7086887099649753,-0.10766211703983836,0.02464491859478884,0.6968226524088718,0,-1,0.024462800472974777,-1.5826333204852503,-0.20411187807192022,-1.5269482771502894,0.16637513041496277,0.05297102406620979
2830,1734172339,613146305,-0.17299312533962244,0.2506318097005266,1.409200555747888,-0.7087715106636517,-0.11032840846371307,0.025259593232749185,0.6962991748574352,0,-1,0.025037294253706932,-1.5829451719867151,-0.20916444460024053,-1.5258696714984339,0.17054452002048492,0.054252587258815765
2846,1734172339,628877639,-0.17712994177557886,0.2503658072069825,1.408314545206906,-0.7088537451744518,-0.1130046464116177,0.025869900103803745,0.6957636567902623,0,-1,0.02562377229332924,-1.5831974188434046,-0.214179817830221,-1.5247543493853968,0.17462962865829468,0.05556973069906235
2862,1734172339,645179033,-0.1813045416604879,0.2500905021952967,1.4073959114598584,-0.7089353717323812,-0.1156750388715095,0.02640676527320859,0.6952212646607919,0,-1,0.026222234591841698,-1.583461109791891,-0.21926814714540654,-1.523675266896383,0.17873872816562653,0.05680335685610771
2879,1734172339,660907506,-0.18533543873826497,0.2498137604872389,1.4064819299853448,-0.7090213832350898,-0.11829302343450836,0.02702649514545798,0.694668991162176,0,-1,0.02684466540813446,-1.5837724844561976,-0.22426015535463506,-1.522548023854391,0.18282422423362732,0.058132853358983994
2894,1734172339,677157878,-0.18937426842344104,0.2495256363688932,1.4055445921203298,-0.7091073149804252,-0.12092947956642815,0.027666070347347783,0.6941019128086167,0,-1,0.027407174929976463,-1.584012810383932,-0.22925216356386358,-1.521445099507467,0.18695728480815887,0.059414416551589966
2911,1734172339,692903280,-0.19349926141243506,0.24923164138367698,1.4045781149356933,-0.7091936397091957,-0.12357639214915032,0.028257663827331626,0.6935234394989432,0,-1,0.02802922949194908,-1.5842765013324183,-0.23425609270204717,-1.5203903357135218,0.19105476140975952,0.06073155999183655
2926,1734172339,709286928,-0.19755605525605457,0.24893291857068917,1.4035981608228576,-0.7092840700376055,-0.12621217277591038,0.028864487250719693,0.692931047659019,0,-1,0.028639676049351692,-1.5846002737628382,-0.23921233812441045,-1.519322697316305,0.19515186548233032,0.06201312318444252
2943,1734172339,725043058,-0.20163543586757288,0.24862526021447018,1.4025846982752703,-0.7093765594819553,-0.12886673593435313,0.029439503063432463,0.6923233181733429,0,-1,0.02920255996286869,-1.5848644415484827,-0.24426442781557256,-1.5182321707354944,0.19932125508785248,0.06329468637704849
2958,1734172339,741353034,-0.20571533362545344,0.24831050047951383,1.401560877932454,-0.7094710268721275,-0.13151004257253956,0.030055121260022737,0.6917027254663836,0,-1,0.02983660064637661,-1.5851643721209925,-0.2493522802935999,-1.517200771962301,0.20344233512878418,0.06460021436214447
2975,1734172339,756920099,-0.20983414858120733,0.24799584718619178,1.4004967175640501,-0.7095683683050195,-0.13417161667249058,0.030597847516655986,0.6910676375781101,0,-1,0.030411094427108765,-1.5854280630694788,-0.25442821184267217,-1.5161336104022425,0.20755180716514587,0.06586942076683044
2990,1734172339,772774219,-0.21399090602891097,0.24766155923160152,1.399404791554289,-0.70966938649693,-0.13683047854019362,0.03117924256025943,0.6904162779402736,0,-1,0.03104550950229168,-1.5857036749469202,-0.2594674269305628,-1.515043083821432,0.21163730323314667,0.06721090525388718
3007,1734172339,789087295,-0.21800439270976463,0.2473338706266362,1.3983233719522117,-0.7097671350550669,-0.13944117246780946,0.031739662857697644,0.6897676182731431,0,-1,0.03161963075399399,-1.5860512892352503,-0.2645199934588831,-1.51396352449526,0.21568647027015686,0.0685284212231636
3023,1734172339,804863691,-0.22209999510445083,0.24699494098951202,1.3972001742176123,-0.7098693812445325,-0.14205328359635755,0.03229362000972457,0.6891033654667963,0,-1,0.03223007544875145,-1.586339298878805,-0.26954776445497686,-1.5128486792193812,0.21977196633815765,0.06982196867465973
3039,1734172339,820997714,-0.22612678774246872,0.24665113695184182,1.396073542519736,-0.7099674380378735,-0.1446844938917364,0.03285046090882866,0.6884282688641628,0,-1,0.03279295936226845,-1.5865910688983362,-0.2745755354510706,-1.511794392262594,0.22380952537059784,0.07107918709516525
3054,1734172339,836828231,-0.23014921738863492,0.24631461447678954,1.3949237130990741,-0.7100740156357495,-0.14727032480628202,0.033397945686008325,0.6877433540022965,0,-1,0.03343898430466652,-1.5868070761310022,-0.27961522737611944,-1.5106666723834437,0.22785906493663788,0.07231281697750092
3071,1734172339,853073120,-0.2341072083665289,0.245970859349892,1.3937643057730844,-0.710180983827054,-0.14987030928945005,0.03396839069951352,0.6870429455552305,0,-1,0.03397752717137337,-1.5870826880084437,-0.2845714727984827,-1.5095999876605433,0.23201647400856018,0.0736183449625969
3086,1734172339,868830919,-0.23801723290023796,0.24562225587038897,1.392594356861228,-0.7102934473822526,-0.15244672076650104,0.034574162363921815,0.6863292527863057,0,-1,0.03459995612502098,-1.587311093007223,-0.2895396391498011,-1.5085566679583948,0.23616188764572144,0.07491189241409302
3103,1734172339,884994506,-0.24201487171076388,0.24525738663196334,1.3913869984500695,-0.7104060669736559,-0.1550402787415873,0.0351485551659726,0.6856021521585948,0,-1,0.03513849899172783,-1.5875867048846644,-0.29450732866396123,-1.507441822682516,0.24021144211292267,0.07619307935237885
3118,1734172339,901081323,-0.24596511172953459,0.2448923526639099,1.3901744282330966,-0.7105225699043094,-0.15761852020692804,0.03575899600794268,0.6848615728370645,0,-1,0.035712990909814835,-1.5878260771380823,-0.29945117632021123,-1.5063627401935022,0.24435685575008392,0.07752258330583572
3135,1734172339,917102575,-0.24987324796910407,0.244518666395631,1.3889438811270858,-0.7106404459089765,-0.16017333256103244,0.03635437765253573,0.6841147706343439,0,-1,0.036323439329862595,-1.5880902449237269,-0.30456287065614873,-1.5053437391864222,0.24846631288528442,0.07893597334623337
3151,1734172339,933044672,-0.2539654340476061,0.24412729540660194,1.3876416067018145,-0.7107631970694197,-0.16281875023939937,0.03691668055127047,0.6833321966358769,0,-1,0.036957476288080215,-1.5883896986590784,-0.30967456499208623,-1.504324738179342,0.25258776545524597,0.08028906583786011
3167,1734172339,949180603,-0.2581089914020345,0.24372007948169744,1.3862957131897822,-0.7108844422724356,-0.1655110857282923,0.03740759178906033,0.6825320961776031,0,-1,0.037555940449237823,-1.588653866444723,-0.31483346620668584,-1.5032332579242151,0.25663769245147705,0.08158261328935623
3183,1734172339,964919567,-0.2620351610164308,0.2433217143468382,1.384989768216882,-0.7110038899792365,-0.1680650818200121,0.037980124986280304,0.6817514993113348,0,-1,0.03817836940288544,-1.5889294783221644,-0.3199093977557581,-1.5021303335772913,0.26073554158210754,0.08292409777641296
3198,1734172339,981090068,-0.26608509490318644,0.24291618081057145,1.3836353424140668,-0.7111300747840767,-0.17069306622821878,0.03851924725266575,0.6809362389168976,0,-1,0.03882439434528351,-1.5892298857318323,-0.32487708726991826,-1.5011113325702112,0.2649528682231903,0.08421764522790909
3214,1734172339,996820449,-0.2700746173043669,0.24249714880671525,1.3822815817357994,-0.7112505083965731,-0.17331897487005593,0.03909021115798754,0.680114110019218,0,-1,0.03943484276533127,-1.5895293394671839,-0.3298571745501917,-1.500080410634176,0.26897844672203064,0.08554639667272568
3230,1734172340,12520551,-0.2739945961243087,0.24208466168823134,1.380920505039722,-0.7113749686994969,-0.17589191282383945,0.039660628761594416,0.6792898670208437,0,-1,0.04000971093773842,-1.5897811094867151,-0.334848705922262,-1.4989774862872522,0.2730643153190613,0.08682795614004135
3246,1734172340,28942823,-0.2778619838710075,0.24167862296180065,1.3795480004426668,-0.711499746986783,-0.17845387243836344,0.040187526193705574,0.6784594963503172,0,-1,0.04060779884457588,-1.590081040059225,-0.33984071413149053,-1.4978140036212366,0.2771977484226227,0.0880260095000267
3262,1734172340,44661521,-0.281751744889685,0.24125539873469704,1.3781527733962273,-0.7116280461330549,-0.18097501896606258,0.040800671402651895,0.6776200053718727,0,-1,0.041230227798223495,-1.590308968220846,-0.3448684851275843,-1.4967110792743128,0.281307578086853,0.08936711400747299
3278,1734172340,60924053,-0.28562511566724375,0.24081677899742826,1.3767406383265166,-0.711759691338706,-0.18351732905588125,0.04140914796123345,0.6767605294243675,0,-1,0.04175678640604019,-1.5905488173114222,-0.34987193742860967,-1.4956324736224573,0.2853691279888153,0.09066066145896912
3294,1734172340,76715946,-0.28954153837887625,0.24038224203400652,1.3752854267002579,-0.711888850110135,-0.18609341431097878,0.04189433073858268,0.6758907983475719,0,-1,0.04239082708954811,-1.5908363501178187,-0.35487538972963506,-1.49449330965151,0.2894669771194458,0.09194185584783554
3310,1734172340,92422723,-0.29345011558886624,0.23994603023940483,1.37381274830519,-0.7120258809948371,-0.18865209628417648,0.04244875522048787,0.6750019515092849,0,-1,0.042989663779735565,-1.5911243597613733,-0.35987884203066045,-1.493462387715475,0.2936011552810669,0.09319944679737091
3326,1734172340,108739614,-0.297407966296674,0.23948034885533093,1.3723168905004974,-0.7121563076229603,-0.19127457020883987,0.04299884107978294,0.6740908929588433,0,-1,0.04361172020435333,-1.5914719740497034,-0.3649185339557093,-1.492347542439596,0.29774656891822815,0.09445704519748688
3342,1734172340,124462604,-0.30130784728300286,0.23903689802589023,1.3708024381525943,-0.712295234502728,-0.19381885958432468,0.04351531797538773,0.6731836047287815,0,-1,0.04419819638133049,-1.591748062764303,-0.3700063864337366,-1.4912684599505823,0.30182045698165894,0.0957745611667633
3358,1734172340,140674829,-0.3052656239438615,0.23857404610004868,1.3692445970156446,-0.7124359700396224,-0.196411377074089,0.04401454859767401,0.6722501610719815,0,-1,0.044772692024707794,-1.5920360724078577,-0.3750575224505823,-1.4901893774615687,0.30593031644821167,0.09706810116767883
3374,1734172340,156920433,-0.30918895441654615,0.23810478065700277,1.367675727068579,-0.7125799509594798,-0.19900056735829294,0.04455312681744833,0.6712999378612002,0,-1,0.045431073755025864,-1.5923717657672327,-0.3800852934466761,-1.489110294972555,0.3100757300853729,0.09837326407432556
3390,1734172340,172836303,-0.3130269688301225,0.2376389275529623,1.3661066142206235,-0.7127270311233468,-0.20153632723058212,0.04508203266557113,0.6703513244883221,0,-1,0.04602916166186333,-1.5926111380206507,-0.3851364294635218,-1.4880431334124964,0.31416159868240356,0.09969078004360199
3406,1734172340,189002275,-0.3169563107905857,0.23715135534910037,1.3645111330494628,-0.7128690985675005,-0.20411020915858197,0.04560734041342601,0.6693852712192084,0,-1,0.04661564156413078,-1.5929473082171839,-0.3901637236224573,-1.4869526068316858,0.3182235062122345,0.1009363904595375
3422,1734172340,204685211,-0.32074903665545257,0.2366758351351905,1.3629217981235644,-0.7130106451418537,-0.20665277218894215,0.04611120373510709,0.6684191862529995,0,-1,0.04717852547764778,-1.5932109991656702,-0.3950117270099085,-1.4858611265765589,0.3223337233066559,0.10219398140907288
3439,1734172340,220890283,-0.3246172784402161,0.23618652906326126,1.3612915445968934,-0.7131583436831265,-0.20920610008126486,0.046619368208502175,0.6674313590413381,0,-1,0.04782455042004585,-1.593522850667135,-0.4000514189349573,-1.4848182837115687,0.32653942704200745,0.10343959182500839
3454,1734172340,237091302,-0.32851307628156795,0.23568272535675838,1.3596203210805042,-0.7133003226236097,-0.21178912632824348,0.04709933380185604,0.6664305428696938,0,-1,0.04841102659702301,-1.5937750975238245,-0.40519839922060186,-1.483703915272848,0.33057737350463867,0.10472115874290466
3471,1734172340,252911806,-0.3323500268590581,0.23519043470374762,1.357944873678213,-0.7134563110189217,-0.2143093303743195,0.04761081671349148,0.6654207791417823,0,-1,0.04903345927596092,-1.5940750280963343,-0.4102376143084925,-1.482600514088766,0.3347231447696686,0.10599035769701004
3486,1734172340,268990516,-0.3361353616887677,0.23468393405073412,1.3562637254017287,-0.7136085471635113,-0.21683024973845316,0.04812363263662891,0.6644031909882713,0,-1,0.04960757866501808,-1.594386402760641,-0.4152177015887659,-1.481497589741842,0.33873748779296875,0.10731986165046692
3502,1734172340,284697055,-0.3399253343580011,0.23417475284481332,1.3545769780818733,-0.7137658578456746,-0.21931039762368917,0.04867199239311697,0.6633794440774088,0,-1,0.05020603910088539,-1.5946982542621058,-0.4201610724078577,-1.480358902608053,0.3429076373577118,0.10860142111778259
3518,1734172340,300940036,-0.3437223077365416,0.23364995294327065,1.3528578152158144,-0.7139236219740327,-0.2218426975377337,0.04920688742394795,0.6623273826188275,0,-1,0.050804875791072845,-1.5950458685504358,-0.42515260377992803,-1.4793275038348597,0.34699350595474243,0.11000283062458038
3535,1734172340,316731929,-0.3474662916963439,0.23312598907696416,1.3511373791368602,-0.7140876192698509,-0.22428212804216766,0.04973151165288412,0.661289025914624,0,-1,0.05146288499236107,-1.5953219572650355,-0.4301560560809534,-1.4782488981830042,0.35107937455177307,0.11137989163398743
3550,1734172340,333103895,-0.3513077978845103,0.2325963082803128,1.3493500009807973,-0.7142587196434954,-0.22679566236245438,0.05021717922915737,0.6602093939479178,0,-1,0.052037376910448074,-1.5956338087665003,-0.4351595083819788,-1.4771936575519007,0.3552015721797943,0.1126854196190834
3566,1734172340,348819971,-0.35511362086856113,0.23205711644702334,1.3475487400652701,-0.714421830472693,-0.22931864243448144,0.05072293908327388,0.6591218338264995,0,-1,0.052659809589385986,-1.595921818410055,-0.44025880495180303,-1.4760783354388636,0.3593597412109375,0.11405087262392044
3582,1734172340,364963293,-0.3588973768983666,0.23151769039699485,1.3457355495706562,-0.7145908790894147,-0.23182896728564728,0.05121608755301452,0.6580213657817272,0,-1,0.053221944719552994,-1.5961855093585413,-0.4453337828265589,-1.4750121275531214,0.36341002583503723,0.11530847102403641
3598,1734172340,380742311,-0.36263014914808134,0.23097979813348546,1.3439191930678733,-0.7147555375920956,-0.23433532966487677,0.05168412972609738,0.6569172135716522,0,-1,0.05386834219098091,-1.5964611212359827,-0.4502776304828089,-1.473968807850973,0.36753183603286743,0.11663759499788284
3614,1734172340,397059679,-0.3663081319063495,0.23042925713208595,1.3421094374172726,-0.7149330077694414,-0.23678364393966767,0.052251344401426786,0.6558003487134144,0,-1,0.054455194622278214,-1.5967252890216272,-0.45519715944399053,-1.4729254881488245,0.3716900050640106,0.11795473843812943
3630,1734172340,412921428,-0.3700153873302722,0.229849002378274,1.340262197811825,-0.7150904032765399,-0.23933081931474878,0.05276961077070493,0.654661624235784,0,-1,0.05511320382356644,-1.5970366636859339,-0.4602244536029261,-1.4718831221209925,0.37583616375923157,0.11918836086988449
3646,1734172340,429034233,-0.37369994186175953,0.22931418368832784,1.3384015929632795,-0.715260651544128,-0.24179215431622486,0.053214357479018704,0.6535342275825218,0,-1,0.05568769946694374,-1.5973246733294886,-0.46522790590395147,-1.4707916418658655,0.37989842891693115,0.12050587683916092
3662,1734172340,445028781,-0.37740802689944636,0.22872954866641065,1.3365021736690201,-0.715434470868616,-0.24426408635231242,0.05370790581617809,0.6523833496221788,0,-1,0.0562981441617012,-1.5976007620440882,-0.4702666441546839,-1.469724480305807,0.3839607238769531,0.12184736132621765
3679,1734172340,460910797,-0.3810740634797152,0.22817483453407866,1.33459331509542,-0.7156105701770337,-0.24674261706846562,0.05415653159400505,0.6512193661576817,0,-1,0.05686027929186821,-1.5978639761554163,-0.47529441515077764,-1.46869403520693,0.3880585730075836,0.12309297174215317
3694,1734172340,477241992,-0.3847699110411166,0.22761345390876267,1.332647518407583,-0.7157833712234166,-0.24921809912905749,0.05458646190512958,0.6500498617207912,0,-1,0.05742316320538521,-1.5981643835650843,-0.48039323488344365,-1.467602554951803,0.3921208679676056,0.12439850717782974
3710,1734172340,492595672,-0.3885088445577981,0.22702703507805985,1.3306680209270931,-0.7159656457163754,-0.25168251106968126,0.055029690399838085,0.6488611877359373,0,-1,0.05808117240667343,-1.5984399954425257,-0.48539668718446904,-1.4664281050311487,0.3962434232234955,0.12571564316749573
3727,1734172340,509021043,-0.3920731802157573,0.22645608605668122,1.3287319019521793,-0.7161442348545478,-0.2541122235600019,0.055532920725351854,0.6476731486156405,0,-1,0.058643683791160583,-1.5987399260150355,-0.4904244581805628,-1.4653132597552698,0.4003176987171173,0.12700919806957245
3742,1734172340,524710178,-0.39573889965192793,0.2258623480762844,1.326733247434634,-0.7163294822413343,-0.25655146895549863,0.05598709963457755,0.6464664425344487,0,-1,0.05923015996813774,-1.5989916960345667,-0.49551135698427373,-1.4642341772662562,0.4044279158115387,0.12826678156852722
3758,1734172340,540985345,-0.39942032349898887,0.2252697994822876,1.3247038653711583,-0.7165173452004245,-0.25901285569192667,0.05641690463360655,0.6452382253747924,0,-1,0.059840232133865356,-1.599243466054098,-0.5005148092852991,-1.463106934224264,0.4084785580635071,0.1296442300081253
3774,1734172340,556626796,-0.40296303818291856,0.2246771444738037,1.3227082129928334,-0.716707777543663,-0.26138711725595587,0.05690784943737665,0.6440250253006146,0,-1,0.0603911317884922,-1.5995195547686976,-0.5056255499469202,-1.4620526472674769,0.4125528335571289,0.13093777000904083
3791,1734172340,572928428,-0.40647042710696063,0.22407987029767684,1.3207001964357081,-0.716887771121187,-0.2638059443257532,0.057364885919964324,0.6427967153141682,0,-1,0.06096562743186951,-1.5997832457171839,-0.5106290022479456,-1.4609492460833948,0.41667503118515015,0.13220734894275665
3806,1734172340,588633537,-0.41005570097717636,0.2234972879135299,1.318648588982065,-0.7170837445617385,-0.26622807412389526,0.05782221713761255,0.6415372998032832,0,-1,0.06156371533870697,-1.6000350157367151,-0.5155723730670374,-1.459858242665426,0.4205695390701294,0.13347692787647247
3823,1734172340,604877710,-0.4135658756582026,0.22287618017342023,1.3166167519383358,-0.717261182680003,-0.2686227357287071,0.0582890815522639,0.6402972783339799,0,-1,0.06216217577457428,-1.6002987066852015,-0.520515267048971,-1.4587677160846155,0.4248119592666626,0.1347581148147583
3838,1734172340,620514631,-0.4170671112199687,0.2222676604821161,1.3145534503969083,-0.717442757472729,-0.2710428725835034,0.05871163768442219,0.639034110648268,0,-1,0.06276063621044159,-1.6005867163287562,-0.5255187193499964,-1.4576886335956019,0.42895811796188354,0.13600373268127441
3854,1734172340,636795997,-0.4206670639208266,0.2216362807592231,1.3124261060275053,-0.7176386516440226,-0.2734703460922684,0.05914995564215845,0.6377382050828183,0,-1,0.06332314759492874,-1.6008508841144007,-0.5306060949908655,-1.45660907426943,0.43297281861305237,0.13727331161499023
3870,1734172340,652979373,-0.42418190476084455,0.2210158161818898,1.31029223879412,-0.7178305753175597,-0.2758895382556773,0.05955035687108572,0.6364416570408138,0,-1,0.0639575645327568,-1.6010788122760218,-0.5357049147235315,-1.4555309454547327,0.4371553361415863,0.13860243558883667
3886,1734172340,668696641,-0.42773989369994614,0.2203802638357375,1.3081292526611064,-0.7180297935045126,-0.2783098277538656,0.059977749896836026,0.6351216615206832,0,-1,0.06455602496862411,-1.6013787428485315,-0.540743652974264,-1.4544757048236292,0.4412060081958771,0.13990797102451324
3902,1734172340,684839725,-0.4312422942858675,0.21974954681466474,1.3059662407259376,-0.718232907268748,-0.28068556935322697,0.060403489506036245,0.6338047968646426,0,-1,0.06515411287546158,-1.601666275654928,-0.545722786580221,-1.4534209410296839,0.4452562928199768,0.14129738509655
3918,1734172340,700673818,-0.4347910639693881,0.21910140553040336,1.3037806121819293,-0.7184463151203225,-0.28304169027829557,0.060833602014391634,0.6324725817933851,0,-1,0.0658005103468895,-1.6019657293902796,-0.550701920186178,-1.4523418585406702,0.44939085841178894,0.14267444610595703
3935,1734172340,716849565,-0.4382223585794604,0.21842957580676958,1.3016131213197655,-0.7186466821520932,-0.2854315097770453,0.06134889557107626,0.6311197291088229,0,-1,0.06637538224458694,-1.6022418181048792,-0.5557530562030237,-1.451191250477926,0.45351341366767883,0.1440279185771942
3950,1734172340,732718944,-0.44172437689582134,0.2177828431387937,1.2993864377308944,-0.7188511889954224,-0.2877954331894343,0.06175177462855655,0.6297725581869992,0,-1,0.06698545068502426,-1.6025531927691858,-0.5608881155597132,-1.4501360098468226,0.4575640857219696,0.14532145857810974
3966,1734172340,748888731,-0.4452196470348824,0.21712195333502976,1.2971289229231193,-0.7190608694884206,-0.290160624309473,0.062130938532421964,0.6284091219484118,0,-1,0.06761986762285233,-1.6027458349811,-0.5659273306476038,-1.4490330854998987,0.4616263508796692,0.14662699401378632
3982,1734172340,764601945,-0.44860980895816793,0.21646255009535972,1.2948917238933504,-0.7192608278520697,-0.29255431913301655,0.06256016333084473,0.6270263613582691,0,-1,0.06822993606328964,-1.6030452887164515,-0.5709899107562464,-1.4479659239398401,0.4657732844352722,0.14788459241390228
3999,1734172340,780884265,-0.4520365070465391,0.2157701560108043,1.2926453294896831,-0.7194601250959456,-0.294938368170143,0.0630119985064895,0.6256340587134601,0,-1,0.0688403844833374,-1.6033332983600062,-0.5759452025042933,-1.4469111601458948,0.46990785002708435,0.14922606945037842
4014,1734172340,796621322,-0.45547439278865554,0.21511092459436815,1.2903599559837973,-0.7196690683500394,-0.2972883244280725,0.06338412882438732,0.6242423699430444,0,-1,0.06947480142116547,-1.6036089102374476,-0.5808885733233851,-1.445808235798971,0.4739944636821747,0.1504952758550644
4030,1734172340,812881231,-0.4588538346012939,0.21441705046649184,1.2880887337304139,-0.7198630646519717,-0.2996560704173158,0.06380709284511474,0.6228419241786626,0,-1,0.07009685784578323,-1.6039088408099573,-0.5858796278582972,-1.4447296301471155,0.4780571162700653,0.15180081129074097
4046,1734172340,828591585,-0.46224168040815966,0.21374433725126418,1.285778590430761,-0.7200806396082245,-0.30198508021905063,0.06420311067980855,0.6214232409280651,0,-1,0.07063577324151993,-1.604196850453512,-0.5909064451800745,-1.4436982313739222,0.48221564292907715,0.1530819982290268
4063,1734172340,844892501,-0.4656829203950934,0.21306604598031248,1.28339698439307,-0.7202944170890263,-0.3043815658249421,0.06453192118798247,0.6199705204637752,0,-1,0.07125820219516754,-1.6044486204730433,-0.5960176626788538,-1.4426797072040003,0.48624271154403687,0.1543276160955429
4078,1734172340,860603094,-0.46904137471029816,0.21237550895109406,1.281051406367611,-0.7205020641558988,-0.30672908755674627,0.06488339048575432,0.618533902088453,0,-1,0.07182034105062485,-1.604748551045553,-0.6010921637164515,-1.4415648619281214,0.4902814030647278,0.15560917556285858
4094,1734172340,876896142,-0.4723910672300121,0.21170192137688595,1.278667077646774,-0.7207205321825355,-0.3090566007562451,0.06521147654108875,0.6170845933474994,0,-1,0.0723828449845314,-1.6050241629229944,-0.6060951391803187,-1.4405096212970179,0.4944399297237396,0.15691471099853516
4110,1734172340,892824172,-0.47577813791046947,0.21099818883383498,1.2762669300865477,-0.7209366277807963,-0.311420507394293,0.06560381010452082,0.6156003463271481,0,-1,0.07299329340457916,-1.6053479353534144,-0.6110981146441858,-1.4394667784320276,0.49858683347702026,0.15820825099945068
4126,1734172340,908959388,-0.47906460170690157,0.21030265969063658,1.273906868913883,-0.7211640701114715,-0.3137154721714978,0.06604252945601201,0.6141199970718445,0,-1,0.07356778532266617,-1.605635944996969,-0.6161015669452112,-1.4384000937091272,0.5027334094047546,0.15948981046676636
4142,1734172340,924728393,-0.4824165683655945,0.2096233410252964,1.271461109782036,-0.7213913010699683,-0.3160274744193587,0.06635494319495838,0.6126322287198854,0,-1,0.07416625320911407,-1.6059473196612757,-0.6210568586932581,-1.4373086134540003,0.5068087577819824,0.1608313024044037
4158,1734172340,940676689,-0.4857372416389423,0.20890834524746515,1.2690186259622218,-0.721610142703066,-0.3183435037921341,0.06669390774346808,0.6111367590084186,0,-1,0.07474037259817123,-1.60618764558901,-0.6261795202838343,-1.4361937681781214,0.5109073519706726,0.1621008813381195
4174,1734172340,956885099,-0.489031160279063,0.20819552096549865,1.2665462176114741,-0.7218418179106495,-0.3206609692443168,0.06708949371252687,0.6096063750914525,0,-1,0.07536280155181885,-1.6064751783954065,-0.6313021818744105,-1.4350793997394007,0.5150778889656067,0.16339442133903503
4190,1734172340,973026990,-0.4923424847467907,0.20745067121832228,1.2640561265005517,-0.7220470895780856,-0.3230218896340347,0.0674292444273358,0.6080774261926124,0,-1,0.07592568546533585,-1.6067631880389612,-0.6362932364093226,-1.434000317250387,0.5191528797149658,0.164652019739151
4206,1734172340,989106178,-0.4955886095092923,0.20675079663031218,1.261590250994675,-0.7222717485484983,-0.32525948768791635,0.067754622146921,0.6065798365387832,0,-1,0.07658369094133377,-1.6070988813983362,-0.6412957350360315,-1.432885471974508,0.5232039093971252,0.16589762270450592
4222,1734172341,4627227,-0.4988471617520716,0.2060004219832754,1.2591065415161193,-0.7224801446529804,-0.327570286626633,0.06811351973850785,0.6050460282742014,0,-1,0.07724207639694214,-1.607386891041891,-0.646179501210348,-1.4317706266986292,0.5273025631904602,0.1671428680419922
4238,1734172341,20846605,-0.5020388908050154,0.2052780997802358,1.2566424703014318,-0.722714884396945,-0.3298046230052133,0.06850489812685415,0.6035057459942936,0,-1,0.07780458778142929,-1.6077469030963343,-0.651158634816305,-1.4306681791888636,0.5313419699668884,0.16841207444667816
4254,1734172341,36959648,-0.5053088566393928,0.20452581706360518,1.2540830709472082,-0.7229387809951977,-0.33206176137301147,0.06882806948677206,0.6019611303213478,0,-1,0.07843862473964691,-1.6080225149737757,-0.6562812964068812,-1.4296248594867151,0.5353327393531799,0.1697775274515152
4270,1734172341,53106546,-0.5085251003287367,0.20378171654286537,1.2515161641428778,-0.7231615040396073,-0.3343577209769289,0.06911417605970865,0.6003878614411476,0,-1,0.07900150865316391,-1.6083343664752405,-0.661356274281637,-1.428497616444723,0.5394676327705383,0.17108304798603058
4286,1734172341,68831920,-0.5117308801903969,0.20303916978612502,1.248928389588365,-0.7234012228086625,-0.3366015564837001,0.06943115317544445,0.5988066282034714,0,-1,0.07963517308235168,-1.6085980574237269,-0.6664188543902796,-1.4274070898639124,0.5436029434204102,0.17246049642562866
4302,1734172341,85038900,-0.5149103529168271,0.20228301918930275,1.2463512391828606,-0.7236535590624684,-0.33883232418200704,0.06981732863157032,0.5971965532120835,0,-1,0.08024599403142929,-1.6088979879962366,-0.6713979879962366,-1.426340405141012,0.547797441482544,0.1738499104976654
4318,1734172341,100607633,-0.5180978245392724,0.20148976376276054,1.2437608175189956,-0.7238856584810635,-0.3411140295351086,0.07019970497231412,0.5955692854081363,0,-1,0.0808684304356575,-1.6092093626605433,-0.6763289610492151,-1.4252737204181116,0.5519447326660156,0.17515544593334198
4334,1734172341,116821050,-0.5212385302360153,0.20071945617251905,1.2411649950711583,-0.7241199816134976,-0.3433559493686894,0.07058044583370023,0.5939489413469056,0,-1,0.08149048686027527,-1.6095336119281214,-0.6813920179950159,-1.4241941610919397,0.5560317039489746,0.1764729619026184
4350,1734172341,132488012,-0.5243911597890438,0.19998140318174265,1.238510077685298,-0.7243776453233417,-0.34558747363627323,0.07087407270932723,0.5923032929497372,0,-1,0.08206497877836227,-1.6098092238055628,-0.6864069143878382,-1.423079792653219,0.5602149963378906,0.17777849733829498
4366,1734172341,148764371,-0.5274894767710602,0.19922070221325805,1.2358597882730973,-0.7246101625109986,-0.34782852101460265,0.07116077614784702,0.5906704464357551,0,-1,0.08269939571619034,-1.6100729147540491,-0.6915295759784144,-1.4220007101642054,0.5642780065536499,0.1790357083082199
4382,1734172341,164437294,-0.5306226489274338,0.19844054484382312,1.2331691658802777,-0.7248444394646388,-0.35007678062760555,0.0714311949656339,0.5890198389090018,0,-1,0.08329785615205765,-1.6103370825396937,-0.6965921560870569,-1.420934025441305,0.5683533549308777,0.18036483228206635
4398,1734172341,180722951,-0.5336384648278728,0.1977024745137338,1.2305203218794842,-0.7250934168597676,-0.35225945755538735,0.07170718634271962,0.5873762770288072,0,-1,0.08387234807014465,-1.6106489340411585,-0.7016194502459925,-1.4198787848102015,0.5724164247512817,0.18161045014858246
4414,1734172341,196461677,-0.5367147785504897,0.19692246608275524,1.2278465118602062,-0.7253265041461926,-0.35445643522360765,0.07202065112049472,0.5857261507938807,0,-1,0.08444683998823166,-1.6109369436847132,-0.7065981070147913,-1.4187524954425257,0.5765273571014404,0.18290399014949799
4430,1734172341,212699651,-0.5397479779484067,0.19612068840080937,1.2251823625970946,-0.7255660013241602,-0.35665534333825255,0.07235988476047076,0.5840505036965496,0,-1,0.08505691587924957,-1.611260239277975,-0.7115653196917933,-1.4176495710956019,0.5806147456169128,0.18420952558517456
4446,1734172341,228399753,-0.5427145278572458,0.19536820406720645,1.2225042781673283,-0.7258173578390105,-0.3587825834134483,0.07264960563133986,0.582396991493243,0,-1,0.08565537631511688,-1.6115005652057093,-0.7165806929217737,-1.4165704886065882,0.5846777558326721,0.18551506102085114
4462,1734172341,244637489,-0.5458123586463791,0.19457935946109478,1.2197086554698442,-0.7260622803266426,-0.36099864238857454,0.07286057894442355,0.58069344865976,0,-1,0.08622986823320389,-1.6117518583880823,-0.7216547171222132,-1.4155033270465296,0.5887647867202759,0.18680860102176666
4478,1734172341,260862827,-0.5487194641384489,0.1937944823296459,1.217011252997903,-0.7263215549127859,-0.3631531522183979,0.07323264556996072,0.5789764818416535,0,-1,0.0868762731552124,-1.6120041052447718,-0.7267058531390589,-1.4143889586078089,0.5929120779037476,0.18816207349300385
4494,1734172341,276587009,-0.55166897666417,0.19300519943486985,1.214258393790667,-0.7265729880729308,-0.36532205876090396,0.07352280237197639,0.5772572077651682,0,-1,0.08748671412467957,-1.612243954335348,-0.7317560354815882,-1.4133217970477503,0.5969754457473755,0.18945561349391937
4510,1734172341,292816638,-0.5545978985615944,0.19222849047322088,1.2115180258685034,-0.7268246583846973,-0.3674659571920501,0.07378411684848286,0.5755437345413359,0,-1,0.08806083351373672,-1.612591568623678,-0.7366517225848597,-1.41225511232485,0.601134717464447,0.1907128393650055
4526,1734172341,308529615,-0.5574726990510901,0.1914291567941411,1.2088079465573334,-0.7270706506833706,-0.3695988720935494,0.07411568976969238,0.5738221041333271,0,-1,0.08863570541143417,-1.6128438154803675,-0.7415707747088831,-1.4111879507647913,0.6052936315536499,0.19201837480068207
4542,1734172341,324883222,-0.56038440769854,0.19060743099672162,1.206031082209836,-0.7273263114297535,-0.3717531373093471,0.07442906182149965,0.5720632450691254,0,-1,0.0892813578248024,-1.6130831877337855,-0.7466214338885706,-1.410145107899801,0.6094053387641907,0.19332391023635864
4558,1734172341,340638637,-0.5633157712204103,0.18983049154454204,1.2031725582457835,-0.7275850148723866,-0.3739026406621007,0.07460869267330779,0.5703072894647561,0,-1,0.08983225375413895,-1.6133349577533167,-0.7517560164081019,-1.4090784231769007,0.6134443879127502,0.19464142620563507
4574,1734172341,356876850,-0.5662871538934697,0.18900405250666005,1.2002587201081654,-0.7278308313116626,-0.3761096253674395,0.0747804508803947,0.5685171192358796,0,-1,0.09047865122556686,-1.6136229673968714,-0.7569263617144983,-1.4080117384540003,0.6174842119216919,0.19583909213542938
4590,1734172341,372617483,-0.56918270641825,0.1881658999120709,1.197385205463397,-0.7280768083557217,-0.37828498579014463,0.0750009272832107,0.5667269991512265,0,-1,0.09106475859880447,-1.6138866583453577,-0.7620127836810511,-1.406956974660055,0.6216554641723633,0.19714462757110596
4606,1734172341,388865947,-0.5720004859645168,0.18736757923371816,1.1945617381916909,-0.7283319496563964,-0.380404554567984,0.07525649903519153,0.5649437187248056,0,-1,0.09168718755245209,-1.6141865889178675,-0.7669919172870081,-1.4058898130999964,0.6257664561271667,0.19842618703842163
4622,1734172341,404623031,-0.5748510969275729,0.186536941294156,1.19171010766698,-0.7285811279572955,-0.38253041535513327,0.07549821601231144,0.5631518806606818,0,-1,0.09230999648571014,-1.6144865194903772,-0.7718632856952112,-1.4048226515399378,0.6297942399978638,0.1996837854385376
4638,1734172341,420909166,-0.5776638709073091,0.18572106801821076,1.1888500992853857,-0.728850488864236,-0.3845787578401412,0.0757599249304796,0.5613702678936838,0,-1,0.09289609640836716,-1.6147621313678187,-0.7769377867328089,-1.4036958853351038,0.6339295506477356,0.20103725790977478
4654,1734172341,436874866,-0.580509986007247,0.18490224791940002,1.1859131948601676,-0.7291211754575322,-0.3866749694527982,0.07596337920417254,0.5595483397508986,0,-1,0.09348257631063461,-1.615014378224508,-0.7819893995868128,-1.4026172796832483,0.6380771994590759,0.20236638188362122
4671,1734172341,452910423,-0.5832724291360845,0.18407261296265826,1.1830217697183911,-0.7293871970789289,-0.38878015271089533,0.07624627326553574,0.5577013675871291,0,-1,0.09410463273525238,-1.6152780691729944,-0.7870758215533655,-1.4015143553363245,0.6422244906425476,0.20373183488845825
4686,1734172341,468575239,-0.5859863163220006,0.18325732390265054,1.1801360362528894,-0.7296652791442582,-0.39079715956208966,0.07651875448978979,0.5558876151713276,0,-1,0.09464316815137863,-1.6154821554767054,-0.7921503225909632,-1.4003756682025355,0.6462879180908203,0.2050733119249344
4702,1734172341,484816789,-0.5887745884559781,0.18241369084493309,1.1771804518171571,-0.7299353791068922,-0.3928829292993686,0.0767432292376958,0.5540287203380302,0,-1,0.09525398910045624,-1.6158297697650355,-0.797128979359762,-1.3993209044085901,0.6504471898078918,0.20641441643238068
4718,1734172341,500514030,-0.5915247961905142,0.181591256363866,1.17423679375737,-0.7302152120997911,-0.39492669242662365,0.0769617884459889,0.5521734643626209,0,-1,0.09581612795591354,-1.6160572210894983,-0.8020361105548304,-1.3981941382037562,0.6545588970184326,0.20776788890361786
4735,1734172341,516895771,-0.5941868799935426,0.18078545222933573,1.1713323544363732,-0.7304977734705191,-0.396890369329657,0.07719581994459941,0.5503561056907281,0,-1,0.09643855690956116,-1.616357151662008,-0.807098690663473,-1.3970916906939905,0.658538818359375,0.20907342433929443
4750,1734172341,532549858,-0.5969151970717628,0.17993966000956774,1.1683369291198593,-0.7307577138874407,-0.39894816629758767,0.0773586781530002,0.5484971824141073,0,-1,0.09704900532960892,-1.616669003163473,-0.81207782426943,-1.3959882895099085,0.6626625061035156,0.21034300327301025
4766,1734172341,548771619,-0.5996043530896367,0.17909762928362438,1.1653095297313059,-0.7310343507075647,-0.40099154892895034,0.07753552715739508,0.5466102796339959,0,-1,0.09764746576547623,-1.6169212500201624,-0.8172481695758265,-1.394909683858053,0.6667498350143433,0.21164816617965698
4782,1734172341,564570188,-0.6023589391512078,0.17823738061575897,1.1622154826585063,-0.7313036967132519,-0.40311551442493365,0.07768260749157783,0.5446633801686716,0,-1,0.09818600863218307,-1.6171968618976038,-0.8224905172931116,-1.393879238759176,0.6708971261978149,0.2128698080778122
4798,1734172341,580802917,-0.605048801697071,0.17739379918366555,1.1591641315993029,-0.7315678258126974,-0.40516928211240216,0.07781531154237314,0.5427625137735349,0,-1,0.09880806505680084,-1.6174967924701136,-0.8274934927569788,-1.3927996794330042,0.674984872341156,0.21416334807872772
4814,1734172341,596517801,-0.6076717957835576,0.17653648009315942,1.156172781718601,-0.7318393049266311,-0.40717256218056913,0.07803194549183895,0.5408629695723073,0,-1,0.0994185134768486,-1.6178682486163538,-0.8323648611651819,-1.3917210737811487,0.679144561290741,0.2155168205499649
4830,1734172341,612794876,-0.6103570647262032,0.17568589045572774,1.1531178887909888,-0.7321167378350836,-0.409212799192174,0.0782000576893375,0.5389199552219281,0,-1,0.09999300539493561,-1.6181443373309534,-0.8373315970050257,-1.3906424681292933,0.6832682490348816,0.21678639948368073
4846,1734172341,628535032,-0.6129112151157836,0.17478476481443983,1.1501173451540032,-0.7323651453981075,-0.4112346954089032,0.07841817898219233,0.5370082944453208,0,-1,0.10062742233276367,-1.6183961073504847,-0.8423827330218714,-1.3895753065692347,0.6873799562454224,0.2180679589509964
4862,1734172341,644810914,-0.6155292064551299,0.1739198699633894,1.1470012175223219,-0.7326492259654634,-0.4132499635859738,0.0785703385811832,0.5350479241933724,0,-1,0.10128580033779144,-1.6186955610858362,-0.8474448362933558,-1.388460938130514,0.6914916634559631,0.21939745545387268
4878,1734172341,660534858,-0.6180917434574476,0.17303839770715176,1.1439141850403924,-0.732914709307709,-0.41524561602601867,0.07873279469438865,0.5331118590794804,0,-1,0.10190785676240921,-1.6189716498004358,-0.8525436560260218,-1.3873580137835901,0.6955554485321045,0.22067901492118835
4894,1734172341,676697492,-0.6206829033289576,0.17218664613672863,1.1407815928309053,-0.7331994469251519,-0.41722176720932286,0.07884376031341642,0.5311574431889489,0,-1,0.10250632464885712,-1.6192954222308558,-0.8575823942767542,-1.3862913290606897,0.6997030973434448,0.22196021676063538
4911,1734172341,692881345,-0.6232556510031426,0.1713070164868778,1.1376748383985416,-0.7334783938352729,-0.41920971192807793,0.07899161296980674,0.5291814322918318,0,-1,0.10310478508472443,-1.6196077505694788,-0.862525765095846,-1.3852365652667444,0.7038028240203857,0.22326573729515076
4926,1734172341,708603620,-0.6257530940381169,0.17042222680394842,1.1346142709449345,-0.7337424134340846,-0.42115387079615296,0.07914773098250527,0.5272448430489036,0,-1,0.10370324552059174,-1.6199310461627405,-0.8675401846515101,-1.3841217199908655,0.7077831029891968,0.22452333569526672
4942,1734172341,724863052,-0.6282503235832796,0.16954538678754275,1.1315023376517839,-0.7340211621837639,-0.42309038755496714,0.0792946175928061,0.5252807069042179,0,-1,0.1043136939406395,-1.6202672163592737,-0.8725431601153772,-1.3829949537860315,0.7119064331054688,0.2258048951625824
4958,1734172341,740583896,-0.6307719482083163,0.16869606845746454,1.1282999005691625,-0.7343057760636202,-0.4250617522192736,0.07936411912105093,0.5232770495980356,0,-1,0.10489979386329651,-1.6205428282367151,-0.8776419798480433,-1.381939713154928,0.7159941792488098,0.22707447409629822
4974,1734172341,756854295,-0.6332728837023257,0.1677782922716442,1.1251041427656303,-0.7345683676297506,-0.42706111650891015,0.07946909314113337,0.5212607593894367,0,-1,0.10554619878530502,-1.62085467973818,-0.8827403227435511,-1.3808968702899378,0.7201182246208191,0.22833207249641418
4990,1734172341,772588253,-0.6357425851985381,0.16692053543399477,1.1218996134765877,-0.7348518616763493,-0.4290142418968047,0.07952303425232686,0.519245229793993,0,-1,0.10607275366783142,-1.6211422125445765,-0.8878033796893519,-1.3798306624041956,0.72421795129776,0.2295660674571991
5006,1734172341,788900852,-0.638156854828476,0.1660461972967332,1.1187256022972503,-0.7351338558398166,-0.4309563749630829,0.07963283023512771,0.5172170039988105,0,-1,0.10671877861022949,-1.6214178244220179,-0.8927462736712855,-1.378775421773092,0.7283061146736145,0.23084764182567596
5022,1734172341,804661035,-0.640525165464047,0.1651421486652911,1.1156287144367596,-0.7354074585611815,-0.43286900417416563,0.07981231999805831,0.5151992708597111,0,-1,0.10731761157512665,-1.6217544714557093,-0.8976295630084437,-1.3776848951922815,0.7325013279914856,0.23212920129299164
5038,1734172341,820843458,-0.6429457421097886,0.16425294583420597,1.1124132589466709,-0.735690863071085,-0.43479153169593143,0.07990517102917594,0.5131573263649525,0,-1,0.10792768746614456,-1.6220181624041956,-0.902656380330221,-1.3766301313983362,0.7366014122962952,0.23347030580043793
5054,1734172341,836516380,-0.6453071781238262,0.16338132947242018,1.10918743659789,-0.7359962911242841,-0.4366730274181764,0.08000070042217836,0.5111027435934027,0,-1,0.10846622288227081,-1.622281853352682,-0.9077308813678187,-1.375587288533346,0.7406771779060364,0.23478782176971436
5070,1734172341,852801799,-0.647689075499512,0.1625063691731124,1.105908827344885,-0.7362999385617214,-0.43855670338775676,0.08004476442131112,0.5090415052590559,0,-1,0.10907705128192902,-1.622521702443258,-0.9127581755267542,-1.3744967619525355,0.7447892427444458,0.23618923127651215
5086,1734172341,868541002,-0.649944582245128,0.16163354947452518,1.1027332854309801,-0.7366142308925172,-0.4403774135288939,0.08023554383998992,0.5069807353390541,0,-1,0.10962719470262527,-1.6227858702289026,-0.9179042021380823,-1.3733814398394983,0.7489013671875,0.23749476671218872
5103,1734172341,884954690,-0.652283782278925,0.16074666497370707,1.099477319310525,-0.7369091633056314,-0.4422521770841028,0.08029315064812911,0.5049068298800905,0,-1,0.11024963110685349,-1.6230972448932093,-0.9228351751910608,-1.372314755116598,0.7530254125595093,0.238824263215065
5118,1734172341,900528669,-0.6545655131646304,0.15981469174635668,1.096274432536979,-0.7371876443652066,-0.44411398628481374,0.0804276780722441,0.5028404645425799,0,-1,0.1108720600605011,-1.6234210173236292,-0.9278023878680628,-1.3712123076068323,0.7570772171020508,0.24014177918434143
5134,1734172341,916799545,-0.6568190646776532,0.15895542139868957,1.0930256022465743,-0.7374899899650974,-0.44591887574220773,0.08049306383898563,0.5007851212165745,0,-1,0.11143457144498825,-1.623720947896139,-0.9328411261187952,-1.3700969854937952,0.7611536979675293,0.24144694209098816
5150,1734172341,932499647,-0.659098720627948,0.15802403890881184,1.0897386136150806,-0.7377709847475118,-0.44778510142287026,0.08056948392825862,0.49868931737899763,0,-1,0.11210493743419647,-1.6239607969867151,-0.9379037062274378,-1.3690303007708948,0.7652894258499146,0.24272850155830383
5166,1734172341,948989868,-0.6613132622682744,0.15713344245057387,1.086427602349144,-0.7380672223006081,-0.4496419944713323,0.0806006407543991,0.49657062829298254,0,-1,0.11271500587463379,-1.6242368857013147,-0.9429786841021937,-1.3679278532611292,0.7693539261817932,0.24404601752758026
5182,1734172341,964453935,-0.6635606735821007,0.15622964763427405,1.083072313108453,-0.7383583867807489,-0.451489416903927,0.08062368824162429,0.4944532535928945,0,-1,0.11330148577690125,-1.624488655720846,-0.9481132666217249,-1.3668611685382288,0.773465633392334,0.24532757699489594
5198,1734172341,980894327,-0.6657068037708704,0.15534729877219525,1.0798162402707276,-0.7386571850804818,-0.45328798189350167,0.08069742765196648,0.4923448929056245,0,-1,0.1138639971613884,-1.6247642675982874,-0.9531162420855921,-1.3657944838153284,0.7776017189025879,0.2466091364622116
5214,1734172341,996915340,-0.667891018560702,0.1544018691332511,1.0765206171675465,-0.73894446695688,-0.45512066004711627,0.08076736010831176,0.49020699004933,0,-1,0.11449803411960602,-1.6250641981707972,-0.9580591360675257,-1.3646672407733362,0.781653881072998,0.24790269136428833
5230,1734172342,12568235,-0.6700076603357081,0.1534972392263922,1.073281023102036,-0.7392366007770624,-0.45686945704966087,0.08084942293100215,0.48812182710717406,0,-1,0.11513245105743408,-1.6253159681903284,-0.962966267262594,-1.3636005560504358,0.7857180237770081,0.2492321878671646
5246,1734172342,29001474,-0.6720916278007981,0.1525885141732818,1.0699802549145612,-0.7395321435417872,-0.4586471833633822,0.08091507932387555,0.485991481200377,0,-1,0.11574289947748184,-1.6255081335650843,-0.9680889288531702,-1.3625100294696253,0.7898184657096863,0.2505972683429718
5262,1734172342,44591903,-0.6742121218705173,0.1516431940056851,1.0666151019515577,-0.7398311988023428,-0.46046088248309597,0.08097133676152556,0.48380700243447117,0,-1,0.1163773164153099,-1.6257837454425257,-0.9731400648700159,-1.3614791075335901,0.7940384149551392,0.2518428862094879
5278,1734172342,60853958,-0.6763142432901871,0.15072139604586682,1.0632111083785472,-0.740128511971491,-0.4622781709843634,0.08097098277679181,0.48161434607617176,0,-1,0.11697540432214737,-1.6260235945331019,-0.9782984892474573,-1.3603881041156214,0.7981389164924622,0.25313642621040344
5294,1734172342,76625347,-0.6783635023447899,0.14980474135521354,1.0598658064514557,-0.7404099648707178,-0.46406186694439827,0.08100092923012178,0.47945648085314163,0,-1,0.11758584529161453,-1.6262992064105433,-0.9832294623004358,-1.3593218962298792,0.8022506237030029,0.25447791814804077
5310,1734172342,92623949,-0.6804221350519722,0.14889020523767296,1.0565288555073338,-0.7407174939617591,-0.465805596647539,0.08103992231591564,0.47727902872624933,0,-1,0.11818431317806244,-1.6265628973590296,-0.9881604353534144,-1.3581832090960901,0.8063870668411255,0.25573551654815674
5327,1734172342,108924388,-0.6823954294735184,0.14797347587969478,1.0532563390229845,-0.7410125848137255,-0.4675147395813721,0.08114653662909344,0.4751268851737885,0,-1,0.11884269118309021,-1.6268513838397425,-0.9930437246905726,-1.357044521962301,0.8104991316795349,0.2570410370826721
5342,1734172342,124615430,-0.6844141603921013,0.1470360355843953,1.0498940628320634,-0.7413115886112983,-0.46922803980163125,0.08119164338742811,0.472958869563264,0,-1,0.11938123404979706,-1.6271150747882288,-0.9981544653521937,-1.3559659163104456,0.8145760297775269,0.25829824805259705
5358,1734172342,140893936,-0.6864189780628224,0.14616186918271884,1.0464466201785232,-0.7416072479739548,-0.4709810657912056,0.08109798210625646,0.47076389274982694,0,-1,0.12000329047441483,-1.62736684480776,-1.0033252874957483,-1.3549101988421839,0.8186521530151367,0.25956782698631287
5374,1734172342,156652688,-0.6884026971189178,0.14526091659122634,1.04298972786258,-0.7419099840956468,-0.4727216390785993,0.08103639582473825,0.468547681669407,0,-1,0.12061373889446259,-1.6276548544513147,-1.0084236303912562,-1.353879753743307,0.8227522373199463,0.2608497738838196
5390,1734172342,173097133,-0.6903938330204997,0.14434631294751357,1.039528936414261,-0.7422274957597286,-0.47443081586797536,0.08099713014114361,0.4663187862417596,0,-1,0.12117662280797958,-1.6279543081866663,-1.01341420808901,-1.3527773062335413,0.8268287777900696,0.2621672749519348
