yildirimyigit/pemp/data/ur10/raw/4_2024-12-14_13-30-25.csv
Time,ROS secs,ROS nsecs,________p_x________,________p_y________,________p_z________,________q_x________,________q_y________,________q_z________,________q_w________,gripper_position,gripper_force,shoulder_pan_joint,shoulder_lift_joint,elbow_joint,wrist_1_joint,wrist_2_joint,wrist_3_joint
0,1734172225,546559572,-9.894264933256091e-05,0.2561410038201196,1.4272999952004508,-0.7071067791067569,-1.2866027060656454e-05,-7.196152066917588e-05,0.707106779487563,0,-1,-1.1746083394825746e-05,-1.5708802382098597,-4.7985707418263246e-05,-1.570808235798971,-3.5587941304981996e-05,1.1984225238848012e-05
13,1734172225,562879085,-0.00017245028185138738,0.2561409980291709,1.4272999876912063,-0.7071067756383669,-5.069693473469916e-05,-8.458319649124775e-05,0.7071067798584708,0,-1,0.0,-1.5708802382098597,-9.566942323857575e-05,-1.570820156727926,-3.5587941304981996e-05,-1.1746083394825746e-05
29,1734172225,578453302,-0.00023522111237723957,0.25614100007746016,1.4272999780027535,-0.7071067726837558,-6.776370014460757e-05,-0.0001101240886025994,0.7071067778670554,0,-1,4.793690095539205e-05,-1.5708921591388147,-7.18275653284195e-05,-1.5708320776568812,-4.7985707418263246e-05,2.3968450477696024e-05
46,1734172225,594790220,-0.0001588055867624831,0.256140998192692,1.4272999899788745,-0.7071067756383669,-5.069693473469916e-05,-8.458319649124775e-05,0.7071067798584708,0,-1,0.0,-1.5708921591388147,-5.990663637334137e-05,-1.5708320776568812,-3.5587941304981996e-05,2.3968450477696024e-05
61,1734172225,610325336,-0.0001901147019193094,0.2561410001367529,1.4272999846610908,-0.7071067752718898,-5.490630105925072e-05,-8.883731988907594e-05,0.7071067793889533,0,-1,-2.366701234990387e-05,-1.5709040800677698,-8.374849428349762e-05,-1.5708444754229944,-2.366701234990387e-05,0.0
78,1734172225,627025842,-0.0001386327767466552,0.25614099525878425,1.4272999934334878,-0.7071067774552365,-3.799086695691439e-05,-5.492887557024254e-05,0.7071067817638177,0,-1,1.1984225238848012e-05,-1.570916000996725,-0.00010759035219365387,-1.5708320776568812,-1.1746083394825746e-05,-1.1746083394825746e-05
93,1734172225,642560243,-0.00017080498897380122,0.25614100224104175,1.427299988220837,-0.7071067776253072,-5.495105824439322e-05,-7.999189827677539e-05,0.7071067780880279,0,-1,-1.1746083394825746e-05,-1.5709040800677698,-3.5587941304981996e-05,-1.570808235798971,-3.5587941304981996e-05,-1.1746083394825746e-05
109,1734172225,658793449,-0.0001711403008648289,0.25614100221241654,1.4272999881925732,-0.7071067773056067,-4.67297146102174e-05,-8.019992427649254e-05,0.7071067789752726,0,-1,0.0,-1.5708921591388147,-4.7985707418263246e-05,-1.570808235798971,-4.7985707418263246e-05,2.3968450477696024e-05
125,1734172225,674530744,-0.0001572935577977384,0.25614100380261673,1.4272999893352063,-0.7071067753933524,-3.826090629780049e-05,-0.00010544859462244828,0.7071067780820036,0,-1,1.1984225238848012e-05,-1.5708802382098597,-7.18275653284195e-05,-1.5708563963519495,-4.7985707418263246e-05,-1.1746083394825746e-05
141,1734172225,690875291,-0.00015705799076722957,0.256140996445891,1.4272999901470582,-0.7071067751713651,-6.336336785075246e-05,-8.034613303427356e-05,0.7071067797980266,0,-1,1.1984225238848012e-05,-1.5708802382098597,-7.18275653284195e-05,-1.570808235798971,-4.7985707418263246e-05,1.1984225238848012e-05
157,1734172225,706824779,-0.00011640497629503428,0.2561410001367529,1.427299994632357,-0.7071067788304786,-1.678317175478061e-05,-5.071419074130715e-05,0.7071067815248138,0,-1,-1.1746083394825746e-05,-1.5708683172809046,-5.990663637334137e-05,-1.5708320776568812,-3.5587941304981996e-05,0.0
173,1734172225,722642660,-0.00017139322933267025,0.25614099810113156,1.4272999884572788,-0.7071067754511905,-5.509726704420925e-05,-8.055415900590474e-05,0.7071067801869378,0,-1,-2.366701234990387e-05,-1.5709040800677698,-5.990663637334137e-05,-1.5708320776568812,-3.5587941304981996e-05,0.0
189,1734172225,738944768,-0.00017745478330166142,0.25614099802848855,1.427299988191868,-0.7071067756729024,-5.4951058244393225e-05,-8.040795025302163e-05,0.7071067799932444,0,-1,2.3968450477696024e-05,-1.5709040800677698,-0.00010759035219365387,-1.570820156727926,-5.990663637334137e-05,0.0
205,1734172225,754731178,-0.00018877755337954976,0.25614100241958515,1.4272999849135248,-0.7071067758868163,-5.9542356527902416e-05,-9.301256612615776e-05,0.7071067778619592,0,-1,0.0,-1.5709040800677698,-7.18275653284195e-05,-1.5708320776568812,-3.5587941304981996e-05,0.0
221,1734172225,770855665,-0.0001338727256562395,0.25614099849149297,1.4272999933098656,-0.7071067772084668,-3.788429282048997e-05,-7.177055462382266e-05,0.7071067805074588,0,-1,1.1984225238848012e-05,-1.570916000996725,-2.366701234990387e-05,-1.570820156727926,-2.366701234990387e-05,0.0
237,1734172225,786696434,-0.00018314661915448468,0.256141004543022,1.4272999854367534,-0.7071067754706575,-5.495105826616806e-05,-0.00010561718199374987,0.707106776879476,0,-1,-1.1746083394825746e-05,-1.5709040800677698,-4.7985707418263246e-05,-1.5708563963519495,-3.5587941304981996e-05,2.3968450477696024e-05
253,1734172225,802250862,-0.0001983987706993008,0.256140995502782,1.4272999852684125,-0.7071067738047363,-8.055928196233514e-05,-8.877550267760637e-05,0.7071067784066065,0,-1,0.0,-1.5709040800677698,-1.1746083394825746e-05,-1.5708444754229944,-1.1746083394825746e-05,-1.1746083394825746e-05
269,1734172225,818495273,-0.00015258965465374513,0.25614100386759536,1.4272999901762193,-0.7071067774582038,-4.6690275970260196e-05,-8.858985533337853e-05,0.7071067778239222,0,-1,2.3968450477696024e-05,-1.5708802382098597,-4.7985707418263246e-05,-1.5708444754229944,-3.5587941304981996e-05,0.0
285,1734172225,834688186,-0.00013896161490608197,0.25614100018451835,1.427299992483176,-0.7071067791493283,-2.540350712192029e-05,-5.056798166209917e-05,0.7071067809592863,0,-1,1.1984225238848012e-05,-1.5708921591388147,-5.990663637334137e-05,-1.5708444754229944,-2.366701234990387e-05,-3.5587941304981996e-05
301,1734172225,850553274,-0.00023198376725718794,0.25614100297911424,1.4272999755590476,-0.7071067727594974,-0.00010164976609734618,-0.00011826123634356081,0.7071067724178954,0,-1,1.1984225238848012e-05,-1.5709040800677698,-7.18275653284195e-05,-1.5708320776568812,-3.5587941304981996e-05,-1.1746083394825746e-05
317,1734172225,866573810,-0.00016149687719771,0.25614100407840273,1.427299988023083,-0.7071067765513855,-5.511964565319844e-05,-9.701922496735518e-05,0.7071067770175898,0,-1,1.1984225238848012e-05,-1.5708921591388147,-8.374849428349762e-05,-1.570820156727926,-3.5587941304981996e-05,1.1984225238848012e-05
333,1734172225,882667064,-0.0001945205464779722,0.2561409979042979,1.4272999849539403,-0.7071067753564854,-7.615363115785684e-05,-8.44146090986635e-05,0.7071067778771117,0,-1,-2.366701234990387e-05,-1.570916000996725,-4.7985707418263246e-05,-1.5708320776568812,-4.7985707418263246e-05,-2.366701234990387e-05
349,1734172225,898574829,-0.00016869775021862904,0.2561410020766679,1.4272999883905162,-0.7071067767463343,-2.5420567232306878e-05,-7.608669092467055e-05,0.7071067810762529,0,-1,1.1984225238848012e-05,-1.5709040800677698,-4.7985707418263246e-05,-1.5708320776568812,-5.990663637334137e-05,-1.1746083394825746e-05
365,1734172225,914582967,-0.00014876443306413283,0.2561410000082124,1.427299990559576,-0.7071067759677013,-2.5527337380385315e-05,-7.59799207295223e-05,0.7071067818625202,0,-1,-1.1746083394825746e-05,-1.570916000996725,-1.1746083394825746e-05,-1.570796314870016,-4.7985707418263246e-05,0.0
381,1734172225,930562019,-0.0001290124198881707,0.256140998689362,1.4272999937690156,-0.7071067788925187,-4.232938232900951e-05,-5.0590360291004545e-05,0.7071067804038407,0,-1,2.3968450477696024e-05,-1.5708921591388147,-9.566942323857575e-05,-1.5708444754229944,-5.990663637334137e-05,1.1984225238848012e-05
397,1734172225,946547031,-0.000201461087862378,0.25614100256856703,1.4272999830951754,-0.7071067767161432,-5.09220208557916e-05,-8.43922304667436e-05,0.7071067787873382,0,-1,1.1984225238848012e-05,-1.5708921591388147,-7.18275653284195e-05,-1.570796314870016,-4.7985707418263246e-05,-2.366701234990387e-05
413,1734172225,962253093,-0.00018314661915448468,0.256141004543022,1.4272999854367534,-0.7071067757811924,-5.07981906883819e-05,-0.00010146431440681585,0.7071067774875751,0,-1,-1.1746083394825746e-05,-1.5708802382098597,-5.990663637334137e-05,-1.5708320776568812,-3.5587941304981996e-05,2.3968450477696024e-05
429,1734172225,978200674,-0.00019349806466192117,0.2561409975246324,1.4272999854626267,-0.7071067695182336,-6.3739981267151e-05,-0.0001225771769229258,0.7071067793576429,0,-1,1.1984225238848012e-05,-1.5708921591388147,-7.18275653284195e-05,-1.570820156727926,-3.5587941304981996e-05,1.1984225238848012e-05
445,1734172225,994426727,-0.0001853888027837816,0.2561410046764171,1.4272999849539403,-0.7071067776236983,-5.092202085032471e-05,-8.43922304830294e-05,0.7071067778797829,0,-1,-2.366701234990387e-05,-1.57092792192568,-5.990663637334137e-05,-1.5708563963519495,-3.5587941304981996e-05,2.3968450477696024e-05
461,1734172226,10160446,-0.00022382253539159514,0.25614099494543907,1.4272999803350757,-0.7071067735036851,-9.741802126702934e-05,-8.877550268873244e-05,0.7071067765860028,0,-1,-1.1746083394825746e-05,-1.57092792192568,-9.566942323857575e-05,-1.570808235798971,-7.135072817021637e-05,0.0
477,1734172226,26257991,-0.0001912577759244323,0.25614100018451835,1.427299984401324,-0.7071067747425649,-7.19165677184102e-05,-9.70810421788996e-05,0.7071067773090893,0,-1,0.0,-1.5708921591388147,-2.366701234990387e-05,-1.5708320776568812,-1.1746083394825746e-05,1.1984225238848012e-05
493,1734172226,42353630,-0.00015990469639344673,0.25614099823881276,1.4272999897815086,-0.7071067760804552,-5.4911619583442606e-05,-8.036851166935633e-05,0.7071067795932389,0,-1,-1.1746083394825746e-05,-1.5709040800677698,-8.374849428349762e-05,-1.570808235798971,-2.366701234990387e-05,0.0
509,1734172226,58344364,-0.00021528410802682682,0.2561410053513858,1.4272999802827908,-0.7071067757569998,-5.9373769154083105e-05,-0.00010127334837336384,0.7071067768710779,0,-1,1.1984225238848012e-05,-1.5708921591388147,-5.990663637334137e-05,-1.5708320776568812,-4.7985707418263246e-05,1.1984225238848012e-05
526,1734172226,75146436,-0.00013294125782833423,0.25614100171596194,1.4272999923047514,-0.707106777167228,-3.8300344930115756e-05,-8.053709906229043e-05,0.7071067795821472,0,-1,2.3968450477696024e-05,-1.5708921591388147,-3.5587941304981996e-05,-1.5708683172809046,-2.366701234990387e-05,0.0
541,1734172226,90366363,-0.0001375851412877364,0.2561409985062953,1.4272999924992698,-0.7071067768829882,-4.654406716174826e-05,-7.200095924062789e-05,0.7071067802925267,0,-1,-1.1746083394825746e-05,-1.57092792192568,-2.366701234990387e-05,-1.5708563963519495,-7.135072817021637e-05,1.1984225238848012e-05
557,1734172226,106383562,-0.00020429605405998413,0.25614099500207793,1.4272999833252682,-0.7071067683046596,-7.219172948889713e-05,-0.0001225547982495792,0.7071067797627286,0,-1,1.1984225238848012e-05,-1.5708921591388147,-2.366701234990387e-05,-1.5708320776568812,-1.1746083394825746e-05,0.0
573,1734172226,122543096,-0.00024098831462240103,0.2561410000082124,1.4272999767551313,-0.7071067720420449,-6.371760270463888e-05,-0.00011417018600833704,0.7071067782432264,0,-1,-1.1746083394825746e-05,-1.5708683172809046,-7.18275653284195e-05,-1.570808235798971,-2.366701234990387e-05,2.3968450477696024e-05
589,1734172226,138287067,-0.00018195675784436565,0.2561409938602547,1.4272999884638822,-0.7071067773763409,-6.76622482612864e-05,-5.0545603379977483e-05,0.7071067799529347,0,-1,3.5952674807049334e-05,-1.5709040800677698,-8.374849428349762e-05,-1.570820156727926,-2.366701234990387e-05,-1.1746083394825746e-05
605,1734172226,154474973,-0.00016857955634996702,0.25614099813485125,1.4272999889226885,-0.7071067751733702,-6.3340989235204e-05,-8.879788132965423e-05,0.7071067787871732,0,-1,0.0,-1.5708802382098597,-4.7985707418263246e-05,-1.570820156727926,-2.366701234990387e-05,1.1984225238848012e-05
621,1734172226,171055793,-0.0001806216114171176,0.2561410067269057,1.4272999857818576,-0.7071067757654242,-5.090496084191871e-05,-0.00011000045420944697,0.7071067762192715,0,-1,0.0,-1.57092792192568,-1.1746083394825746e-05,-1.570820156727926,-7.135072817021637e-05,1.1984225238848012e-05
637,1734172226,186861515,-0.0001449587342814633,0.25614100371955817,1.4272999909431268,-0.7071067788320939,-3.813175752499289e-05,-7.160196723919519e-05,0.7071067788876213,0,-1,0.0,-1.5709040800677698,-7.18275653284195e-05,-1.5708320776568812,-4.7985707418263246e-05,0.0
653,1734172226,203053474,-0.00016256768890313874,0.2561409979933848,1.4272999898579666,-0.7071067758601327,-2.5594473141358618e-05,-7.60022993721849e-05,0.707106781965257,0,-1,1.1984225238848012e-05,-1.5708683172809046,-2.366701234990387e-05,-1.570820156727926,-4.7985707418263246e-05,1.1984225238848012e-05
669,1734172226,218954324,-0.00012323100774811553,0.2561409987260839,1.4272999938324413,-0.7071067774701695,-5.0865522150203536e-05,-6.755586979375358e-05,0.7071067798463365,0,-1,0.0,-1.5708921591388147,-4.7985707418263246e-05,-1.5708444754229944,-2.366701234990387e-05,1.1984225238848012e-05
685,1734172226,234542608,-0.00018147286382529752,0.25614099573216376,1.4272999882519926,-0.7071067762304122,-3.3877634029135117e-05,-6.738196369311623e-05,0.7071067821206432,0,-1,1.1984225238848012e-05,-1.5708921591388147,-8.374849428349762e-05,-1.570820156727926,-2.366701234990387e-05,-2.366701234990387e-05
702,1734172226,250797510,-0.0001539689061169725,0.25614100390023814,1.427299989959443,-0.7071067778136371,-3.827796633555029e-05,-8.017754566082368e-05,0.7071067789778104,0,-1,1.1984225238848012e-05,-1.570916000996725,-7.18275653284195e-05,-1.570808235798971,-4.7985707418263246e-05,-1.1746083394825746e-05
717,1734172226,266627788,-0.0001767811553647599,0.25614099803656143,1.4272999875999264,-0.7071067759894806,-5.071399480964223e-05,-7.617088679192562e-05,0.7071067804623635,0,-1,2.3968450477696024e-05,-1.5708921591388147,-8.374849428349762e-05,-1.5708320776568812,-7.135072817021637e-05,-1.1746083394825746e-05
733,1734172226,282862424,-0.0002043255318276673,0.2561410051440543,1.4272999811646863,-0.707106776529673,-7.218641101207286e-05,-9.722725094511904e-05,0.7071067754743966,0,-1,-1.1746083394825746e-05,-1.5708921591388147,-7.18275653284195e-05,-1.5708320776568812,-2.366701234990387e-05,-1.1746083394825746e-05
749,1734172226,298536539,-0.00015023286539426822,0.25614099840248755,1.4272999914768942,-0.7071067781886821,-4.2329382324792045e-05,-5.901972996273314e-05,0.7071067804543504,0,-1,-2.366701234990387e-05,-1.5708921591388147,-5.990663637334137e-05,-1.570820156727926,-1.1746083394825746e-05,-2.366701234990387e-05
765,1734172226,314937829,-0.00016584254463421972,0.2561410022022139,1.4272999882828648,-0.7071067776081958,-6.354901531126067e-05,-8.016048566145927e-05,0.7071067773656059,0,-1,2.3968450477696024e-05,-1.5709040800677698,-5.990663637334137e-05,-1.5708320776568812,-1.1746083394825746e-05,-3.5587941304981996e-05
781,1734172226,330516815,-0.00015364838816418042,0.2561410020589803,1.4272999904191845,-0.7071067796356798,-3.8131757507120674e-05,-5.474322789600336e-05,0.7071067795901875,0,-1,-1.1746083394825746e-05,-1.5709040800677698,-5.990663637334137e-05,-1.570820156727926,-1.1746083394825746e-05,1.1984225238848012e-05
797,1734172226,346470117,-0.0001818998712820888,0.2561409958982351,1.427299986588924,-0.7071067764048811,-5.507488843906665e-05,-6.329110902615035e-05,0.7071067809908838,0,-1,1.1984225238848012e-05,-1.5708802382098597,-7.18275653284195e-05,-1.5708563963519495,-4.7985707418263246e-05,-1.1746083394825746e-05
813,1734172226,362937450,-0.00016995602996889092,0.25614100018451835,1.4272999888005908,-0.7071067782808432,-3.806994027118915e-05,-6.323441479673705e-05,0.7071067802399966,0,-1,0.0,-1.5709040800677698,-9.566942323857575e-05,-1.5708320776568812,-3.5587941304981996e-05,2.3968450477696024e-05
829,1734172226,378300666,-0.0001768578166006179,0.2561410023316002,1.4272999863400646,-0.7071067778101994,-5.9497599606691e-05,-7.610906992377714e-05,0.7071067779637827,0,-1,1.1984225238848012e-05,-1.57092792192568,-7.18275653284195e-05,-1.5708320776568812,-4.7985707418263246e-05,-1.1746083394825746e-05
845,1734172226,394599676,-0.000171706403778149,0.25614100007746016,1.4272999883905162,-0.707106775938971,-4.228462512849893e-05,-8.464501370760633e-05,0.7071067801035612,0,-1,-1.1746083394825746e-05,-1.5708802382098597,-5.990663637334137e-05,-1.5708320776568812,-5.990663637334137e-05,2.3968450477696024e-05
861,1734172226,410382986,-0.00017818461604110006,0.25614100211885366,1.4272999864070641,-0.707106773959046,-4.6898302043483856e-05,-0.00010565662055285452,0.7071067789651422,0,-1,1.1984225238848012e-05,-1.570916000996725,-1.1746083394825746e-05,-1.5708320776568812,-3.5587941304981996e-05,0.0
877,1734172226,426565885,-0.00014944659450124567,0.2561410019901643,1.4272999907214943,-0.7071067787216666,-3.8255588019846105e-05,-6.329642803346512e-05,0.7071067797836054,0,-1,-2.366701234990387e-05,-1.5708802382098597,-2.366701234990387e-05,-1.5708320776568812,-1.1746083394825746e-05,0.0
893,1734172226,442353010,-0.00015622697100043517,0.2561409947332841,1.4272999911497672,-0.7071067773009307,-5.512496387977874e-05,-5.4867058357910764e-05,0.7071067807947652,0,-1,-1.1746083394825746e-05,-1.5708921591388147,-4.7985707418263246e-05,-1.570820156727926,-3.5587941304981996e-05,0.0
909,1734172226,458620309,-0.00013159645776088157,0.25614100492290864,1.4272999921148335,-0.7071067772480857,-2.551008163736544e-05,-9.303494480522492e-05,0.707106778544486,0,-1,1.1984225238848012e-05,-1.5708921591388147,-5.990663637334137e-05,-1.5708444754229944,-3.5587941304981996e-05,-2.366701234990387e-05
925,1734172226,474333286,-0.00017457443611784302,0.2561410002170822,1.4272999873901633,-0.7071067768066794,-6.348719806143594e-05,-8.022230290178233e-05,0.7071067781656647,0,-1,-1.1746083394825746e-05,-1.5708921591388147,-7.18275653284195e-05,-1.5708444754229944,-4.7985707418263246e-05,1.1984225238848012e-05
941,1734172226,490579128,-0.00013174375527563137,0.25614099710039945,1.4272999931407084,-0.7071067779052229,-4.673503316649348e-05,-5.495125389270499e-05,0.7071067807882272,0,-1,2.3968450477696024e-05,-1.5709040800677698,-5.990663637334137e-05,-1.5708444754229944,-3.5587941304981996e-05,-3.5587941304981996e-05
957,1734172226,506505489,-0.00013115858990404007,0.256141001742788,1.4272999930397854,-0.7071067788139118,-2.9932792462776438e-05,-6.340300220157669e-05,0.7071067800831079,0,-1,0.0,-1.5708921591388147,-1.1746083394825746e-05,-1.570820156727926,-5.990663637334137e-05,0.0
973,1734172226,522650480,-0.0001442455409042258,0.256141001848743,1.4272999911603241,-0.7071067779932416,-2.9702387838109353e-05,-7.193914201702538e-05,0.7071067800965739,0,-1,-2.366701234990387e-05,-1.5709040800677698,-5.990663637334137e-05,-1.5708563963519495,-1.1746083394825746e-05,0.0
989,1734172226,538702964,-0.00014732330043906697,0.2561409984699203,1.4272999917908618,-0.7071067780239227,-5.09049607982726e-05,-5.9165938734507046e-05,0.7071067800415319,0,-1,-1.1746083394825746e-05,-1.5709040800677698,-5.990663637334137e-05,-1.5708563963519495,-3.5587941304981996e-05,2.3968450477696024e-05
1005,1734172226,554412126,-0.00018606296902425715,0.2561410002170822,1.4272999858477236,-0.7071067760925206,-6.79099089336727e-05,-8.46450137204909e-05,0.7071067779533073,0,-1,1.1984225238848012e-05,-1.5708921591388147,-2.366701234990387e-05,-1.570808235798971,-3.5587941304981996e-05,-1.1746083394825746e-05
1021,1734172226,570516109,-0.0002123126758427016,0.2561409976107437,1.427299982660768,-0.7071067753309348,-5.918812167717115e-05,-8.464501371123052e-05,0.7071067794987366,0,-1,-1.1746083394825746e-05,-1.5709040800677698,-3.5587941304981996e-05,-1.570820156727926,1.1984225238848012e-05,3.5952674807049334e-05
1037,1734172226,586777925,-0.00018549795343453652,0.256140993680914,1.427299987107424,-0.7071067748585182,-7.219172924588513e-05,-7.193382366728115e-05,0.7071067801704803,0,-1,-1.1746083394825746e-05,-1.5708802382098597,-4.7985707418263246e-05,-1.5708320776568812,-4.7985707418263246e-05,-1.1746083394825746e-05
1053,1734172226,602319478,-0.00019178620694171243,0.25614100018451835,1.4272999849135248,-0.707106775130563,-6.793228753789237e-05,-9.309676198215746e-05,0.7071067778508792,0,-1,2.3968450477696024e-05,-1.5708921591388147,-7.18275653284195e-05,-1.5708320776568812,-2.366701234990387e-05,1.1984225238848012e-05
1069,1734172226,618390560,-0.00021123489290326283,0.2561409952276839,1.427299982340957,-0.7071067753474127,-7.623782701355833e-05,-7.60246780549251e-05,0.7071067788289301,0,-1,2.3968450477696024e-05,-1.5708683172809046,-7.18275653284195e-05,-1.5708683172809046,-9.519258608037262e-05,2.3968450477696024e-05
1085,1734172226,634513854,-0.00020647484153583202,0.2561410002170822,1.4272999820617518,-0.7071067756940733,-7.197838497554703e-05,-8.871348977370322e-05,0.7071067774505915,0,-1,0.0,-1.5708563963519495,-1.1746083394825746e-05,-1.5708563963519495,-3.5587941304981996e-05,0.0
1101,1734172226,650959014,-0.00018710604835782307,0.25614100235218606,1.4272999846610908,-0.7071067745631022,-6.338042791787883e-05,-0.0001056171819743506,0.7071067770817206,0,-1,-2.366701234990387e-05,-1.570916000996725,-2.366701234990387e-05,-1.5708320776568812,-3.5587941304981996e-05,-1.1746083394825746e-05
1118,1734172226,666879415,-0.00019402595880753775,0.25614100007746016,1.4272999850667474,-0.707106775130563,-5.0736373404647145e-05,-9.309676198215743e-05,0.7071067792938127,0,-1,-2.366701234990387e-05,-1.5708802382098597,-2.366701234990387e-05,-1.570820156727926,-3.5587941304981996e-05,-1.1746083394825746e-05
1133,1734172226,682694911,-0.00018572679689992367,0.2561410023359853,1.4272999849135668,-0.7071067757827997,-5.077581207281414e-05,-9.301256612606393e-05,0.7071067786498251,0,-1,-2.366701234990387e-05,-1.5708921591388147,-3.5587941304981996e-05,-1.570820156727926,-4.7985707418263246e-05,1.1984225238848012e-05
1149,1734172226,698770761,-0.00019112205690091085,0.25614099343094704,1.4272999861793938,-0.7071067743707296,-6.763986961726063e-05,-7.614850847234781e-05,0.7071067806670184,0,-1,-5.990663637334137e-05,-1.5708802382098597,-2.366701234990387e-05,-1.570820156727926,-2.366701234990387e-05,-1.1746083394825746e-05
1166,1734172226,714876174,-0.0001651536721173002,0.25614099827569853,1.4272999892946443,-0.707106776342896,-7.632221855810566e-05,-7.615382684953911e-05,0.7071067778104458,0,-1,-1.1746083394825746e-05,-1.5708921591388147,-7.18275653284195e-05,-1.5708320776568812,-5.990663637334137e-05,2.3968450477696024e-05
1182,1734172226,730825424,-0.00014712293343861275,0.2561409984723215,1.4272999915546725,-0.7071067783162566,-4.666789734950667e-05,-5.492887527350309e-05,0.7071067803833664,0,-1,1.1984225238848012e-05,-1.5708802382098597,-4.7985707418263246e-05,-1.5708320776568812,-7.135072817021637e-05,-1.1746083394825746e-05
1197,1734172226,746695756,-0.00018215018643242333,0.25614100018451835,1.4272999866247722,-0.7071067758496181,-6.348719805581507e-05,-8.865167254856956e-05,0.7071067781161587,0,-1,-1.1746083394825746e-05,-1.5708683172809046,-4.7985707418263246e-05,-1.5708320776568812,-8.32716571252945e-05,-1.1746083394825746e-05
1213,1734172226,762829780,-0.00016710932439133468,0.2561409982002363,1.4272999894469662,-0.7071067776253073,-4.652168856309857e-05,-6.32120361675875e-05,0.7071067803919895,0,-1,1.1984225238848012e-05,-1.5709040800677698,-1.1746083394825746e-05,-1.570820156727926,-4.7985707418263246e-05,-2.366701234990387e-05
1229,1734172226,778687238,-0.00016480046653420986,0.25614100018451835,1.4272999884730784,-0.7071067771673475,-5.0904960798272607e-05,-7.606943530773245e-05,0.7071067792816961,0,-1,3.5952674807049334e-05,-1.570916000996725,-7.18275653284195e-05,-1.570808235798971,-4.7985707418263246e-05,-1.1746083394825746e-05
1245,1734172226,794864416,-0.00010059533274589428,0.2561410001367529,1.4272999961150146,-0.7071067793810966,-8.415619286560318e-06,-4.234663830602702e-05,0.7071067816739087,0,-1,1.1984225238848012e-05,-1.570916000996725,-4.7985707418263246e-05,-1.5708320776568812,-5.990663637334137e-05,1.1984225238848012e-05
1261,1734172226,810505151,-0.0002241026772174048,0.25614099491926307,1.4272999802823916,-0.7071067739705201,-8.479102684527453e-05,-8.457787783233493e-05,0.7071067782605878,0,-1,2.3968450477696024e-05,-1.5709040800677698,-4.7985707418263246e-05,-1.5708444754229944,-2.366701234990387e-05,2.3968450477696024e-05
1277,1734172226,826797962,-0.000189075424130595,0.25614099360431963,1.4272999863400646,-0.7071067741678432,-9.322571474389355e-05,-7.610906992377716e-05,0.7071067779637827,0,-1,0.0,-1.5708802382098597,-9.566942323857575e-05,-1.570820156727926,-5.990663637334137e-05,0.0
1293,1734172226,842513561,-0.00010710426757324376,0.25614100007746016,1.4272999955772423,-0.7071067785280576,-1.682792863978324e-05,-5.918831735181205e-05,0.7071067811676228,0,-1,0.0,-1.570916000996725,-0.000119511281148732,-1.570820156727926,-1.1746083394825746e-05,-1.1746083394825746e-05
1309,1734172226,858981132,-0.0001622650739131178,0.25614100210816737,1.427299988920578,-0.7071067768513694,-5.511964562447649e-05,-8.858985533337852e-05,0.7071067778239223,0,-1,0.0,-1.5709040800677698,-5.990663637334137e-05,-1.570820156727926,-4.7985707418263246e-05,1.1984225238848012e-05
1325,1734172226,874716997,-0.00021832071750505337,0.25614099004576274,1.427299983207748,-0.7071067748778926,-8.047489044400373e-05,-6.33134876852228e-05,0.7071067800813251,0,-1,0.0,-1.5708563963519495,-4.7985707418263246e-05,-1.5708444754229944,-4.7985707418263246e-05,-1.1746083394825746e-05
1341,1734172226,890951871,-0.00019020605017475774,0.25614100475786306,1.4272999846106629,-0.7071067768629106,-5.09667780690622e-05,-9.286635737975829e-05,0.7071067775751928,0,-1,0.0,-1.5708921591388147,-0.00010759035219365387,-1.5708320776568812,-3.5587941304981996e-05,-2.366701234990387e-05
1357,1734172226,906657695,-0.00014738518159322653,0.2561410000082124,1.4272999907370456,-0.7071067756940732,-3.826090626900798e-05,-8.87134897737032e-05,0.707106780078901,0,-1,-1.1746083394825746e-05,-1.570916000996725,-1.1746083394825746e-05,-1.5708320776568812,-3.5587941304981996e-05,1.1984225238848012e-05
1373,1734172226,922827243,-0.00019647128726749957,0.2561409978005905,1.4272999846182433,-0.7071067733275859,-7.197838497554703e-05,-9.743527690483735e-05,0.7071067786690557,0,-1,1.1984225238848012e-05,-1.570916000996725,-4.7985707418263246e-05,-1.5708444754229944,-4.7985707418263246e-05,2.3968450477696024e-05
1389,1734172226,938678741,-0.0001624270218736617,0.25614099825635006,1.4272999893594713,-0.7071067770189662,-5.08825821970267e-05,-6.757292975977542e-05,0.7071067802946822,0,-1,-1.1746083394825746e-05,-1.570916000996725,-7.18275653284195e-05,-1.5708444754229944,-5.990663637334137e-05,0.0
1406,1734172226,955065250,-0.00013441523546974072,0.25614099708839344,1.4272999932020456,-0.7071067781738722,-5.931727045587002e-05,-5.067475183136598e-05,0.7071067798954392,0,-1,1.1984225238848012e-05,-1.5708802382098597,-4.7985707418263246e-05,-1.5708444754229944,-5.990663637334137e-05,-3.5587941304981996e-05
1421,1734172226,970542907,-0.00013951791496248433,0.25614100526410977,1.4272999909900579,-0.7071067777900566,-2.9724766473093276e-05,-8.882025997684735e-05,0.7071067783798732,0,-1,2.3968450477696024e-05,-1.5708802382098597,-3.5587941304981996e-05,-1.5708444754229944,-2.366701234990387e-05,0.0
1437,1734172226,986970663,-0.00019376714369054285,0.2561409979327882,1.4272999844699457,-0.7071067767486051,-7.200076358611037e-05,-7.183237185945474e-05,0.7071067783101775,0,-1,0.0,-1.5708921591388147,-4.7985707418263246e-05,-1.5708444754229944,-8.32716571252945e-05,-1.1746083394825746e-05
1453,1734172227,2638101,-0.00015292040086522206,0.25614100195063866,1.4272999903343877,-0.7071067777919366,-2.968000924183061e-05,-7.191676338433759e-05,0.7071067803010949,0,-1,0.0,-1.5708683172809046,-5.990663637334137e-05,-1.5708320776568812,-4.7985707418263246e-05,1.1984225238848012e-05
1470,1734172227,18843650,-0.0001236429314694432,0.2561410002429041,1.4272999936470168,-0.707106779991052,-4.234663834755499e-05,-4.234663833888573e-05,0.7071067798460219,0,-1,-1.1746083394825746e-05,-1.5708921591388147,-4.7985707418263246e-05,-1.5708320776568812,-5.990663637334137e-05,-2.366701234990387e-05
1485,1734172227,34603357,-0.00016075087757090725,0.2561410021229453,1.4272999894595644,-0.7071067791476384,-3.3894694061494825e-05,-5.893553410950579e-05,0.7071067799570341,0,-1,-4.7985707418263246e-05,-1.5708921591388147,-3.5587941304981996e-05,-1.570820156727926,-2.366701234990387e-05,0.0
1502,1734172227,50831556,-0.0001465711497227923,0.2561409966972443,1.4272999921008362,-0.7071067770837594,-4.656644576282161e-05,-6.354921094783087e-05,0.707106780900369,0,-1,1.1984225238848012e-05,-1.5708802382098597,-4.7985707418263246e-05,-1.570820156727926,-5.990663637334137e-05,1.1984225238848012e-05
1517,1734172227,66720962,-0.00013279057733670354,0.25614100150067803,1.427299992722514,-0.7071067768148783,-1.7249299293888064e-05,-8.443698773932028e-05,0.7071067803064333,0,-1,-3.5587941304981996e-05,-1.5709040800677698,-4.7985707418263246e-05,-1.570808235798971,-3.5587941304981996e-05,2.3968450477696024e-05
1533,1734172227,82866191,-0.0001895413511134599,0.2561410024805821,1.4272999847172672,-0.7071067775056382,-6.358845394663431e-05,-8.019992427667296e-05,0.7071067774601459,0,-1,-1.1746083394825746e-05,-1.5709403196917933,-4.7985707418263246e-05,-1.5708320776568812,-2.366701234990387e-05,1.1984225238848012e-05
1549,1734172227,98776340,-0.0001839551919875317,0.25614100450286575,1.4272999857790238,-0.7071067739462943,-5.9334330475656035e-05,-0.00011842982382825179,0.7071067760197736,0,-1,0.0,-1.5708921591388147,-7.18275653284195e-05,-1.5708320776568812,-4.7985707418263246e-05,-1.1746083394825746e-05
1565,1734172227,114854574,-0.0001816750640102556,0.2561410023687226,1.4272999861275861,-0.7071067761901199,-6.793228753789235e-05,-9.297312752313636e-05,0.7071067768075889,0,-1,-2.366701234990387e-05,-1.570916000996725,-7.18275653284195e-05,-1.5708320776568812,-4.7985707418263246e-05,0.0
1581,1734172227,130759954,-0.00016413065345724146,0.2561410001367529,1.4272999891258387,-0.7071067760821927,-5.488924096786539e-05,-8.882025996228765e-05,0.7071067785821179,0,-1,-2.366701234990387e-05,-1.5708921591388147,-4.7985707418263246e-05,-1.570808235798971,-3.5587941304981996e-05,0.0
1597,1734172227,146493673,-0.00013234241216736773,0.2561409985691254,1.4272999934103232,-0.7071067757405958,-5.9126304403096957e-05,-8.45831965094963e-05,0.7071067791016444,0,-1,0.0,-1.570916000996725,-3.5587941304981996e-05,-1.5708320776568812,-2.366701234990387e-05,2.3968450477696024e-05
1614,1734172227,162851572,-0.00019197932604560634,0.2561410002170822,1.4272999852979753,-0.7071067748693908,-8.051452475017836e-05,-9.724962958667333e-05,0.7071067762323661,0,-1,-1.1746083394825746e-05,-1.5708921591388147,-7.18275653284195e-05,-1.570808235798971,-2.366701234990387e-05,1.1984225238848012e-05
1629,1734172227,178522825,-0.00016419975943278819,0.256140998267669,1.4272999897489747,-0.7071067767991149,-6.357139391731017e-05,-7.183237185491531e-05,0.7071067790677408,0,-1,-1.1746083394825746e-05,-1.5708921591388147,-8.374849428349762e-05,-1.570820156727926,-7.135072817021637e-05,1.1984225238848012e-05
1645,1734172227,194763660,-0.0001587746259309523,0.25614100180588883,1.427299989098175,-0.7071067749904808,-2.9870975267564576e-05,-9.70586635459096e-05,0.7071067800904629,0,-1,0.0,-1.5709040800677698,-7.18275653284195e-05,-1.570808235798971,-2.366701234990387e-05,1.1984225238848012e-05
1661,1734172227,210484504,-0.0001895413511134599,0.2561410024805821,1.4272999847172672,-0.7071067775056382,-6.358845394663431e-05,-8.019992427667296e-05,0.7071067774601459,0,-1,1.1984225238848012e-05,-1.5708802382098597,-2.366701234990387e-05,-1.5708320776568812,-3.5587941304981996e-05,1.1984225238848012e-05
1677,1734172227,226876258,-0.00013251496543535826,0.25614100179128396,1.4272999926510648,-0.7071067784296299,-4.65216885630986e-05,-7.156252862157062e-05,0.7071067787918648,0,-1,-1.1746083394825746e-05,-1.5708802382098597,-4.7985707418263246e-05,-1.5708683172809046,-2.366701234990387e-05,1.1984225238848012e-05
1693,1734172227,242632627,-0.00019308693567644597,0.25614099778185656,1.4272999857790238,-0.7071067727762806,-7.193894626484929e-05,-0.00010582520797385495,0.707106778018516,0,-1,-4.7985707418263246e-05,-1.5708802382098597,-5.990663637334137e-05,-1.5708320776568812,-1.1746083394825746e-05,1.1984225238848012e-05
1710,1734172227,258865833,-0.00016584254463421972,0.2561410022022139,1.4272999882828648,-0.7071067779692268,-5.939614772077237e-05,-7.600761807210923e-05,0.7071067778241968,0,-1,2.3968450477696024e-05,-1.5708921591388147,-3.5587941304981996e-05,-1.570820156727926,-4.7985707418263246e-05,1.1984225238848012e-05
1725,1734172227,274696588,-0.0001670165917790496,0.2561409959936848,1.4272999897100418,-0.7071067746939433,-4.252034828169966e-05,-8.44540476601546e-05,0.7071067813572874,0,-1,0.0,-1.5708802382098597,-3.5587941304981996e-05,-1.570820156727926,-4.7985707418263246e-05,1.1984225238848012e-05
1742,1734172227,290960073,-0.00015416822654106015,0.2561409948398653,1.4272999909694228,-0.7071067772652182,-5.935670876075993e-05,-5.066943350500848e-05,0.7071067808011648,0,-1,-2.366701234990387e-05,-1.570916000996725,-3.5587941304981996e-05,-1.570808235798971,-3.5587941304981996e-05,-1.1746083394825746e-05
1757,1734172227,306969165,-0.00014204024044386273,0.2561410054016396,1.4272999905980892,-0.7071067785358567,-2.5611533523327225e-05,-7.594048254175969e-05,0.7071067792955569,0,-1,2.3968450477696024e-05,-1.5708802382098597,-8.374849428349762e-05,-1.5708444754229944,-1.1746083394825746e-05,-2.366701234990387e-05
1774,1734172227,323099374,-0.00020279369267369512,0.2561410050883388,1.4272999826207282,-0.7071067763794143,-6.375704136514679e-05,-9.722725095072992e-05,0.7071067764349415,0,-1,0.0,-1.5708802382098597,-7.18275653284195e-05,-1.5708320776568812,-5.990663637334137e-05,1.1984225238848012e-05
1789,1734172227,339329481,-0.0001702699562865935,0.2561409961292207,1.4272999891258387,-0.7071067766822162,-4.652168856309858e-05,-6.350445367518132e-05,0.7071067813088793,0,-1,1.1984225238848012e-05,-1.5708921591388147,-8.374849428349762e-05,-1.5708320776568812,-5.990663637334137e-05,-1.1746083394825746e-05
1805,1734172227,355200767,-0.00018388364473999907,0.25614099789215083,1.427299986416067,-0.7071067745631023,-5.495105824439322e-05,-8.883731988062334e-05,0.707106780094264,0,-1,2.3968450477696024e-05,-1.5708683172809046,-7.18275653284195e-05,-1.570820156727926,-2.366701234990387e-05,0.0
1822,1734172227,370936870,-0.00017977305791840677,0.2561410001367529,1.427299987401314,-0.7071067765005995,-4.6330722573126474e-05,-8.026174149761435e-05,0.707106779799521,0,-1,-3.5587941304981996e-05,-1.5709040800677698,-1.1746083394825746e-05,-1.5708444754229944,-3.5587941304981996e-05,0.0
1838,1734172227,387011051,-0.00021235816591164198,0.2561409976905278,1.4272999814411906,-0.7071067754779693,-7.21022154842652e-05,-8.036319333429549e-05,0.7071067786524015,0,-1,-1.1746083394825746e-05,-1.570916000996725,-7.18275653284195e-05,-1.5708320776568812,-7.135072817021637e-05,1.1984225238848012e-05
1853,1734172227,402792930,-0.00019196366262490389,0.2561409955499634,1.4272999864577356,-0.7071067756729023,-4.652168856309858e-05,-7.193382331359799e-05,0.7071067815109182,0,-1,5.992112710373476e-05,-1.5708921591388147,-4.7985707418263246e-05,-1.570820156727926,-3.5587941304981996e-05,0.0
1869,1734172227,419050931,-0.00018889401122761874,0.2561409978321055,1.4272999864577356,-0.7071067750711413,-5.491161957146694e-05,-8.879788131019423e-05,0.7071067795942425,0,-1,2.3968450477696024e-05,-1.5708802382098597,-5.990663637334137e-05,-1.5708320776568812,-3.5587941304981996e-05,0.0
1885,1734172227,434804677,-0.00014377314017940612,0.2561410002365436,1.4272999915805065,-0.7071067784688503,-5.505782839366911e-05,-6.336356358083444e-05,0.7071067789217541,0,-1,1.1984225238848012e-05,-1.57092792192568,-3.5587941304981996e-05,-1.5708444754229944,-2.366701234990387e-05,2.3968450477696024e-05
1901,1734172227,450664281,-0.0001957378499625588,0.25614100253390526,1.4272999841243295,-0.7071067769645389,-5.937376912181839e-05,-8.441460909866351e-05,0.7071067778771117,0,-1,3.5952674807049334e-05,-1.5708921591388147,-4.7985707418263246e-05,-1.570808235798971,-3.5587941304981996e-05,1.1984225238848012e-05
1917,1734172227,466704607,-0.00015268063516010649,0.2561410038219832,1.4272999899360614,-0.7071067773732055,-2.9826218387870727e-05,-8.049234213302017e-05,0.707106779789488,0,-1,1.1984225238848012e-05,-1.5709040800677698,-7.18275653284195e-05,-1.5708320776568812,-2.366701234990387e-05,0.0
1933,1734172227,482805967,-0.0001561089511637719,0.2561410039508866,1.4272999888662636,-0.7071067756729023,-6.371760270463888e-05,-0.00010561718199332841,0.7071067759416182,0,-1,-3.5587941304981996e-05,-1.5708921591388147,-7.18275653284195e-05,-1.5708320776568812,-4.7985707418263246e-05,2.3968450477696024e-05
1949,1734172227,498584508,-0.00012106548538426687,0.25614100165679743,1.4272999932419685,-0.7071067775910442,-5.528823303149053e-05,-8.032907306275509e-05,0.7071067780577844,0,-1,-1.1746083394825746e-05,-1.570916000996725,-2.366701234990387e-05,-1.570808235798971,-4.7985707418263246e-05,-1.1746083394825746e-05
1965,1734172227,514756679,-0.00017292354280423058,0.2561409980234992,1.4272999882200348,-0.7071067761901199,-4.2307003719897234e-05,-7.619326542398836e-05,0.7071067808122896,0,-1,4.793690095539205e-05,-1.570916000996725,-4.7985707418263246e-05,-1.5708320776568812,-4.7985707418263246e-05,0.0
1981,1734172227,530747413,-0.00020616014139181982,0.25614099773224247,1.4272999833448357,-0.7071067758420536,-6.357139391157536e-05,-8.026174150169661e-05,0.7071067791182506,0,-1,-1.1746083394825746e-05,-1.5709040800677698,-1.1746083394825746e-05,-1.570820156727926,-4.7985707418263246e-05,1.1984225238848012e-05
1997,1734172227,546845436,-0.00016150428030051712,0.256141002099231,1.4272999895546148,-0.7071067783433156,-3.3894694075857834e-05,-6.736490377223897e-05,0.7071067800085475,0,-1,-1.1746083394825746e-05,-1.5708683172809046,-8.374849428349762e-05,-1.5708320776568812,-7.135072817021637e-05,-1.1746083394825746e-05
2013,1734172227,562516450,-0.0002183600199500756,0.2561409974097304,1.4272999815414573,-0.7071067739947058,-5.0904960798272634e-05,-9.288341729340443e-05,0.7071067804456098,0,-1,-2.366701234990387e-05,-1.5708683172809046,-2.366701234990387e-05,-1.5708320776568812,-2.366701234990387e-05,3.5952674807049334e-05
2029,1734172227,579051494,-0.0002243916974194993,0.2561410055669352,1.4272999776466593,-0.7071067742800039,-7.204020225505112e-05,-0.00011393978141581783,0.707106775243501,0,-1,1.1984225238848012e-05,-1.5708683172809046,-8.374849428349762e-05,-1.5708444754229944,-2.366701234990387e-05,0.0
2045,1734172227,594727516,-0.00015318448739634247,0.2561409983996785,1.4272999912527542,-0.7071067786956986,-4.2284625111980304e-05,-5.054560304288229e-05,0.7071067806065394,0,-1,0.0,-1.5709040800677698,-8.374849428349762e-05,-1.5708563963519495,-5.990663637334137e-05,2.3968450477696024e-05
2061,1734172227,610430717,-0.00016998301703997237,0.256141002022517,1.4272999878190156,-0.7071067742582823,-4.6920680622986246e-05,-0.00010567899920099831,0.7071067786610771,0,-1,1.1984225238848012e-05,-1.5708921591388147,-3.5587941304981996e-05,-1.570820156727926,-3.5587941304981996e-05,-3.5587941304981996e-05
2077,1734172227,627009391,-0.0001651621720852598,0.2561409961923536,1.4272999899399066,-0.7071067740865816,-6.353195522503352e-05,-8.894409006142175e-05,0.7071067798384537,0,-1,0.0,-1.5708921591388147,-4.7985707418263246e-05,-1.5708444754229944,-4.7985707418263246e-05,0.0
2093,1734172227,642650842,-0.0001945205464779722,0.2561409979042979,1.4272999849539403,-0.7071067753564854,-7.615363115785684e-05,-8.44146090986635e-05,0.7071067778771117,0,-1,-1.1746083394825746e-05,-1.5708921591388147,-1.1746083394825746e-05,-1.5708563963519495,-3.5587941304981996e-05,2.3968450477696024e-05
2109,1734172227,659101724,-0.00010446009641670935,0.2561410024672331,1.4272999954044239,-0.7071067761134963,-1.7226920741270652e-05,-9.284397876275999e-05,0.7071067799544893,0,-1,0.0,-1.5708802382098597,-9.566942323857575e-05,-1.570820156727926,-4.7985707418263246e-05,-1.1746083394825746e-05
2125,1734172227,674934864,-0.00014486399875233096,0.25614100185600747,1.4272999916008537,-0.7071067780083928,-2.9533800444100365e-05,-7.177055462387048e-05,0.7071067801056157,0,-1,-2.366701234990387e-05,-1.5708921591388147,-5.990663637334137e-05,-1.5708320776568812,-4.7985707418263246e-05,0.0
2141,1734172227,690641164,-0.00018010569762856398,0.25614100236975007,1.4272999867630836,-0.7071067772349696,-6.759511274659077e-05,-8.420658309546163e-05,0.7071067768933678,0,-1,1.1984225238848012e-05,-1.5708802382098597,-1.1746083394825746e-05,-1.5708320776568812,-1.1746083394825746e-05,1.1984225238848012e-05
2157,1734172227,706384181,-0.0002230167992585047,0.2561410001367529,1.4272999799566082,-0.7071067722240758,-8.034593736308611e-05,-0.00011427695618657338,0.7071067763500478,0,-1,0.0,-1.5708802382098597,-1.1746083394825746e-05,-1.570808235798971,-3.5587941304981996e-05,1.1984225238848012e-05
2173,1734172227,722917079,-0.00012441778175068896,0.25614100323341515,1.4272999933909267,-0.7071067800383255,-2.1295396735626212e-05,-5.476560652239459e-05,0.7071067798932955,0,-1,-1.1746083394825746e-05,-1.5708802382098597,-5.990663637334137e-05,-1.5708563963519495,-2.366701234990387e-05,3.5952674807049334e-05
2189,1734172227,738640546,-0.0001947773356124443,0.256140995482524,1.427299986019055,-0.7071067738285371,-6.359377248778366e-05,-8.900590727319557e-05,0.7071067800831629,0,-1,0.0,-1.5708802382098597,-4.7985707418263246e-05,-1.570796314870016,-8.32716571252945e-05,3.5952674807049334e-05
2205,1734172227,754829168,-0.00022401085986852043,0.2561410027263803,1.4272999797074064,-0.7071067740318308,-5.5159084322971835e-05,-0.00010582520794507548,0.7071067782710035,0,-1,-1.1746083394825746e-05,-1.5709040800677698,-8.374849428349762e-05,-1.570808235798971,-9.519258608037262e-05,1.1984225238848012e-05
2221,1734172227,770485162,-0.0002121876845064013,0.2561410000082124,1.427299981717598,-0.7071067724111534,-5.948053929148705e-05,-0.00010993312255712128,0.7071067789146526,0,-1,3.5952674807049334e-05,-1.5708921591388147,-8.374849428349762e-05,-1.5708444754229944,-5.990663637334137e-05,0.0
2237,1734172227,787090778,-0.00015357981899013554,0.2561410018298437,1.4272999903496064,-0.7071067755867689,-3.4254247499200734e-05,-9.301256612592233e-05,0.7071067798392205,0,-1,1.1984225238848012e-05,-1.5709040800677698,-7.18275653284195e-05,-1.570820156727926,-7.135072817021637e-05,-1.1746083394825746e-05
2253,1734172227,802206039,-0.00015358662569679433,0.25614100384342525,1.4272999893496405,-0.707106776254441,-4.675209323825484e-05,-9.741821698790305e-05,0.7071067778624277,0,-1,0.0,-1.5708921591388147,-7.18275653284195e-05,-1.5708320776568812,-4.7985707418263246e-05,0.0
2269,1734172227,818645954,-0.0001667434211446662,0.25614100415480734,1.4272999881800479,-0.7071067764799714,-4.652168858246249e-05,-9.7187812371998e-05,0.7071067776837987,0,-1,0.0,-1.5709040800677698,-8.374849428349762e-05,-1.570808235798971,-4.7985707418263246e-05,-2.366701234990387e-05
2285,1734172227,833929538,-0.00017227865391912796,0.25614100222578773,1.4272999858917963,-0.7071067767161431,-5.092202085579161e-05,-8.439223046674358e-05,0.7071067787873382,0,-1,-2.366701234990387e-05,-1.5708802382098597,-0.00014382997621709137,-1.5708320776568812,1.1984225238848012e-05,3.5952674807049334e-05
2301,1734172227,850149154,-0.00028176742442613485,0.25614100314649635,1.4272999562127027,-0.7071067792203355,-0.0001396938223293706,-8.020654321793901e-05,0.707106764805139,0,-1,2.3968450477696024e-05,-1.5708683172809046,-0.000455204640523732,-1.5707600752459925,0.0001917476038215682,5.992112710373476e-05
2317,1734172227,866438865,-0.0005877917206966626,0.2561409587017428,1.4272997985095397,-0.707106781581402,-0.00035140908177344946,-3.786640739457803e-05,0.7071066924583473,0,-1,8.388957940042019e-05,-1.5708563963519495,-0.0009101072894495132,-1.5706999937640589,0.0005988367483951151,0.0001917476038215682
2333,1734172227,882948398,-0.0010255817060053126,0.25614079456497063,1.4272993577766249,-0.7071068073015035,-0.000664541790512462,8.939052487708142e-05,0.7071064371517325,0,-1,0.0002037318336078897,-1.5708320776568812,-0.0017002264605920914,-1.5704124609576624,0.0012579691829159856,0.0003834952076431364
2349,1734172227,898484230,-0.0018355906164140357,0.25614041740213744,1.4272978834614434,-0.7071069231559594,-0.0011683001486764869,0.00019523880292086454,0.70710564711469,0,-1,0.0003467935312073678,-1.5708683172809046,-0.002957646046773732,-1.5701606909381312,0.0022039739415049553,0.0006827263277955353
2365,1734172227,914538383,-0.002962650020013331,0.25613917513130824,1.4272945311068261,-0.7071071619699146,-0.0019341194140122147,0.00042035861610211194,0.7071036302916136,0,-1,0.0005984622403047979,-1.570916000996725,-0.004705731068746388,-1.5698125998126429,0.003533473936840892,0.0011021741665899754
2381,1734172227,930624485,-0.004600430874117333,0.2561368390202781,1.4272867953873356,-0.7071076986792691,-0.002996567990413893,0.0005940596972145242,0.7070992647018259,0,-1,0.0008617406710982323,-1.571012322102682,-0.006956879292623341,-1.5693448225604456,0.005246469285339117,0.001676668063737452
2397,1734172227,946447372,-0.006640794256516133,0.2561327286129797,1.4272725985924812,-0.7071089659413838,-0.004275306988824542,0.0008483056138363429,0.7070911627315418,0,-1,0.0011609718203544617,-1.5711081663714808,-0.009710613881246388,-1.5687935988055628,0.007450443226844072,0.0023358003236353397
2413,1734172227,962631940,-0.009132866612994827,0.2561254546538,1.4272487086581562,-0.7071111310214208,-0.00588806154584693,0.0012509769851606414,0.7070768092459417,0,-1,0.0015560766914859414,-1.5713241736041468,-0.012872044240133107,-1.568169895802633,0.010085474699735641,0.003221884137019515
2429,1734172227,978331804,-0.012098904945030693,0.2561139630612574,1.4272106499595991,-0.7071145022077132,-0.0077760133410729754,0.0016325718362139063,0.7070544173493699,0,-1,0.0019627914298325777,-1.5715635458575647,-0.016643826161519826,-1.5674269835101526,0.013127969577908516,0.004203841555863619
2445,1734172227,994671344,-0.01551854975841786,0.2560972081139347,1.4271539167004403,-0.7071195021133834,-0.009956205644973746,0.002051971902790973,0.7070209849158552,0,-1,0.0024533956311643124,-1.5718038717852991,-0.02082235017885381,-1.5666235128985804,0.016518007963895798,0.005281298421323299
2461,1734172228,10404825,-0.019213484437010916,0.2560736203840692,1.4270769479949732,-0.7071267857895462,-0.01227118997593783,0.002624163540608127,0.7069754171689648,0,-1,0.0030997947324067354,-1.572115723286764,-0.02530080476869756,-1.5656879583941858,0.020170949399471283,0.006479346193373203
2477,1734172228,26841640,-0.023264830193187883,0.25604303659828437,1.4269743002435125,-0.7071353751562073,-0.014844709002911382,0.003115132177601242,0.7069154771037518,0,-1,0.0036623042542487383,-1.5724037329303187,-0.030149761830465138,-1.5646808783160608,0.024099528789520264,0.007700988091528416
2493,1734172228,42577743,-0.027464134528713068,0.2560030084073182,1.4268472424831422,-0.707146659907926,-0.017519316628860637,0.0037589706009026735,0.7068398298525228,0,-1,0.004248782526701689,-1.5727632681476038,-0.035250488911763966,-1.5635655562030237,0.028256181627511978,0.008982551284134388
2509,1734172228,58960199,-0.0319249023198433,0.2559551597329615,1.4266899288955885,-0.7071599537824614,-0.02035823459907007,0.004355950285808062,0.7067470323584697,0,-1,0.004894807003438473,-1.5731352011310022,-0.040578667317525685,-1.56248647371401,0.032544661313295364,0.010251755826175213
2525,1734172228,74635505,-0.03648974164883909,0.2558973133876943,1.426503954875031,-0.7071756087902242,-0.023260459649037144,0.0049822969619271575,0.7066376625018471,0,-1,0.005601127166301012,-1.5734828154193323,-0.04600268999208623,-1.5612395445453089,0.03688070550560951,0.011701097711920738
2541,1734172228,90830564,-0.04116403814410699,0.25583012820253104,1.426288510813226,-0.7071942322786825,-0.026183568551924878,0.005671835165229736,0.7065115489894769,0,-1,0.006283104419708252,-1.5738065878497522,-0.0514147917376917,-1.5600045363055628,0.04138452559709549,0.013114113360643387
2557,1734172228,106714487,-0.04576977262074615,0.2557568311638856,1.4260486836326933,-0.7072166868588579,-0.029109762694235777,0.006416019113953174,0.7063681860354377,0,-1,0.006953472271561623,-1.5741060415851038,-0.05699378648866826,-1.5587456862079065,0.045936282724142075,0.014599408023059368
2574,1734172228,122563838,-0.05044583526145769,0.25567297769908104,1.4257799015624377,-0.7072413109298755,-0.032056630301272274,0.007164027655514308,0.706208734918841,0,-1,0.007611855398863554,-1.5744426886187952,-0.062477890645162404,-1.557570759450094,0.05048804357647896,0.016107922419905663
2589,1734172228,138273954,-0.05515029460335446,0.2555811485060972,1.425483426944012,-0.7072685533738486,-0.035041010693730015,0.00788166129652657,0.7060320108842318,0,-1,0.008270238526165485,-1.5747421423541468,-0.06800967851747686,-1.5563834349261683,0.055016208440065384,0.017617186531424522
2605,1734172228,154655456,-0.05963879167382287,0.2554914412367215,1.4251729651463896,-0.7073007198970671,-0.0378930875983081,0.0086030800977782,0.7058440284922645,0,-1,0.008844357915222645,-1.5750296751605433,-0.07330161729921514,-1.5552085081683558,0.059484075754880905,0.018982263281941414
2621,1734172228,170374631,-0.0639384772558381,0.2553908086375073,1.4248539178743462,-0.7073311623802323,-0.0406771806936195,0.009383485076578033,0.7056485980319566,0,-1,0.009490757249295712,-1.5752819220172327,-0.0784381071673792,-1.5540455023394983,0.0638081356883049,0.020419621840119362
2637,1734172228,186654090,-0.06823407797547489,0.25528844421645425,1.4245132429198606,-0.7073638164208227,-0.04338406712445919,0.01001964302789917,0.7054458595044006,0,-1,0.01002929825335741,-1.5755694548236292,-0.08341914812196904,-1.5529425779925745,0.06790486723184586,0.021736763417720795
2653,1734172228,202449321,-0.07230626798863232,0.25518155445284796,1.4241677267236268,-0.7073953788659192,-0.04603532505033032,0.01065931757501703,0.7052367728327048,0,-1,0.01062776055186987,-1.5758212248431605,-0.08829194704164678,-1.551899258290426,0.07184617966413498,0.02304229512810707
2669,1734172228,218668699,-0.0763144418666638,0.25507596963952295,1.4238089898070487,-0.7074305661022611,-0.04852955299311784,0.011235309565404424,0.7050252792981909,0,-1,0.011130348779261112,-1.5760610739337366,-0.09305698076357061,-1.5508678595172327,0.07576277107000351,0.024215999990701675
2685,1734172228,234333992,-0.08022452163298197,0.2549652446382593,1.423439702272356,-0.7074629826082093,-0.051057375901534426,0.011768162030261821,0.7048054930032649,0,-1,0.011644922196865082,-1.576313320790426,-0.0976184050189417,-1.549861256276266,0.0794643983244896,0.02538970485329628
2701,1734172228,250706672,-0.08383521107270747,0.2548556091156632,1.4230823137588249,-0.7074970108619606,-0.05337714161003825,0.012389955898138839,0.7045887803306088,0,-1,0.012195821851491928,-1.576517407094137,-0.10200053850282842,-1.5489018599139612,0.08305817097425461,0.026527082547545433
2717,1734172228,266253471,-0.08745282117332968,0.2547429169876668,1.4227060286489075,-0.7075332375895153,-0.055700117496625255,0.012921899055580709,0.7043630023941903,0,-1,0.012686051428318024,-1.5768049399005335,-0.10619098344911748,-1.5480025450335901,0.08659201860427856,0.02761727198958397
2733,1734172228,282560348,-0.09107913864773177,0.2546234957131216,1.4223167533484882,-0.7075672950026248,-0.05802701700414675,0.013441476090253654,0.7041311774525995,0,-1,0.013212982565164566,-1.576972786580221,-0.11052495638002569,-1.5470317045794886,0.09010189771652222,0.028755024075508118
2749,1734172228,298249244,-0.09454864920754696,0.2545033177053686,1.4219246002856305,-0.7076063604906789,-0.060259776341495735,0.014053145059984102,0.7038923973607978,0,-1,0.013727555051445961,-1.577200714741842,-0.1149070898639124,-1.5460360685931605,0.09363537281751633,0.029832856729626656
2765,1734172228,314642429,-0.09825324747934418,0.2543724771309208,1.421493888310667,-0.7076439823272259,-0.06263116514579535,0.014584114040208688,0.703636720933613,0,-1,0.014278455637395382,-1.57741624513735,-0.11943275133241826,-1.5450652281390589,0.0972650945186615,0.03100656159222126
2781,1734172228,330381870,-0.10204071579596943,0.2542291942930173,1.4210342960747746,-0.707685298661087,-0.06503517368151121,0.015147434786759027,0.7033651252817164,0,-1,0.014804637990891933,-1.577656094227926,-0.12406617799867803,-1.5440581480609339,0.10100267827510834,0.03216828033328056
2797,1734172228,345978021,-0.1058713129760382,0.25408409244959507,1.4205508879381603,-0.7077302369244209,-0.0675183370889717,0.015714296525513673,0.7030734291554128,0,-1,0.015379131771624088,-1.5779083410846155,-0.12884313264955694,-1.5429909865008753,0.10489605367183685,0.033377937972545624
2813,1734172228,362295389,-0.10990015449406554,0.25392826283078673,1.420023241701624,-0.7077780821273598,-0.07008821664323373,0.016276186328779665,0.7027609224384053,0,-1,0.01595362462103367,-1.578195873891012,-0.13374025026430303,-1.541971508656637,0.10888492316007614,0.034623175859451294
2829,1734172228,378073930,-0.11411392431225868,0.2537561052224179,1.4194563495943961,-0.7078301555607199,-0.07277515845195878,0.01683600893260322,0.7024220924731799,0,-1,0.016563696786761284,-1.5785439650165003,-0.13874465623964483,-1.5409405867206019,0.11311385780572891,0.035904739052057266
2845,1734172228,394371747,-0.11843623533678356,0.2535657786284784,1.4188529311905,-0.7078818979583853,-0.07558254991042998,0.017432974429245053,0.7020588209647544,0,-1,0.017174143344163895,-1.5788677374469202,-0.14384442964662725,-1.5399096647845667,0.11721096932888031,0.03718630224466324
2861,1734172228,410112619,-0.12280854632970167,0.25337179301168467,1.4182181959644151,-0.7079377623068309,-0.07837148269170643,0.01800365100089751,0.7016821958346517,0,-1,0.017844511196017265,-1.5792396704303187,-0.14900476137270147,-1.538842503224508,0.12142754346132278,0.038515426218509674
2876,1734172228,426737070,-0.12717675083406932,0.25316993887381645,1.4175603634915959,-0.7079952366967701,-0.08116711181034894,0.018623684930523545,0.7012900991277856,0,-1,0.01847892627120018,-1.5795753637896937,-0.1542604605304163,-1.537727181111471,0.1256321370601654,0.039796989411115646
2893,1734172228,442183494,-0.13161384112163027,0.25296705453446966,1.416862253439203,-0.7080577125185906,-0.08401144039429853,0.01915841056154812,0.7008775277682766,0,-1,0.0191129669547081,-1.5798872152911585,-0.15958816209901983,-1.5366604963885706,0.12990862131118774,0.04106656834483147
2909,1734172228,458395481,-0.1360186280009553,0.25274058259912735,1.4161503738864532,-0.7081180118510558,-0.08686678404506036,0.01978876945198265,0.700450888874697,0,-1,0.019711803644895554,-1.58018666902651,-0.16480809846986944,-1.5355446974383753,0.13426938652992249,0.04244363307952881
2925,1734172228,474075794,-0.14043160274259908,0.25251555024158656,1.415412760481782,-0.7081839089743192,-0.08968155872677115,0.02043063178456329,0.7000109701848061,0,-1,0.020345844328403473,-1.58051044145693,-0.17007524171938115,-1.534382168446676,0.13863015174865723,0.04383305460214615
2941,1734172228,490365028,-0.1448232484988014,0.2522875322035879,1.414653201385297,-0.7082551087433282,-0.09251609767371484,0.021083576417659053,0.6995505381426311,0,-1,0.02100422792136669,-1.5808823744403284,-0.17528325716127569,-1.533278767262594,0.14297892153263092,0.045198503881692886
2957,1734172228,506006002,-0.1492070224361673,0.25205029368529286,1.4138705673253562,-0.7083287543184353,-0.09531476001287224,0.02173537596436191,0.6990801425881514,0,-1,0.02160269021987915,-1.5811346212970179,-0.1806109587298792,-1.5321639219867151,0.14733931422233582,0.04658755287528038
2973,1734172228,522276163,-0.15358668220472918,0.2518042902285021,1.4130591361381502,-0.7084089854204575,-0.0981024787191665,0.022402277321299107,0.6985919774915349,0,-1,0.022272681817412376,-1.5814459959613245,-0.18592626253236944,-1.531025234852926,0.1515922099351883,0.04804887995123863
2989,1734172228,538518190,-0.15793346092726174,0.25155407835659677,1.4122325962841027,-0.7084888429686286,-0.100867353186784,0.02306344609622695,0.6980955621576698,0,-1,0.022883128374814987,-1.5817816893206995,-0.19120628038515264,-1.5298736731158655,0.15588106215000153,0.04949784651398659
3005,1734172228,554266691,-0.16233104624297498,0.25129582487476054,1.4113756522861902,-0.708564747405496,-0.1036265933895159,0.02363523997274944,0.6975950854959487,0,-1,0.023493574932217598,-1.5820696989642542,-0.19642573991884404,-1.5286749045001429,0.16012197732925415,0.05085131525993347
3021,1734172228,570539951,-0.166524000068255,0.2510385148504236,1.4105331998447899,-0.7086470848456047,-0.10628275896771015,0.024324420601061707,0.6970879477142469,0,-1,0.02415158413350582,-1.5824173132525843,-0.2015016714679163,-1.5275357405291956,0.1642550379037857,0.0521688312292099
3037,1734172228,586250305,-0.170720655208571,0.25077814002767296,1.4096718802741657,-0.7087260102272022,-0.10895001207318504,0.024915356212459345,0.6965748791921017,0,-1,0.024726077914237976,-1.5827534834491175,-0.20649463335146123,-1.5264447371112269,0.1683761179447174,0.05353390797972679
3053,1734172228,602516174,-0.17494705365944696,0.25050551115172337,1.4087796038098739,-0.7088073682883388,-0.11164879524107828,0.025529505184003487,0.6960423159165217,0,-1,0.025336524471640587,-1.583041016255514,-0.21154624620546514,-1.525329891835348,0.17253313958644867,0.054827455431222916
3069,1734172228,618266582,-0.17904546322507786,0.2502410385356397,1.4078878353967637,-0.7088910867642585,-0.1142740788144587,0.026113978085062106,0.6955091100523906,0,-1,0.02589903399348259,-1.5833171049701136,-0.21659833589662725,-1.5242751280414026,0.17659467458724976,0.05610901862382889
3085,1734172228,634525299,-0.18318459145051927,0.24996263667741114,1.4069661677517504,-0.7089717287852091,-0.11696431463779398,0.02667957757938607,0.6949580109796625,0,-1,0.02655741758644581,-1.5835688749896448,-0.22169810930360967,-1.5231478849994105,0.18075132369995117,0.05737859755754471
3101,1734172228,650253295,-0.1872413515012092,0.24967819509097972,1.406040931020832,-0.7090576118408467,-0.11956851834712237,0.027320263681714415,0.6944020994374877,0,-1,0.02711992710828781,-1.5838330427752894,-0.2266300360309046,-1.5220320860492151,0.18482446670532227,0.05868375673890114
3117,1734172228,666512966,-0.19134656998436925,0.2493789974970022,1.4050870706235563,-0.7091436700941305,-0.12221640181995708,0.027954483076365742,0.693827754682344,0,-1,0.027718015015125275,-1.5841205755816858,-0.2316344420062464,-1.520965878163473,0.18896988034248352,0.059989284723997116
3133,1734172228,682246208,-0.19536241692170714,0.24909368469808219,1.404122781454216,-0.7092336334116603,-0.12483707831676573,0.02854551430952025,0.6932449139574218,0,-1,0.028316477313637733,-1.5843961874591272,-0.23660260835756475,-1.519862476979391,0.19306699931621552,0.06127084791660309
3149,1734172228,698509454,-0.19950621509233252,0.2487824102548855,1.4031148345147622,-0.7093216594678297,-0.1275343140123527,0.02912169943363308,0.6926396673460885,0,-1,0.028915314003825188,-1.584684197102682,-0.24166661897768194,-1.5187953154193323,0.19718843698501587,0.06252844631671906
3165,1734172228,714251995,-0.20362432218145682,0.24846921822677615,1.402086246887028,-0.7094162543475505,-0.13020834501420886,0.029725182597589044,0.692019348339114,0,-1,0.02954898029565811,-1.5849602858172815,-0.24673015276064092,-1.5177043120013636,0.20139378309249878,0.06380963325500488
3181,1734172228,730614900,-0.2076795875924942,0.2481549102482638,1.4010509449684985,-0.7095122885943831,-0.13285447973238473,0.030302132927249842,0.6913926382950988,0,-1,0.030147816985845566,-1.5852120558368128,-0.25178224245180303,-1.5166733900653284,0.20551523566246033,0.06516309827566147
3197,1734172228,746245145,-0.2117712307084689,0.24783074105424857,1.3999824985268297,-0.7096110256239453,-0.13549418717002107,0.030889580115942467,0.6907527425905223,0,-1,0.030734295025467873,-1.585571591054098,-0.2568700949298304,-1.5156305472003382,0.20955242216587067,0.06643267720937729
3213,1734172228,762496232,-0.21590679607766883,0.24750741710903168,1.3988828611792845,-0.7097133538328511,-0.13813090538663905,0.03140792402047122,0.6901016958949732,0,-1,0.03134436532855034,-1.5858476797686976,-0.26188642183412725,-1.514515225087301,0.21361394226551056,0.06781011819839478
3229,1734172228,778169631,-0.2200174046886189,0.24716100866598864,1.397776836822903,-0.7098094933825506,-0.14076114006374507,0.031988091360344424,0.6894443752494351,0,-1,0.031990766525268555,-1.586135212575094,-0.26698571840395147,-1.5134242216693323,0.2177230417728424,0.06912726163864136
3245,1734172228,794539690,-0.22412142231119894,0.24681968152306236,1.3966443832181203,-0.7099119402261437,-0.14338044432585795,0.03257510990319619,0.688771331810541,0,-1,0.03255327418446541,-1.5863989035235804,-0.27200204530824834,-1.512357536946432,0.2217366248369217,0.07037287205457687
3261,1734172228,810201883,-0.22803659621623873,0.24647968148987365,1.3955295592362325,-0.7100144604044478,-0.145956256927325,0.03315204790792667,0.6880967801115304,0,-1,0.03315211087465286,-1.58667499223818,-0.27700597444643194,-1.5112298170672815,0.22581014037132263,0.071678027510643
3277,1734172228,826624393,-0.2320648274260564,0.2461461655253133,1.3943646304036716,-0.7101227623053835,-0.14854039491059673,0.033656565852297496,0.6874071930890786,0,-1,0.033690277487039566,-1.5869386831866663,-0.2820094267474573,-1.5101750532733362,0.22985967993736267,0.07288806140422821
3293,1734172228,842317819,-0.23598799287425118,0.24579413964344568,1.393203383855436,-0.7102318027841702,-0.1511471675794643,0.03426761609053115,0.6866957481549778,0,-1,0.03431271016597748,-1.5871909300433558,-0.2869175116168421,-1.5090964476214808,0.23402944207191467,0.0742407739162445
3309,1734172228,858451604,-0.23996222670526463,0.24543755924348104,1.392014209673113,-0.7103443599011652,-0.15373411895180364,0.03486852592574543,0.6859744141923095,0,-1,0.03486323356628418,-1.587454620991842,-0.2918737570392054,-1.508017365132467,0.23807862401008606,0.07548638433218002
3325,1734172228,874234914,-0.24390904141176467,0.24506859379396734,1.3908125610000355,-0.7104526150117624,-0.15631479840640605,0.03546346576006385,0.6852482092048093,0,-1,0.03546132147312164,-1.5876825491534632,-0.29678184190859014,-1.5069502035724085,0.24222441017627716,0.07682786881923676
3341,1734172228,890466213,-0.2477660445879916,0.24470681948145406,1.3896164610024577,-0.7105738334187589,-0.15882516798364468,0.03612419979785388,0.684510361838666,0,-1,0.0360601581633091,-1.5879586378680628,-0.30178577104677373,-1.5058468023883265,0.24635784327983856,0.07818096876144409
3357,1734172228,906292676,-0.2517296719088564,0.24432463172820762,1.3883571547784679,-0.7106971526829385,-0.1613981780268137,0.0367217640100525,0.6837482704519103,0,-1,0.03664663806557655,-1.5881860891925257,-0.30688506761659795,-1.5048397223102015,0.2504553198814392,0.07960633933544159
3373,1734172228,922513246,-0.25575445054659157,0.2439302272786953,1.387058984360581,-0.7108175101160447,-0.16403479451281736,0.03728273828849501,0.6829648972877567,0,-1,0.03724472597241402,-1.5884855429278772,-0.31199676195253545,-1.5037849585162562,0.2545531690120697,0.08094782382249832
3389,1734172228,938171863,-0.25984809931481767,0.2435373721468692,1.385716769532542,-0.7109433545521866,-0.16664289936533747,0.03779170217746042,0.6821740818557444,0,-1,0.03786715492606163,-1.5887497107135218,-0.31709605852235967,-1.5026820341693323,0.258614718914032,0.082229383289814
3405,1734172228,954498767,-0.2638125633279364,0.24313629707244372,1.3843921685555713,-0.7110638818919341,-0.16925681381602692,0.03833301981493641,0.6813742484402299,0,-1,0.038513556122779846,-1.5890372435199183,-0.32217151323427373,-1.501627270375387,0.2627721130847931,0.08357049524784088
3421,1734172228,970258951,-0.2678323019064127,0.24271703309160647,1.3830433479876874,-0.7111823479117495,-0.17189329503981016,0.03888792035863869,0.6805586622689246,0,-1,0.03909965977072716,-1.5893257300006312,-0.327127758656637,-1.5005839506732386,0.2669055461883545,0.08485206216573715
3437,1734172228,986480236,-0.2718035590874411,0.24230985182788545,1.3816780090931957,-0.7113104271894415,-0.17447953066491897,0.039412289925798524,0.6797360082806623,0,-1,0.039686135947704315,-1.589649502431051,-0.33210736909975225,-1.49951678911318,0.27090752124786377,0.08615759015083313
3453,1734172229,2248764,-0.2757050035660496,0.24188974338098052,1.3803165399861725,-0.7114339295567859,-0.17702704226082294,0.03999826399557246,0.6789133442944802,0,-1,0.040261004120111465,-1.5899131933795374,-0.3371232191668909,-1.498401943837301,0.275052934885025,0.08740320056676865
3469,1734172229,18588066,-0.2796028464563497,0.24147251796905117,1.3789333229957583,-0.7115608522071493,-0.1795867581892256,0.040565549780114715,0.6780738795001301,0,-1,0.04093099758028984,-1.5901649633990687,-0.3421390692340296,-1.4972747007953089,0.2791508138179779,0.08868476748466492
3485,1734172229,34283638,-0.28354049010619886,0.241046926262168,1.3775011944726747,-0.7116944134472148,-0.18215072189118273,0.04113803429105874,0.6772147654305933,0,-1,0.0415174774825573,-1.590428654347555,-0.34716684023012334,-1.496171776448385,0.28328460454940796,0.09003785997629166
3501,1734172229,50551891,-0.2874643807953181,0.24060805514528832,1.3760611736988098,-0.7118181983418927,-0.18473740996058532,0.041649927859300016,0.676352145985855,0,-1,0.042115937918424606,-1.590644661580221,-0.3521941343890589,-1.495033089314596,0.28731057047843933,0.09130743891000748
3517,1734172229,66293239,-0.29131989851219653,0.2401778209428254,1.3746138001421,-0.711954960109237,-0.18727797320592163,0.04220977222896775,0.6754742264928509,0,-1,0.042737994343042374,-1.5909202734576624,-0.35720998445619756,-1.493941609059469,0.2914080321788788,0.09252908080816269
3533,1734172229,82603454,-0.2952439916035863,0.23972864210733036,1.3731333158032464,-0.7120878260070931,-0.18983656918719158,0.04276303143403793,0.6745845597064166,0,-1,0.04328889399766922,-1.5912922064410608,-0.3621891180621546,-1.4928630034076136,0.2956017851829529,0.09387056529521942
3549,1734172229,98645687,-0.2992273957114874,0.239268938237435,1.3716148775117434,-0.712229887428508,-0.19243877180872834,0.04331107526717962,0.6736616786767106,0,-1,0.04394727572798729,-1.5915563742267054,-0.3672292868243616,-1.4917719999896448,0.29967567324638367,0.09517572075128555
3565,1734172229,114285469,-0.30316827155751336,0.23880950332985323,1.3700747660213144,-0.712364961142629,-0.19504278528568095,0.04381256989575326,0.6727368971324481,0,-1,0.0445094108581543,-1.5918801466571253,-0.3723042646991175,-1.4907167593585413,0.3038210868835449,0.09645728021860123
3581,1734172229,130587577,-0.30706401526820576,0.23834527765519012,1.368530985513057,-0.7125109887878813,-0.19759664080348624,0.04437366241776205,0.6717995508210229,0,-1,0.04509589076042175,-1.5921438376056116,-0.37742787996401006,-1.4896019140826624,0.3079189360141754,0.0977388471364975
3597,1734172229,146393537,-0.31096684629092725,0.23787665480107567,1.3669561656459166,-0.7126536490135161,-0.20015543504762145,0.04487400025415511,0.6708568420086415,0,-1,0.04567038267850876,-1.592431370412008,-0.38247901598085576,-1.4884870688067835,0.31204113364219666,0.09909231215715408
3613,1734172229,162704944,-0.3149001388764109,0.23739531633510702,1.365350908048017,-0.7127979296670991,-0.20275105303297988,0.04537880390041087,0.6698894581293864,0,-1,0.04626884683966637,-1.5927913824664515,-0.38748294511903936,-1.4874561468707483,0.31616297364234924,0.1003379225730896
3629,1734172229,178745746,-0.3187267062355789,0.2369183724044409,1.3637692195395963,-0.7129421629369642,-0.205274412984799,0.04589594527474767,0.6689315733973443,0,-1,0.046915244311094284,-1.593078915272848,-0.3924143950091761,-1.4863889853106897,0.3202008903026581,0.10160712897777557
3645,1734172229,194356441,-0.32259340902852335,0.23644020553802705,1.3621489992436437,-0.7130851190838166,-0.20783891445828018,0.04636513564548461,0.6679542445217327,0,-1,0.047525692731142044,-1.593379322682516,-0.39738208452333623,-1.4853699843036097,0.32432273030281067,0.10286472737789154
3661,1734172229,210578680,-0.3264463473557687,0.23594776587562521,1.3605126471934101,-0.7132311607113079,-0.21039083417873344,0.04689777244969197,0.6669614735674273,0,-1,0.048099812120199203,-1.5936911741839808,-0.4024694601642054,-1.4842670599566858,0.3284805119037628,0.10408636927604675
3677,1734172229,226177453,-0.3303301296269937,0.2354376342256393,1.358832912344198,-0.7133767177038941,-0.2129754507317156,0.04737958911221966,0.6659506667608331,0,-1,0.04868628829717636,-1.593954865132467,-0.40754491487611944,-1.4831402937518519,0.3325667381286621,0.10535594820976257
3693,1734172229,242484807,-0.3341172934389536,0.23495369836074081,1.3571689683244446,-0.7135361087534619,-0.21542912935325448,0.04791653653504468,0.6649515149674841,0,-1,0.04930872097611427,-1.594266716633932,-0.41253644624818975,-1.4820731321917933,0.33662864565849304,0.1066494956612587
3709,1734172229,258745431,-0.33789712562820906,0.23444123181526422,1.3554811744970356,-0.7136824226092714,-0.21795731500334573,0.0484206452390432,0.663933317140907,0,-1,0.04988321289420128,-1.594506565724508,-0.4175756613360804,-1.480922047291891,0.34072649478912354,0.10797861963510513
3725,1734172229,274474143,-0.34166774552477475,0.2339332615247219,1.353780270063913,-0.713842733196172,-0.22046361584914118,0.04894588876722592,0.6628941441305146,0,-1,0.0505412220954895,-1.594842259083883,-0.42251903215517217,-1.4798553625689905,0.3448367118835449,0.10927179455757141
3741,1734172229,290198802,-0.34549688548112495,0.23339374604304142,1.3520484207150971,-0.714001880241119,-0.2229658333046349,0.04949122575839584,0.6618445215938922,0,-1,0.05109212175011635,-1.5951178709613245,-0.4275110403644007,-1.4787638823138636,0.34892258048057556,0.1106731966137886
3757,1734172229,306510448,-0.34924251714298715,0.23287686137292643,1.3503058006526496,-0.7141676305760609,-0.2254265224299327,0.05001544721347705,0.6607918987567551,0,-1,0.051714178174734116,-1.5954416433917444,-0.43258601823915654,-1.477685276662008,0.3529968559741974,0.11203864961862564
3773,1734172229,322417974,-0.3530902047170225,0.2323289653940509,1.3485005290055705,-0.714335524397474,-0.22799894545158286,0.050518653291839896,0.6596886425627856,0,-1,0.052372563630342484,-1.5957534948932093,-0.43768531480898076,-1.4766419569598597,0.3570950925350189,0.11333219707012177
3789,1734172229,338637590,-0.35695109648074475,0.23179585137386083,1.346667733827438,-0.7145002674283533,-0.2305514409017948,0.050973232488972064,0.6585872231622346,0,-1,0.0529826357960701,-1.596030060444967,-0.4427602926837366,-1.4755390326129358,0.3612169027328491,0.11463772505521774
3805,1734172229,354974269,-0.3607116641922328,0.2312324793035867,1.3448630312633032,-0.7146604904906897,-0.23304567288644115,0.05147299693959421,0.6574957249036445,0,-1,0.05359308049082756,-1.5963533560382288,-0.44775182405580694,-1.4744961897479456,0.3653866648674011,0.11593089997768402
3821,1734172229,370507717,-0.36446758795747347,0.23069502417256624,1.343031435449371,-0.714828821535477,-0.23554945978417355,0.05192190444073503,0.6563842805375768,0,-1,0.054179560393095016,-1.5966294447528284,-0.4527190367328089,-1.4734414259540003,0.36947327852249146,0.11727238446474075
3837,1734172229,386673688,-0.3681223070037647,0.23014204047673892,1.341210538163356,-0.7150030967700667,-0.23802409867989677,0.05246724641261868,0.6552574212557344,0,-1,0.054801616817712784,-1.596940819417135,-0.4576981703387659,-1.4723981062518519,0.3736550211906433,0.11854196339845657
3853,1734172229,402389526,-0.37186304461185365,0.22957049372510757,1.3393436342798886,-0.7151609239498038,-0.24056555766923107,0.05294745967693087,0.6541174449839374,0,-1,0.05540045350790024,-1.5972045103656214,-0.4626663366900843,-1.471307102833883,0.377741277217865,0.11982353031635284
3869,1734172229,418773412,-0.37554164901159104,0.22901717552910372,1.33746437676886,-0.7153403792172528,-0.2429948246942645,0.05342482752006294,0.6529834950728631,0,-1,0.0560108982026577,-1.5974567572223108,-0.4677532354937952,-1.470288101826803,0.38180357217788696,0.12114104628562927
3885,1734172229,434466123,-0.3792769108752949,0.22843070973124668,1.3355387237272303,-0.7155118770223649,-0.24551628340616133,0.05388732473378633,0.6518133664289136,0,-1,0.05660898610949516,-1.5977442900287073,-0.4727686087237757,-1.4692333380328577,0.38587746024131775,0.12245818227529526
3901,1734172229,450672149,-0.38296470073919714,0.22788135906777857,1.333609268328827,-0.7156930190011405,-0.2479797192340877,0.05431347855322867,0.6506455313371976,0,-1,0.05718385428190231,-1.598020378743307,-0.4778559843646448,-1.4681304136859339,0.38992810249328613,0.12375172972679138
3917,1734172229,466274976,-0.3865928212410754,0.22729999876104207,1.3316866869988846,-0.7158653111211901,-0.2504095939219787,0.05480354048125445,0.6494832280789943,0,-1,0.057841863483190536,-1.5982726255999964,-0.482858959828512,-1.4669917265521448,0.39400237798690796,0.12505726516246796
3933,1734172229,482568264,-0.39027826412643424,0.22672298495608362,1.3297191027142063,-0.7160462240967833,-0.2528568043216406,0.05523900413894656,0.6482976892498724,0,-1,0.05840437114238739,-1.598572079335348,-0.48782664934267217,-1.465900723134176,0.3980766534805298,0.12632647156715393
3949,1734172229,498165845,-0.39385600757866773,0.22614121450684868,1.3277703444349056,-0.7162246423846047,-0.2552609067486754,0.05574043365466779,0.6471144683770242,0,-1,0.058918945491313934,-1.5988362471209925,-0.4929259459124964,-1.4648097197162073,0.4021872282028198,0.12767992913722992
3965,1734172229,514438629,-0.39752948288032836,0.225554274238067,1.3257500346963094,-0.7164137718722486,-0.25773593382796883,0.05619307999471265,0.645883761714374,0,-1,0.0595533587038517,-1.599135700856344,-0.49800092378725225,-1.4637544790851038,0.4062734842300415,0.12892554700374603
3981,1734172229,530715942,-0.4010939600934063,0.22499178006228288,1.3237504166298448,-0.7166052941445313,-0.26012778521244384,0.05660457600568119,0.6446753522042823,0,-1,0.06011549383401871,-1.5994237104998987,-0.5030162970172327,-1.4626277128802698,0.41027581691741943,0.13024269044399261
3997,1734172229,546474933,-0.4046978186928887,0.2243920526453519,1.3217211035116392,-0.716791106099266,-0.2625478547314393,0.05705273550080472,0.643447060421279,0,-1,0.060726314783096313,-1.5996511618243616,-0.5081151167498987,-1.461524788533346,0.4144100248813629,0.1315242499113083
4013,1734172229,562772512,-0.4083209902428633,0.2237946513882229,1.3196541452942927,-0.7169729434800296,-0.2650030542641566,0.05744856708807872,0.6422015584594741,0,-1,0.061336763203144073,-1.599926773701803,-0.5130708853351038,-1.4604457060443323,0.41856855154037476,0.13278184831142426
4029,1734172229,578540802,-0.41184112337318884,0.22317326462293316,1.3176197888690777,-0.7171522693368735,-0.2674658123193156,0.05796988205387067,0.6409322542983786,0,-1,0.06187492981553078,-1.6001909414874476,-0.5180376211749476,-1.4593308607684534,0.42270272970199585,0.13408738374710083
4045,1734172229,594265460,-0.4153078902968561,0.22255513161105472,1.3156015281655493,-0.7173336453303617,-0.2698536934639317,0.05845611212842101,0.6396829748834644,0,-1,0.06248537451028824,-1.600443188344137,-0.5229933897601526,-1.458252255116598,0.4267769753932953,0.1353210061788559
4061,1734172229,610641956,-0.4188752346917659,0.22193956228442355,1.3134962403814143,-0.7175260168962967,-0.2722610821478392,0.05888247509598875,0.6384067452268917,0,-1,0.06310780346393585,-1.6006949583636683,-0.5280683676349085,-1.4571850935565394,0.4308280348777771,0.13659058511257172
4077,1734172229,626386165,-0.4223771962110253,0.22133986895640412,1.311373663025637,-0.7177259929740628,-0.2746769948836768,0.0592975968786929,0.6371073241577749,0,-1,0.06371787935495377,-1.6009467283831995,-0.5331309477435511,-1.4561060110675257,0.4349861741065979,0.13790810108184814
4093,1734172229,642656803,-0.42598484408716003,0.22067487051588047,1.3092049579106262,-0.7179196518794243,-0.2771244602027437,0.0597397297807437,0.635786577153362,0,-1,0.06431671231985092,-1.6012104193316858,-0.5382183233844202,-1.4550030867206019,0.4390963912010193,0.13923722505569458
4109,1734172229,658352375,-0.42945325949571256,0.22005486428749232,1.3070619294675363,-0.7181162387719667,-0.27950018535826426,0.060149149507031846,0.6344846679079648,0,-1,0.06490281969308853,-1.6014865080462855,-0.5431736151324671,-1.4539483229266565,0.4431474506855011,0.1405307650566101
4125,1734172229,674832105,-0.43295267769354584,0.2194107304104953,1.3049119440015733,-0.7183249435788301,-0.2818488426067337,0.06062909298259213,0.6331623949965942,0,-1,0.06552524864673615,-1.6018098036395472,-0.5481532255755823,-1.4528692404376429,0.44724565744400024,0.1419321745634079
4141,1734172229,690381765,-0.4363905490155672,0.2187542525175577,1.3027573860680726,-0.7185320459157173,-0.2842046043947552,0.06111740157980442,0.6318260085317216,0,-1,0.0661356970667839,-1.6020739714251917,-0.5531795660602015,-1.4517667929278772,0.4513682425022125,0.14328564703464508
4157,1734172229,706670999,-0.4399110802946036,0.21811617121173033,1.3005347436431138,-0.7187381565224294,-0.28658274949680435,0.061543475325463566,0.6304745757716609,0,-1,0.06672179698944092,-1.6023615042315882,-0.5582311789142054,-1.4506757895099085,0.45539456605911255,0.14459079504013062
4173,1734172229,722420692,-0.44336946318404546,0.2174649100509592,1.2983121810065679,-0.7189448641104107,-0.28893608296733403,0.06195204546434622,0.6291233316222985,0,-1,0.06728468090295792,-1.6025894323932093,-0.5633776823626917,-1.4495723883258265,0.45950552821159363,0.1459203064441681
4189,1734172229,738697290,-0.4468620749654973,0.21679922887105263,1.2960393113204163,-0.7191494173353353,-0.2913382328712708,0.06232972175828526,0.6277429054949387,0,-1,0.06794306635856628,-1.6028536001788538,-0.5684049765216272,-1.448505703602926,0.4636041224002838,0.14718949794769287
4205,1734172229,754439592,-0.45021775528567193,0.21612027728472277,1.2938167632992679,-0.7193489143084457,-0.2936986652538716,0.06279771498431344,0.6263662510896509,0,-1,0.06858909130096436,-1.6031654516803187,-0.573371712361471,-1.4474385420428675,0.4677383303642273,0.1485309898853302
4221,1734172229,770700454,-0.45372499375991787,0.21543553732383897,1.2915206555736107,-0.7195518043899689,-0.29611746381485754,0.06317177786699116,0.6249551783161091,0,-1,0.06915160268545151,-1.6034534613238733,-0.5783990065204065,-1.446348015462057,0.4718612730503082,0.14977659285068512
4237,1734172229,786436319,-0.45714843262965693,0.21475822767012256,1.2892400025691533,-0.7197537740976194,-0.29846679054255637,0.06357581746907566,0.6235625029205955,0,-1,0.06976205110549927,-1.603752915059225,-0.5834019819842737,-1.4452570120440882,0.47594788670539856,0.151058167219162
4253,1734172229,802724838,-0.46054775261166314,0.21408743231024085,1.2869412536342937,-0.7199665741884308,-0.3007962293341487,0.06397925457823095,0.622154655574759,0,-1,0.07037211954593658,-1.6040285269366663,-0.588393513356344,-1.4441779295550745,0.48005884885787964,0.15241162478923798
4269,1734172229,818250656,-0.4639614947019294,0.21340406478217472,1.2845986437290393,-0.7201712902210278,-0.3031868348208702,0.06432430790123302,0.6207200974237178,0,-1,0.07095897197723389,-1.604328457509176,-0.5935037771808069,-1.4431589285479944,0.4841574430465698,0.15366922318935394
4285,1734172229,834380865,-0.4673577351241443,0.2127220815882691,1.2822185829183168,-0.7203903310536937,-0.30554537853562524,0.06467921945942696,0.6192708544328486,0,-1,0.07153309136629105,-1.6045921484576624,-0.5985310713397425,-1.442092243825094,0.48819613456726074,0.15493880212306976
4301,1734172229,850616931,-0.4706944392878698,0.21204626436088161,1.2798709801286088,-0.720607757460061,-0.3078641460009468,0.06503862616980077,0.6178301583780403,0,-1,0.07217948883771896,-1.604856316243307,-0.6036179701434534,-1.440953556691305,0.4922831356525421,0.15622036159038544
4317,1734172229,866520404,-0.4740237309950037,0.2113515133615843,1.2775030312048055,-0.7208255604202743,-0.31019307199243845,0.06544194875007096,0.6163668719816832,0,-1,0.07273001223802567,-1.6051562468158167,-0.6086090246783655,-1.4399340788470667,0.4964057207107544,0.1575498729944229
4333,1734172229,882688999,-0.4773931201242154,0.21065293892271109,1.2751113597157384,-0.721045738656601,-0.3125383723114991,0.06582414381192757,0.6148820949494805,0,-1,0.07335206866264343,-1.6054919401751917,-0.6134679953204554,-1.4388793150531214,0.5005761981010437,0.15880745649337769
4349,1734172229,898557901,-0.4806732655510767,0.20996494326602325,1.2727287954939897,-0.7212632881563322,-0.3148299857987669,0.0661945578689423,0.6134163591789831,0,-1,0.07391495257616043,-1.605767552052633,-0.6185429731952112,-1.437812630330221,0.5046512484550476,0.16010026633739471
4365,1734172229,914688587,-0.48401695617502816,0.20925427401883456,1.2702791224381031,-0.7214883910522206,-0.31716918063518984,0.06653345845675841,0.6119080905968337,0,-1,0.07450143247842789,-1.6060312430011194,-0.6236417929278772,-1.4367454687701624,0.5087618231773376,0.161429762840271
4381,1734172229,930202960,-0.48733440843659676,0.20852963883395528,1.2678184785514377,-0.7217100327493485,-0.3194779457492707,0.06690659736196106,0.6104031274806878,0,-1,0.0750875398516655,-1.606307331715719,-0.6287530104266565,-1.4356067816363733,0.5128963589668274,0.16269934177398682
4397,1734172229,946419715,-0.4906575125907965,0.2078138586287805,1.265324375795952,-0.7219321374105783,-0.3218067971280363,0.0672569874592563,0.6088767296702134,0,-1,0.07569798082113266,-1.6066191832171839,-0.6338279883014124,-1.4344914595233362,0.5170077085494995,0.1639809012413025
4413,1734172229,962592363,-0.4939503326435012,0.20710357721231354,1.2628267969430587,-0.722151407897964,-0.3241380106210017,0.06754694700688879,0.607346115564837,0,-1,0.07623689621686935,-1.6069191137896937,-0.6388071219073694,-1.4334371725665491,0.5211182832717896,0.1652744561433792
4429,1734172229,978044986,-0.49713769238624667,0.206375426158373,1.260391182863245,-0.7223686465667275,-0.32637501967571647,0.06793567698069083,0.605844558267387,0,-1,0.07690688967704773,-1.6072304884540003,-0.6437261740313929,-1.432309929524557,0.5251457691192627,0.16649609804153442
4445,1734172229,994249105,-0.5003613792963632,0.20563588704951122,1.2579272614608878,-0.7225906102672351,-0.32863512895240143,0.0683332590590538,0.6043114492365932,0,-1,0.07752932608127594,-1.6075547377215784,-0.6486933867083948,-1.4312551657306116,0.5292443633079529,0.1678255945444107
4461,1734172230,10376691,-0.5036019051012333,0.2049058389814117,1.2554136612049693,-0.7228153131950288,-0.3308807583364397,0.068653880481576,0.6027790569257498,0,-1,0.07816336303949356,-1.6078546682940882,-0.6537440458880823,-1.4301283995257776,0.5332594513893127,0.16909517347812653
4477,1734172230,26560068,-0.5068751552636823,0.2041618220381406,1.252817830244478,-0.7230411602306136,-0.33317128446925787,0.06892413427817401,0.601213638843529,0,-1,0.07873785495758057,-1.6081426779376429,-0.6587947050677698,-1.4290736357318323,0.5372985005378723,0.17041268944740295
4493,1734172230,42654752,-0.510096283264703,0.2034012499888318,1.2502439181555256,-0.7232688122803819,-0.3354588411264156,0.06925053580252079,0.599628180111402,0,-1,0.07937227189540863,-1.6084182898150843,-0.6638458410846155,-1.42792255083193,0.5414214730262756,0.17170622944831848
4509,1734172230,58199882,-0.5132955649419972,0.20264679873697988,1.247658171299204,-0.7235081354068449,-0.3377147141459645,0.06961430028984915,0.5980289282673328,0,-1,0.08000631630420685,-1.608729664479391,-0.6689088980304163,-1.426880184804098,0.5455923676490784,0.17309565842151642
4525,1734172230,74345588,-0.5165227428310855,0.20185937989908126,1.2450555797506242,-0.7237520022243343,-0.33998859566034795,0.0699865160747426,0.5963997666539544,0,-1,0.080605149269104,-1.6090896765338343,-0.6738393942462366,-1.4258130232440394,0.549787163734436,0.17444837093353271
4541,1734172230,90479850,-0.5196665888843686,0.2010993344956259,1.242465726038604,-0.7239878579800709,-0.3422403919189868,0.07032693001423578,0.5947833374862982,0,-1,0.08121559768915176,-1.6093652884112757,-0.6788423697101038,-1.4247096220599573,0.5538981556892395,0.17574192583560944
4557,1734172230,106633424,-0.5227522603886106,0.2003387008583239,1.2398767156261985,-0.7242201995120227,-0.3444765709377062,0.07067802100223108,0.5931657542719183,0,-1,0.08181368559598923,-1.6096537748919886,-0.6838935057269495,-1.4236672560321253,0.5580334663391113,0.17708340287208557
4573,1734172230,122719764,-0.525920397370514,0.19957425236987833,1.2372074613568733,-0.7244734951094096,-0.34673930463413416,0.07101237289023449,0.5914957754729037,0,-1,0.08241214603185654,-1.6099055449115198,-0.6889918486224573,-1.4226000944720667,0.5621803998947144,0.17834100127220154
4589,1734172230,138278245,-0.5290768078374988,0.19881340133355746,1.2345021812787467,-0.724707207258029,-0.3490017609065943,0.07124183663576507,0.5898489936798463,0,-1,0.08299825340509415,-1.6102054754840296,-0.6941030661212366,-1.4214728514300745,0.566183865070343,0.17965851724147797
4605,1734172230,154481887,-0.5321229847122604,0.19805677236292552,1.2318555231877228,-0.7249528506933167,-0.3511783314167563,0.07155526197033407,0.5882150867661706,0,-1,0.0835970863699913,-1.6104448477374476,-0.6990936438189905,-1.4204424063311976,0.5702828168869019,0.1809520572423935
4621,1734172230,170737743,-0.5351679156218143,0.19730159094915023,1.229197182607707,-0.7251935630900954,-0.3533645874669216,0.07184278101692967,0.5865717170072026,0,-1,0.08420753479003906,-1.6107810179339808,-0.7040608564959925,-1.41925555864443,0.5743458867073059,0.18218569457530975
4637,1734172230,186770200,-0.5382088528562464,0.19653513763980085,1.2265298858263967,-0.7254355706845618,-0.35554067663262395,0.07214551051930877,0.5849180159279491,0,-1,0.08481760323047638,-1.6110685507403772,-0.7090638319598597,-1.418213192616598,0.5784571766853333,0.1835271716117859
4653,1734172230,202475309,-0.5412240459666837,0.19572727505888443,1.2238589818754029,-0.7256683652050938,-0.35773187604776696,0.07248489398508261,0.5832488909066891,0,-1,0.08540408313274384,-1.6113560835467737,-0.7140186468707483,-1.4170859495746058,0.5825202465057373,0.1847967505455017
4669,1734172230,218181848,-0.5442236706912255,0.19498342638784805,1.2211255621914718,-0.7259319036683582,-0.35985853885206814,0.07272771680119312,0.5815800739885898,0,-1,0.08600292354822159,-1.611596409474508,-0.7191293875323694,-1.4160311857806605,0.5867034792900085,0.18610191345214844
4685,1734172230,234460115,-0.5472076846653312,0.19418926370003675,1.2183994514378835,-0.7261846841945035,-0.3620936663937913,0.07307900215613175,0.5798305275187701,0,-1,0.08655307441949844,-1.6118477026568812,-0.7241442839251917,-1.4149640242206019,0.5909103155136108,0.18741942942142487
4701,1734172230,250169038,-0.5502251758087024,0.19339011570853698,1.2156173262170304,-0.7264356734342545,-0.36427280222447367,0.07336949693645285,0.5781119743102908,0,-1,0.08717550337314606,-1.6121123472796839,-0.7292431036578577,-1.4138496557818812,0.5949857234954834,0.18872496485710144
4717,1734172230,266475439,-0.5531332321234586,0.19260966740659713,1.212895701375571,-0.7266802264794731,-0.36643345129360955,0.07364644388261109,0.5764014013864306,0,-1,0.08777359127998352,-1.6123998800860804,-0.7341740767108362,-1.4127944151507776,0.5991210341453552,0.19001850485801697
4733,1734172230,282182455,-0.556065235712357,0.1918000898483008,1.2101635160275335,-0.7269333974418873,-0.36858458071139377,0.07397781821813938,0.5746655766244269,0,-1,0.08833609521389008,-1.6126635710345667,-0.7390812079059046,-1.4117277304278772,0.6032562851905823,0.1913120448589325
4749,1734172230,298500299,-0.5589065780653965,0.19099072134152356,1.2074420937111014,-0.7271788556826974,-0.3706964566805461,0.07430996051028928,0.5729512009075903,0,-1,0.08899448066949844,-1.6129158178912562,-0.7440841833697718,-1.4106486479388636,0.6073796153068542,0.19266514480113983
4765,1734172230,314566850,-0.5618405273520363,0.19021087852517082,1.2046042213179573,-0.727443268800426,-0.3728720390228999,0.07452488722385886,0.5711731562110804,0,-1,0.0896049290895462,-1.6132152716266077,-0.7491706053363245,-1.4096296469317835,0.6114550232887268,0.1939227432012558
4781,1734172230,330365419,-0.5648037746574389,0.18939112662691962,1.2017160861830665,-0.7276842231827979,-0.3750526936886024,0.07469078522511814,0.5694141154645067,0,-1,0.09019140899181366,-1.6134551207171839,-0.7543414274798792,-1.4085271994220179,0.6154704689979553,0.19518034160137177
4797,1734172230,346104145,-0.5677032732488249,0.18857388075509496,1.1988565638386366,-0.7279385285555425,-0.3772110497395366,0.07492039787586399,0.5676303872952104,0,-1,0.09077788144350052,-1.6137307325946253,-0.7594636122332972,-1.4074962774859827,0.6196533441543579,0.19648586213588715
4813,1734172230,362498998,-0.5706085363331768,0.18776073093725706,1.1959763854318617,-0.7282048240540117,-0.37933332779606926,0.07513042972317971,0.5658439530270127,0,-1,0.09139993786811829,-1.61401874223818,-0.7644546667682093,-1.4064648787127894,0.6237650513648987,0.19779102504253387
4829,1734172230,378157138,-0.5734403767898981,0.1869495714781152,1.1931243922473316,-0.7284641531631978,-0.3814689698366364,0.07539487491850093,0.5640363600372091,0,-1,0.09198641777038574,-1.6143067518817347,-0.7693980375873011,-1.4053500334369105,0.627780556678772,0.1990606039762497
4845,1734172230,394370555,-0.5762295721841557,0.18613457010682355,1.190314741365344,-0.7287155528037528,-0.3835312868245018,0.07562760474949701,0.5622791660096579,0,-1,0.0925968661904335,-1.6146186033831995,-0.7743766943560999,-1.4042838255511683,0.6318199634552002,0.20039010047912598
4861,1734172230,410087108,-0.5790263368665182,0.18529267396276333,1.1874496826920253,-0.7289712496410388,-0.3856335674450347,0.07591403702475047,0.5604683111818215,0,-1,0.09319532662630081,-1.6148703734027308,-0.7794392744647425,-1.4031804243670862,0.6359792351722717,0.2016836553812027
4877,1734172230,426319837,-0.5818252601628002,0.18448543575442344,1.184534262919586,-0.7292472908918421,-0.3877109274972612,0.07616761101002692,0.5586386313701798,0,-1,0.09381775557994843,-1.6150863806353968,-0.7844904104815882,-1.4020779768573206,0.6401628851890564,0.20302513241767883
4893,1734172230,442489862,-0.5846073108833088,0.183651046175618,1.1816033012616391,-0.7295197298914006,-0.3897885756843018,0.07640332301297954,0.55680190570593,0,-1,0.09440386295318604,-1.615338150654928,-0.7895410696612757,-1.4009268919574183,0.6442741751670837,0.20440256595611572
4909,1734172230,458027839,-0.5873478152084408,0.18284023627512402,1.178679491054747,-0.7298010821801302,-0.3918147513676804,0.07661343617099226,0.5549792450690989,0,-1,0.09499071538448334,-1.6156380812274378,-0.7945440451251429,-1.3998845259295862,0.6483016610145569,0.2057560384273529
4925,1734172230,474186420,-0.5900801733528133,0.18201890755272226,1.1757682182682008,-0.7300780826592742,-0.393863555272104,0.07686944951147598,0.5531261888401046,0,-1,0.09556520730257034,-1.6159375349627894,-0.7994750181781214,-1.3987816015826624,0.6524852514266968,0.20708516240119934
4941,1734172230,490278005,-0.5928121684083011,0.18117763391339115,1.172831131645652,-0.7303455900999046,-0.39590192930426027,0.07709605940449643,0.5512832112617662,0,-1,0.0961632952094078,-1.6161897818194788,-0.804549519215719,-1.3976667563067835,0.6565127372741699,0.20840267837047577
4957,1734172230,506428480,-0.5955232888939667,0.18033495887707884,1.1698771942579476,-0.7306041394469026,-0.39794376706341283,0.07729710657789059,0.5494392659731533,0,-1,0.09671381860971451,-1.6165011564837855,-0.8095524946795862,-1.3965757528888147,0.6605525016784668,0.2096722573041916
4973,1734172230,522016286,-0.5982220549405913,0.1795318949142786,1.1668765312406615,-0.7308809236212852,-0.39996374135450313,0.07743753717711062,0.5475815089319114,0,-1,0.09735984355211258,-1.616800610219137,-0.8146513144122522,-1.3955329100238245,0.6646279096603394,0.2109418362379074
4989,1734172230,538141489,-0.600918398778486,0.17867793240190555,1.163842455114039,-0.7311565791585138,-0.40202462706918696,0.0776170878978642,0.5456755846190628,0,-1,0.09795868396759033,-1.61708909669985,-0.8197019735919397,-1.394442383443014,0.6687639355659485,0.21225935220718384
5005,1734172230,554269552,-0.6035719223198516,0.1778248258968124,1.1608365083755383,-0.7314150512279423,-0.4040815076380716,0.07778923631473703,0.5437821188083878,0,-1,0.09856913238763809,-1.6173647085772913,-0.8247764746295374,-1.3933756987201136,0.6729112267494202,0.2134929746389389
5021,1734172230,570136070,-0.6063002651053827,0.17696708260035798,1.1577483432465216,-0.7316930279729,-0.40613280052378664,0.07792636117319315,0.5418569399655783,0,-1,0.0991552323102951,-1.6176884810077112,-0.8297436873065394,-1.3922961393939417,0.6769750118255615,0.21483446657657623
5037,1734172230,586485147,-0.6089052878643677,0.17611343877291366,1.1547804404140838,-0.731970157892716,-0.4081237825978904,0.07817402815558162,0.5399476709408354,0,-1,0.09971774369478226,-1.617976490651266,-0.8346627394305628,-1.3912418524371546,0.6810983419418335,0.21612800657749176
5053,1734172230,602191448,-0.6115274324269664,0.17524727083977004,1.1517473329840597,-0.732234555095005,-0.4101562028246614,0.07836294787761268,0.5380183026712064,0,-1,0.10037574917078018,-1.6182645002948206,-0.8396175543414515,-1.3901026884662073,0.6852823495864868,0.2174091935157776
5069,1734172230,618464946,-0.614084914409857,0.17437192866719362,1.1487059524025758,-0.7325084436052518,-0.4121399063648177,0.07857172886329376,0.5360956640862189,0,-1,0.10097458958625793,-1.618552033101217,-0.8447287718402308,-1.389012638722555,0.6894056797027588,0.21875068545341492
5085,1734172230,634123325,-0.6166935725429447,0.1734943538802725,1.1456006597192179,-0.7327892369896799,-0.41413331185202645,0.07872988827293119,0.5341489856389195,0,-1,0.10157305002212524,-1.6188281218158167,-0.8498624006854456,-1.3879335562335413,0.6934454441070557,0.2200322449207306
5101,1734172230,650353431,-0.6192815104835417,0.17265165306278063,1.1424802232876565,-0.7330662913262725,-0.4161301840747985,0.07883155765895299,0.5321983351534293,0,-1,0.10219510644674301,-1.6190794149981897,-0.8549016157733362,-1.3868182341205042,0.697509229183197,0.22131380438804626
5117,1734172230,666504859,-0.6218867018478856,0.17175652817293718,1.139354366519929,-0.733335116854394,-0.4181496706144675,0.07896839779982434,0.5302211345298234,0,-1,0.10275761783123016,-1.6194160620318812,-0.8598325888263147,-1.3857997099505823,0.7016209363937378,0.22259537875652313
5133,1734172230,682585000,-0.6243700431114881,0.1708810682877264,1.1363105602418526,-0.7336141699596321,-0.4200781223697977,0.07914725943298057,0.5282805429551173,0,-1,0.10342761129140854,-1.6197755972491663,-0.8647998015033167,-1.3846972624408167,0.7056251764297485,0.22388891875743866
5149,1734172230,698688268,-0.6268792518015707,0.17001979057898853,1.1332064336653618,-0.7338873005267996,-0.4220245470434419,0.07928278423891626,0.5263258989842604,0,-1,0.10402607172727585,-1.6200993696795862,-0.8697903792010706,-1.3835704962359827,0.7097249031066895,0.22515849769115448
5165,1734172230,714231014,-0.6294595506361096,0.16911621478215175,1.1300145770562828,-0.7341580371600598,-0.42400653510637476,0.07939740703637305,0.5243343269482512,0,-1,0.1045769676566124,-1.6203988234149378,-0.8748410383807581,-1.3824675718890589,0.7138246297836304,0.22648762166500092
5181,1734172230,730558395,-0.6319431290700293,0.1682620021111419,1.1268301456207421,-0.7344354963568674,-0.42598397417964,0.07946533680454852,0.5223288386444895,0,-1,0.10521101206541061,-1.620650593434469,-0.8799999395953577,-1.3814123312579554,0.7179363369941711,0.22767332196235657
5197,1734172230,746246814,-0.6343882955320532,0.16739208764278185,1.1236495573336216,-0.734718702586808,-0.4279380216913083,0.0795648712583985,0.5203142405524966,0,-1,0.10578550398349762,-1.6209867636310022,-0.8850982824908655,-1.3803818861590784,0.7221083641052246,0.22895488142967224
5213,1734172230,761997222,-0.6368907385178515,0.1664905037890509,1.1204239257601654,-0.7349958178471093,-0.42991230400745,0.07963679808731863,0.5182803671765545,0,-1,0.10639595240354538,-1.6212981382953089,-0.8900411764727991,-1.379327122365133,0.7261601686477661,0.23022446036338806
5229,1734172230,778312444,-0.6392760137991178,0.16563511972167405,1.1172786868233153,-0.7352743025123363,-0.43183325160244423,0.07972759107358592,0.5162705241412304,0,-1,0.10700640082359314,-1.6215503851519983,-0.8949483076678675,-1.3782842795001429,0.7302359342575073,0.23148205876350403
5245,1734172230,794077396,-0.6416646594819755,0.1647284558771793,1.1141445667023515,-0.7355482967134013,-0.4337453540110188,0.07988261432564919,0.5142493937812369,0,-1,0.1075689047574997,-1.6218860785113733,-0.8998916784869593,-1.377181355153219,0.7344195246696472,0.23277559876441956
5261,1734172230,810348987,-0.644037165261277,0.16385628050690554,1.1109483214069653,-0.7358449566139815,-0.4356324794438879,0.0800068901297747,0.5122064429613324,0,-1,0.10822691768407822,-1.6221378485309046,-0.9050138632403772,-1.3761146704303187,0.7384952902793884,0.2341410517692566
5277,1734172230,826053380,-0.6463711456096058,0.16294570244374806,1.1077418522634273,-0.7361357253732257,-0.43750437985573254,0.08010479833072238,0.510173825985497,0,-1,0.10876546055078506,-1.6224020163165491,-0.9100530783282679,-1.375035587941305,0.7425714135169983,0.23554246127605438
5293,1734172230,842339992,-0.6486925127601006,0.16210016494493593,1.104496768283014,-0.7364618117349087,-0.43935519550183305,0.08019564413182675,0.5080941553530836,0,-1,0.10935231298208237,-1.6226776281939905,-0.9150918165790003,-1.3739445845233362,0.7467074990272522,0.23689554631710052
5309,1734172230,858040571,-0.6510135165874498,0.16119532428672512,1.1012735778949714,-0.7367547224000012,-0.4412038274230186,0.0803131645193325,0.5060449162806273,0,-1,0.10995040088891983,-1.6229537169085901,-0.9200947920428675,-1.3729022184955042,0.7507836222648621,0.23818910121917725
5325,1734172230,874476194,-0.6533628414047218,0.16030590469023717,1.0979945029508704,-0.7370366283461295,-0.44309688240526246,0.08034515448848177,0.5039710482052798,0,-1,0.110560841858387,-1.6232412497149866,-0.9250734488116663,-1.3718236128436487,0.7547754645347595,0.23947066068649292
5341,1734172230,890711545,-0.6555903805180876,0.15940933245907948,1.0948041841027576,-0.7373414460716188,-0.4448987870510539,0.08049311001952776,0.5019098728107464,0,-1,0.11117091774940491,-1.6235411802874964,-0.9300883452044886,-1.3706725279437464,0.758947491645813,0.24078817665576935
5357,1734172230,906323909,-0.6578512614256984,0.1585219916718793,1.0915320650779938,-0.7376293657894735,-0.44674753702925923,0.08054865672041248,0.4998314423721731,0,-1,0.11176937818527222,-1.623840634022848,-0.9351509253131312,-1.3695815245257776,0.7630955576896667,0.24208173155784607
5373,1734172230,922632694,-0.6601653542570297,0.15759868063028618,1.0881700581138474,-0.7379209142301725,-0.44863596071928685,0.08057486135714742,0.49770090497051084,0,-1,0.11235623061656952,-1.6241052786456507,-0.9403212706195276,-1.3685029188739222,0.7671716809272766,0.2433513104915619
