yildirimyigit/pemp/data/ur10/raw/5_2024-12-14_13-35-26.csv
Time,ROS secs,ROS nsecs,________p_x________,________p_y________,________p_z________,________q_x________,________q_y________,________q_z________,________q_w________,gripper_position,gripper_force,shoulder_pan_joint,shoulder_lift_joint,elbow_joint,wrist_1_joint,wrist_2_joint,wrist_3_joint
0,1734172526,979685306,-0.0001996010699963757,0.2561410259200869,1.4272999755912905,-0.7071067814403345,-3.8317601110676405e-05,-0.00011435071109796008,0.7071067706483707,0,-1,-8.32716571252945e-05,-1.5709040800677698,-8.374849428349762e-05,-1.570796314870016,-2.366701234990387e-05,5.992112710373476e-05
10,1734172526,995823621,-0.00018377438678957307,0.2561410240087568,1.4272999783526754,-0.7071067824604272,-3.819376990000355e-05,-0.00010575275310463937,0.7071067709731346,0,-1,-0.00014335313905888825,-1.5709040800677698,-0.00010759035219365387,-1.5708320776568812,1.1984225238848012e-05,2.3968450477696024e-05
27,1734172527,11793375,-0.00015826501173098995,0.2561410209799616,1.4272999846573087,-0.7071067819027783,-2.1312652007277702e-05,-9.734576214358512e-05,0.7071067734484447,0,-1,-0.00013143221010381012,-1.5708802382098597,-0.000119511281148732,-1.570808235798971,3.5952674807049334e-05,7.190534961409867e-05
42,1734172527,27435302,-0.00012502993528806471,0.2561410227382349,1.427299986861665,-0.7071067803132772,-2.7866656614502785e-07,-0.00011837974760030217,0.7071067721505347,0,-1,-8.32716571252945e-05,-1.5708683172809046,-0.000119511281148732,-1.570796314870016,1.1984225238848012e-05,4.793690095539205e-05
58,1734172527,43425798,-0.00014413167924305756,0.2561410151236987,1.4272999862280866,-0.707106781142105,-1.2860903777578755e-05,-8.017222673310763e-05,0.7071067765690429,0,-1,-9.519258608037262e-05,-1.5708683172809046,-9.566942323857575e-05,-1.5708563963519495,1.1984225238848012e-05,2.3968450477696024e-05
75,1734172527,59810876,-0.00019353994840076762,0.2561410224165564,1.4272999795066814,-0.707106782759247,-2.9888229722830845e-05,-8.868066863693947e-05,0.7071067734213128,0,-1,-0.00010711351503545075,-1.570916000996725,-0.00016767183412724762,-1.570820156727926,0.0,5.992112710373476e-05
90,1734172527,75507402,-0.00016059949878215104,0.25614102355657464,1.4272999837229488,-0.7071067821206167,-8.477632404407086e-06,-9.294011228931182e-05,0.7071067740937659,0,-1,-0.00013143221010381012,-1.5708802382098597,-0.000119511281148732,-1.570820156727926,1.1984225238848012e-05,4.793690095539205e-05
106,1734172527,91606855,-0.00019974626706801258,0.2561410259374396,1.4272999765215215,-0.7071067812061419,-4.2386076220071755e-05,-0.00011841918614330066,0.7071067699807478,0,-1,-0.00013143221010381012,-1.5708683172809046,-0.000119511281148732,-1.5708683172809046,1.1984225238848012e-05,4.793690095539205e-05
122,1734172527,107737779,-0.00015810440906981074,0.256141016447178,1.427299984280362,-0.7071067816428136,-2.988823144936345e-05,-8.872542748876681e-05,0.7071067745321314,0,-1,-0.00013143221010381012,-1.570916000996725,-9.566942323857575e-05,-1.5708563963519495,4.793690095539205e-05,7.190534961409867e-05
138,1734172527,123791694,-0.0001667688191518331,0.25614102194329486,1.4272999822108696,-0.7071067836921945,-2.538112853146576e-05,-8.44659857032034e-05,0.7071067731805258,0,-1,-0.00013143221010381012,-1.5708563963519495,-8.374849428349762e-05,-1.5708444754229944,-3.5587941304981996e-05,9.58738019107841e-05
154,1734172527,139854907,-0.0002001877557966736,0.25614102599046296,1.4272999766485956,-0.7071067797593642,-2.5420567198580313e-05,-0.00011823353913784216,0.7071067722720288,0,-1,-0.000119511281148732,-1.5708802382098597,-8.374849428349762e-05,-1.570820156727926,0.0,7.190534961409867e-05
170,1734172527,155803680,-0.0001463569467854328,0.2561410195038458,1.4272999859942204,-0.7071067835263931,-2.978677844153061e-05,-8.887163554836876e-05,0.707106772634472,0,-1,-9.519258608037262e-05,-1.5708802382098597,-9.566942323857575e-05,-1.570820156727926,1.1984225238848012e-05,3.5952674807049334e-05
186,1734172527,171581745,-0.00019310749831625413,0.25614101977921266,1.4272999787842735,-0.7071067809993983,-4.2430834137357675e-05,-0.00010126803004081943,0.7071067728491076,0,-1,-0.00010711351503545075,-1.570916000996725,-7.18275653284195e-05,-1.5708444754229944,0.0,5.992112710373476e-05
202,1734172527,187836408,-0.0001694086920844169,0.25614101752326196,1.4272999830314628,-0.707106781544997,-2.9764400663328044e-05,-8.86015966743428e-05,0.7071067746506984,0,-1,-0.00010711351503545075,-1.5708802382098597,-0.000119511281148732,-1.570820156727926,0.0,8.388957940042019e-05
218,1734172527,203697204,-0.0001497588261295421,0.2561410176951046,1.4272999863118354,-0.7071067783784954,-4.639561315335141e-06,-0.00010554472816965548,0.7071067761024286,0,-1,-0.00014335313905888825,-1.5708802382098597,-0.0001557509051721695,-1.5708444754229944,2.3968450477696024e-05,5.992112710373476e-05
234,1734172527,219378232,-0.00015817774438103282,0.25614102552356105,1.427299982793533,-0.7071067830709606,-4.2629458307176714e-06,-8.868066860744138e-05,0.707106773728412,0,-1,-9.519258608037262e-05,-1.5708802382098597,-9.566942323857575e-05,-1.570796314870016,2.3968450477696024e-05,7.190534961409867e-05
250,1734172527,235634088,-0.0002116762885458283,0.2561410273634722,1.4272999747294368,-0.7071067796052114,-2.5522017814738058e-05,-0.00011833498970251015,0.7071067724055566,0,-1,-0.00013143221010381012,-1.5708802382098597,-9.566942323857575e-05,-1.5708444754229944,-2.366701234990387e-05,4.793690095539205e-05
266,1734172527,251857519,-0.00014976847675447752,0.2561410221330295,1.4272999855063182,-0.707106781953288,-2.1312651996693823e-05,-0.00010577513175034734,0.7071067721872402,0,-1,-9.519258608037262e-05,-1.5709040800677698,-0.00010759035219365387,-1.5708320776568812,2.3968450477696024e-05,5.992112710373476e-05
282,1734172527,267457008,-0.0001916330463728635,0.2561410275836177,1.4272999758479201,-0.7071067771807397,-2.5589154829464298e-05,-0.00014369023531144158,0.7071067701297868,0,-1,-0.00010711351503545075,-1.570916000996725,-0.000119511281148732,-1.5708563963519495,1.1984225238848012e-05,5.992112710373476e-05
298,1734172527,283640384,-0.00017185453660774786,0.25614102260406313,1.427299982057403,-0.7071067820198224,-1.6907002106646477e-05,-9.294011229354773e-05,0.7071067740432561,0,-1,-0.00010711351503545075,-1.5708802382098597,-8.374849428349762e-05,-1.5708320776568812,1.1984225238848012e-05,2.3968450477696024e-05
314,1734172527,299884319,-0.00016030110268750613,0.25614101665628697,1.427299985576229,-0.7071067810340745,-3.8283284846098835e-05,-9.712048074803182e-05,0.7071067736329725,0,-1,-9.519258608037262e-05,-1.5709040800677698,-0.00010759035219365387,-1.570820156727926,3.5952674807049334e-05,3.5952674807049334e-05
330,1734172527,315849065,-0.00018020236286522414,0.2561410312849588,1.4272999781555544,-0.7071067829305461,-2.540350688590862e-05,-0.00011825059899526782,0.7071067690986074,0,-1,-0.00015527406801396637,-1.5708683172809046,-7.18275653284195e-05,-1.570820156727926,3.5952674807049334e-05,3.5952674807049334e-05
346,1734172527,331999063,-0.00014486252544338162,0.25614102363464547,1.4272999853129789,-0.7071067820167093,-1.7120346088885617e-05,-0.00011001219547923866,0.7071067715912389,0,-1,-9.519258608037262e-05,-1.5708802382098597,-7.18275653284195e-05,-1.5708320776568812,4.793690095539205e-05,4.793690095539205e-05
362,1734172527,347798347,-0.00011438218262875495,0.2561410174887516,1.4272999897815823,-0.7071067812466556,4.188800672911306e-06,-8.874780611615021e-05,0.7071067755447371,0,-1,-0.00013143221010381012,-1.5708683172809046,-0.00010759035219365387,-1.570808235798971,3.5952674807049334e-05,7.190534961409867e-05
378,1734172527,363866090,-0.0001809596673927977,0.2561410210359335,1.4272999796334283,-0.7071067830586955,-4.681410519626682e-05,-9.713241779137665e-05,0.7071067710933873,0,-1,-0.00013143221010381012,-1.5708802382098597,-0.000119511281148732,-1.5708563963519495,0.0,4.793690095539205e-05
394,1734172527,379578590,-0.0001286990936016507,0.25614101936383393,1.427299988788631,-0.7071067819682795,-8.544767959153561e-06,-9.300724780521889e-05,0.7071067742364677,0,-1,-0.00010711351503545075,-1.57092792192568,-0.000119511281148732,-1.5708320776568812,1.1984225238848012e-05,2.3968450477696024e-05
411,1734172527,395955801,-0.00016337863181617083,0.256141021571234,1.4272999838001383,-0.7071067827795955,-1.6951758310960633e-05,-8.451074166553704e-05,0.7071067743401008,0,-1,-0.000119511281148732,-1.5708921591388147,-0.000119511281148732,-1.5708320776568812,0.0,2.3968450477696024e-05
426,1734172527,412223815,-0.0001642092714637735,0.25614102159105334,1.4272999836756444,-0.7071067834748316,-3.815945450893953e-05,-8.877018391411539e-05,0.7071067722965096,0,-1,-0.00013143221010381012,-1.5708802382098597,-0.00013143221010381012,-1.570820156727926,-1.1746083394825746e-05,4.793690095539205e-05
442,1734172527,427574872,-0.00015416939488641164,0.2561410204907497,1.4272999848497505,-0.7071067803132548,-8.539448853389712e-06,-0.00010135242099114285,0.7071067747446541,0,-1,-0.00010711351503545075,-1.5708802382098597,-0.000119511281148732,-1.5708320776568812,1.1984225238848012e-05,7.190534961409867e-05
458,1734172527,443829536,-0.0001922662987853358,0.25614102502429803,1.427299978515718,-0.7071067790433959,-1.273175617421409e-05,-0.0001139740977689396,0.7071067740296945,0,-1,-0.00014335313905888825,-1.5708802382098597,-0.00010759035219365387,-1.570808235798971,2.3968450477696024e-05,5.992112710373476e-05
474,1734172527,459670543,-0.00020961367009239413,0.2561410241051645,1.427299975911798,-0.707106783330586,-4.240845528885632e-05,-9.272676795550678e-05,0.7071067716909102,0,-1,-0.000119511281148732,-1.570916000996725,-0.00010759035219365387,-1.570808235798971,-1.1746083394825746e-05,0.000107858024421148
490,1734172527,475957393,-0.0001893385897514967,0.25614101689088375,1.4272999802940867,-0.70710678073393,-4.6645518986552916e-05,-9.70533452376511e-05,0.7071067734401514,0,-1,-0.00010711351503545075,-1.5708921591388147,-0.00013143221010381012,-1.5708320776568812,0.0,5.992112710373476e-05
506,1734172527,491541385,-0.00014842790260058717,0.25614101348444357,1.4272999875759416,-0.7071067802966486,-1.2900343432701653e-05,-8.008803184672625e-05,0.707106777423322,0,-1,-9.519258608037262e-05,-1.5708683172809046,-0.000119511281148732,-1.570820156727926,0.0,4.793690095539205e-05
522,1734172527,507723331,-0.00014646020041296813,0.2561410194698391,1.4272999843573526,-0.7071067840845683,-3.809231855272654e-05,-8.870304810408405e-05,0.7071067716988179,0,-1,-0.00013143221010381012,-1.5708802382098597,-0.00010759035219365387,-1.570808235798971,4.793690095539205e-05,7.190534961409867e-05
538,1734172527,523765325,-0.0001762310395449066,0.25614101817269885,1.4272999816029779,-0.7071067817106541,-2.552733687228803e-05,-8.436453292355792e-05,0.7071067751689146,0,-1,-0.00010711351503545075,-1.5708921591388147,-0.00010759035219365387,-1.5708444754229944,0.0,5.992112710373476e-05
554,1734172527,539886951,-0.00016261043476604916,0.25614102380101356,1.4272999824619714,-0.7071067828680333,-2.1166443131340382e-05,-9.715479609552092e-05,0.7071067725138455,0,-1,-0.000119511281148732,-1.570916000996725,-0.000119511281148732,-1.570808235798971,3.5952674807049334e-05,7.190534961409867e-05
570,1734172527,555940866,-0.00018541370034170726,0.25614102157260926,1.427299980537036,-0.7071067804366912,-3.410291541673619e-05,-0.00010984360781172848,0.707106772582352,0,-1,-9.519258608037262e-05,-1.5709040800677698,-8.374849428349762e-05,-1.5708320776568812,2.3968450477696024e-05,7.190534961409867e-05
586,1734172527,571760654,-0.00017697860644543505,0.25614101825048263,1.4272999823085049,-0.7071067806335645,-2.9742022112900555e-05,-9.705334494007257e-05,0.707106774453545,0,-1,-0.000119511281148732,-1.5709040800677698,-0.00014382997621709137,-1.570808235798971,4.793690095539205e-05,4.793690095539205e-05
602,1734172527,587514877,-0.00016626765555609275,0.2561410219429888,1.427299982290548,-0.7071067807990875,-2.5504958327322366e-05,-0.00011001219520371752,0.7071067725561432,0,-1,-0.00014335313905888825,-1.5708921591388147,-0.00010759035219365387,-1.5708320776568812,3.5952674807049334e-05,3.5952674807049334e-05
618,1734172527,603496551,-0.0001549780778388103,0.25614102058713595,1.4272999846805663,-0.7071067819177312,-1.695175871500317e-05,-9.298486887359986e-05,0.7071067741383914,0,-1,-0.00014335313905888825,-1.570916000996725,-0.00010759035219365387,-1.5708320776568812,0.0,5.992112710373476e-05
634,1734172527,619280338,-0.0002025746452867325,0.25614102625559976,1.4272999769477484,-0.7071067828311332,-2.5358750319781597e-05,-9.29177336526804e-05,0.7071067729822939,0,-1,-0.000119511281148732,-1.5708683172809046,-9.566942323857575e-05,-1.5708320776568812,0.0,5.992112710373476e-05
650,1734172527,635406017,-0.00021683943229270272,0.2561410249321089,1.4272999731893181,-0.7071067806368682,-5.100641225046351e-05,-0.00011827297768886533,0.7071067700052183,0,-1,-0.000119511281148732,-1.5708802382098597,-0.00010759035219365387,-1.5708320776568812,2.3968450477696024e-05,4.793690095539205e-05
666,1734172527,651359558,-0.0001716531230793608,0.2561410200721816,1.4272999817346028,-0.7071067823502817,-3.836235731609555e-05,-9.715479611407431e-05,0.7071067723077658,0,-1,-0.0001671949969690445,-1.5708802382098597,-0.000119511281148732,-1.5708444754229944,0.0,3.5952674807049334e-05
682,1734172527,667504072,-0.0001693368010901167,0.2561410270901421,1.427299981194024,-0.707106783678005,-2.9640569953819357e-05,-0.00010558416627709254,0.707106770191014,0,-1,-9.519258608037262e-05,-1.5708921591388147,-0.000119511281148732,-1.5708320776568812,1.1984225238848012e-05,3.5952674807049334e-05
699,1734172527,684068441,-0.00016385466040413053,0.25614102398466826,1.4272999831227895,-0.707106780414316,-1.1007915114756219e-07,-0.00010135242099470283,0.7071067746951482,0,-1,-0.000119511281148732,-1.5708563963519495,-0.00014382997621709137,-1.5708444754229944,0.0,7.190534961409867e-05
714,1734172527,699740171,-0.00014933602673206298,0.25614101991946814,1.4272999848800305,-0.7071067808035432,-2.5381128807933717e-05,-0.00010988836568577107,0.7071067725753978,0,-1,-0.00014335313905888825,-1.5708921591388147,-0.000119511281148732,-1.570808235798971,1.1984225238848012e-05,7.190534961409867e-05
730,1734172527,715540409,-0.00014933602673206298,0.25614101991946814,1.4272999848800305,-0.7071067811455526,-1.2669938732472743e-05,-9.717717574456783e-05,0.7071067744365378,0,-1,-0.00014335313905888825,-1.5708921591388147,-0.0001557509051721695,-1.570820156727926,2.3968450477696024e-05,5.992112710373476e-05
746,1734172527,731529474,-0.0001315511189369325,0.25614101577671494,1.4272999885657147,-0.7071067826598619,-2.1503617959260996e-05,-8.029605685409498e-05,0.7071067748272226,0,-1,-0.000119511281148732,-1.5708802382098597,-7.18275653284195e-05,-1.5708320776568812,0.0,5.992112710373476e-05
762,1734172527,747682332,-0.00018374969306943814,0.25614102654628823,1.4272999797288077,-0.7071067836787176,-2.11888213478888e-05,-8.870304814405235e-05,0.707106772813231,0,-1,-0.000119511281148732,-1.5708921591388147,-0.00010759035219365387,-1.5708320776568812,2.3968450477696024e-05,5.992112710373476e-05
778,1734172527,763169527,-0.00018620598740056723,0.25614102692209206,1.4272999797846542,-0.7071067821193512,-1.7053209254547125e-05,-0.00010151568908183851,0.7071067727610657,0,-1,-0.00010711351503545075,-1.5708802382098597,-8.374849428349762e-05,-1.570796314870016,-2.366701234990387e-05,4.793690095539205e-05
794,1734172527,779081106,-0.00016966660222386503,0.2561410223428408,1.4272999825546169,-0.7071067799966626,-2.122826127269681e-05,-0.00011404123328313962,0.7071067728615739,0,-1,-0.000119511281148732,-1.5708921591388147,-9.566942323857575e-05,-1.570808235798971,1.1984225238848012e-05,7.190534961409867e-05
810,1734172527,795365810,-0.00010963470035715268,0.25614101685841906,1.4272999912086939,-0.7071067804139927,1.674866027231912e-05,-8.449368173096299e-05,0.7071067767125822,0,-1,-0.000119511281148732,-1.5708683172809046,-0.00010759035219365387,-1.5708444754229944,1.1984225238848012e-05,8.388957940042019e-05
826,1734172527,811275243,-9.04090703622191e-05,0.2561410143312915,1.4272999926849734,-0.7071067819188787,-1.1539826477284088e-07,-8.457787817523524e-05,0.707106775395977,0,-1,-0.000119511281148732,-1.5708921591388147,-0.0001557509051721695,-1.5708444754229944,-1.1746083394825746e-05,5.992112710373476e-05
842,1734172527,827336072,-0.00020348063569456708,0.25614102636387587,1.4272999758217717,-0.7071067821225695,-4.228462526035251e-05,-0.00010984360836594006,0.7071067704545453,0,-1,-0.00010711351503545075,-1.5708563963519495,-0.00010759035219365387,-1.5708320776568812,3.5952674807049334e-05,4.793690095539205e-05
858,1734172527,843363761,-0.00014771487575474524,0.25614101545843204,1.4272999863799358,-0.7071067794847298,-3.423186888237469e-05,-0.00010984892677345707,0.707106773527256,0,-1,-0.00014335313905888825,-1.5708802382098597,-0.000119511281148732,-1.570820156727926,1.1984225238848012e-05,4.793690095539205e-05
874,1734172527,859321594,-0.00018628515087327805,0.25614101912977577,1.4272999802940867,-0.707106781647899,-2.9719644055621153e-05,-8.855684009608869e-05,0.7071067745552856,0,-1,-0.000119511281148732,-1.5708802382098597,-0.00010759035219365387,-1.5707839171039026,2.3968450477696024e-05,7.190534961409867e-05
890,1734172527,875784158,-0.0001823905123949904,0.25614102640141484,1.4272999800255315,-0.7071067791450631,-4.280006273429809e-06,-0.00011395171754565257,0.7071067740333015,0,-1,-0.0001671949969690445,-1.5709040800677698,-0.00010759035219365387,-1.5708320776568812,1.1984225238848012e-05,4.793690095539205e-05
906,1734172527,892071485,-0.00017407487742201002,0.25614101796744826,1.4272999827040616,-0.7071067815026149,-3.410291629234417e-05,-9.294011230405602e-05,0.7071067739402163,0,-1,-9.519258608037262e-05,-1.57092792192568,-0.000119511281148732,-1.5708563963519495,0.0,4.793690095539205e-05
922,1734172527,907445907,-0.0001318987602201604,0.25614102378466186,1.427299987204812,-0.7071067828696285,4.144043625752973e-06,-8.870304881738792e-05,0.7071067739276439,0,-1,-0.000119511281148732,-1.5708802382098597,-0.00010759035219365387,-1.570820156727926,0.0,3.5952674807049334e-05
938,1734172527,923735141,-0.00018685439278157983,0.25614101669064154,1.42729998088002,-0.7071067806345055,-2.9719643175624333e-05,-8.860159637434531e-05,0.7071067755630724,0,-1,-0.000119511281148732,-1.5708802382098597,-3.5587941304981996e-05,-1.5708444754229944,7.190534961409867e-05,9.58738019107841e-05
954,1734172527,939890384,-0.00016375024522071266,0.2561410216357694,1.4272999829015378,-0.7071067801511861,-1.2731756068189395e-05,-0.00010554472814285614,0.7071067742303385,0,-1,-0.000119511281148732,-1.5709040800677698,-0.00010759035219365387,-1.570808235798971,2.3968450477696024e-05,7.190534961409867e-05
970,1734172527,955667257,-0.00016398374017950737,0.2561410240016335,1.427299982912192,-0.7071067799576854,-1.7115028328976702e-05,-0.00011835736993702352,0.7071067723027988,0,-1,-0.00014335313905888825,-1.5708802382098597,-8.374849428349762e-05,-1.5708444754229944,2.3968450477696024e-05,4.793690095539205e-05
986,1734172527,971646308,-0.00016091215716676466,0.25614101894154184,1.4272999840602292,-0.7071067815955067,-2.976440065397408e-05,-9.703096629605668e-05,0.7071067734937323,0,-1,-0.000119511281148732,-1.5708683172809046,-8.374849428349762e-05,-1.5708444754229944,-2.366701234990387e-05,7.190534961409867e-05
1002,1734172527,987462759,-0.00017471745465082273,0.2561410254121288,1.427299981633152,-0.70710678154926,-2.966294911644912e-05,-0.00011412542872295661,0.7071067709918658,0,-1,-0.000119511281148732,-1.5708921591388147,-7.18275653284195e-05,-1.570820156727926,1.1984225238848012e-05,4.793690095539205e-05
1018,1734172528,3692388,-0.00019336540838999148,0.2561410251751155,1.4272999782397378,-0.7071067800132321,-1.694644092351482e-05,-0.00010975941294584163,0.7071067736381882,0,-1,-0.00010711351503545075,-1.5709040800677698,-0.00010759035219365387,-1.5708320776568812,2.3968450477696024e-05,8.388957940042019e-05
1035,1734172528,19742250,-0.0001526508632464122,0.25614102025603985,1.427299984126725,-0.7071067833372433,-3.385525485001504e-05,-9.294011189153552e-05,0.7071067721174886,0,-1,-0.000119511281148732,-1.5708563963519495,-0.00010759035219365387,-1.570820156727926,1.1984225238848012e-05,4.793690095539205e-05
1050,1734172528,35975217,-0.0001617427967225314,0.25614101897754693,1.4272999839027591,-0.707106783534594,-2.5549715956886996e-05,-7.586802868374657e-05,0.7071067743068334,0,-1,-0.000119511281148732,-1.5708802382098597,-0.00014382997621709137,-1.5708320776568812,1.1984225238848012e-05,7.190534961409867e-05
1066,1734172528,51565647,-0.0001722963038067503,0.25614101780476217,1.4272999813719318,-0.7071067807946102,-2.5628787846710233e-05,-9.294011070869253e-05,0.7071067750061402,0,-1,-0.000119511281148732,-1.5708802382098597,-8.374849428349762e-05,-1.5708563963519495,4.793690095539205e-05,7.190534961409867e-05
1082,1734172528,67463159,-0.00014662890628461497,0.25614102378833153,1.4272999859164768,-0.7071067772840324,1.255635271882485e-05,-0.00012274064222345433,0.7071067743248276,0,-1,-0.000119511281148732,-1.5708683172809046,-0.00010759035219365387,-1.5708320776568812,0.0,7.190534961409867e-05
1098,1734172528,83596944,-0.0001762847683966101,0.2561410181248458,1.4272999821481163,-0.7071067831749872,-4.257704271469375e-05,-8.446598573472827e-05,0.7071067728714062,0,-1,-0.00013143221010381012,-1.5708921591388147,-0.000119511281148732,-1.570820156727926,3.5952674807049334e-05,3.5952674807049334e-05
1114,1734172528,99480867,-0.00016143013833861474,0.2561410236127798,1.4272999835753806,-0.7071067836409229,-1.6974136512405828e-05,-8.448836333042458e-05,0.7071067734809108,0,-1,-9.519258608037262e-05,-1.5708563963519495,-0.00010759035219365387,-1.5708444754229944,0.0,4.793690095539205e-05
1130,1734172528,115571737,-0.00014944176846267803,0.2561410242913549,1.427299984557443,-0.7071067801994801,-1.2798891583393853e-05,-0.00012247060287777422,0.7071067714518535,0,-1,-0.00013143221010381012,-1.5708802382098597,-0.00013143221010381012,-1.570796314870016,1.1984225238848012e-05,7.190534961409867e-05
1147,1734172528,131762981,-0.00016949941938045092,0.256141022329221,1.42729998225519,-0.7071067802287689,-3.817139180617433e-05,-0.00012267862852135509,0.707106770472043,0,-1,-0.00013143221010381012,-1.5708921591388147,-0.000119511281148732,-1.570808235798971,-1.1746083394825746e-05,7.190534961409867e-05
1162,1734172528,147888660,-0.00016332590423514236,0.2561410286644824,1.4272999810334865,-0.7071067829810976,-1.6974137207228073e-05,-0.00010982122941446364,0.7071067706600603,0,-1,-0.0001671949969690445,-1.5708802382098597,-0.00014382997621709137,-1.5708320776568812,-1.1746083394825746e-05,7.190534961409867e-05
1178,1734172528,163745880,-0.0001604221751574218,0.25614102818050377,1.4272999814566303,-0.7071067841349701,-2.133503098945216e-05,-0.00010570799709311789,0.7071067700149226,0,-1,-0.00010711351503545075,-1.5708683172809046,-0.000119511281148732,-1.5708320776568812,1.1984225238848012e-05,4.793690095539205e-05
1194,1734172528,179642915,-0.00019230546155747563,0.25614102504817937,1.4272999762469605,-0.7071067811980366,-4.255466361364727e-05,-0.00011858777353489928,0.7071067699504741,0,-1,-8.32716571252945e-05,-1.5708921591388147,-0.000119511281148732,-1.570796314870016,1.1984225238848012e-05,3.5952674807049334e-05
1211,1734172528,196069955,-0.00019316471604787785,0.2561410305390533,1.4272999757046232,-0.7071067827765386,-3.397908501709147e-05,-0.0001183968074667916,0.7071067688680619,0,-1,-0.00014335313905888825,-1.5708921591388147,-9.566942323857575e-05,-1.570820156727926,-1.1746083394825746e-05,5.992112710373476e-05
1226,1734172528,211987018,-0.00019678739711143344,0.25614102558382124,1.4272999763937546,-0.7071067815601608,-3.395670653842354e-05,-0.00010998981655498759,0.7071067714431911,0,-1,-0.00013143221010381012,-1.5708802382098597,-9.566942323857575e-05,-1.5708320776568812,0.0,5.992112710373476e-05
1242,1734172528,227720499,-0.0001489863699227875,0.25614101981809156,1.4272999858087274,-0.7071067835784103,-1.2737074025170102e-05,-7.182193123943149e-05,0.7071067750324362,0,-1,-0.00010711351503545075,-1.5708921591388147,-0.00013143221010381012,-1.5708320776568812,3.5952674807049334e-05,4.793690095539205e-05
1258,1734172528,243863344,-0.0001843942859442281,0.2561410241093256,1.4272999793702068,-0.7071067809429352,-2.1144065021415267e-05,-0.00010565130194703951,0.7071067732211668,0,-1,-0.00010711351503545075,-1.5708802382098597,-0.00013143221010381012,-1.570820156727926,1.1984225238848012e-05,5.992112710373476e-05
1274,1734172528,259620189,-0.00011377212977424192,0.2561410209700662,1.4272999892717784,-0.7071067830344414,-8.690975961256287e-06,-0.00010153806827860239,0.7071067719949873,0,-1,-9.519258608037262e-05,-1.5708802382098597,-0.000119511281148732,-1.570808235798971,4.793690095539205e-05,5.992112710373476e-05
1290,1734172528,275684595,-0.00016765915373800257,0.2561410196112687,1.4272999835753806,-0.7071067830250161,-3.404622123804606e-05,-8.43645338123166e-05,0.7071067734956956,0,-1,-0.00013143221010381012,-1.57092792192568,-0.00010759035219365387,-1.570820156727926,2.3968450477696024e-05,5.992112710373476e-05
1306,1734172528,291286706,-0.00015302363842585755,0.25614102256112314,1.4272999851555659,-0.7071067801045754,-1.7182163822524857e-05,-0.00011842450547431744,0.7071067721430402,0,-1,-0.000119511281148732,-1.5708802382098597,-8.374849428349762e-05,-1.5708563963519495,1.1984225238848012e-05,3.5952674807049334e-05
1322,1734172528,307443857,-0.00016418864119395785,0.2561410239753359,1.4272999829023556,-0.7071067838309171,-2.1166443665015656e-05,-8.86806705050478e-05,0.7071067726645086,0,-1,-0.00015527406801396637,-1.5708921591388147,-0.000119511281148732,-1.5708320776568812,-2.366701234990387e-05,5.992112710373476e-05
1338,1734172528,323575019,-0.00015150051294848327,0.2561410245670209,1.4272999849398376,-0.707106779457875,1.6771037812810093e-05,-0.00010133004337089736,0.7071067754559185,0,-1,-0.00013143221010381012,-1.5708802382098597,-0.00010759035219365387,-1.5708444754229944,1.1984225238848012e-05,7.190534961409867e-05
1354,1734172528,339427232,-0.00014119687044019847,0.2561410209865814,1.4272999848595562,-0.7071067829821706,-1.6929380618746715e-05,-9.291773364360651e-05,0.7071067730833134,0,-1,-0.00014335313905888825,-1.5708802382098597,-0.000119511281148732,-1.5708683172809046,-1.1746083394825746e-05,5.992112710373476e-05
1370,1734172528,355709075,-0.00014133338287461005,0.2561410189564409,1.4272999871308922,-0.7071067819177314,-1.695175871500316e-05,-9.298486887359985e-05,0.7071067741383914,0,-1,-0.000119511281148732,-1.5709040800677698,-0.000119511281148732,-1.5708444754229944,1.1984225238848012e-05,7.190534961409867e-05
1386,1734172528,371425390,-0.00017843108295006435,0.25614102842760267,1.4272999809364946,-0.7071067792577598,-8.770163464768423e-08,-0.00011818878258428107,0.7071067732380463,0,-1,-0.00013143221010381012,-1.5708802382098597,-0.00010759035219365387,-1.5708320776568812,0.0,7.190534961409867e-05
1402,1734172528,387805461,-0.00014756239816670445,0.25614101544365675,1.4272999871308922,-0.7071067814935449,-2.9786779609383322e-05,-8.862397560748757e-05,0.7071067746984037,0,-1,-0.00014335313905888825,-1.5709040800677698,-7.18275653284195e-05,-1.5708320776568812,1.1984225238848012e-05,2.3968450477696024e-05
1418,1734172528,403401374,-0.0001286990936016507,0.25614101936383393,1.427299988788631,-0.7071067820076327,4.1664221345247975e-06,-8.029605783688322e-05,0.707106775794147,0,-1,-0.000119511281148732,-1.5708921591388147,-0.000119511281148732,-1.570808235798971,1.1984225238848012e-05,4.793690095539205e-05
1434,1734172528,419580459,-0.00019569957004422962,0.2561410336912733,1.4272999754408842,-0.7071067824618591,-3.809231867544262e-05,-0.00013093941054942974,0.7071067667617691,0,-1,-0.00014335313905888825,-1.570916000996725,-8.374849428349762e-05,-1.570820156727926,-3.5587941304981996e-05,4.793690095539205e-05
1450,1734172528,436101198,-0.0001476824693926124,0.2561410197152284,1.4272999852492658,-0.7071067820066135,-1.2714694921959714e-05,-8.874780512580607e-05,0.7071067746828729,0,-1,-0.00014335313905888825,-1.5708921591388147,-0.000119511281148732,-1.5708683172809046,2.3968450477696024e-05,8.388957940042019e-05
1466,1734172528,451767444,-0.00014204041827960408,0.2561410190475606,1.4272999853617598,-0.7071067806387621,-2.9618191950430966e-05,-0.00011412542877744725,0.7071067719042399,0,-1,-0.000119511281148732,-1.5708921591388147,-0.00010759035219365387,-1.570820156727926,1.1984225238848012e-05,7.190534961409867e-05
1482,1734172528,467390775,-0.00015261005239431983,0.2561410224071897,1.4272999841830878,-0.7071067846933362,-2.9786779574509377e-05,-8.882687892571833e-05,0.7071067714731526,0,-1,-0.000119511281148732,-1.5708563963519495,-9.566942323857575e-05,-1.5708320776568812,-1.1746083394825746e-05,4.793690095539205e-05
1498,1734172528,483660697,-0.00016803290054545253,0.25614102695619145,1.4272999805984834,-0.7071067821208415,-1.6907002084295375e-05,-0.00010979885150745327,0.7071067715253999,0,-1,-0.000119511281148732,-1.5709040800677698,-0.00013143221010381012,-1.5707839171039026,3.5952674807049334e-05,5.992112710373476e-05
1514,1734172528,499279260,-0.000198037539705789,0.2561410257133645,1.4272999770320263,-0.7071067826806291,-3.378811999606591e-05,-0.00010134710326960709,0.7071067716223463,0,-1,-0.000119511281148732,-1.570916000996725,-0.000119511281148732,-1.5708320776568812,1.1984225238848012e-05,8.388957940042019e-05
1530,1734172528,515645265,-0.00019635394629773046,0.25614101747532464,1.4272999803350757,-0.7071067793889647,-3.4164732732127706e-05,-0.00010135242097669644,0.7071067748951525,0,-1,-0.000119511281148732,-1.5708683172809046,-0.000119511281148732,-1.570820156727926,3.5952674807049334e-05,7.190534961409867e-05
1546,1734172528,531908512,-0.00016087380468385643,0.25614102359924823,1.427299983655661,-0.707106781056403,-1.6929380171427294e-05,-0.00010986598674874983,0.7071067725788752,0,-1,-0.00015527406801396637,-1.5708802382098597,-7.18275653284195e-05,-1.570820156727926,1.1984225238848012e-05,4.793690095539205e-05
1562,1734172528,547984838,-0.0002213063838440817,0.25614103153567536,1.4272999725302244,-0.7071067798006507,-2.116112578978188e-05,-0.00012240346733642963,0.7071067716615024,0,-1,-0.000119511281148732,-1.5708683172809046,-0.00014382997621709137,-1.570820156727926,3.5952674807049334e-05,9.58738019107841e-05
1578,1734172528,563514709,-0.00017756980501270605,0.2561410159111381,1.4272999828469244,-0.7071067801576898,-1.7115028287108852e-05,-8.43027166691838e-05,0.7071067769829054,0,-1,-0.00013143221010381012,-1.5708563963519495,-0.00010759035219365387,-1.5708320776568812,0.0,5.992112710373476e-05
1594,1734172528,579675912,-0.00016800881053741223,0.25614101970831027,1.4272999826425155,-0.7071067809392216,-2.1267895827048167e-05,-9.700858835213084e-05,0.7071067744596865,0,-1,-0.000119511281148732,-1.5708683172809046,-0.00014382997621709137,-1.570820156727926,3.5952674807049334e-05,7.190534961409867e-05
1610,1734172528,595852613,-0.00016742184623116956,0.2561410244532509,1.4272999823757926,-0.7071067819682408,-1.6951758705336107e-05,-0.0001014142384879799,0.7071067729291728,0,-1,-9.519258608037262e-05,-1.5708921591388147,-9.566942323857575e-05,-1.5708320776568812,0.0,2.3968450477696024e-05
1626,1734172528,611408948,-0.0001299010215954814,0.2561410234413601,1.4272999865629197,-0.7071067839459754,-1.7142723842334432e-05,-0.00010151568993383205,0.7071067709322767,0,-1,-0.000119511281148732,-1.5708921591388147,-0.00010759035219365387,-1.5708320776568812,1.1984225238848012e-05,8.388957940042019e-05
1642,1734172528,627461671,-0.00014441787935947907,0.2561410279689554,1.427299984311331,-0.7071067812460772,-4.285325618453525e-06,-0.00012251004112986255,0.7071067705012717,0,-1,-0.000119511281148732,-1.5708802382098597,-0.00013143221010381012,-1.5708563963519495,1.1984225238848012e-05,7.190534961409867e-05
1658,1734172528,643747806,-0.00019693259418268795,0.2561410256011739,1.427299977322644,-0.7071067813510594,-3.8025182934763586e-05,-0.00011405829289122992,0.7071067708006593,0,-1,-0.0001671949969690445,-1.57092792192568,-0.000119511281148732,-1.5708320776568812,0.0,3.5952674807049334e-05
1674,1734172528,659491539,-0.0001682318556456642,0.25614102696484947,1.4272999814582978,-0.7071067829690528,-2.1166443109594607e-05,-0.0001055841656944745,0.7071067712044076,0,-1,-9.519258608037262e-05,-1.5708802382098597,-0.00014382997621709137,-1.5708320776568812,-1.1746083394825746e-05,7.190534961409867e-05
1690,1734172528,675737380,-0.000194561108820185,0.2561410172264572,1.427299979780347,-0.7071067839745712,-4.679172618238217e-05,-7.177717213811489e-05,0.7071067732073503,0,-1,-9.519258608037262e-05,-1.5708921591388147,-0.000119511281148732,-1.5708563963519495,0.0,5.992112710373476e-05
1706,1734172528,691455602,-0.0001780435216578149,0.2561410257975164,1.4272999791037388,-0.7071067771686189,-2.5757742223952117e-05,-0.00014385882270223348,0.707106770101508,0,-1,-0.000119511281148732,-1.5709040800677698,-9.566942323857575e-05,-1.5708320776568812,0.0,4.793690095539205e-05
1722,1734172528,707745075,-0.00017530441898656136,0.2561410204897686,1.4272999819868453,-0.7071067804426524,-3.397908589741087e-05,-0.00010971977829377745,0.7071067726015771,0,-1,-0.0001671949969690445,-1.5708921591388147,-0.000119511281148732,-1.570808235798971,1.1984225238848012e-05,3.5952674807049334e-05
1738,1734172528,723520517,-0.00013536083844584328,0.2561410162046503,1.427299987282328,-0.7071067818631598,-1.7120346118273445e-05,-8.43869118527738e-05,0.7071067752672637,0,-1,-0.00013143221010381012,-1.5708921591388147,-0.00014382997621709137,-1.5708320776568812,3.5952674807049334e-05,7.190534961409867e-05
1754,1734172528,739734888,-0.00014334431889077344,0.2561410191769076,1.427299985975216,-0.7071067826274877,-2.540350694933007e-05,-9.296249022359789e-05,0.70710677317845,0,-1,-0.000119511281148732,-1.5708802382098597,-0.00010759035219365387,-1.5708444754229944,-2.366701234990387e-05,3.5952674807049334e-05
1770,1734172528,755497455,-0.00015416939488641164,0.2561410204907497,1.4272999848497505,-0.707106780249391,-1.2776512636361316e-05,-0.00010558948473908051,0.7071067741246445,0,-1,-0.000119511281148732,-1.5708563963519495,-9.566942323857575e-05,-1.570808235798971,3.5952674807049334e-05,4.793690095539205e-05
1786,1734172528,771834135,-0.0001598278417221681,0.256141016611236,1.427299984966072,-0.7071067818637012,-1.7097967180958294e-05,-7.593516327822526e-05,0.7071067762253948,0,-1,-0.00015527406801396637,-1.5708683172809046,-9.566942323857575e-05,-1.5708683172809046,1.1984225238848012e-05,4.793690095539205e-05
1802,1734172528,787726163,-0.0001506426949815111,0.25614102224819046,1.427299984071294,-0.7071067803129841,-8.5618277906558e-06,-0.00010980416954617707,0.7071067734827213,0,-1,-0.00014335313905888825,-1.5708921591388147,-0.000119511281148732,-1.570820156727926,2.3968450477696024e-05,3.5952674807049334e-05
1818,1734172528,803499937,-9.456745473796938e-05,0.25614101334752204,1.4272999925129035,-0.7071067825665701,4.144043567731468e-06,-6.341493989731343e-05,0.7071067769507838,0,-1,-0.000119511281148732,-1.5708921591388147,-9.566942323857575e-05,-1.570820156727926,2.3968450477696024e-05,7.190534961409867e-05
1834,1734172528,819331645,-0.0001555137813403043,0.2561410228351799,1.4272999839027591,-0.7071067833740081,-2.966294895279738e-05,-9.717717561389821e-05,0.7071067716994156,0,-1,-0.000119511281148732,-1.5708921591388147,-7.18275653284195e-05,-1.5708444754229944,4.793690095539205e-05,3.5952674807049334e-05
1850,1734172528,835715055,-0.00015576399711477468,0.2561410162243882,1.427299985644446,-0.7071067817106541,-2.5527336872288045e-05,-8.436453292355794e-05,0.7071067751689146,0,-1,-9.519258608037262e-05,-1.5708802382098597,-9.566942323857575e-05,-1.5708320776568812,0.0,2.3968450477696024e-05
1866,1734172528,851114273,-0.00016518466670987917,0.256141021807199,1.427299982562997,-0.7071067800071914,-1.711502831771631e-05,-0.00010992800033788092,0.7071067736139797,0,-1,-8.32716571252945e-05,-1.5708921591388147,-9.566942323857575e-05,-1.570820156727926,-3.5587941304981996e-05,8.388957940042019e-05
1882,1734172528,867567300,-0.00020360974449786458,0.2561410263991687,1.4272999747180306,-0.7071067811024382,-4.243083411702598e-05,-0.00011846394400688595,0.7071067700742703,0,-1,-0.000119511281148732,-1.5708921591388147,-0.00016767183412724762,-1.570808235798971,8.388957940042019e-05,7.190534961409867e-05
1898,1734172528,883981227,-0.00032016273043285155,0.25614102683802975,1.427299933740728,-0.7071067890985481,-0.0001440547125275535,-0.00010124714811384084,0.707106751352295,0,-1,-7.135072817021637e-05,-1.5708444754229944,-0.000455204640523732,-1.5707719961749476,0.0002636529679875821,0.00011984225420746952
1914,1734172528,899716854,-0.0005443808467871093,0.25614101945007917,1.4272998058417201,-0.7071068114166736,-0.00028364356623807995,-3.792841548759623e-05,0.7071066930498591,0,-1,-2.366701234990387e-05,-1.5708444754229944,-0.000897709523336232,-1.5706518332110804,0.0006351639167405665,0.00017976337403524667
1930,1734172528,916038513,-0.0009583129811000724,0.2561409515647989,1.427299396204982,-0.7071068558383083,-0.0005883865450909644,5.538215116894975e-05,0.7071064595664168,0,-1,5.992112710373476e-05,-1.570820156727926,-0.0017240683185022476,-1.5704243818866175,0.0011980480048805475,0.0003834952076431364
1946,1734172528,931744575,-0.0017850940259865559,0.2561405519723877,1.4272979477959704,-0.7071069777104602,-0.001121914348043911,0.00019951876328482007,0.707105666483898,0,-1,0.000215716048842296,-1.5708444754229944,-0.0028975645648401382,-1.570148770009176,0.0022279424592852592,0.0006587578682228923
1962,1734172528,948346376,-0.00290045140749117,0.256139665602232,1.427294564257572,-0.7071072762427635,-0.0018793404939188637,0.0003819225859003613,0.7071036855362773,0,-1,0.00044266731129027903,-1.5708802382098597,-0.004646126423970998,-1.5697649160968226,0.003557442454621196,0.0011021741665899754
1978,1734172528,963980197,-0.0045503660152971664,0.256137427167777,1.4272869177083514,-0.7071079175275509,-0.0029417528521354687,0.0005982954051353864,0.7070992724523307,0,-1,0.0006939615705050528,-1.5709403196917933,-0.006908718739644826,-1.5693090597735804,0.005282421596348286,0.001604762626811862
1994,1734172528,979432821,-0.006535595702809942,0.25613322757459817,1.4272732928258072,-0.7071089988371527,-0.004245624237072812,0.0008949382749156969,0.7070912512001837,0,-1,0.0010171610629186034,-1.5710962454425257,-0.009710613881246388,-1.5687697569476526,0.007522348314523697,0.0023358003236353397
2010,1734172528,995384931,-0.009019333084211031,0.2561269292724622,1.4272495594136687,-0.7071115741607694,-0.005799462802159791,0.0012551031047436077,0.7070770910129117,0,-1,0.0013882976491004229,-1.5712879339801233,-0.01284820238222295,-1.5681217352496546,0.010157754644751549,0.003197915619239211
2026,1734172529,11732578,-0.012040470098757092,0.2561153798795822,1.427210910584068,-0.7071149451283137,-0.007746273821610209,0.00162841689776401,0.7070543104150272,0,-1,0.0018193551804870367,-1.5715277830706995,-0.016643826161519826,-1.5674145857440394,0.013139953836798668,0.004167888779193163
2042,1734172529,27492046,-0.01548883222110691,0.25609932432472005,1.4271537051808214,-0.7071206050373817,-0.00988833129100857,0.0020690016210922904,0.7070207847497401,0,-1,0.0022979751229286194,-1.5718157927142542,-0.020774666463033498,-1.5665634314166468,0.01658991351723671,0.005305266939103603
2058,1734172529,43755531,-0.01917897593804315,0.25607601100272226,1.4270772038715007,-0.7071275034164896,-0.012254450126281388,0.002607010109752415,0.7069750532107569,0,-1,0.002896437421441078,-1.5721038023578089,-0.0252764860736292,-1.5656641165362757,0.020242854952812195,0.006443393416702747
2074,1734172529,59461355,-0.023145419885661597,0.25604587666079354,1.4269762918748292,-0.7071363971280434,-0.01479388248522694,0.0031577584462074097,0.7069153311814498,0,-1,0.003470931202173233,-1.5724156538592737,-0.030125919972554982,-1.5646451155291956,0.024207759648561478,0.007653051521629095
2090,1734172529,75684309,-0.02740172607543778,0.2560070120052341,1.426848229156476,-0.7071478210863571,-0.017502454758273327,0.0037676314940487707,0.7068390397842901,0,-1,0.0041173305362463,-1.5727751890765589,-0.03523856798280889,-1.5635417143451136,0.028376024216413498,0.008922629989683628
2106,1734172529,91525077,-0.03184897539894671,0.25595994061831007,1.42669127709769,-0.7071611648296107,-0.02034569298008646,0.004343611830906767,0.7067462576980869,0,-1,0.00473938649520278,-1.5731232802020472,-0.040519062672750294,-1.562474552785055,0.03267611190676689,0.010263740085065365
2122,1734172529,107708215,-0.03634809298660338,0.25590345999268654,1.4265075757598158,-0.7071780871971147,-0.023196910337155638,0.0050291756201363644,0.7066369391219383,0,-1,0.005457690916955471,-1.573458496724264,-0.045894924794332326,-1.5612395445453089,0.037012532353401184,0.011689113453030586
2138,1734172529,123501300,-0.04104338857457797,0.2558378089605724,1.426291636556405,-0.7071976604642348,-0.026102809667846123,0.005735660708119422,0.7065105905487888,0,-1,0.006128058768808842,-1.5737584272967737,-0.051366631184713185,-1.5599687735186976,0.04157627373933792,0.013126097619533539
2154,1734172529,139367818,-0.045630019756004385,0.25576249092604186,1.4260544311411285,-0.7072179384703766,-0.029054443568149645,0.006479630516953541,0.706368629826537,0,-1,0.006845613941550255,-1.5740583578692835,-0.05689841905702764,-1.5586980024920862,0.046056125313043594,0.014587423764169216
2170,1734172529,155521631,-0.050375814061465254,0.25567855690358215,1.4257827676430053,-0.7072430926339187,-0.03206092547311863,0.007193613398630267,0.7062064548739896,0,-1,0.007456060498952866,-1.5744064489947718,-0.062477890645162404,-1.5574992338763636,0.050643838942050934,0.016107922419905663
2186,1734172529,171410322,-0.0550191488215989,0.25559233143966653,1.4254885495461544,-0.7072718032187416,-0.03497764839331793,0.007894541154600861,0.7060317533259687,0,-1,0.008138412609696388,-1.5746820608722132,-0.06796151796449834,-1.5563114325152796,0.05521956458687782,0.017581233754754066
2202,1734172529,187596082,-0.05951646718192284,0.2554973893285418,1.4251788726363945,-0.7073023420746928,-0.037850794442168975,0.008654196014618466,0.7058440473270929,0,-1,0.008772453293204308,-1.574981991444723,-0.07325393358339483,-1.5551846663104456,0.05962788686156273,0.01901821605861187
2218,1734172529,203360557,-0.06385286831888866,0.25539680908005524,1.4248582198957596,-0.7073325342661706,-0.04066853018808629,0.00940912894626251,0.7056473800088894,0,-1,0.009347321465611458,-1.575317684804098,-0.07853347459901983,-1.554009739552633,0.06392797827720642,0.020395653322339058
2234,1734172529,219640970,-0.06825918143112875,0.25529432388739115,1.4245082375316407,-0.7073671058639869,-0.043405482201079384,0.010032209784131068,0.7054410651665709,0,-1,0.00996975228190422,-1.5755694548236292,-0.08352643648256475,-1.552906338368551,0.06802470982074738,0.021748747676610947
2250,1734172529,235377550,-0.07245675512041455,0.2551869606910467,1.424154227323139,-0.7073996934402601,-0.04605661436007398,0.010621334695043356,0.7052316280794626,0,-1,0.010507918894290924,-1.5758212248431605,-0.08841115633119756,-1.551875416432516,0.07212144136428833,0.02304229512810707
2266,1734172529,251697778,-0.07642548457277354,0.2550789047280724,1.4237961240165682,-0.7074345403183621,-0.0486433880546557,0.011273117708224428,0.7050128429895787,0,-1,0.011046459898352623,-1.5760849157916468,-0.09316426912416631,-1.5508320967303675,0.07597886770963669,0.024263937026262283
2282,1734172529,267431497,-0.08025560899313967,0.25496946583923696,1.423434142473521,-0.7074661899987159,-0.051120586811802406,0.011831670618515127,0.7047966282432775,0,-1,0.01159735955297947,-1.576301399861471,-0.09764224687685186,-1.5498374144183558,0.07966813445091248,0.025353752076625824
2298,1734172529,283297538,-0.0838911457396135,0.2548608117371688,1.4230738832095757,-0.7075007976290766,-0.053457095566854906,0.012419380845405935,0.7045783982405317,0,-1,0.012111932039260864,-1.5765412489520472,-0.10204869905580694,-1.548878018056051,0.0832735151052475,0.026551051065325737
2314,1734172529,299495220,-0.08754809283243123,0.2547460179675165,1.4226957996694378,-0.7075364517921715,-0.0557801644026256,0.01295173075006747,0.7043528911810741,0,-1,0.012590551748871803,-1.5767930189715784,-0.10628682771791631,-1.54797870317568,0.08681972324848175,0.02767719328403473
2330,1734172529,315351247,-0.0910679470246743,0.2546294462542197,1.4223135136560916,-0.7075703635210778,-0.05806875378660713,0.01347541142399032,0.7041240045526601,0,-1,0.013117109425365925,-1.5770085493670862,-0.11063272157777959,-1.54698354402651,0.09032922238111496,0.028743039816617966
2346,1734172529,331403017,-0.09466636396294532,0.25450766381888434,1.421910112982731,-0.7076095315288082,-0.060356738847241576,0.014040269021848427,0.7038811588692374,0,-1,0.013655650429427624,-1.5772126356707972,-0.11503869691957647,-1.5460241476642054,0.09388741850852966,0.029892778024077415
2362,1734172529,347759246,-0.09827821052859953,0.2543794912196369,1.4214862040094123,-0.7076488667019833,-0.06266894149980028,0.01461360431355709,0.7036278333008579,0,-1,0.01414662878960371,-1.5774405638324183,-0.11954003969301397,-1.5450051466571253,0.09749279916286469,0.03100656159222126
2378,1734172529,363472938,-0.10207388208386398,0.2542418501785138,1.4210262137582046,-0.707691663504835,-0.06506866781675495,0.015172766275869254,0.7033550774948951,0,-1,0.014744716696441174,-1.577644173298971,-0.12419778505434209,-1.5439980665790003,0.10126633197069168,0.03219224885106087
2394,1734172529,379876613,-0.1059935813470192,0.2540907656986174,1.4205334348407086,-0.7077359963284494,-0.06761083128237085,0.01573096080801025,0.7030583701701735,0,-1,0.015283257700502872,-1.5779441038714808,-0.12890321413149053,-1.5429909865008753,0.1051473468542099,0.033389922231435776
2410,1734172529,395592689,-0.11008173935690695,0.2539264030104368,1.4200011378042248,-0.7077821438964134,-0.07022297843396566,0.01631821746705298,0.7027424036302047,0,-1,0.015869736671447754,-1.578207794819967,-0.13383609453310186,-1.5419476667987269,0.10914857685565948,0.0346711128950119
2426,1734172529,411925315,-0.1142292515123973,0.2537578514194078,1.4194372423485428,-0.7078356018200552,-0.07288840636896414,0.016882584361469246,0.7024037438384783,0,-1,0.016468197107315063,-1.5785439650165003,-0.1388643423663538,-1.5409167448626917,0.11317378282546997,0.035952676087617874
2442,1734172529,427660942,-0.11850177532760621,0.25357542487639817,1.418837562258994,-0.7078904811162786,-0.07559907272768743,0.017441192118597012,0.7020481833643327,0,-1,0.017126580700278282,-1.5788915793048304,-0.1439765135394495,-1.5399215857135218,0.11735440045595169,0.0372701920568943
2458,1734172529,443390607,-0.12286675075164671,0.25338050407815665,1.4182052195802777,-0.7079460855102174,-0.07837947799406822,0.018028905064039376,0.7016722568424157,0,-1,0.017760995775461197,-1.5792396704303187,-0.1491006056415003,-1.5388544241534632,0.121523417532444,0.038575347512960434
2474,1734172529,459836244,-0.12729363794204662,0.2531747748262692,1.4175388420905923,-0.708001742153351,-0.08123405827004375,0.018615243835490604,0.7012760038542202,0,-1,0.018395036458969116,-1.5795629660235804,-0.1544283072101038,-1.537739102040426,0.12577594816684723,0.03986889496445656
2490,1734172529,475517988,-0.13169616228411155,0.25296714548236254,1.4168483112510297,-0.7080625439026655,-0.08404875729050543,0.01918779319535291,0.700867368988099,0,-1,0.01902945153415203,-1.5799348990069788,-0.15964824358095342,-1.536635700856344,0.1300288438796997,0.04121037945151329
2506,1734172529,491664171,-0.13614178052312254,0.25274730796675604,1.4161285082747352,-0.7081258886726043,-0.08690800274756169,0.019796800842011755,0.7004375857465716,0,-1,0.019675850868225098,-1.5802224318133753,-0.16496354738344365,-1.5355446974383753,0.1343776136636734,0.04251553863286972
2522,1734172529,507395744,-0.14051533074137967,0.2525223042754809,1.4153934404897688,-0.7081924055620029,-0.08971475053649416,0.02041344178502822,0.6999986225950502,0,-1,0.020297907292842865,-1.5805471579181116,-0.17017108598817998,-1.5343940893756312,0.1387140303850174,0.04389297217130661
2538,1734172529,523672819,-0.14489276384611502,0.25229793483374946,1.414633754150108,-0.7082656143581022,-0.09253610866782722,0.02107896678897329,0.6995373937608093,0,-1,0.020956290885806084,-1.5808466116534632,-0.17542726198305303,-1.533266846333639,0.143098384141922,0.045306362211704254
2554,1734172529,539401054,-0.14925241571669365,0.2520565093907317,1.4138544920815324,-0.7083365377955693,-0.0953392245790047,0.021743408706672938,0.6990686702022018,0,-1,0.021554753184318542,-1.581170384083883,-0.18074256578554326,-1.53215200105776,0.14743518829345703,0.04669541120529175
2570,1734172529,555686473,-0.15365257631538062,0.25180669345062184,1.4130424395340335,-0.7084122945152695,-0.09816071586142132,0.022393405829038034,0.6985807256262946,0,-1,0.022212762385606766,-1.581482235585348,-0.18603450456728154,-1.5309889952289026,0.15175998210906982,0.04815673828125
2586,1734172529,571401357,-0.1580190731065988,0.25156009011865754,1.4122129071554221,-0.7084951413033655,-0.10089607312475277,0.023050451881719954,0.698085448813809,0,-1,0.022811222821474075,-1.5817697683917444,-0.1913378874408167,-1.5298259894000452,0.1560368537902832,0.049545783549547195
2602,1734172529,587631702,-0.16236232214054225,0.25130426820741436,1.4113640856399603,-0.7085756343194318,-0.10362132290628966,0.02368976242690284,0.6975829606893521,0,-1,0.023421669378876686,-1.5820696989642542,-0.19653350511659795,-1.528698746358053,0.16021785140037537,0.050923220813274384
2618,1734172529,603365421,-0.16662069321349285,0.25103899218042824,1.4105131409980685,-0.7086524732419776,-0.10632416775437215,0.024315241577160446,0.6970764753930608,0,-1,0.0240317415446043,-1.5824173132525843,-0.2015617529498499,-1.5275595823871058,0.16435091197490692,0.052252721041440964
2634,1734172529,619616031,-0.17084847129676772,0.2507847964881493,1.4096417756784487,-0.7087339708698637,-0.10901197561577432,0.02489359493361415,0.6965578630944181,0,-1,0.024666156619787216,-1.5827177206622522,-0.2066257635699671,-1.5264328161822718,0.16848397254943848,0.053617797791957855
2650,1734172529,635376691,-0.17494637407057484,0.25052013739902146,1.4087729033914027,-0.7088160562327886,-0.1116394801439196,0.025538280163688074,0.6960346407658693,0,-1,0.025276977568864822,-1.5830290953265589,-0.21159392992128545,-1.5253174940692347,0.17261703312397003,0.05492332950234413
2666,1734172529,651725053,-0.17914841939549822,0.25023816939510457,1.4078644828751323,-0.7088965442147789,-0.11433612881213294,0.02614274493043687,0.6954922689261912,0,-1,0.025851096957921982,-1.5832932631122034,-0.2167418638812464,-1.5242145697223108,0.17671450972557068,0.05619290843605995
2682,1734172529,667431116,-0.18322407426790258,0.24997716697416517,1.4069512750228523,-0.7089835788953509,-0.11693379969134186,0.026700505443617423,0.6949502531516484,0,-1,0.026425590738654137,-1.5835688749896448,-0.2217343489276331,-1.5231240431415003,0.18083558976650238,0.057486455887556076
2698,1734172529,683314323,-0.18727801273372602,0.2496881949927764,1.4060259756136948,-0.709069342760852,-0.11956269121126971,0.02735780646365178,0.6943896459859619,0,-1,0.027036037296056747,-1.5838211218463343,-0.22677404085268194,-1.52199632326235,0.18492071330547333,0.05880359560251236
2714,1734172529,699654102,-0.19133571850971942,0.24940432255119094,1.405075392118758,-0.7091583839325375,-0.12218561190286531,0.02794198931723164,0.6938186419916301,0,-1,0.02762214094400406,-1.5840967337237757,-0.23173028627504522,-1.5209296385394495,0.18901818990707397,0.060097143054008484
2730,1734172529,715405464,-0.19542768399316052,0.2491012602090396,1.4041035926320664,-0.7092460208409256,-0.12484382660211632,0.028570086414913837,0.693230013085771,0,-1,0.028220977634191513,-1.5844081083880823,-0.23669845262636358,-1.519851032887594,0.19310294091701508,0.06135473772883415
2746,1734172529,731397151,-0.19949812734141859,0.24879331212587236,1.4031092785727406,-0.7093336204647915,-0.1274997315194838,0.029146317297983934,0.6926327493908556,0,-1,0.028819439932703972,-1.584708038960592,-0.24175054231752569,-1.5188315550433558,0.19724836945533752,0.06264790892601013
2762,1734172529,747704744,-0.20360724957432497,0.248485896668982,1.4020857872652233,-0.7094255019702584,-0.13014906719585947,0.029734127958364363,0.6920206348779279,0,-1,0.029465464875102043,-1.5849602858172815,-0.24676639238466436,-1.517740551625387,0.20138180255889893,0.06394145637750626
2778,1734172529,763429164,-0.20773041628803127,0.24817260024988813,1.4010317420490814,-0.7095253701245007,-0.1328112026234118,0.030276628324595642,0.6913886456868581,0,-1,0.030075911432504654,-1.5852363745318812,-0.25187808672060186,-1.5166972319232386,0.20544295012950897,0.06522302329540253
2794,1734172529,779818534,-0.21190255808329747,0.24784166383857437,1.399948387261303,-0.7096199996016553,-0.13551378866367716,0.030808737831067884,0.6907432887264409,0,-1,0.030626436695456505,-1.5855596701251429,-0.2569659391986292,-1.515594784413473,0.20952844619750977,0.06654053926467896
2810,1734172529,795541286,-0.21592782308446526,0.2475197076275577,1.3988720116993043,-0.7097183755666842,-0.13811341997804621,0.03136616474340077,0.6901019303800309,0,-1,0.031248493120074272,-1.5858596006976526,-0.2620180288897913,-1.514515225087301,0.21361394226551056,0.06785768270492554
2826,1734172529,811872243,-0.22002192888474595,0.2471867695298931,1.3977635955767176,-0.7098207644138735,-0.14073097711317248,0.0319162450406439,0.689442258488832,0,-1,0.03184695541858673,-1.586135212575094,-0.26699763933290654,-1.5134480635272425,0.21766310930252075,0.06913924217224121
2842,1734172529,827761173,-0.22407933929402143,0.24683260491290343,1.396648550069568,-0.7099167549044492,-0.14334265175953045,0.03253725451354088,0.6887760248159073,0,-1,0.03246976062655449,-1.5864232222186487,-0.27204972902406865,-1.5123456160174769,0.22166472673416138,0.07039684057235718
2858,1734172529,843448400,-0.22804609508256954,0.24650350136227533,1.3955179993570668,-0.7100232395265413,-0.14592201670036586,0.03309379533492561,0.6880977874435172,0,-1,0.0330682210624218,-1.5866988340960901,-0.27705365816225225,-1.5112059752093714,0.22576220333576202,0.07160649448633194
2874,1734172529,859792470,-0.23210217791935767,0.24616663214115944,1.3943425057741898,-0.7101285178556314,-0.1485437197404132,0.033576947912532,0.6874044224637523,0,-1,0.033618371933698654,-1.5869148413287562,-0.2820933500873011,-1.5101631323443812,0.22989563643932343,0.07287607342004776
2890,1734172529,875520229,-0.2360577407085466,0.2458049043764718,1.3931803556894127,-0.7102351706570458,-0.15117131803027806,0.03421733540666003,0.6866894559583784,0,-1,0.03420485183596611,-1.5871427694903772,-0.28704959550966436,-1.5090845266925257,0.23401746153831482,0.07418122887611389
2906,1734172529,891829967,-0.23991291616327776,0.24545919677075398,1.3920125177955303,-0.7103431023208139,-0.1537216292845417,0.034807382110417805,0.6859816206181962,0,-1,0.03479132801294327,-1.5874069372760218,-0.29205352464784795,-1.5079811255084437,0.238066628575325,0.07546279579401016
2922,1734172529,907603502,-0.24390862467147448,0.2450890477954732,1.3907982289596554,-0.7104573046350818,-0.15630176053200304,0.03539279399594172,0.6852499748839189,0,-1,0.035377807915210724,-1.5876825491534632,-0.29693729082216436,-1.506890598927633,0.24217647314071655,0.07680390030145645
2938,1734172529,923365354,-0.24789051859768027,0.24472036785409546,1.3895640048440494,-0.7105776308542398,-0.15887376783085624,0.03599780384835433,0.6845018002481063,0,-1,0.03597626835107803,-1.5879223982440394,-0.30195314088930303,-1.5058587233172815,0.2463218867778778,0.07812141627073288
2954,1734172529,939665555,-0.2518613397281702,0.2443439553280488,1.3883010311059585,-0.7106983992006368,-0.16147630450153694,0.03654912348757403,0.6837377787064783,0,-1,0.03655076399445534,-1.5882099310504358,-0.3070886770831507,-1.5048158804522913,0.25039541721343994,0.07949848473072052
2970,1734172529,955420494,-0.2559593574675144,0.24395325626906644,1.3869834083666344,-0.7108229182693442,-0.16411187981825118,0.03708508404834476,0.6829515109483983,0,-1,0.0371488519012928,-1.5884736219989222,-0.3122480551349085,-1.5037606398211878,0.25454118847846985,0.08083996921777725
2986,1734172529,971929550,-0.2599781391351026,0.24354619400055988,1.3856660029473644,-0.7109410898787246,-0.16670897034341514,0.03764007189536367,0.6821686821577206,0,-1,0.03779524937272072,-1.5887497107135218,-0.31732398668398076,-1.5027058760272425,0.25857874751091003,0.08216946572065353
3002,1734172529,987502098,-0.2639702890302078,0.24315611673975301,1.3843285036330912,-0.7110660366611399,-0.16932614971621868,0.03815216804894383,0.6813649232257736,0,-1,0.03840569779276848,-1.5890615622149866,-0.322423283253805,-1.5016387144671839,0.26268821954727173,0.08347462117671967
3018,1734172530,3640651,-0.26797260544362794,0.24273443311852097,1.3829834016741795,-0.7111877276856605,-0.17195350632978287,0.0387319893973733,0.6805467218696463,0,-1,0.03900378569960594,-1.5893257300006312,-0.327367130910055,-1.5005715529071253,0.2668096721172333,0.08478015661239624
3034,1734172530,19751787,-0.2719565426916935,0.24232091662313657,1.3816153504134001,-0.7113123013467587,-0.17453226248701814,0.03927352637831931,0.679728540985114,0,-1,0.03961460664868355,-1.589649502431051,-0.3323586622821253,-1.49951678911318,0.27090752124786377,0.08609767258167267
3050,1734172530,35337448,-0.2758829302826884,0.24189716830963873,1.3802493006350094,-0.7114306308222971,-0.17710479084822667,0.03983460421837407,0.6789061458649198,0,-1,0.04027298837900162,-1.5899012724505823,-0.33733874956239873,-1.4984138647662562,0.2750050127506256,0.08731931447982788
3066,1734172530,51386117,-0.2797633815492172,0.24147923880155092,1.3788587120389468,-0.7115581716659597,-0.17968915622333184,0.04041806842027643,0.67805837154062,0,-1,0.040835123509168625,-1.5901530424701136,-0.34239036241640264,-1.4972270170794886,0.2790789008140564,0.088612861931324
3082,1734172530,67651033,-0.2836340309120018,0.2410678727138218,1.3774542626199369,-0.7116937256753927,-0.1821875394356572,0.04099196546700713,0.6772144417212406,0,-1,0.04139763489365578,-1.5903685728656214,-0.3474062124835413,-1.4961240927325647,0.2832007110118866,0.08998992294073105
3098,1734172530,83745002,-0.2875540542426791,0.24062549162901264,1.3760138352513587,-0.7118209767200465,-0.18476542878006663,0.041537061003828514,0.6763485092703326,0,-1,0.042044032365083694,-1.5906809012042444,-0.35242206255068,-1.4950092474566858,0.28726261854171753,0.09123553335666656
3114,1734172530,99727153,-0.2914393557877837,0.24019845306580306,1.3745605970095665,-0.7119574980593598,-0.18729785259998744,0.04207207322704339,0.6754746301844862,0,-1,0.042618528008461,-1.5909565130816858,-0.35743743578066045,-1.4939540068255823,0.2913365066051483,0.09251709282398224
3130,1734172530,115453004,-0.2953573994203764,0.23975173124264226,1.3730770547217008,-0.7120948256162914,-0.18988383230318448,0.04262862236822314,0.6745723757428457,0,-1,0.04324095696210861,-1.5912798086749476,-0.36242849031557256,-1.4928272406207483,0.29552987217903137,0.09383460879325867
3146,1734172530,131591081,-0.29926680242236225,0.23929329699203034,1.3715735521363803,-0.7122277164709359,-0.19246746808942958,0.04317427519241229,0.6736645571643577,0,-1,0.04383942112326622,-1.5915563742267054,-0.36754018465151006,-1.4917719999896448,0.29962772130966187,0.09507984668016434
3162,1734172530,147593975,-0.3032549128022307,0.23882550998288155,1.3700209276191593,-0.7123698532568615,-0.19504983152937816,0.04370343838758074,0.672736772344326,0,-1,0.04447345808148384,-1.5918319861041468,-0.3725317160235804,-1.490680996571676,0.30372557044029236,0.09639736264944077
3178,1734172530,163308382,-0.30717139397129084,0.2383544526613665,1.3684748677554972,-0.7125075348177915,-0.19763364253476473,0.044227020328624064,0.671801999728466,0,-1,0.0450599379837513,-1.59216815630068,-0.3776434103595179,-1.4896019140826624,0.30783504247665405,0.09767892211675644
3194,1734172530,179495334,-0.3110520655439776,0.2379070681466841,1.3669053997823593,-0.7126563692269319,-0.20017556351578247,0.044728764293782704,0.6708576457164195,0,-1,0.04565839841961861,-1.592431370412008,-0.3826945463763636,-1.4885590712176722,0.3119572401046753,0.09897246956825256
3210,1734172530,195595741,-0.3150087952475969,0.23740728082741458,1.3652975708314519,-0.7127959774552836,-0.2027956327578644,0.04524080209009098,0.6698873753730169,0,-1,0.04624487832188606,-1.5927436987506312,-0.3877223173724573,-1.4874561468707483,0.3160550892353058,0.10028998553752899
3226,1734172530,211751937,-0.3188242042999554,0.2369452932908231,1.3637155201844668,-0.7129438858199465,-0.20530643898894377,0.045746324557457654,0.6689301574687136,0,-1,0.04687929153442383,-1.5930550734149378,-0.39264184633363897,-1.486413304005758,0.3201169967651367,0.10154721140861511
3242,1734172530,227813482,-0.32267126157786186,0.23644948040828528,1.362104851937105,-0.7130840119849027,-0.20785936247791414,0.04627741639870826,0.6679551467076593,0,-1,0.04742981866002083,-1.5933669249164026,-0.39764529863466436,-1.4853218237506312,0.32425081729888916,0.10284075886011124
3258,1734172530,243521451,-0.3265181578783751,0.2359536609581782,1.3604643626256776,-0.7132317469842475,-0.21042690713769371,0.04680054726381013,0.6669562958860727,0,-1,0.04806385934352875,-1.5936310927020472,-0.40269691148866826,-1.4842670599566858,0.32839661836624146,0.10403843224048615
3274,1734172530,259608507,-0.3303446749093617,0.2354700091671112,1.358796911167208,-0.7133792297276601,-0.21297898463508058,0.047251772171285865,0.6659559270129318,0,-1,0.04866231977939606,-1.5939305464373987,-0.4077718893634241,-1.4831402937518519,0.3324824869632721,0.10533197969198227
3290,1734172530,275756835,-0.3341694284114793,0.2349658921298991,1.3571233366718987,-0.7135336251710097,-0.2154616297321917,0.047782918884787445,0.6649532649189075,0,-1,0.04929673671722412,-1.5942428747760218,-0.41275197664369756,-1.4820249716388147,0.336520791053772,0.10663750767707825
3306,1734172530,291331529,-0.3380301305687204,0.23444539305517906,1.3554018338795888,-0.7136850222860655,-0.2180249149935595,0.0482629859121688,0.6639198066012425,0,-1,0.04987122863531113,-1.594506565724508,-0.41779071489443,-1.480945889149801,0.3406785726547241,0.10801456868648529
3322,1734172530,307522535,-0.34182516176103495,0.23393266815981723,1.3537004423941845,-0.7138474865890091,-0.22050229562225235,0.04881747445697724,0.6628856294290241,0,-1,0.05045770853757858,-1.594830338154928,-0.4227941671954554,-1.4798792044269007,0.34475281834602356,0.10930774360895157
3338,1734172530,323610067,-0.3456283602141047,0.2334136877951769,1.351970141809676,-0.7140123148785307,-0.2229952236479931,0.04934749065219731,0.6618340952219933,0,-1,0.05109212175011635,-1.5951178709613245,-0.4277141729937952,-1.478812042866842,0.3488147258758545,0.11070914566516876
3354,1734172530,339758157,-0.3494289735090835,0.23287397037054003,1.3502185273413692,-0.7141786667328532,-0.22547603344814,0.049889186152946165,0.6607726230929774,0,-1,0.05166624113917351,-1.5954540411578577,-0.43280107179750615,-1.4777210394488733,0.352912575006485,0.1120506301522255
3370,1734172530,355839014,-0.35322029026264207,0.2323501771903272,1.3484314838087113,-0.7143429810941259,-0.22802105180480536,0.05036728631346625,0.6596845016860747,0,-1,0.05228867381811142,-1.5957415739642542,-0.43791276613344365,-1.4766419569598597,0.357059121131897,0.11336814612150192
3386,1734172530,371499300,-0.3570818205881746,0.23180978723054818,1.3465934756198708,-0.7145129426838378,-0.2305446895542938,0.0508491175380668,0.6585854296150173,0,-1,0.052898745983839035,-1.5960176626788538,-0.4429877440081995,-1.4755633513080042,0.36120492219924927,0.11469727754592896
3402,1734172530,387500047,-0.3608349884349832,0.23126206435104285,1.3447706510146575,-0.7146757705612489,-0.23306998877460028,0.05131632099546607,0.6574827438836575,0,-1,0.05350956693291664,-1.5962932745562952,-0.4479911963092249,-1.4745081106769007,0.3652791976928711,0.11595486849546432
3418,1734172530,403528690,-0.36456491827109977,0.23070481957457895,1.3429568825452474,-0.7148352456877007,-0.23557552284553074,0.05181570822148976,0.6563763226535253,0,-1,0.05413162335753441,-1.59658128419985,-0.45297080675234014,-1.4734051863299769,0.3694373369216919,0.11729635298252106
3434,1734172530,419811725,-0.36826923078553087,0.2301484220507885,1.3411238960051293,-0.7150099021909991,-0.23805827909127225,0.05236887448178447,0.6552454475312521,0,-1,0.05474206805229187,-1.5969050566302698,-0.457926098500387,-1.4723265806781214,0.37357115745544434,0.11856593191623688
3450,1734172530,435884714,-0.3719378111765504,0.2295903325960425,1.3392773993086222,-0.7151685297364644,-0.2405715418989959,0.052846826565813,0.6541150665019466,0,-1,0.05535251647233963,-1.5971205870257776,-0.4629176298724573,-1.4712594191180628,0.3776933550834656,0.1198115423321724
3466,1734172530,451480865,-0.37568871820079,0.22902719213351713,1.337373563162275,-0.7153463691642584,-0.24304859388657707,0.053314331905212266,0.6529659525172589,0,-1,0.0560108982026577,-1.597468678151266,-0.46790916124452764,-1.4702404181109827,0.38170769810676575,0.12112905830144882
3482,1734172530,467598676,-0.3793101864882561,0.22845587390577135,1.3354979707049521,-0.7155137022853154,-0.24553141178681817,0.053806113421204387,0.6518123731768501,0,-1,0.0565490648150444,-1.5976842085467737,-0.4730318228351038,-1.4691732565509241,0.38580554723739624,0.1223982647061348
3498,1734172530,483894824,-0.3830123082957897,0.22789830936138455,1.3335673165132553,-0.7157017943536217,-0.24799728508105,0.05430104716920292,0.6506302209610021,0,-1,0.05714790150523186,-1.5979602972613733,-0.47813111940492803,-1.4680822531329554,0.39002397656440735,0.12369181215763092
3514,1734172530,499834060,-0.38661521917075353,0.22733953018348446,1.3316345143575217,-0.7158749061208584,-0.25045058549124416,0.05475149673314745,0.6494612356553894,0,-1,0.05771041288971901,-1.5982726255999964,-0.48312265077699834,-1.4669554869281214,0.39411023259162903,0.12503328919410706
3530,1734172530,515362024,-0.3903431871232239,0.226747432443914,1.3296536189661474,-0.7160515634883464,-0.2529179967864752,0.05518161640043763,0.6482728087301256,0,-1,0.05834444984793663,-1.5986078421222132,-0.48806602159609014,-1.4658883253680628,0.39816051721572876,0.12630249559879303
3546,1734172530,531484842,-0.39399281756453036,0.2261736249133668,1.3276800574344305,-0.7162407069310145,-0.2553432030117544,0.055664008314726655,0.6470707971999636,0,-1,0.05890696123242378,-1.5988362471209925,-0.49316531816591436,-1.4647496382342737,0.40228310227394104,0.12759605050086975
3562,1734172530,547585248,-0.39761808650902797,0.225572290626732,1.3256778527371005,-0.716416885995116,-0.257829284130872,0.05612576473383859,0.645848902018626,0,-1,0.05945786088705063,-1.599123779927389,-0.49821645418276006,-1.46364671388735,0.40641728043556213,0.12890157103538513
3578,1734172530,563750982,-0.40125690649404494,0.2249941552534786,1.3236443497011687,-0.7166062906491113,-0.2602604043116923,0.05654468791464453,0.6446259724974407,0,-1,0.06007954105734825,-1.5993393103228968,-0.5033157507525843,-1.4625914732562464,0.41049155592918396,0.130183145403862
3594,1734172530,579690217,-0.4048453880782371,0.22440080560532533,1.321611810593045,-0.7167923684751016,-0.26268785050256166,0.05696727249721396,0.6433960860608542,0,-1,0.06069036200642586,-1.5996153990374964,-0.5083544890033167,-1.461536709462301,0.41457778215408325,0.13146433234214783
3610,1734172530,595686435,-0.4084174891849486,0.2237957865172837,1.3195749420190912,-0.7169790373462004,-0.26512612848287426,0.057419616829356195,0.6421465437148814,0,-1,0.06126485764980316,-1.599914852772848,-0.5132859388934534,-1.4604218641864222,0.41872432827949524,0.1327458918094635
3626,1734172530,611908674,-0.4119237771248964,0.22318705223389818,1.3175496775880147,-0.7171571298650755,-0.2675537329757506,0.05792308042921144,0.6408943499579467,0,-1,0.06182699277997017,-1.6001909414874476,-0.5183013121234339,-1.4593427816974085,0.4228465259075165,0.13397951424121857
3642,1734172530,628138542,-0.4154408059201356,0.2225741522971445,1.3154946789572048,-0.7173413369888826,-0.26997193881830545,0.05838337489003859,0.6396310968317103,0,-1,0.06242545321583748,-1.6004069487201136,-0.5232446829425257,-1.4582279364215296,0.42693278193473816,0.13526108860969543
3658,1734172530,643630027,-0.41895113779498194,0.2219568650608106,1.3134187373606296,-0.7175316903309779,-0.272367988265135,0.05883961393856572,0.638358717470619,0,-1,0.06305986642837524,-1.6006949583636683,-0.5282958189593714,-1.4571850935565394,0.43101978302001953,0.1365186721086502
3674,1734172530,659700393,-0.42250602047379326,0.2213403415479736,1.3112837759660285,-0.7177265987295824,-0.2747925733759019,0.05925392404159747,0.6370608633240525,0,-1,0.06363436579704285,-1.6009228865252894,-0.5334542433368128,-1.4560702482806605,0.4351539611816406,0.13781222701072693
3690,1734172530,675962924,-0.42603594185871857,0.2206951198786365,1.3091424148967057,-0.717913046462024,-0.2772380028540671,0.05967979772424206,0.6357501625927418,0,-1,0.06420885771512985,-1.6011865774737757,-0.5384934584247034,-1.4550517241107386,0.43925219774246216,0.13917768001556396
3706,1734172530,691525697,-0.4295844050463301,0.22006654311494817,1.3069628085784326,-0.7181202525298869,-0.27961458056540245,0.06006348644785512,0.6344378352820502,0,-1,0.06484327465295792,-1.6014745871173304,-0.5434725920306605,-1.4539483229266565,0.443267285823822,0.1405068039894104
3722,1734172530,707518577,-0.4330697466362117,0.21943846530865965,1.3048157105187035,-0.7183323750496953,-0.28195454155755556,0.0605280523370417,0.6331165693068038,0,-1,0.06542937457561493,-1.601785961781637,-0.5484164396869105,-1.452905003224508,0.44736552238464355,0.1419082134962082
3738,1734172530,723777532,-0.4365505504665475,0.2187572053559148,1.3026473717017617,-0.7185270089514727,-0.28437092089931987,0.06101940487334655,0.6317663721527331,0,-1,0.06608813256025314,-1.6020739714251917,-0.5534547011004847,-1.4518025557147425,0.45144015550613403,0.14321373403072357
3754,1734172530,739369630,-0.44003281033044506,0.21810929342810204,1.3004398279188967,-0.7187352739889711,-0.28671363481221834,0.06145605318483773,0.6304268800294822,0,-1,0.06668584793806076,-1.602337662373678,-0.5584581534015101,-1.4507115522967737,0.4555507302284241,0.14454285800457
3770,1734172530,755419492,-0.44351992411120805,0.21746118169857986,1.2981989325849315,-0.7189439189441851,-0.289069960069623,0.06185202152769368,0.6290727517795228,0,-1,0.06727270036935806,-1.6026013533221644,-0.5635688940631312,-1.449620548878805,0.4596133828163147,0.14584839344024658
3786,1734172530,771628856,-0.44700236815066585,0.21679514315438245,1.295921279618272,-0.7191526729787022,-0.2914824851891541,0.062231780224364916,0.6276819252660131,0,-1,0.06788314878940582,-1.6028536001788538,-0.5686920324908655,-1.4485538641559046,0.46371200680732727,0.14712995290756226
3802,1734172530,787772178,-0.45047555282144797,0.21611956169089108,1.293641435483787,-0.7193497221737916,-0.2938887381759019,0.06261609790926581,0.6262943485809865,0,-1,0.06850520521402359,-1.6031654516803187,-0.573742691670553,-1.4474270979510706,0.46785852313041687,0.14847107231616974
3818,1734172530,803357362,-0.4538265801725555,0.21545608203948757,1.2914118052506267,-0.7195558940514054,-0.29623015753599957,0.06306168985283968,0.6249081791551331,0,-1,0.0691276341676712,-1.6034653822528284,-0.5787461439715784,-1.4463360945331019,0.4719691276550293,0.14971667528152466
3834,1734172530,819344758,-0.4573235463601461,0.2147558772488139,1.2891011462233886,-0.7197450826660023,-0.29865116620918986,0.0634477563539022,0.6234972967973929,0,-1,0.06975006312131882,-1.603752915059225,-0.5837014357196253,-1.4452689329730433,0.47605574131011963,0.15096229314804077
3850,1734172530,835445642,-0.460704330247246,0.2140771993048556,1.2868015142393951,-0.7199538839290731,-0.3009849907150868,0.06383801978112758,0.6220925555012744,0,-1,0.07034815102815628,-1.6040166060077112,-0.5887287298785608,-1.4442017714129847,0.4801667034626007,0.15229178965091705
3866,1734172530,851478099,-0.4641063439316917,0.21339943569284273,1.2844598698490968,-0.7201765490643348,-0.3033285687045018,0.06422550349005353,0.6206549784597826,0,-1,0.07089905440807343,-1.6042926947223108,-0.593851391469137,-1.4431708494769495,0.4842413365840912,0.15354938805103302
3882,1734172530,867631673,-0.46749680935946825,0.21272427375244046,1.2820961383858802,-0.7203896320394224,-0.3056887240295677,0.06455802929696629,0.6192135680882423,0,-1,0.07150912284851074,-1.6045683065997522,-0.5988901297198694,-1.4421046415912073,0.48826804757118225,0.15486690402030945
3898,1734172530,883213281,-0.47089209746442623,0.21203332722281182,1.2797115094992457,-0.7206018708980537,-0.3080312608799463,0.06490784663947256,0.6177674784444078,0,-1,0.07205964624881744,-1.6048324743853968,-0.6039651075946253,-1.4410374800311487,0.49237900972366333,0.15616044402122498
3914,1734172530,899279117,-0.4742255382370017,0.21135676540663875,1.2773338412528572,-0.7208218342350268,-0.31037424126835444,0.0652366230423666,0.6163017902466071,0,-1,0.0726824551820755,-1.6051204840289515,-0.6088960806476038,-1.4400184790240687,0.49651357531547546,0.15746597945690155
3930,1734172530,915350675,-0.47757474350964374,0.21066900574746966,1.2749425913631423,-0.7210441090113215,-0.3127184297188839,0.06562895916639427,0.6148133182462469,0,-1,0.07326855510473251,-1.605504337941305,-0.6138513723956507,-1.438939396535055,0.5006840825080872,0.15874753892421722
3946,1734172530,931615114,-0.4809109468692806,0.2099521699136826,1.2725435502809674,-0.7212630365407804,-0.3150391711327379,0.0660350421471495,0.6133264432425807,0,-1,0.07384305447340012,-1.6057317892657679,-0.6189263502704065,-1.4378483931170862,0.5047590732574463,0.16004033386707306
3962,1734172530,947131872,-0.4841750522355571,0.2092662862466454,1.2701348043557221,-0.7214938383461765,-0.31731300494223424,0.0663906298876481,0.6118426124308051,0,-1,0.07444151490926743,-1.6060436407672327,-0.6239407698260706,-1.436805550252096,0.5088217258453369,0.16134586930274963
3978,1734172530,963270902,-0.48748855612568787,0.2085589922883112,1.2676576180575279,-0.7217197101795362,-0.3196237750048,0.06673547868840399,0.6103340710416524,0,-1,0.07502761483192444,-1.6062834898578089,-0.6290882269488733,-1.435690704976217,0.5130165815353394,0.1626514047384262
3994,1734172530,979399919,-0.49081311390893534,0.20783244605809376,1.2651653437850992,-0.7219337004697729,-0.32195831630206345,0.06709114416702891,0.6088130690649795,0,-1,0.07562645524740219,-1.6065829435931605,-0.6341984907733362,-1.434563938771383,0.517115592956543,0.16388502717018127
4010,1734172530,995808362,-0.49408423970698545,0.20711228847410468,1.2626960876666373,-0.7221461898582872,-0.32427680193853603,0.0674159009663125,0.607292789760075,0,-1,0.0762249156832695,-1.60685903230776,-0.6391423384295862,-1.4334729353534144,0.5212022066116333,0.1651546061038971
4026,1734172531,11233091,-0.4973250431637078,0.206391241950408,1.2602200253039912,-0.7223723649749533,-0.3265252960836203,0.0677771983539102,0.605776896820349,0,-1,0.07683498412370682,-1.6072185675250452,-0.6440613905536097,-1.432333771382467,0.5252652168273926,0.16638822853565216
4042,1734172531,27307987,-0.5005019184979703,0.20565428114381384,1.2577708414569717,-0.7225867236367376,-0.3288018590697173,0.06817764627553063,0.6042429750063721,0,-1,0.07748138904571533,-1.607507054005758,-0.6490762869464319,-1.4312551657306116,0.5293521881103516,0.16768178343772888
4058,1734172531,43481111,-0.5037267483169595,0.20491274702139692,1.2552623036265502,-0.722809425326727,-0.3310519193307453,0.06852547548078068,0.6027067450895249,0,-1,0.07809145748615265,-1.6078065077411097,-0.6540787855731409,-1.4302004019366663,0.5333912968635559,0.16902326047420502
4074,1734172531,59611320,-0.5069843616079515,0.20419279512758953,1.2526705796112059,-0.7230432051712526,-0.3333247800598766,0.06878966226027075,0.6011414948411352,0,-1,0.0786779373884201,-1.6081064383136194,-0.6591418425189417,-1.4290974775897425,0.537466287612915,0.17030483484268188
4090,1734172531,75180530,-0.5102662644240554,0.2034050268285818,1.2500664945661573,-0.7232732432507841,-0.33562223943627467,0.06911376558778753,0.5995471752911096,0,-1,0.07930073887109756,-1.608393971120016,-0.6642406622516077,-1.4279583136187952,0.541553258895874,0.17165829241275787
4106,1734172531,91385841,-0.5134626656680417,0.2026684985786627,1.2474820365563752,-0.7235203605885503,-0.33785317996643466,0.06947949607150103,0.5979516002370363,0,-1,0.07991081476211548,-1.6087058226214808,-0.6692193190204065,-1.426904026662008,0.5457241535186768,0.17303574085235596
4122,1734172531,107451200,-0.5166491228798438,0.20190051684645982,1.2448831408944596,-0.7237712335509916,-0.34012418194406835,0.06986086483621767,0.5963138451396967,0,-1,0.0805572122335434,-1.6090415159808558,-0.6742227713214319,-1.4258487860309046,0.5499429702758789,0.1744004338979721
4138,1734172531,123547315,-0.5198184295727083,0.20112754400334926,1.2422912005650122,-0.7240068556399493,-0.342372090657421,0.07020331205605036,0.5946990158908803,0,-1,0.0811077356338501,-1.6093295256244105,-0.6792615095721644,-1.4247339407550257,0.5540063977241516,0.1757299304008484
4154,1734172531,139696121,-0.5229537581406092,0.2003935478639467,1.2396613532536263,-0.7242484287421415,-0.3446118378989376,0.07050590237876529,0.593073193100322,0,-1,0.08171781152486801,-1.6096418539630335,-0.6843603293048304,-1.4237149397479456,0.5581653118133545,0.17703546583652496
4170,1734172531,155245065,-0.5260983998429553,0.19962936033874273,1.2369995466825332,-0.7244983573396461,-0.3468533339987181,0.07081661082222111,0.5914219327500312,0,-1,0.08236420899629593,-1.60992938676943,-0.6893871466266077,-1.42261249223818,0.5622762441635132,0.17830504477024078
4186,1734172531,171338081,-0.5292324518056711,0.19884969962670762,1.2343155204026293,-0.7247281993786887,-0.3491205962111595,0.07109811025578373,0.589770213765111,0,-1,0.08290275186300278,-1.6101215521441858,-0.6944974104510706,-1.421521011983053,0.5663392543792725,0.17961058020591736
4202,1734172531,187410593,-0.5322632587752838,0.19808851771001085,1.2316761992850302,-0.7249698914018454,-0.3513090490449226,0.07140719281745025,0.5881340165590494,0,-1,0.08353716880083084,-1.6104210058795374,-0.6995366255389612,-1.4204543272601526,0.5704502463340759,0.18089213967323303
4218,1734172531,203531265,-0.5353395963349598,0.19730721704768867,1.2289929179185006,-0.7251961740254278,-0.3535357353809481,0.07166778511940725,0.5864867616269035,0,-1,0.08406372368335724,-1.6107690970050257,-0.7044556776629847,-1.4193275610553187,0.5745496153831482,0.1821257621049881
4234,1734172531,219691276,-0.5383031327408923,0.19655055638385194,1.226373090683406,-0.7254484969595327,-0.35567214238383676,0.07204531367206028,0.5848344023474861,0,-1,0.08473371714353561,-1.611032787953512,-0.7093990484820765,-1.4182489554034632,0.5786010026931763,0.18347923457622528
4250,1734172531,235271930,-0.5413392820078055,0.19576226552742454,1.2236770624427784,-0.72569631268634,-0.3578393276832915,0.07234582036585423,0.5831654650201872,0,-1,0.08532056957483292,-1.6113083998309534,-0.7144134680377405,-1.4171455542193812,0.5826160907745361,0.18478477001190186
4266,1734172531,251413583,-0.544351522377992,0.19499652243308624,1.2209583387675862,-0.7259342892061519,-0.3600177878673693,0.07259303310704868,0.5814953582945989,0,-1,0.08590704947710037,-1.6115244070636194,-0.7194884459124964,-1.4160788694964808,0.5867274403572083,0.18608993291854858
4282,1734172531,267606973,-0.5473444896933154,0.19420676318678765,1.2182208428196937,-0.7261876066225029,-0.362220447526952,0.07291610363719062,0.5797681857532595,0,-1,0.086541086435318,-1.6118000189410608,-0.724551026021139,-1.4149764219867151,0.5909342765808105,0.18737149238586426
4298,1734172531,283180475,-0.5503234228134136,0.19341228873390245,1.215444501749697,-0.7264408979535587,-0.36440179078696183,0.07318430259489708,0.5780475884435302,0,-1,0.08712756633758545,-1.6120761076556605,-0.7296860853778284,-1.4138854185687464,0.5950456261634827,0.18868900835514069
4314,1734172531,299307823,-0.5533134376609556,0.19262867902244274,1.2126766702514604,-0.7267003427155768,-0.36657070574656225,0.07346355862920226,0.5763120987269521,0,-1,0.08772565424442291,-1.6123879591571253,-0.7345212141620081,-1.412842098866598,0.5991929173469543,0.18997056782245636
4330,1734172531,315531969,-0.5562176861888433,0.19182164046598926,1.2099670010919161,-0.726937260456402,-0.36872745422115377,0.07380226684583356,0.5745916021594333,0,-1,0.08828853815793991,-1.6127117315875452,-0.7395122686969202,-1.4117873350726526,0.6033162474632263,0.19127610325813293
4346,1734172531,331587553,-0.5591322910422751,0.19102512905613472,1.2071905756491697,-0.7271956515552838,-0.3708659914081236,0.07406723265813688,0.572851591446093,0,-1,0.08892294764518738,-1.6129635016070765,-0.7444670836078089,-1.4107211271869105,0.6074515581130981,0.19259324669837952
4362,1734172531,347203493,-0.5620392269718264,0.1902149977041354,1.2043953266161773,-0.7274428873811257,-0.3730335336921929,0.07434271622327017,0.5710919268246336,0,-1,0.08949706703424454,-1.6131914297686976,-0.7496016661273401,-1.4096296469317835,0.6115149259567261,0.1938508301973343
4378,1734172531,363236427,-0.5649851223387341,0.1894084293492611,1.2015026795756776,-0.7276983745521038,-0.3752044431957721,0.07451766099964471,0.5693187329427326,0,-1,0.09011950343847275,-1.6134427229510706,-0.7547481695758265,-1.4086230436908167,0.6156262755393982,0.19513240456581116
4394,1734172531,379345893,-0.5678521054833455,0.1885803489062413,1.19864306576607,-0.7279393941431033,-0.3773920288173655,0.07474402750761194,0.5675322240997649,0,-1,0.09071796387434006,-1.6137068907367151,-0.7598946730243128,-1.407555882130758,0.6197372674942017,0.19635404646396637
4410,1734172531,395514249,-0.5707612767977934,0.1877649145712348,1.1957494446999668,-0.7281905503036137,-0.3795576987927833,0.07493758149896479,0.565737425502974,0,-1,0.09135200083255768,-1.6139944235431116,-0.76489764848818,-1.4065130392657679,0.6238369941711426,0.19767117500305176
4426,1734172531,411106109,-0.5735851719858165,0.18693642286587103,1.1929362975512654,-0.7284481371642589,-0.38165888252972663,0.07524251843054458,0.5639489092713188,0,-1,0.09193885326385498,-1.6142943541156214,-0.7698171774493616,-1.4053624312030237,0.6279243230819702,0.19896472990512848
4442,1734172531,427283763,-0.5763820542470577,0.1861340198076199,1.1901030545154387,-0.7287089138552691,-0.38371019544779655,0.07546594972759872,0.5621874200024395,0,-1,0.0925728976726532,-1.6145466009723108,-0.7747839132892054,-1.4043315092669886,0.6320236921310425,0.2002822458744049
4458,1734172531,443527698,-0.5791967004929773,0.18531801662793512,1.1872118162661711,-0.7289718273167792,-0.38580900041661886,0.07571355723566202,0.5603739353562828,0,-1,0.09318334609270096,-1.6148226896869105,-0.779846493397848,-1.4031804243670862,0.6361230611801147,0.2016117423772812
4474,1734172531,459666490,-0.5819348907472658,0.18451113042309186,1.1843441206287486,-0.7292509913645464,-0.38784296040158067,0.07600986093182377,0.558563631739383,0,-1,0.09379378706216812,-1.615134064351217,-0.7848618666278284,-1.4021137396441858,0.6403186321258545,0.20294123888015747
4490,1734172531,475247859,-0.5847921000346376,0.18365808646922868,1.1813559772996642,-0.7295217806835897,-0.38999008590294265,0.07622148147171767,0.5566830248605722,0,-1,0.09433232992887497,-1.6153619925128382,-0.7899482885943812,-1.4010232130633753,0.6443700790405273,0.2043066918849945
4506,1734172531,491268873,-0.5875330395777625,0.18283312086071807,1.1784268620998504,-0.7298056438542543,-0.39201130030092307,0.07645619022906106,0.554856119737824,0,-1,0.09494277834892273,-1.6156380812274378,-0.7949507872210901,-1.3999441305743616,0.6485057473182678,0.20569612085819244
4522,1734172531,507678985,-0.5902478648751416,0.1820023539567019,1.1755304270065003,-0.7300744350870378,-0.39405222826482816,0.07670976126555776,0.5530187819219591,0,-1,0.09554123878479004,-1.6159256140338343,-0.7999895254718226,-1.398829762135641,0.6525931358337402,0.20698928833007812
4538,1734172531,523709535,-0.592992179234035,0.18115288931167522,1.1725868450726575,-0.7303394584559226,-0.39609458223594757,0.07693943656481003,0.5511748184076711,0,-1,0.0961393266916275,-1.6162017027484339,-0.8049204985248011,-1.3977506796466272,0.6566325426101685,0.20835474133491516
4554,1734172531,539208650,-0.5957181329193754,0.18032942423335807,1.1696294822115492,-0.7306219442124201,-0.3980952621875673,0.07714910879465953,0.5493266349552558,0,-1,0.0966658815741539,-1.6165011564837855,-0.8099115530597132,-1.3966596762286585,0.6606723666191101,0.20963630080223083
4570,1734172531,555339813,-0.5984057125423897,0.17950648733076854,1.1666207080575783,-0.7308870993402343,-0.4001434120119189,0.07728344187803406,0.5474637590315568,0,-1,0.09732389450073242,-1.6167410055743616,-0.8150580565081995,-1.3955448309527796,0.6647477746009827,0.21095381677150726
4586,1734172531,571562051,-0.6010819309048019,0.17866697774202536,1.1635948507078762,-0.7311632253863631,-0.40221032196826484,0.07745695857820882,0.5455525770378219,0,-1,0.09789875894784927,-1.6170051733600062,-0.820108715687887,-1.394454304371969,0.6689193844795227,0.21221141517162323
4602,1734172531,587642908,-0.6037519246737084,0.1778121431007777,1.1605845461376352,-0.7314214238888463,-0.40426014482734024,0.07763819694654127,0.5436623459055083,0,-1,0.09846127033233643,-1.6172927061664026,-0.825207535420553,-1.393411938344137,0.6730191111564636,0.21348099410533905
4618,1734172531,603208780,-0.606400563082874,0.17698062940178344,1.1575536216260534,-0.7316967429560459,-0.40630187122072353,0.07780437176144576,0.5417426930978022,0,-1,0.0990833267569542,-1.6176050345050257,-0.8301861921893519,-1.3923924604998987,0.6770709156990051,0.21479851007461548
4634,1734172531,619355678,-0.6089973270510329,0.17611993697424072,1.1545886232594014,-0.7319743517602444,-0.40826184808066823,0.07802970262575915,0.5398584789322689,0,-1,0.09968216717243195,-1.6179044882403772,-0.8350814024554651,-1.39130145708193,0.6812541484832764,0.21605610847473145
4650,1734172531,635470867,-0.6116412966075678,0.17524517417057361,1.1515362589001008,-0.7322289669142256,-0.41031456704158925,0.0781991327363087,0.5379289839044632,0,-1,0.10030422359704971,-1.618216339741842,-0.8400729338275355,-1.390186611806051,0.68541419506073,0.21736125648021698
4666,1734172531,651592016,-0.6142631971000575,0.17437313631613016,1.1484544149486622,-0.7325153404154545,-0.4123290914827503,0.07838875384081337,0.53596753599852,0,-1,0.10095062106847763,-1.618540112172262,-0.8451350370990198,-1.3891080061541956,0.6894895434379578,0.21866679191589355
4682,1734172531,667199134,-0.6168412686755765,0.17350816908381403,1.145366960013497,-0.7327899526473856,-0.41430770224548746,0.07854137594818472,0.534040509159439,0,-1,0.10157305002212524,-1.6188038031207483,-0.8502457777606409,-1.3880294005023401,0.6936136484146118,0.21994835138320923
4698,1734172531,683339118,-0.6194489534164682,0.17264692261962192,1.1422143123667814,-0.7330729796056308,-0.41631152381479214,0.07866376829150598,0.5320721128468475,0,-1,0.10218311846256256,-1.6190794149981897,-0.8553684393512171,-1.3869388739215296,0.6976290941238403,0.22126586735248566
4714,1734172531,699461460,-0.6220282907083672,0.17174858504327012,1.139104590950728,-0.7333284321816076,-0.4183361019414211,0.07879754184999552,0.5301087282481968,0,-1,0.10276959836483002,-1.6194399038897913,-0.8602994124041956,-1.385871712361471,0.701789140701294,0.22253544628620148
4730,1734172531,715621232,-0.6245659229956265,0.1708761444331292,1.1360164570322795,-0.7336028606487961,-0.4202890752136643,0.07892348400671756,0.5281619257161455,0,-1,0.10335570573806763,-1.6197755972491663,-0.8651950995074671,-1.384733025227682,0.7057809829711914,0.2238290011882782
4746,1734172531,731254816,-0.6270642788471472,0.17000791907486898,1.132938352612132,-0.7338856744004258,-0.42220739984226374,0.07910055862202695,0.5262089224385598,0,-1,0.10400247573852539,-1.6200874487506312,-0.8701971212970179,-1.3836420218097132,0.7098807096481323,0.22507460415363312
4762,1734172531,747399091,-0.6295890416792264,0.16913496533588823,1.1297632936676847,-0.7341602026418275,-0.4241610199873359,0.07919686226717204,0.5242366669618298,0,-1,0.1046009361743927,-1.6203630606280726,-0.8752601782428187,-1.3825390974627894,0.7139444947242737,0.22639212012290955
4778,1734172531,763541460,-0.6320480887132387,0.16824953779888963,1.126615157329201,-0.7344281554684169,-0.4261588231006621,0.07932274199573429,0.5222181963039926,0,-1,0.10521101206541061,-1.620650593434469,-0.8804305235492151,-1.3814848105060022,0.718092143535614,0.2276257574558258
4794,1734172531,779853343,-0.6345462022856259,0.16737097377069612,1.1233839867928477,-0.7347112266797816,-0.42812153799592984,0.07936433022582541,0.5202044455620272,0,-1,0.10577352344989777,-1.6209266821490687,-0.8855050245868128,-1.380441967641012,0.7221802473068237,0.22889496386051178
4810,1734172531,795292615,-0.6369573300243363,0.16650573564117488,1.1202419541674118,-0.7349924378709831,-0.4300585084633996,0.07949234795429559,0.5181860304827005,0,-1,0.10638396441936493,-1.6212142149554651,-0.8904364744769495,-1.3793628851519983,0.7263039946556091,0.23015254735946655
4826,1734172531,811414718,-0.6393639080759618,0.16560290317877158,1.1170848988211044,-0.7352576826060083,-0.4319914418142987,0.0796270863519426,0.5161773546826186,0,-1,0.10695846378803253,-1.62152606645693,-0.895355526600973,-1.378308121358053,0.7304396629333496,0.23148205876350403
4842,1734172531,827531337,-0.6417949065259214,0.16470778804023886,1.1139049291040388,-0.7355528069836752,-0.43392203118685735,0.07977760512640011,0.5141101756524612,0,-1,0.10755692422389984,-1.621826473866598,-0.9003227392779749,-1.3772051970111292,0.7345513701438904,0.23272766172885895
4858,1734172531,843626022,-0.6441569150242151,0.16384712700952714,1.1106952032152024,-0.7358515388740654,-0.4358011042953017,0.07986976600576412,0.5120749268513837,0,-1,0.10816699266433716,-1.6221259276019495,-0.9054330031024378,-1.3762100378619593,0.7386514544487,0.23405715823173523
4874,1734172531,859219789,-0.6465170633694393,0.16296151752170754,1.1074523998824242,-0.7361388076969506,-0.4377119560323717,0.07991545057433899,0.5100209996738637,0,-1,0.10872950404882431,-1.622390095387594,-0.9105437437640589,-1.3751075903521937,0.742739200592041,0.23542261123657227
4890,1734172531,875639438,-0.6488281179017594,0.1620815861961045,1.1042509006532946,-0.7364521605019628,-0.4395396918430334,0.08006008406424268,0.5079699376204747,0,-1,0.10932834446430206,-1.622617546712057,-0.9155824820147913,-1.373993221913473,0.7466835379600525,0.23681166768074036
4906,1734172531,891356468,-0.651127256468777,0.1611835794342299,1.101024007510988,-0.7367410343635806,-0.4413769703078044,0.0801476066342829,0.5059400947914497,0,-1,0.10990246385335922,-1.6229537169085901,-0.9205849806415003,-1.3729141394244593,0.7508555054664612,0.23809322714805603
4922,1734172531,907586097,-0.6535208534207908,0.16029452758750842,1.097685489174289,-0.7370358112195077,-0.4432945066778708,0.08014514889958178,0.503830277412036,0,-1,0.11054886132478714,-1.6232293287860315,-0.925636116658346,-1.371871296559469,0.7549312710762024,0.2393987625837326
4938,1734172531,923351526,-0.6557583308049948,0.1594151136963797,1.094503940064259,-0.7373366561048159,-0.4450819288506263,0.08027257227962203,0.5017898427772203,0,-1,0.1111469492316246,-1.6235054175006312,-0.9305432478534144,-1.3707087675677698,0.7590073943138123,0.24070428311824799
4954,1734172531,939632177,-0.6579878702289789,0.158499776391095,1.0912856135610713,-0.7376152931846681,-0.4469161663788703,0.08039364100564969,0.49972640712210176,0,-1,0.11175777018070221,-1.6238287130938929,-0.9355462233172815,-1.3696296850787562,0.7631075382232666,0.24200981855392456
4970,1734172531,955414056,-0.6602271195480244,0.15759481150556523,1.0879958495391524,-0.7378994489671699,-0.4487795066190954,0.08043448886189032,0.49762601484869623,0,-1,0.11234425008296967,-1.6240442434894007,-0.940704647694723,-1.3685272375689905,0.7672315835952759,0.24326741695404053
4986,1734172531,971514940,-0.6624506172641575,0.1566949066954368,1.0846773357656414,-0.7381873962294038,-0.4506329484167312,0.08047002438237377,0.49551376270008607,0,-1,0.11296630650758743,-1.6242969671832483,-0.9457672278033655,-1.367460076008932,0.771283745765686,0.24451301991939545
5002,1734172531,987695455,-0.6646475834231358,0.15576914119586222,1.0813702259301312,-0.7384706259291516,-0.4524831058160975,0.08053410362219773,0.49339074955312495,0,-1,0.1135767474770546,-1.6245725790606897,-0.9508298079120081,-1.3663814703570765,0.7754078507423401,0.24584214389324188
5018,1734172532,3272771,-0.666818533262155,0.15488465786523709,1.0780698954034131,-0.7387864454984047,-0.4542622089532156,0.08057920916802865,0.491271233143803,0,-1,0.1141628548502922,-1.6248486677752894,-0.9557731787310999,-1.365314785634176,0.7795318961143494,0.24719561636447906
5034,1734172532,19548654,-0.6689837888225453,0.15396416783894473,1.074779540659624,-0.7390698274344544,-0.4560712308563631,0.0806467709830165,0.4891532693248411,0,-1,0.11478565633296967,-1.6251838842975062,-0.9607165495501917,-1.3642123381244105,0.7835724353790283,0.24845321476459503
5050,1734172532,35659790,-0.671077795851746,0.15303476494382878,1.0715574026744543,-0.7393570122227029,-0.4578212617065474,0.08076750810389155,0.4870600686170349,0,-1,0.11539573222398758,-1.625387970601217,-0.9656952063189905,-1.3631332556353968,0.7876362204551697,0.24978308379650116
5066,1734172532,51152229,-0.6732299843740182,0.15215758807971377,1.0681515439068847,-0.7396871405410745,-0.45957727296200895,0.08075468616771526,0.48490240766253734,0,-1,0.1160421296954155,-1.6256397406207483,-0.9708059469806116,-1.3620665709124964,0.7917723059654236,0.25113654136657715
5082,1734172532,67178249,-0.675327190905229,0.15122105720210818,1.0647744412317295,-0.7399701236274598,-0.46141565125054895,0.08078012615365482,0.48271563486010394,0,-1,0.1166405901312828,-1.6258795897113245,-0.9759405295001429,-1.3609636465655726,0.7959926128387451,0.2524420917034149
5098,1734172532,83258628,-0.6773666656730029,0.15030270839306173,1.0614273119370183,-0.7402642631691497,-0.4632120532459142,0.08083250154798885,0.48053045803136624,0,-1,0.11723867803812027,-1.6261194388019007,-0.9810150305377405,-1.3599088827716272,0.8000447750091553,0.25371167063713074
5114,1734172532,99393844,-0.6794286583553272,0.1493778983377524,1.0580862142867393,-0.7405618994840687,-0.46495887735544045,0.08085877435599297,0.47837555749699745,0,-1,0.11786148697137833,-1.626383129750387,-0.9858983198748987,-1.3588421980487269,0.8041452765464783,0.25496888160705566
5130,1734172532,115230798,-0.6814068766714145,0.1484637976626465,1.0548220439175628,-0.7408535370251805,-0.4666769251389188,0.0809492013613558,0.47623094294588014,0,-1,0.11849552392959595,-1.62669545808901,-0.990793530141012,-1.3576677481280726,0.808317244052887,0.25629839301109314
5146,1734172532,131381750,-0.6834451828149968,0.14755303616006366,1.051444938448668,-0.7411567753274221,-0.4684131613229037,0.08098911954244076,0.4740427271897342,0,-1,0.1190820038318634,-1.6269834677325647,-0.9958322683917444,-1.3565648237811487,0.8124057650566101,0.2575799524784088
5162,1734172532,147575139,-0.6854505803039739,0.14662247366824613,1.0480595021988819,-0.7414433161857906,-0.47016966866207655,0.08097768180923591,0.4718526322936146,0,-1,0.11965649574995041,-1.6272109190570276,-1.0009310881244105,-1.3555100599872034,0.8164938688278198,0.25880157947540283
5178,1734172532,163420677,-0.6874685223542022,0.14571513161106844,1.0445880639662455,-0.7417361964188142,-0.47191939195876575,0.0808893145176869,0.4696556410949174,0,-1,0.12025458365678787,-1.6274870077716272,-1.0060179869281214,-1.3544071356402796,0.8205104470252991,0.2600591778755188
5194,1734172532,179151773,-0.6894261028961588,0.1448038610659298,1.0411825085066249,-0.7420384076987232,-0.47363561746246735,0.08089697531211074,0.4674440958619997,0,-1,0.12085342407226562,-1.6277983824359339,-1.0111168066607874,-1.353316609059469,0.824646532535553,0.2613767087459564
5210,1734172532,195275306,-0.6913759263025452,0.14387910153236183,1.0377459678147638,-0.742332001168128,-0.47535293745740187,0.08085697021498048,0.46523642942056403,0,-1,0.12141555547714233,-1.6280739943133753,-1.0161078611956995,-1.3522856871234339,0.8287473917007446,0.2626822292804718
5226,1734172532,211523056,-0.6933041084704756,0.14301295068365508,1.034356026372977,-0.7426499179697856,-0.4769872955169027,0.08082906656508124,0.46305602388173184,0,-1,0.12201401591300964,-1.6284220854388636,-1.0209792296039026,-1.3511589209186,0.8328235149383545,0.2639634311199188
5242,1734172532,227507352,-0.6952231603497618,0.14209085707587787,1.0309378626064234,-0.7429681461714974,-0.4786535044832963,0.08081460660444438,0.46082334552376614,0,-1,0.1226244643330574,-1.6286619345294397,-1.0259583632098597,-1.3501046339618128,0.8368876576423645,0.26532888412475586
5258,1734172532,243157863,-0.6970547009213884,0.14113571347764223,1.0275773678793054,-0.7432593929397785,-0.4803140549829877,0.08085904105764838,0.4586127984169533,0,-1,0.12322292476892471,-1.628925625477926,-1.0310800711261194,-1.3490374724017542,0.8410364389419556,0.2666703462600708
5274,1734172532,259240627,-0.6989509579884698,0.14023622047204065,1.0240428766790286,-0.7436086777901534,-0.4819827916936098,0.08078861407591863,0.4563024464783271,0,-1,0.1237255185842514,-1.6292017141925257,-1.0362151304828089,-1.3479588667498987,0.8451125621795654,0.26801183819770813
5290,1734172532,275329351,-0.7008470338227746,0.1393330442570175,1.020477054630954,-0.7439303449173245,-0.48365125454023655,0.08067100138432017,0.4540278575467556,0,-1,0.12437154352664948,-1.6294177214251917,-1.0413382689105433,-1.3468921820269983,0.8491771221160889,0.26931774616241455
5306,1734172532,291424512,-0.7026517961213613,0.13841376954612886,1.0169919462912513,-0.7442340172258113,-0.4853119574070022,0.0805899123154692,0.4517668620369358,0,-1,0.12493442744016647,-1.6297295729266565,-1.0463045279132288,-1.3458498159991663,0.8533255457878113,0.2705989480018616
5322,1734172532,307544231,-0.7044606240668629,0.13750245150459747,1.0135671761747254,-0.7445498483320239,-0.48693709649998157,0.08056011856257192,0.4494973355851089,0,-1,0.12556883692741394,-1.6300771872149866,-1.0512483755694788,-1.3448064962970179,0.8574143648147583,0.2719404101371765
5338,1734172532,323139429,-0.7062545469229152,0.13658063979449572,1.0101007929127925,-0.744849917472714,-0.48855597728294237,0.08048808006241523,0.4472508540739375,0,-1,0.1261429637670517,-1.6303651968585413,-1.0561431089984339,-1.3437274138080042,0.8615384697914124,0.2731860280036926
5354,1734172532,339288234,-0.7080378347259413,0.13562252351191378,1.0066346459881779,-0.7451560228384143,-0.49018827075058,0.08047286769484324,0.44495177088214943,0,-1,0.12675340473651886,-1.6306408087359827,-1.061218563710348,-1.3425772825824183,0.865602970123291,0.27447956800460815
5370,1734172532,355393886,-0.709797306067154,0.13469605512393817,1.0031259068356295,-0.7454520862901095,-0.49180794348961837,0.08039025869161724,0.4426776932190397,0,-1,0.12738744914531708,-1.630892578755514,-1.066340748463766,-1.341522518788473,0.8697637319564819,0.2757970988750458
