yildirimyigit/pemp/data/ur10/raw/6_2024-12-14_13-37-03.csv
Time,ROS secs,ROS nsecs,________p_x________,________p_y________,________p_z________,________q_x________,________q_y________,________q_z________,________q_w________,gripper_position,gripper_force,shoulder_pan_joint,shoulder_lift_joint,elbow_joint,wrist_1_joint,wrist_2_joint,wrist_3_joint
0,1734172623,519315242,-0.00020925734585285698,0.256140997693922,1.4272999829950441,-0.7071067806959859,-3.7889611149564735e-05,-3.993104061181592e-06,0.7071067806506959,0,-1,-1.1746083394825746e-05,-1.570916000996725,-2.366701234990387e-05,-1.5706637541400355,5.992112710373476e-05,0.0
12,1734172623,535480260,-0.00023487562033022708,0.256140997208141,1.4272999791193086,-0.7071067798971968,-7.622608503844978e-05,-1.690719786055738e-05,0.7071067781651849,0,-1,-1.1746083394825746e-05,-1.5709403196917933,-5.990663637334137e-05,-1.5706518332110804,5.992112710373476e-05,-2.366701234990387e-05
28,1734172623,551479339,-0.00013867610745865998,0.2561410001369687,1.4272999923112792,-0.707106780640915,-2.9291654375507856e-05,4.604853352815809e-06,0.7071067811104876,0,-1,-2.366701234990387e-05,-1.570916000996725,-2.366701234990387e-05,-1.5706761519061487,3.5952674807049334e-05,-1.1746083394825746e-05
43,1734172623,566715955,-0.0002193557753074937,0.25614099482050634,1.4272999818544458,-0.7071067793007003,-7.591128888195006e-05,-8.118274760635773e-06,0.7071067789510722,0,-1,3.5952674807049334e-05,-1.57092792192568,-1.1746083394825746e-05,-1.5706761519061487,8.388957940042019e-05,-1.1746083394825746e-05
60,1734172623,582811832,-0.00021823611556869046,0.2561410054200481,1.4272999799746258,-0.707106780905817,-4.231232201033249e-05,-3.362504674784152e-05,0.7071067794018359,0,-1,1.1984225238848012e-05,-1.5709403196917933,-3.5587941304981996e-05,-1.5706761519061487,3.5952674807049334e-05,-2.366701234990387e-05
75,1734172623,599216938,-0.00019008476427040258,0.2561409954360146,1.4272999870936638,-0.707106779386863,-7.155039687262224e-05,4.7167474065187165e-06,0.7071067793504962,0,-1,0.0,-1.57092792192568,-4.7985707418263246e-05,-1.5706637541400355,0.00011984225420746952,-1.1746083394825746e-05
92,1734172623,614871025,-0.00015673286288733543,0.2561410001833154,1.4272999902314707,-0.7071067806143988,-4.1913329987446856e-05,-1.6490949825397902e-05,0.7071067803242038,0,-1,-2.366701234990387e-05,-1.57092792192568,-5.990663637334137e-05,-1.5706880728351038,7.190534961409867e-05,-2.366701234990387e-05
107,1734172623,631192922,-0.00018678331866018726,0.2561410022890225,1.4272999856484532,-0.7071067809584187,-5.0617862179494045e-05,-1.65529620880497e-05,0.7071067794092023,0,-1,1.1984225238848012e-05,-1.57092792192568,-5.990663637334137e-05,-1.5706999937640589,3.5952674807049334e-05,-1.1746083394825746e-05
124,1734172623,646993637,-0.00018803346093530256,0.25614100223087627,1.4272999858903295,-0.7071067806070521,-5.890102212713245e-05,-1.6361997027131026e-05,0.7071067791235528,0,-1,1.1984225238848012e-05,-1.57092792192568,-7.18275653284195e-05,-1.5706999937640589,9.58738019107841e-05,-3.5587941304981996e-05
140,1734172623,662890911,-0.00021802844054589219,0.2561409873998821,1.4272999840649068,-0.7071067780631215,-7.61470124291858e-05,1.706838309851859e-05,0.7071067800039074,0,-1,3.5952674807049334e-05,-1.5709646383868616,-5.990663637334137e-05,-1.5706518332110804,4.793690095539205e-05,-1.1746083394825746e-05
156,1734172623,679053783,-0.00017242902547219617,0.2561410001369687,1.427299988433337,-0.7071067808122485,-4.1935708923498956e-05,-8.039201189318423e-06,0.7071067802716264,0,-1,3.5952674807049334e-05,-1.5709040800677698,-8.374849428349762e-05,-1.5706637541400355,8.388957940042019e-05,-1.1746083394825746e-05
171,1734172623,695207834,-0.0002286505235202588,0.2561409945977256,1.4272999805428677,-0.7071067791317301,-8.029456111017277e-05,-1.2501547003015167e-05,0.7071067785719816,0,-1,2.3968450477696024e-05,-1.5709527174579065,-8.374849428349762e-05,-1.5706880728351038,7.190534961409867e-05,-2.366701234990387e-05
187,1734172623,710932254,-0.00014830190063900634,0.2561410000045496,1.4272999914700477,-0.7071067806352126,-2.9398228204581116e-05,2.1446532100029966e-05,0.7071067808015248,0,-1,-1.1746083394825746e-05,-1.5709403196917933,-2.366701234990387e-05,-1.5706999937640589,8.388957940042019e-05,-1.1746083394825746e-05
203,1734172623,727245569,-0.00020787312895300856,0.25614100246391464,1.4272999827408503,-0.7071067809421948,-4.6425554987113636e-05,-3.886529891879759e-06,0.7071067798961693,0,-1,2.3968450477696024e-05,-1.57092792192568,1.1920928955078125e-05,-1.5706880728351038,5.992112710373476e-05,-1.1746083394825746e-05
220,1734172623,743022918,-0.00016446376362570458,0.25614100202685514,1.427299988921749,-0.7071067812590391,-4.218849248564455e-05,-8.123592400041693e-06,0.7071067798088346,0,-1,2.3968450477696024e-05,-1.570916000996725,-2.366701234990387e-05,-1.5706279913531702,7.190534961409867e-05,0.0
235,1734172623,758754253,-0.00013566745390071968,0.2561410017481999,1.4272999923112792,-0.7071067806313331,-2.9522059010029505e-05,-3.931286501959174e-06,0.7071067811145532,0,-1,3.5952674807049334e-05,-1.57092792192568,-3.5587941304981996e-05,-1.5706637541400355,8.388957940042019e-05,-4.7985707418263246e-05
252,1734172623,775009393,-0.00021153686578686878,0.2561409976666037,1.4272999822820158,-0.7071067797012955,-5.896303537591937e-05,-2.5066528295668117e-05,0.7071067797691472,0,-1,5.992112710373476e-05,-1.5709040800677698,-7.18275653284195e-05,-1.5706761519061487,8.388957940042019e-05,-1.1746083394825746e-05
267,1734172623,790976285,-0.0002321171173982225,0.2561409972411995,1.4272999795425263,-0.7071067801495228,-6.779671536836373e-05,-8.47782816419147e-06,0.7071067789226081,0,-1,0.0,-1.570916000996725,-2.366701234990387e-05,-1.5706637541400355,5.992112710373476e-05,0.0
283,1734172623,807088851,-0.00017819505597886122,0.25614099780134114,1.427299987853217,-0.7071067802016164,-5.905255112289291e-05,8.740466245298106e-06,0.7071067796516332,0,-1,2.3968450477696024e-05,-1.5709403196917933,-4.7985707418263246e-05,-1.5706761519061487,7.190534961409867e-05,-3.5587941304981996e-05
299,1734172623,822835206,-0.00016149682650111284,0.2561409999184771,1.4272999897767493,-0.7071067802688127,-2.91902037913483e-05,3.01286866515022e-05,0.7071067808599117,0,-1,1.1984225238848012e-05,-1.570916000996725,-4.7985707418263246e-05,-1.5706761519061487,7.190534961409867e-05,-3.5587941304981996e-05
316,1734172623,839219093,-0.00020270739187303727,0.25614099306098576,1.4272999850191692,-0.7071067798912469,-5.479310744332713e-05,-3.9483471585434954e-06,0.7071067803478888,0,-1,1.1984225238848012e-05,-1.570916000996725,-7.18275653284195e-05,-1.5706518332110804,7.190534961409867e-05,-3.5587941304981996e-05
332,1734172623,854981422,-0.0001823506284837614,0.2561410044648105,1.42729998580447,-0.7071067800381172,-5.9215819271914065e-05,-3.3580288840258915e-05,0.7071067790581397,0,-1,1.1984225238848012e-05,-1.5709527174579065,-2.366701234990387e-05,-1.5706880728351038,8.388957940042019e-05,-1.1746083394825746e-05
348,1734172623,871766567,-0.00019791822050308766,0.2561409999184771,1.4272999847566077,-0.7071067808963396,-5.4815487654613653e-05,4.503402781217646e-06,0.7071067793377445,0,-1,1.1984225238848012e-05,-1.570916000996725,-2.366701234990387e-05,-1.5706518332110804,9.58738019107841e-05,-3.5587941304981996e-05
364,1734172623,886989831,-0.00016193424301035934,0.25614100606207657,1.4272999885426403,-0.7071067812444685,-2.9353471616322186e-05,-2.062143848615388e-05,0.707106780218672,0,-1,-2.366701234990387e-05,-1.57092792192568,-1.1746083394825746e-05,-1.5706399122821253,8.388957940042019e-05,-3.5587941304981996e-05
379,1734172623,902943134,-0.00022445759905340726,0.2561409946982235,1.4272999811081841,-0.7071067791173754,-7.186519143789709e-05,-4.072177298320278e-06,0.7071067795920661,0,-1,-3.5587941304981996e-05,-1.5709403196917933,-1.1746083394825746e-05,-1.5706761519061487,8.388957940042019e-05,-7.18275653284195e-05
395,1734172623,919060945,-0.00018866869916268913,0.25614099783472566,1.4272999860717606,-0.7071067807562208,-4.198046647584923e-05,8.86429575641652e-06,0.7071067803151365,0,-1,1.1984225238848012e-05,-1.57092792192568,-4.7985707418263246e-05,-1.5706518332110804,5.992112710373476e-05,0.0
411,1734172623,934914588,-0.00018991884143798265,0.2561409977469131,1.4272999863516804,-0.7071067803524844,-5.026362642510487e-05,9.055260806727425e-06,0.7071067801761721,0,-1,0.0,-1.5709403196917933,-1.1746083394825746e-05,-1.5706637541400355,4.793690095539205e-05,-4.7985707418263246e-05
427,1734172623,950953722,-0.00022276719913587886,0.256140997353251,1.4272999809389955,-0.7071067798544673,-6.745954058675782e-05,-8.140653367265974e-06,0.7071067792538733,0,-1,2.3968450477696024e-05,-1.5709527174579065,-4.7985707418263246e-05,-1.5706999937640589,8.388957940042019e-05,-1.1746083394825746e-05
443,1734172623,966987848,-0.00016425141719559868,0.2561409963200383,1.4272999901188976,-0.7071067805006231,-4.617277206492552e-05,-3.802138058640021e-06,0.7071067803547512,0,-1,0.0,-1.570916000996725,-2.366701234990387e-05,-1.5706880728351038,8.388957940042019e-05,-3.5587941304981996e-05
459,1734172623,983294486,-0.00017301447977303132,0.2561409981282647,1.4272999885814097,-0.7071067809112124,-3.350633890680866e-05,3.9016818078684974e-07,0.7071067806679241,0,-1,1.1984225238848012e-05,-1.570916000996725,-5.990663637334137e-05,-1.5706761519061487,4.793690095539205e-05,-3.5587941304981996e-05
475,1734172623,998595952,-0.00016867280518651778,0.25614100207629487,1.4272999884018642,-0.7071067809917757,-3.780522025151182e-05,-3.740320157140432e-06,0.7071067803608054,0,-1,0.0,-1.5709040800677698,-1.1746083394825746e-05,-1.5706999937640589,9.58738019107841e-05,-5.990663637334137e-05
491,1734172624,14845848,-0.00022293312199042238,0.2561409946486904,1.4272999817875938,-0.7071067800006103,-7.610225648605953e-05,1.6488774035349022e-07,0.7071067782772187,0,-1,-1.1746083394825746e-05,-1.5709403196917933,-2.366701234990387e-05,-1.5706999937640589,7.190534961409867e-05,-3.5587941304981996e-05
507,1734172624,30760288,-0.00022499541815233705,0.2561409999184771,1.4272999802048403,-0.7071067807997714,-7.184281439444929e-05,-1.2523924006362969e-05,0.707106777812761,0,-1,1.1984225238848012e-05,-1.5709403196917933,-1.1746083394825746e-05,-1.5706637541400355,5.992112710373476e-05,-3.5587941304981996e-05
523,1734172624,46820640,-0.00018682217942273704,0.2561410046765741,1.4272999852713957,-0.7071067808363376,-3.8097637167528975e-05,-2.9410361906794126e-05,0.7071067798988157,0,-1,-1.1746083394825746e-05,-1.570916000996725,-3.5587941304981996e-05,-1.5706880728351038,5.992112710373476e-05,-1.1746083394825746e-05
540,1734172624,62735080,-0.00018774579308883515,0.25614099565097914,1.427299986656723,-0.7071067802339289,-3.7619572843521337e-05,2.169931631506942e-05,0.7071067808054973,0,-1,3.5952674807049334e-05,-1.570916000996725,-4.7985707418263246e-05,-1.570711914693014,7.190534961409867e-05,-3.5587941304981996e-05
555,1734172624,78718185,-0.00018966286302323775,0.2561410000045496,1.4272999860588604,-0.7071067806472886,-5.462452004498884e-05,-3.779759742153154e-06,0.707106779605812,0,-1,1.1984225238848012e-05,-1.57092792192568,-1.1746083394825746e-05,-1.5706999937640589,5.992112710373476e-05,-3.5587941304981996e-05
572,1734172624,94763755,-0.00016666186895737328,0.25614100211226287,1.4272999886355013,-0.7071067810424295,-2.9353471618662436e-05,-3.7626991006413396e-06,0.7071067807113925,0,-1,-1.1746083394825746e-05,-1.570916000996725,-3.5587941304981996e-05,-1.5706761519061487,7.190534961409867e-05,-5.990663637334137e-05
587,1734172624,110713481,-0.00019427390767737593,0.2561410000773801,1.4272999850327042,-0.7071067804596752,-5.038745755407105e-05,-8.016822243735556e-06,0.7071067800727039,0,-1,3.5952674807049334e-05,-1.570916000996725,-1.1746083394825746e-05,-1.5706637541400355,3.5952674807049334e-05,-4.7985707418263246e-05
604,1734172624,126846790,-0.00019650529134214244,0.25614100203244394,1.4272999849565855,-0.7071067809368958,-5.492206018676114e-05,1.303934503553942e-05,0.7071067791830337,0,-1,0.0,-1.5709403196917933,-4.7985707418263246e-05,-1.5706880728351038,7.190534961409867e-05,-4.7985707418263246e-05
619,1734172624,142745018,-0.00019843812023924987,0.2561409977772353,1.4272999850925245,-0.7071067797915844,-5.915400170979575e-05,-1.6783367052850393e-05,0.7071067799080266,0,-1,1.1984225238848012e-05,-1.5709040800677698,3.5762786865234375e-05,-1.5706999937640589,5.992112710373476e-05,-1.1746083394825746e-05
636,1734172624,158760786,-0.0001222649680160466,0.25614100465032874,1.4272999930539196,-0.7071067807947375,-2.5307374161749977e-05,-1.6575341052637716e-05,0.7071067809312097,0,-1,-1.1746083394825746e-05,-1.570916000996725,-3.5587941304981996e-05,-1.5706880728351038,7.190534961409867e-05,-3.5587941304981996e-05
652,1734172624,175069093,-0.00021209973078151697,0.2561410001369687,1.4272999822810293,-0.707106779434341,-6.77295801689044e-05,-3.383307242952874e-05,0.7071067788856372,0,-1,0.0,-1.5709527174579065,-3.5587941304981996e-05,-1.5706761519061487,3.5952674807049334e-05,-2.366701234990387e-05
667,1734172624,191287040,-0.00019273491228927387,0.25614099305537036,1.427299986971138,-0.707106779642199,-6.754905536612534e-05,2.5666340175795113e-05,0.7071067790386417,0,-1,2.3968450477696024e-05,-1.570916000996725,0.0,-1.5706880728351038,7.190534961409867e-05,-3.5587941304981996e-05
684,1734172624,207078695,-0.00021404610911854866,0.25614099508018995,1.4272999827162767,-0.7071067802549464,-5.0578423243278914e-05,2.663383397203242e-07,0.7071067803091942,0,-1,1.1984225238848012e-05,-1.5709403196917933,-5.990663637334137e-05,-1.5706880728351038,7.190534961409867e-05,-1.1746083394825746e-05
699,1734172624,223437070,-0.00018049667518197575,0.25614100426202996,1.4272999864765248,-0.7071067808942497,-6.330667457301947e-05,-2.0722889016272764e-05,0.7071067783412901,0,-1,3.5952674807049334e-05,-1.57092792192568,-4.7985707418263246e-05,-1.5706518332110804,4.793690095539205e-05,-1.1746083394825746e-05
716,1734172624,239017009,-0.0001403562799661618,0.256140998340882,1.427299992408025,-0.7071067790738563,-4.20646613194796e-05,1.725422583881233e-05,0.7071067818375472,0,-1,0.0,-1.5709527174579065,1.1920928955078125e-05,-1.5706399122821253,5.992112710373476e-05,-1.1746083394825746e-05
731,1734172624,255015134,-0.0001950941629875172,0.2561410000773801,1.4272999851664587,-0.7071067801307672,-5.493931718749801e-05,-1.2568681875539484e-05,0.7071067799963443,0,-1,2.3968450477696024e-05,-1.570916000996725,-4.7985707418263246e-05,-1.5706761519061487,5.992112710373476e-05,-2.366701234990387e-05
748,1734172624,271116256,-0.00022530656664234683,0.2561409972367462,1.4272999806530866,-0.7071067805061504,-6.76505081897955e-05,1.42509141657475e-07,0.7071067786307916,0,-1,-3.5587941304981996e-05,-1.570916000996725,-2.366701234990387e-05,-1.5706761519061487,1.1984225238848012e-05,-3.5587941304981996e-05
764,1734172624,286981344,-0.00016662357438816525,0.2561409962631813,1.427299989647637,-0.707106780393606,-3.7805219608294076e-05,4.565414407394228e-06,0.7071067809541294,0,-1,-1.1746083394825746e-05,-1.5709040800677698,-4.7985707418263246e-05,-1.5706880728351038,7.190534961409867e-05,-5.990663637334137e-05
780,1734172624,302819728,-0.00020834050332797083,0.2561409950845253,1.4272999837149356,-0.7071067800023563,-5.8883962125001975e-05,8.909052023129566e-06,0.7071067798628486,0,-1,0.0,-1.5709403196917933,-7.18275653284195e-05,-1.5706637541400355,5.992112710373476e-05,-1.1746083394825746e-05
796,1734172624,319275856,-0.00020655059851971326,0.2561410047793341,1.4272999820854635,-0.7071067807996368,-5.894577999200339e-05,-7.887869435978171e-06,0.7071067790725463,0,-1,0.0,-1.5709403196917933,-3.5587941304981996e-05,-1.5706637541400355,4.793690095539205e-05,-2.366701234990387e-05
812,1734172624,335203886,-0.00020173462939346564,0.256140995057471,1.4272999853234154,-0.7071067799275071,-5.471403514709009e-05,3.0027234137590808e-05,0.7071067796912228,0,-1,1.1984225238848012e-05,-1.57092792192568,-1.1746083394825746e-05,-1.5706880728351038,7.190534961409867e-05,-1.1746083394825746e-05
828,1734172624,351358890,-0.00019288427169084627,0.2561410001833154,1.4272999852713957,-0.7071067806104469,-4.208191738131822e-05,-1.665953721927003e-05,0.7071067803141908,0,-1,-2.366701234990387e-05,-1.570916000996725,-2.366701234990387e-05,-1.570711914693014,7.190534961409867e-05,-3.5587941304981996e-05
844,1734172624,367019891,-0.00021878111395518408,0.2561409924367457,1.4272999822037304,-0.7071067796465409,-6.30762686740735e-05,-3.757380829966227e-06,0.7071067799032651,0,-1,3.5952674807049334e-05,-1.5708802382098597,-3.5587941304981996e-05,-1.5706880728351038,5.992112710373476e-05,-2.366701234990387e-05
860,1734172624,383237838,-0.00018910245525417788,0.2561409999184771,1.4272999863141687,-0.707106780792412,-4.6386117969050184e-05,1.2932772477688382e-05,0.707106779940953,0,-1,3.5952674807049334e-05,-1.5709403196917933,-3.5587941304981996e-05,-1.5706999937640589,8.388957940042019e-05,-4.7985707418263246e-05
876,1734172624,398937702,-0.00020687310798153487,0.2561410000045496,1.4272999835995572,-0.7071067794199603,-7.198902160017855e-05,-2.114426128677825e-05,0.707106778972478,0,-1,2.3968450477696024e-05,-1.570916000996725,-4.7985707418263246e-05,-1.5706761519061487,8.388957940042019e-05,-4.7985707418263246e-05
892,1734172624,415046215,-0.0001997178665158368,0.2561410048030106,1.4272999836075566,-0.7071067805910078,-5.923819691465453e-05,-2.512854149033355e-05,0.7071067788542355,0,-1,5.992112710373476e-05,-1.57092792192568,-2.366701234990387e-05,-1.5706518332110804,7.190534961409867e-05,-5.990663637334137e-05
907,1734172624,430854797,-0.00018355507898818374,0.2561409979555971,1.4272999870546088,-0.7071067790361709,-6.758337139094252e-05,-2.5212736738395868e-05,0.7071067796577103,0,-1,1.1984225238848012e-05,-1.570916000996725,-5.990663637334137e-05,-1.5706880728351038,2.3968450477696024e-05,-4.7985707418263246e-05
924,1734172624,447266101,-0.0002192282616613142,0.2561410025112205,1.4272999806530866,-0.7071067791597656,-8.050258873777745e-05,-2.9489433469444426e-05,0.7071067780158871,0,-1,4.793690095539205e-05,-1.57092792192568,-4.7985707418263246e-05,-1.5706761519061487,7.190534961409867e-05,-3.5587941304981996e-05
940,1734172624,463109016,-0.0002137467570790564,0.25614099753418457,1.427299982125445,-0.7071067795442836,-6.743716293765891e-05,-1.659240071269073e-05,0.7071067794183798,0,-1,1.1984225238848012e-05,-1.5709646383868616,-2.366701234990387e-05,-1.5706880728351038,4.793690095539205e-05,-2.366701234990387e-05
956,1734172624,478867769,-0.0002043318288104786,0.25614099518060707,1.4272999846530594,-0.7071067809428965,-5.4877303287834276e-05,1.2915710821947065e-05,0.707106779182777,0,-1,4.793690095539205e-05,-1.570916000996725,-1.1746083394825746e-05,-1.5706399122821253,7.190534961409867e-05,-4.7985707418263246e-05
972,1734172624,495206356,-0.00015945285738683815,0.25614099811202434,1.42729999054091,-0.707106780297442,-4.200284412316236e-05,1.7316043109062505e-05,0.7071067806161251,0,-1,1.1984225238848012e-05,-1.57092792192568,0.0,-1.5706880728351038,7.190534961409867e-05,-5.990663637334137e-05
988,1734172624,511114835,-0.00017762197095164264,0.25614100224100117,1.4272999872890042,-0.7071067801335501,-5.481016809710739e-05,-2.9219395561483582e-05,0.7071067795115782,0,-1,2.3968450477696024e-05,-1.570916000996725,-7.18275653284195e-05,-1.5706761519061487,4.793690095539205e-05,-3.5587941304981996e-05
1004,1734172624,527439594,-0.00023836480379248024,0.25614099449730854,1.4272999784602955,-0.7071067796345532,-6.339106516719367e-05,-1.2546303598427736e-05,0.7071067797857794,0,-1,1.1984225238848012e-05,-1.570916000996725,-7.18275653284195e-05,-1.5706880728351038,8.388957940042019e-05,-1.1746083394825746e-05
1020,1734172624,543046951,-0.0002226588158289556,0.25614099455595074,1.4272999819109846,-0.7071067790416609,-8.455400381944528e-05,1.872654252492543e-07,0.7071067782760346,0,-1,2.3968450477696024e-05,-1.5709403196917933,-7.18275653284195e-05,-1.5706518332110804,8.388957940042019e-05,-4.7985707418263246e-05
1035,1734172624,559319972,-0.0002311347209589743,0.25614099445211075,1.4272999802048403,-0.7071067803475228,-7.61640737139416e-05,1.0307047880456135e-07,0.7071067779236622,0,-1,0.0,-1.5709040800677698,-5.990663637334137e-05,-1.5706637541400355,7.190534961409867e-05,-2.366701234990387e-05
1052,1734172624,575052261,-0.00014883218521352393,0.2561409983121354,1.4272999915283788,-0.7071067803816726,-2.922964177053371e-05,2.1615120457121466e-05,0.7071067810569205,0,-1,3.5952674807049334e-05,-1.5709040800677698,-1.1746083394825746e-05,-1.5706637541400355,4.793690095539205e-05,-2.366701234990387e-05
1067,1734172624,591281414,-0.000150688507026659,0.25614099475243796,1.4272999922458425,-0.7071067797289374,-4.63241031113645e-05,2.9943037321491158e-05,0.7071067804927795,0,-1,0.0,-1.5709403196917933,-4.7985707418263246e-05,-1.5706880728351038,4.793690095539205e-05,-1.1746083394825746e-05
1084,1734172624,607385635,-0.0001986129212041846,0.2561410048496904,1.427299983686369,-0.7071067815115878,-4.218849247663779e-05,-1.6552962088049693e-05,0.7071067794092022,0,-1,2.3968450477696024e-05,-1.57092792192568,-1.1746083394825746e-05,-1.5706637541400355,3.5952674807049334e-05,-4.7985707418263246e-05
1100,1734172624,622970581,-0.00017861455843234402,0.2561409978823862,1.4272999880753587,-0.7071067803072779,-5.8861583507579736e-05,4.573037152456164e-07,0.7071067796157663,0,-1,0.0,-1.57092792192568,-7.18275653284195e-05,-1.5706880728351038,4.793690095539205e-05,-3.5587941304981996e-05
1116,1734172624,639051914,-0.00018730777510079705,0.2561410001369687,1.4272999858701103,-0.7071067810123507,-4.210429631374746e-05,-8.207788586848295e-06,0.7071067800595692,0,-1,-1.1746083394825746e-05,-1.57092792192568,-1.1746083394825746e-05,-1.5706999937640589,5.992112710373476e-05,-4.7985707418263246e-05
1132,1734172624,655289888,-0.00018495044752189869,0.2561409979388746,1.4272999865961304,-0.7071067806546328,-3.336013044816871e-05,9.010504214294317e-06,0.7071067808741148,0,-1,2.3968450477696024e-05,-1.5709527174579065,-3.5587941304981996e-05,-1.5706637541400355,5.992112710373476e-05,-1.1746083394825746e-05
1147,1734172624,671199083,-0.00020313220864681827,0.25614099750248864,1.4272999847132428,-0.7071067801545485,-6.74819208047508e-05,3.110965483369883e-07,0.7071067789984484,0,-1,0.0,-1.570916000996725,-1.1746083394825746e-05,-1.5706880728351038,7.190534961409867e-05,0.0
1163,1734172624,686877250,-0.0001927141873375804,0.2561409953729914,1.427299986445157,-0.7071067794924142,-5.873775494653843e-05,1.7529389344511456e-05,0.7071067802237954,0,-1,0.0,-1.5709527174579065,-5.990663637334137e-05,-1.5706999937640589,3.5952674807049334e-05,-4.7985707418263246e-05
1180,1734172624,703060626,-0.0001543779331401757,0.25614099469262375,1.4272999915147286,-0.7071067797432651,-4.185663597320642e-05,2.5936379457545033e-05,0.7071067809153266,0,-1,2.3968450477696024e-05,-1.5709040800677698,-3.5587941304981996e-05,-1.5706637541400355,4.793690095539205e-05,-3.5587941304981996e-05
1195,1734172624,718838691,-0.00022904746597778578,0.2561410000045496,1.4272999795425263,-0.7071067805430739,-6.355965190655771e-05,-1.2714891617276344e-05,0.7071067788591135,0,-1,2.3968450477696024e-05,-1.5709403196917933,-2.366701234990387e-05,-1.5706999937640589,7.190534961409867e-05,-3.5587941304981996e-05
1212,1734172624,735094547,-0.0001589244264309847,0.2561409981183572,1.4272999904370298,-0.7071067800334014,-4.604894157419079e-05,1.3269945654944362e-05,0.7071067807157546,0,-1,1.1984225238848012e-05,-1.570916000996725,-4.7985707418263246e-05,-1.5706761519061487,7.190534961409867e-05,-7.18275653284195e-05
1228,1734172624,751009464,-0.00013537251816483713,0.2561410034125676,1.4272999921748832,-0.7071067813421071,-2.0924101916315605e-05,-3.762699100641341e-06,0.7071067807113925,0,-1,4.793690095539205e-05,-1.5709040800677698,-2.366701234990387e-05,-1.5706637541400355,3.5952674807049334e-05,-4.7985707418263246e-05
1243,1734172624,767380475,-0.00015746982417715922,0.25614099795040257,1.4272999908075774,-0.7071067788984963,-4.626228681047371e-05,3.0004855511422778e-05,0.7071067813246473,0,-1,3.5952674807049334e-05,-1.570916000996725,-3.5587941304981996e-05,-1.5706637541400355,7.190534961409867e-05,-2.366701234990387e-05
1260,1734172624,782863378,-0.0001574881519440533,0.2561409999184771,1.4272999905284844,-0.7071067800821721,-4.621753057509067e-05,1.3101359871426018e-05,0.7071067806591285,0,-1,1.1984225238848012e-05,-1.570916000996725,-2.366701234990387e-05,-1.5706637541400355,4.793690095539205e-05,-2.366701234990387e-05
1276,1734172624,799155712,-0.00017018116552905597,0.25614100215360086,1.4272999878842196,-0.7071067807447767,-4.638079840364465e-05,-2.079002587744229e-05,0.707106779801576,0,-1,1.1984225238848012e-05,-1.57092792192568,-3.5587941304981996e-05,-1.5706880728351038,7.190534961409867e-05,-2.366701234990387e-05
1291,1734172624,814992189,-0.00021874019752667517,0.2561409947491883,1.4272999823929529,-0.7071067797988444,-6.750429942464516e-05,8.762844852540463e-06,0.707106779297788,0,-1,1.1984225238848012e-05,-1.57092792192568,-3.5587941304981996e-05,-1.5706518332110804,5.992112710373476e-05,-3.5587941304981996e-05
1307,1734172624,831129789,-0.00019007059867610972,0.2561410001833154,1.427299985451403,-0.7071067809477625,-2.926927544191936e-05,-3.84689528205009e-06,0.7071067808090967,0,-1,2.3968450477696024e-05,-1.570916000996725,-1.1746083394825746e-05,-1.5706518332110804,5.992112710373476e-05,-5.990663637334137e-05
1324,1734172624,846982955,-0.00017195816237220476,0.25614099595655365,1.42729998914516,-0.707106780036781,-5.4837864673699e-05,1.2955149479315241e-05,0.7071067800912307,0,-1,-3.5587941304981996e-05,-1.570916000996725,-5.990663637334137e-05,-1.5706999937640589,4.793690095539205e-05,-7.18275653284195e-05
1339,1734172624,863119840,-0.00023237069795809838,0.2561410001369687,1.4272999787725997,-0.7071067806622243,-5.053366600704802e-05,-1.6637158278419956e-05,0.7071067797094428,0,-1,1.1984225238848012e-05,-1.57092792192568,-7.18275653284195e-05,-1.5706518332110804,8.388957940042019e-05,-2.366701234990387e-05
1356,1734172624,879068374,-0.00018714422141673386,0.2561409977801648,1.4272999867541394,-0.7071067802439969,-6.324485574243486e-05,-3.925968527576568e-06,0.7071067792898347,0,-1,1.1984225238848012e-05,-1.570916000996725,-7.18275653284195e-05,-1.5706999937640589,5.992112710373476e-05,-3.5587941304981996e-05
1372,1734172624,895234584,-0.00022496174046960978,0.2561410023666958,1.4272999801779693,-0.7071067803008656,-8.45934414438097e-05,-1.6632036235004403e-05,0.7071067768165346,0,-1,0.0,-1.570916000996725,-2.366701234990387e-05,-1.5706761519061487,7.190534961409867e-05,-3.5587941304981996e-05
1388,1734172624,910905838,-0.0001789770672089225,0.2561410000773801,1.4272999874852828,-0.707106780995078,-3.77434030108713e-05,4.627232294676124e-06,0.7071067803555579,0,-1,2.3968450477696024e-05,-1.570916000996725,-4.7985707418263246e-05,-1.5706880728351038,7.190534961409867e-05,-5.990663637334137e-05
1404,1734172624,927080392,-0.00019734355910118259,0.2561409977307642,1.4272999850327042,-0.7071067804580804,-5.040983616978683e-05,4.3492606124017434e-07,0.7071067801180154,0,-1,-1.1746083394825746e-05,-1.5709403196917933,-4.7985707418263246e-05,-1.5706880728351038,7.190534961409867e-05,-2.366701234990387e-05
1419,1734172624,943079471,-0.0001881346611567708,0.256140989191151,1.4272999883630948,-0.7071067780691338,-7.597842503544625e-05,1.7236970492567605e-05,0.7071067800119403,0,-1,1.1984225238848012e-05,-1.570916000996725,-4.7985707418263246e-05,-1.5706880728351038,7.190534961409867e-05,-8.374849428349762e-05
1436,1734172624,959308385,-0.00011444886986752693,0.2561410001369687,1.4272999945555618,-0.7071067806434337,-1.647901242895883e-05,1.7417495292275827e-05,0.7071067813231265,0,-1,-2.366701234990387e-05,-1.570916000996725,-0.000119511281148732,-1.5706637541400355,7.190534961409867e-05,-2.366701234990387e-05
1452,1734172624,975445985,-0.00028464148805615227,0.2561409863560748,1.4272999670122295,-0.7071067772869747,-0.00011817002989836619,-8.00638208743216e-06,0.7071067751666439,0,-1,3.5952674807049334e-05,-1.5709040800677698,-0.00027496019472295075,-1.5706399122821253,0.0002037318336078897,0.0
1467,1734172624,990844249,-0.0004560972364135714,0.25614096780466056,1.4272998950197946,-0.7071067734477026,-0.00027093620639981173,1.7184093735796177e-05,0.7071067368104044,0,-1,4.793690095539205e-05,-1.570916000996725,-0.0006464163409631851,-1.5705798308001917,0.000550899829249829,4.793690095539205e-05
1484,1734172625,7389783,-0.0008524668156214746,0.2561408835088224,1.4272996015864663,-0.7071067780599134,-0.000533423755968846,7.671332900857526e-05,0.707106578951073,0,-1,0.00015579492901451886,-1.5708683172809046,-0.0013530890094202164,-1.5703757444964808,0.0010182845871895552,0.00016777915880084038
1500,1734172625,23499250,-0.0014720027527287904,0.2561405678454081,1.4272987089645353,-0.707106809974901,-0.0009437230679384476,0.00019948915896612988,0.7071060944992383,0,-1,0.0002872468903660774,-1.5708921591388147,-0.002370659505025685,-1.570148770009176,0.0018208532128483057,0.00044341632747091353
1516,1734172625,39718866,-0.002429834330865021,0.25613988563563483,1.4272964205489245,-0.7071069824789749,-0.0015573982254269427,0.00037337619535611266,0.7071047662337335,0,-1,0.0004906042013317347,-1.570916000996725,-0.0038436094867151382,-1.5698125998126429,0.003006542567163706,0.0008265370270237327
1532,1734172625,55210351,-0.0038422182051814106,0.2561380723432402,1.4272909402022176,-0.7071073483418597,-0.0024757319923302693,0.0005728249248301792,0.7071016479571034,0,-1,0.00075388269033283,-1.5710004011737269,-0.005903069172994435,-1.5694053808795374,0.004515805747359991,0.0012935473350808024
1548,1734172625,71258783,-0.005686534513260971,0.25613469471162986,1.4272802088247307,-0.7071081625727565,-0.0036572110505152474,0.00082291977964915,0.70709546316841,0,-1,0.0010171610629186034,-1.5710962454425257,-0.0083697477923792,-1.5688770453082483,0.00651604775339365,0.0019642894621938467
1564,1734172625,87580919,-0.0080067263358795,0.25612915102271056,1.4272607802819632,-0.7071098489776902,-0.005143277261399701,0.001115298918059937,0.7070841281531385,0,-1,0.0013763133902102709,-1.5712760130511683,-0.01133901277651006,-1.5683019796954554,0.008971690200269222,0.002730530919507146
1580,1734172625,103265523,-0.010739318271308437,0.2561199210108557,1.4272297081978655,-0.7071127844247007,-0.006882870089726041,0.0015097214881781892,0.707065666641722,0,-1,0.0017953867791220546,-1.571467701588766,-0.014859501515523732,-1.5676305929767054,0.011834422126412392,0.003664925927296281
1596,1734172625,119087219,-0.013933726545390733,0.2561060383258441,1.4271823290312513,-0.7071169604297926,-0.008931712473622296,0.0019165076427220945,0.70703759149233,0,-1,0.0022264444269239902,-1.5717557112323206,-0.018834892903463185,-1.566826645527975,0.015032712370157242,0.004658867605030537
1612,1734172625,135306596,-0.01747038146043954,0.2560855050955288,1.427115761766211,-0.7071230869999784,-0.01117931881181549,0.002446053488188055,0.7069978638474502,0,-1,0.00274064252153039,-1.572031323109762,-0.023193184529439748,-1.5659640471087855,0.018625732511281967,0.005844556726515293
1628,1734172625,151543617,-0.021394990954000527,0.2560579846490282,1.4270251729854393,-0.7071308074452732,-0.013676470010064274,0.0029714721161547644,0.7069442309569565,0,-1,0.0033151363022625446,-1.5723918120013636,-0.02787477174867803,-1.5649564901935022,0.022398890927433968,0.007042230572551489
1644,1734172625,167242527,-0.025508673096809008,0.2560229774528449,1.4269099233259412,-0.7071411491126561,-0.01626651627994626,0.0035560825228360712,0.7068763328594595,0,-1,0.003937567118555307,-1.5727151075946253,-0.03285581270326787,-1.5639613310443323,0.026459671556949615,0.008323418907821178
1660,1734172625,183541774,-0.029957302116695592,0.25597768513709335,1.4267639953113338,-0.7071533741939457,-0.01909734692085738,0.004127804268918066,0.7067901795714334,0,-1,0.004524045158177614,-1.5730508009540003,-0.038016621266500294,-1.5628584066974085,0.030747776851058006,0.009581013582646847
1676,1734172625,199409008,-0.03437978563417766,0.2559267449654813,1.4265931909134932,-0.707167467905921,-0.021965987494724806,0.004720109290307676,0.7066890322462897,0,-1,0.005218006670475006,-1.5733745733844202,-0.04338056245912725,-1.5617073217975062,0.03508419543504715,0.010910513810813427
1692,1734172625,215630531,-0.03902093262277094,0.25586371618465936,1.4263910427822033,-0.7071856138102718,-0.02487227154736399,0.005418142580123483,0.7065695446725997,0,-1,0.005948295351117849,-1.5737102667437952,-0.048851792012349904,-1.5605080763446253,0.039491768926382065,0.012359481304883957
1708,1734172625,231331348,-0.04359211646746147,0.25579275214684083,1.4261662388953722,-0.7072056001148457,-0.027760692410847772,0.006183715396408345,0.7064356621709916,0,-1,0.006594319827854633,-1.574010197316305,-0.054323975239888966,-1.5591891447650355,0.04404352605342865,0.013820807449519634
1724,1734172625,247721433,-0.048314141913107796,0.25571350957630024,1.4259077090370837,-0.7072285382558273,-0.030746193025784095,0.006876957836040636,0.7062826443725404,0,-1,0.007252703420817852,-1.574322525654928,-0.05993968645204717,-1.5579784552203577,0.04861925169825554,0.01530572772026062
1740,1734172625,263241052,-0.05296902595748886,0.25562693815668974,1.4256256698487813,-0.7072553441806794,-0.03370981871687887,0.00763290767950578,0.706112784879512,0,-1,0.007935055531561375,-1.5746343771563929,-0.06544715562929326,-1.5568035284625452,0.05314704403281212,0.016802633181214333
1756,1734172625,279343605,-0.05757942050952661,0.2555338496397252,1.4253192781956139,-0.707285122596759,-0.036646746540353506,0.008346450243409955,0.7059285431894853,0,-1,0.008557111024856567,-1.5748980681048792,-0.0708230177508753,-1.555591885243551,0.057675208896398544,0.018263958394527435
1772,1734172625,295090198,-0.06188464643598528,0.2554385571996155,1.425009910775958,-0.707314835522885,-0.03942264197377129,0.009109772734456437,0.7057397472083945,0,-1,0.009143589064478874,-1.575209919606344,-0.07595950761903936,-1.554453198109762,0.062071170657873154,0.01968933269381523
1787,1734172625,311365365,-0.06623547843552222,0.2553373341087187,1.4246748381246839,-0.707346800680917,-0.04221444942302046,0.009763092371526215,0.7055374730329548,0,-1,0.009754035621881485,-1.5754855314837855,-0.08106023470033819,-1.5533621946917933,0.06621584296226501,0.021030442789196968
1804,1734172625,327259540,-0.07037254398048742,0.25523502060232495,1.424334007206708,-0.7073795537649292,-0.04484499291999085,0.010424061094791208,0.7053328522588662,0,-1,0.010316545143723488,-1.5757253805743616,-0.08601695695985967,-1.5522826353656214,0.07027661800384521,0.02224010042846203
1820,1734172625,342946290,-0.07444389642729199,0.2551276064399691,1.423979851183713,-0.7074130206172897,-0.047411717064044956,0.011029648117346962,0.7051221838862882,0,-1,0.010831117630004883,-1.5760133902179163,-0.09084159532655889,-1.5512283484088343,0.07414565235376358,0.023557616397738457
1835,1734172625,358894586,-0.07839470069924101,0.25501684764919996,1.4236147509769927,-0.707445974012318,-0.049951856298479286,0.011609915175854198,0.7049044018700041,0,-1,0.011381643824279308,-1.5762413183795374,-0.09548741975893194,-1.5502327124225062,0.07791918516159058,0.024718962609767914
1852,1734172625,375334501,-0.08213085424620478,0.2549067658260295,1.4232542027703707,-0.7074790749441864,-0.052360760503213206,0.012193389473354703,0.7046864767602644,0,-1,0.011920559220016003,-1.5764573256122034,-0.09985715547670537,-1.5492613951312464,0.08158448338508606,0.025856714695692062
1868,1734172625,391008615,-0.08574780224144996,0.2547991157354225,1.4228847864445722,-0.7075157992537515,-0.05466746176914796,0.012725825798525978,0.7044649854945166,0,-1,0.012446741573512554,-1.5766852537738245,-0.10421592393984014,-1.5483382383929651,0.08514267951250076,0.02698248252272606
1883,1734172625,407339334,-0.08936025299480418,0.2546800550168097,1.4225062746368982,-0.7075498783146253,-0.05698586216946904,0.013287528596068571,0.7042366241495608,0,-1,0.012913751415908337,-1.5769127050982874,-0.10850173631776983,-1.5473912397967737,0.08861622959375381,0.028096267953515053
1900,1734172625,423481941,-0.09292216871740472,0.2545609351085564,1.4221127025479239,-0.7075869313112958,-0.05926137913746354,0.013849073079329002,0.7040007292290489,0,-1,0.01347626093775034,-1.5771287123309534,-0.11281186739076787,-1.5464556852923792,0.09221000224351883,0.0292340200394392
1916,1734172625,439053058,-0.09654909410097151,0.2544313135931386,1.4216984656173781,-0.7076239725288549,-0.06159970477205825,0.014422087381674054,0.7037512296756809,0,-1,0.014002818614244461,-1.5773327986346644,-0.11720592180360967,-1.5454123655902308,0.09580376744270325,0.0304080992937088
1932,1734172625,454970598,-0.10023206288157771,0.2542978513835526,1.4212553124734182,-0.7076634492564342,-0.06397060561621219,0.01496102577066873,0.7034887148430106,0,-1,0.014553343877196312,-1.5775602499591272,-0.12179118791689092,-1.5443576017962855,0.09946907311677933,0.031545475125312805
1948,1734172625,471141099,-0.10405519921021128,0.2541514518681732,1.4207841285004281,-0.7077055180193259,-0.06642028352330462,0.015536837137174284,0.7032068347175348,0,-1,0.015103869140148163,-1.5778124968158167,-0.12650853792299444,-1.543410603200094,0.10330252349376678,0.03271918371319771
1963,1734172625,487328290,-0.10801887316444761,0.25399734841327193,1.4202746114773748,-0.7077524544172686,-0.06894492498988601,0.01611119838565423,0.7029036134997808,0,-1,0.01570233143866062,-1.5780637899981897,-0.13138133684267217,-1.5423434416400355,0.10724383592605591,0.03395280987024307
1980,1734172625,502938985,-0.11216291174126033,0.2538339850505883,1.4197244567001686,-0.7078058846272584,-0.07157732153666972,0.016701713982389364,0.7025728214773974,0,-1,0.016288435086607933,-1.578423325215475,-0.13632613817323858,-1.5413358847247522,0.11132895946502686,0.0352703221142292
1995,1734172625,519271612,-0.11639471343609083,0.25365381564894685,1.419141503106767,-0.7078564805354297,-0.07430540925874114,0.01725260189959612,0.702225218036621,0,-1,0.016875287517905235,-1.578735653554098,-0.1414263884173792,-1.5403168837176722,0.11536577343940735,0.03657548129558563
2012,1734172625,535106658,-0.12075057627497358,0.25346631689816845,1.4185217387518685,-0.7079121904354556,-0.07706547232735293,0.017828217583003014,0.7018571067287489,0,-1,0.017509328201413155,-1.579095188771383,-0.14657432237734014,-1.539285961781637,0.11954639106988907,0.03790498152375221
2027,1734172625,551303386,-0.12511673850669244,0.2532632878919681,1.4178753399360666,-0.7079661248155499,-0.07987072575348994,0.018398161339168637,0.701474262493359,0,-1,0.018191304057836533,-1.5794075171100062,-0.1517584959613245,-1.5382068792926233,0.12377532571554184,0.03915059193968773
2044,1734172625,566943407,-0.12963571999455345,0.25305302192420004,1.4171848501473634,-0.7080272760736568,-0.08273231365801388,0.018974965831752715,0.7010653972948555,0,-1,0.01884968765079975,-1.5797670523272913,-0.15710956255067998,-1.5371153990374964,0.12806381285190582,0.04046773165464401
2059,1734172625,582780122,-0.1339919022168665,0.25284150978008574,1.4164864152681882,-0.7080881056433957,-0.085571396134516,0.019555637066163038,0.7006470922432159,0,-1,0.019472118467092514,-1.5801027456866663,-0.16234141985048467,-1.536048714314596,0.1323167085647583,0.04179723188281059
2076,1734172625,598903179,-0.13838896713198737,0.25261884699672854,1.4157593509928879,-0.7081524098592726,-0.08839193850300342,0.02017672714661706,0.7002142024408223,0,-1,0.020070206373929977,-1.5803902784930628,-0.16758519807924444,-1.5348971525775355,0.1366175413131714,0.04311474785208702
2091,1734172625,615187883,-0.14274945349380588,0.25239173755061084,1.4150159623839484,-0.7082205898712165,-0.09120221492636525,0.02085596024612663,0.6997648040571941,0,-1,0.020704995840787888,-1.580714527760641,-0.1728289763080042,-1.5337703863727015,0.14103785157203674,0.04453974589705467
2108,1734172625,630859851,-0.14713958730862,0.2521570757648907,1.4142463090003268,-0.7082933286139443,-0.09401409849531281,0.021521069394146927,0.699298758398172,0,-1,0.021375363692641258,-1.5810025374041956,-0.17807275453676397,-1.5326316992389124,0.14536266028881073,0.04592916741967201
2123,1734172625,647196531,-0.15150206817302067,0.25191829091774326,1.4134518209050195,-0.708368655256272,-0.09680336868947893,0.022163585170049332,0.6988216736429971,0,-1,0.021997420117259026,-1.5813263098346155,-0.18337661424745733,-1.53148061433901,0.14972303807735443,0.047390494495630264
2140,1734172625,662869215,-0.1558952589573854,0.25167046866703635,1.4126273831297274,-0.7084486052153006,-0.09956893606313452,0.022817304439402736,0.6983308466320747,0,-1,0.022583898156881332,-1.5816500822650355,-0.18870383897890264,-1.5303295294391077,0.1540238857269287,0.048791151493787766
2155,1734172625,679145574,-0.16020479685429767,0.2514162800939811,1.4117937417569253,-0.7085267157745876,-0.10231624194003093,0.023461563996456467,0.6978329561462299,0,-1,0.023206328973174095,-1.5819738546954554,-0.19395953813661748,-1.5291426817523401,0.15821686387062073,0.05019255727529526
2172,1734172625,694897174,-0.16457664765236246,0.25115984329998786,1.4109328105671242,-0.7086074502419729,-0.10504469062787641,0.024070485373409504,0.6973246777264892,0,-1,0.02384074404835701,-1.582285229359762,-0.1990597883807581,-1.528027359639303,0.1623978614807129,0.0515696182847023
2187,1734172625,711317062,-0.16880013741331806,0.2508875236347514,1.410076351296079,-0.7086831221311206,-0.10775049276394964,0.02471649744982492,0.6968121400129492,0,-1,0.024450816214084625,-1.5825732390033167,-0.20409995714296514,-1.5268881956683558,0.16650694608688354,0.05287514999508858
2204,1734172625,726934432,-0.17296261947406305,0.2506305258260715,1.4092071011892173,-0.7087673853244298,-0.11037880920979205,0.025302425732047426,0.6962938311014064,0,-1,0.025013700127601624,-1.582921330128805,-0.20915204683412725,-1.5257857481585901,0.1706879436969757,0.054192665964365005
2220,1734172625,743241548,-0.17711032937321175,0.25035436265250716,1.4083239211697176,-0.7088452059440901,-0.11306387570347033,0.0259294929010197,0.6957605158521764,0,-1,0.02563575655221939,-1.5832093397723597,-0.2142398993121546,-1.5247185865985315,0.1747734397649765,0.055485840886831284
2236,1734172625,758720159,-0.18121310522601572,0.250088647404422,1.4074119945022439,-0.7089293562596379,-0.11570890260394079,0.02647494526148544,0.6952191704526626,0,-1,0.026258187368512154,-1.583473030720846,-0.2192919890033167,-1.523651425038473,0.17883460223674774,0.0567314513027668
2252,1734172625,774954080,-0.18531619158134097,0.24980312059482382,1.4064860129768386,-0.7090135133688237,-0.11836881409085634,0.027094496717016164,0.6946614642822594,0,-1,0.026820696890354156,-1.5837367216693323,-0.2242363134967249,-1.5225003401385706,0.18297964334487915,0.05806095153093338
2267,1734172625,790872097,-0.1894518330458696,0.24952210924320117,1.4055344991147845,-0.7091042422941579,-0.12097985795390793,0.027674670087186586,0.6940959300885187,0,-1,0.027407174929976463,-1.5840008894549769,-0.22922832170595342,-1.521433178578512,0.1871010959148407,0.059354495257139206
2284,1734172625,807245969,-0.19346118445344224,0.24922879934070097,1.4045861579978212,-0.7091872894322598,-0.12362291878332074,0.028287799380484466,0.6935204127244029,0,-1,0.02802922949194908,-1.5842884222613733,-0.2342923323260706,-1.5203421751605433,0.19116224348545074,0.06062370166182518
2300,1734172625,822887420,-0.1975569545109494,0.24892891216411542,1.403599572927959,-0.7092792632023853,-0.12626276269182812,0.02889003467147408,0.6929256868129434,0,-1,0.028615707531571388,-1.584588352833883,-0.2392361799823206,-1.5192869345294397,0.1953316330909729,0.061929233372211456
2316,1734172625,839200019,-0.2016664635551945,0.24862495285470676,1.402583997685929,-0.7093732243388765,-0.12890880492880233,0.029457023691327987,0.6923181583333942,0,-1,0.029214544221758842,-1.5848763624774378,-0.24432450929750615,-1.518184010182516,0.1994287371635437,0.06319881230592728
2332,1734172625,855656385,-0.20574031389350944,0.2483064440185953,1.4015547656710414,-0.7094668968323653,-0.13161027296937097,0.030080491070135926,0.6916867950199432,0,-1,0.029824616387486458,-1.5851643721209925,-0.24934035936464483,-1.517188851033346,0.203586146235466,0.0645163282752037
2348,1734172625,871346235,-0.20990427570518,0.2479815488440164,1.4004825762815933,-0.7095607667642703,-0.13428458460425952,0.030610263826987342,0.6910529504712388,0,-1,0.030423078685998917,-1.5854399839984339,-0.25438052812685186,-1.5161221663104456,0.20765966176986694,0.06584545224905014
2364,1734172625,886899948,-0.2140024061619781,0.24766677803192233,1.399403750182182,-0.7096650857207243,-0.13688087284294653,0.03117187188367571,0.6904110421785111,0,-1,0.03105749376118183,-1.5857155958758753,-0.25950366655458623,-1.5150187651263636,0.2117447853088379,0.06712701916694641
2380,1734172625,903069496,-0.21807076853694385,0.24733951946839738,1.398309011250052,-0.709764968552383,-0.1395161741238325,0.03171500414096761,0.6897558155507074,0,-1,0.031667567789554596,-1.5860636870013636,-0.2644723097430628,-1.5139039198504847,0.21580630540847778,0.06843254715204239
2396,1734172625,918943405,-0.22211858444038268,0.24699404046328383,1.39719957224696,-0.7098625491197309,-0.14212076191958525,0.03231978312935435,0.6890952633759034,0,-1,0.03228999674320221,-1.5863030592547815,-0.26955968538393194,-1.5128005186664026,0.21987982094287872,0.06969014555215836
2412,1734172625,935266017,-0.22620928916184355,0.24664413208150782,1.3960581093077182,-0.7099613701336415,-0.1447596190400971,0.032842347082384225,0.6884191207770515,0,-1,0.03285288065671921,-1.5866149107562464,-0.27455169359316045,-1.5117104689227503,0.2239413559436798,0.07097133249044418
2428,1734172625,951405525,-0.23017534982667617,0.24630353069498556,1.39492124197749,-0.7100669630211571,-0.14734589746298363,0.0334232980877921,0.6877332169320262,0,-1,0.03343898430466652,-1.5868786017047327,-0.2796271483050745,-1.5106304327594202,0.22801487147808075,0.07224091142416
2444,1734172625,967148303,-0.2341686385476316,0.24595840014900627,1.3937550058953834,-0.7101702974773121,-0.14996655293854236,0.033973183397281226,0.68703275350639,0,-1,0.03397752717137337,-1.5870826880084437,-0.2845957914935511,-1.5095637480365198,0.2321363091468811,0.07345056533813477
2460,1734172625,982815980,-0.23809870780951417,0.24560563317281892,1.3925861494151517,-0.7102809145922804,-0.15255980827499566,0.03458718637326791,0.6863164385353383,0,-1,0.03461194038391113,-1.5872991720782679,-0.2895754019366663,-1.508472744618551,0.23628173768520355,0.0747920498251915
2476,1734172625,999036073,-0.24203413853796535,0.2452507863495665,1.391382964209967,-0.7103950783519865,-0.15513664571477068,0.03516211065372117,0.6855910441247175,0,-1,0.03516246750950813,-1.5875867048846644,-0.2945192495929163,-1.507441822682516,0.24036723375320435,0.07610919326543808
2491,1734172626,14763832,-0.24595863659506653,0.24487811255918038,1.3901803787718359,-0.710509091223148,-0.15769868773080473,0.035814504650779067,0.6848542008587358,0,-1,0.035748571157455444,-1.5878985563861292,-0.29945117632021123,-1.5063384214984339,0.244464710354805,0.0774027407169342
2508,1734172626,30944347,-0.24991264245809913,0.24450796158931176,1.388935996429541,-0.7106302891404069,-0.1602774830888505,0.036376093558176094,0.6840997737087563,0,-1,0.036323439329862595,-1.588102165852682,-0.30455094972719365,-1.5053074995623987,0.2485741823911667,0.07881613075733185
2523,1734172626,46818256,-0.25396327438410654,0.24411500055324775,1.3876370032652718,-0.7107537528949283,-0.16291481403973337,0.03695466398265909,0.68331707056249,0,-1,0.03693351149559021,-1.5883539358722132,-0.3096507231341761,-1.5042288939105433,0.25269562005996704,0.08015761524438858
2540,1734172626,63158988,-0.25804508348779903,0.24371939807867932,1.3863160148336477,-0.7108768232459234,-0.16554115241672226,0.03747211386098136,0.6825292006288942,0,-1,0.037567924708127975,-1.5886901060687464,-0.31478625932802373,-1.5031855742083948,0.2567691504955292,0.08146277070045471
2555,1734172626,78801631,-0.2620777073697031,0.24332911937533525,1.3849787889392384,-0.7109991135271866,-0.16813974030606188,0.037964158135708706,0.6817389610330421,0,-1,0.03820233792066574,-1.5889294783221644,-0.31988555589784795,-1.5020702520953577,0.26090332865715027,0.08276830613613129
2572,1734172626,95049619,-0.2661200453449648,0.24290974648727615,1.383629802468032,-0.7111204717539718,-0.1707561456026878,0.038524283732798384,0.6809301674578657,0,-1,0.03883637860417366,-1.5892780462848108,-0.3249133268939417,-1.5010994116412562,0.2650247812271118,0.08407383412122726
2587,1734172626,110771417,-0.27011021015250336,0.2424990847934247,1.3822728020500676,-0.711243165148016,-0.17338559042377558,0.03909161468969905,0.6801047292326254,0,-1,0.03939888998866081,-1.5895417372332972,-0.32989293733705694,-1.5000084082232874,0.26907432079315186,0.08539135009050369
2604,1734172626,127027034,-0.27399654157789693,0.24208914416855098,1.3809189544521179,-0.7113669138192644,-0.175934250557105,0.03965383741419661,0.6792877347505203,0,-1,0.04000971093773842,-1.589853588734762,-0.33487254778017217,-1.4989054838763636,0.27317216992378235,0.08672047406435013
2619,1734172626,142768144,-0.27789683500108925,0.24165854595804379,1.3795451295893368,-0.7114863721456368,-0.1785174485745181,0.04024254845615404,0.6784535356966155,0,-1,0.04064375162124634,-1.59009296098818,-0.33988839784731084,-1.4977543989764612,0.2772696614265442,0.08794211596250534
2636,1734172626,158981561,-0.2818277338493259,0.2412462964820919,1.3781276495483323,-0.7116196382528376,-0.1810662116367358,0.04079218633078375,0.6776049844789926,0,-1,0.04124221205711365,-1.590320889149801,-0.34494048753847295,-1.4966509977923792,0.28137949109077454,0.08923566341400146
2651,1734172626,174765825,-0.28566228958804274,0.24080315947650774,1.3767297986480238,-0.7117441674145841,-0.18361765111215664,0.04139329743786843,0.6767506137999396,0,-1,0.041828691959381104,-1.5905731360064905,-0.34991962114443,-1.4955361525165003,0.28548896312713623,0.09052883833646774
2667,1734172626,191123008,-0.28960579258197283,0.24037796729544494,1.3752632049134086,-0.7118794838221898,-0.1861559549209225,0.041874490098149815,0.6758846706647164,0,-1,0.042414795607328415,-1.590872589741842,-0.3549593130694788,-1.4944217840777796,0.28952690958976746,0.09182238578796387
2683,1734172626,207103013,-0.29348733159601204,0.23993362193760545,1.3738042986160175,-0.7120102958597055,-0.18872008915615837,0.04242450992262166,0.675000909256048,0,-1,0.04303722456097603,-1.5911482016192835,-0.3599508444415491,-1.4933303038226526,0.29366108775138855,0.0931035727262497
2699,1734172626,222771883,-0.2973999344381177,0.23947844086357842,1.37231618280162,-0.7121475729415981,-0.19131658108682367,0.043017310906570516,0.6740870204335693,0,-1,0.04359973594546318,-1.5914600531207483,-0.36494285265077764,-1.4922516981707972,0.2977825403213501,0.09442108869552612
2716,1734172626,239057302,-0.30137729110653827,0.2390207883061465,1.370780784669401,-0.7122858493548329,-0.19389364408789683,0.043531726363968244,0.6731709384628489,0,-1,0.044222164899110794,-1.591748062764303,-0.3700302282916468,-1.4911845366107386,0.3019043505191803,0.09569066762924194
2731,1734172626,254800319,-0.30532056179296013,0.2385551561914772,1.3692304540135818,-0.7124237286385604,-0.19647855328635522,0.04404000404060318,0.6722418367041249,0,-1,0.0448206290602684,-1.5920360724078577,-0.3751171270953577,-1.4900696913348597,0.30599021911621094,0.09699620306491852
2748,1734172626,270943641,-0.30918825785345005,0.23808950005658552,1.3676827892945518,-0.712567803955888,-0.19902696515692575,0.04458789634598182,0.6713026973023026,0,-1,0.04545504227280617,-1.5923479239093226,-0.3801692167865198,-1.4890387693988245,0.31012365221977234,0.09832532703876495
2763,1734172626,287126779,-0.3131214265138257,0.2376151389679502,1.366084067125942,-0.712715643932129,-0.2016034637721477,0.04508961712573096,0.670342733769031,0,-1,0.04604114592075348,-1.592635456715719,-0.3851726690875452,-1.4879234472857874,0.3142335116863251,0.09959490597248077
2779,1734172626,303050756,-0.31701529360227154,0.23713922357411094,1.3644910090754645,-0.7128590406375193,-0.20418075006570352,0.045603443321430626,0.669374734689913,0,-1,0.04666357859969139,-1.5929830710040491,-0.3901880423175257,-1.4869044462787073,0.318295419216156,0.1008644849061966
2795,1734172626,318599462,-0.3208076290571096,0.23666229936956706,1.3629126961965325,-0.7130028590954551,-0.20666228605013423,0.046120112168927925,0.6684239356125456,0,-1,0.047202493995428085,-1.5932586828814905,-0.3951676527606409,-1.4858134428607386,0.32241761684417725,0.10213406383991241
2811,1734172626,334785938,-0.32471358370840264,0.23616211017660485,1.3612641051512122,-0.7131475424075738,-0.2092604041211816,0.046631596955534496,0.6674250221488957,0,-1,0.04780058190226555,-1.5935829321490687,-0.40014726320375615,-1.484734360371725,0.32658737897872925,0.10337967425584793
2827,1734172626,350949287,-0.32860291200769703,0.23566413778709638,1.3595998347456975,-0.7132912358027036,-0.21185516989553982,0.047124472223573965,0.6664174997951611,0,-1,0.048446979373693466,-1.593846623097555,-0.405222241078512,-1.4836552778827112,0.33068522810935974,0.10462528467178345
2843,1734172626,366531133,-0.33240072055334496,0.23516524891956625,1.3579297629465816,-0.7134380110733674,-0.21435707766525977,0.047607518710377494,0.665425256338177,0,-1,0.04903345927596092,-1.5941107908831995,-0.4102976957904261,-1.4824689070331019,0.33478307723999023,0.10591845214366913
2859,1734172626,382713556,-0.33616005435332985,0.23467955677245245,1.3562549216705424,-0.7135986268664275,-0.2168282298115313,0.04812154625472541,0.6644146561276333,0,-1,0.04965551197528839,-1.5944226423846644,-0.41531306902040654,-1.4813535849200647,0.33878543972969055,0.10721199959516525
2876,1734172626,398796319,-0.34001180216544996,0.23416687092565208,1.3545433171997334,-0.7137593292608939,-0.21933555906167612,0.048647491853101965,0.6633799469086649,0,-1,0.050289928913116455,-1.5946982542621058,-0.4202807585345667,-1.4802630583392542,0.3429076373577118,0.10860142111778259
2891,1734172626,414926528,-0.34380273860395466,0.23363905117577632,1.352831721461704,-0.7139152266657982,-0.22185643689088444,0.04918663148112736,0.6623333343780476,0,-1,0.05093632638454437,-1.5950701872455042,-0.42518836656679326,-1.4792311827289026,0.34695756435394287,0.10997886210680008
2907,1734172626,430760860,-0.3476152616038919,0.2331135847396471,1.3510848905394843,-0.7140845311246033,-0.22433056544900076,0.04970552169697906,0.6612778848008739,0,-1,0.05147486925125122,-1.5953457991229456,-0.43025190034975225,-1.478140656148092,0.35100746154785156,0.11130835860967636
2923,1734172626,447042226,-0.35145499467436947,0.2325805506830141,1.3492955714942436,-0.7142484177819849,-0.22685357363887707,0.050175425950048175,0.6602038173578921,0,-1,0.05206134542822838,-1.5956457296954554,-0.4353387991534632,-1.4770739714251917,0.3551776111125946,0.11269740760326385
2939,1734172626,462732791,-0.35529800196949196,0.23202573317221115,1.3474737162786017,-0.7144098693804538,-0.22942863827196008,0.05067452938846673,0.6591002431677099,0,-1,0.05267179384827614,-1.5959695021258753,-0.44041473070253545,-1.4759705702411097,0.3593117892742157,0.11396698653697968
2955,1734172626,478979587,-0.35908653038977245,0.23149143285422882,1.345651510614812,-0.7145838903586406,-0.23190939833655053,0.05115526818331035,0.6580053443097427,0,-1,0.05330583453178406,-1.5962336699115198,-0.44552547136415654,-1.4749277273761194,0.3633500933647156,0.11530847102403641
2971,1734172626,494677305,-0.36279649144612053,0.23095199674192846,1.3438475590169248,-0.7147461891655141,-0.23439271685786248,0.05162323268689009,0.6569116997012004,0,-1,0.05392826348543167,-1.5965331236468714,-0.4504450003253382,-1.4739330450641077,0.36744794249534607,0.11658965796232224
2987,1734172626,510928392,-0.3665260891221714,0.23039014357535403,1.3420220025341203,-0.7149154529250387,-0.2368865700113198,0.05215242803481304,0.6557901892887179,0,-1,0.05455069616436958,-1.5968692938434046,-0.4554484526263636,-1.4728415648089808,0.37158215045928955,0.11791878193616867
3003,1734172626,526600360,-0.3702042718217199,0.22984106286875955,1.340183598998637,-0.715083736706472,-0.2393837479983983,0.052664459229502934,0.6546580217382296,0,-1,0.055161140859127045,-1.597132984791891,-0.4603684584247034,-1.4718230406390589,0.3757522702217102,0.11917638033628464
3019,1734172626,542741775,-0.3739134056556259,0.22925773427750057,1.3383122668612837,-0.71524561602086,-0.24188622485823874,0.053145994983973106,0.653521435152615,0,-1,0.05573563650250435,-1.5974085966693323,-0.4654429594623011,-1.470720116292135,0.37974265217781067,0.12046992778778076
3036,1734172626,558883666,-0.3775845593067486,0.22869985649105107,1.3364237488296016,-0.7154222076005728,-0.2443456518449639,0.053621766352109974,0.6523733390242601,0,-1,0.05636967718601227,-1.5976484457599085,-0.4704707304583948,-1.4696648756610315,0.38390079140663147,0.12179942429065704
3051,1734172626,575044631,-0.38126863588342985,0.22814024509435116,1.3345098358261067,-0.7155976245233355,-0.24680880835418886,0.05407841381343204,0.651215000637092,0,-1,0.056956153362989426,-1.5979002157794397,-0.47550946870912725,-1.4685376326190394,0.38797467947006226,0.12308099120855331
3067,1734172626,590745449,-0.38486543153796887,0.2275943731930235,1.3325880023011762,-0.7157800609226442,-0.2492342643606526,0.05451698423246321,0.6500531395850476,0,-1,0.05754263326525688,-1.5981763044940394,-0.4805486837970179,-1.4674471060382288,0.39203697443008423,0.12437453866004944
3083,1734172626,607022762,-0.388633399237727,0.2269824503224624,1.3306167556220483,-0.7159472246449963,-0.25173403640401787,0.05499363796649494,0.6488645823452517,0,-1,0.05811712518334389,-1.5984762350665491,-0.48555213609804326,-1.4663799444781702,0.396087646484375,0.12569168210029602
3099,1734172626,622685909,-0.392193393895649,0.22641702648420364,1.3286798465258227,-0.7161405467426076,-0.25411674493376585,0.05550746107639677,0.6476776351089472,0,-1,0.05870360508561134,-1.5987523237811487,-0.4905918280230921,-1.465240780507223,0.40023380517959595,0.1269972026348114
3116,1734172626,638805866,-0.39584220817614907,0.2258335161354995,1.3266839913796338,-0.7163191316884401,-0.25655783472357974,0.05593936944137041,0.6464795170502848,0,-1,0.0592900812625885,-1.599016014729635,-0.4956548849688929,-1.464198414479391,0.4043080508708954,0.12826678156852722
3131,1734172626,654949426,-0.3995010279580444,0.22524535714316257,1.3246672380385782,-0.7164960804302662,-0.2590452118314345,0.05636430389393573,0.6452534464858168,0,-1,0.05991213768720627,-1.5992916266070765,-0.5007417837726038,-1.4630950132953089,0.40839430689811707,0.1295723170042038
3147,1734172626,671039819,-0.4030974798437053,0.22465902165922708,1.3226365679364966,-0.7166936050283927,-0.26144101402909153,0.056803127933824374,0.6440281650299,0,-1,0.06043906882405281,-1.5995553175555628,-0.5058048407184046,-1.461992088948385,0.41249290108680725,0.13086587190628052
3163,1734172626,687073945,-0.40672467163186216,0.2240544408729968,1.3205729030396967,-0.7168716593971411,-0.26391472547791006,0.05719968688976638,0.6427847520350971,0,-1,0.061037156730890274,-1.599807087575094,-0.5107725302325647,-1.4608777205096644,0.4165551960468292,0.1321474313735962
3179,1734172626,702735185,-0.4102240197877573,0.22346070535016277,1.318567871512009,-0.7170606276074581,-0.26633097498839825,0.05772482571984141,0.641529198550262,0,-1,0.06161165237426758,-1.6000831762896937,-0.5157755056964319,-1.4597981611834925,0.4207253158092499,0.13340502977371216
3196,1734172626,718867540,-0.4137034849330292,0.2228427845894969,1.3165401190926767,-0.7172454695288291,-0.26873531685951024,0.05822766751863171,0.640273226558887,0,-1,0.06221011281013489,-1.6003592650042933,-0.5206831137286585,-1.4586952368365687,0.4248359203338623,0.13465026021003723
3211,1734172626,735196590,-0.41723062379507553,0.22225305856808392,1.314470422236122,-0.7174376557691493,-0.2711099032691773,0.058638605735559964,0.6390181095643804,0,-1,0.06279659271240234,-1.6005867163287562,-0.5257580916034144,-1.4576767126666468,0.4289461374282837,0.1359078586101532
3228,1734172626,750882863,-0.4207407612850646,0.22163162635631453,1.312358962044094,-0.7176266610515377,-0.2735429056119485,0.05907566789944141,0.6377274649876928,0,-1,0.06337108463048935,-1.600886646901266,-0.5308092276202601,-1.4565613905536097,0.433032751083374,0.13722537457942963
3243,1734172626,767204523,-0.42430595861078885,0.22098114976478278,1.3102051435782125,-0.7178179639800417,-0.2759932397825567,0.05952136998142534,0.6364136301945534,0,-1,0.06399351358413696,-1.601114575062887,-0.5358722845660608,-1.455494228993551,0.437179297208786,0.13853052258491516
3260,1734172626,783075809,-0.42787307706511896,0.2203554103883008,1.3080393217181883,-0.7180170533245962,-0.2784168749856047,0.05991287452338924,0.6350952702741995,0,-1,0.06461594998836517,-1.6013301054583948,-0.5409830252276819,-1.4544156233416956,0.44124194979667664,0.13986003398895264
3275,1734172626,798757791,-0.43135782038410414,0.2197112636794027,1.3058925120324996,-0.7182162961541979,-0.28079001078033367,0.060357915900137164,0.6337817004085221,0,-1,0.06520204991102219,-1.601654354725973,-0.5459626356707972,-1.4533246199237269,0.4452802538871765,0.14127342402935028
3292,1734172626,814977884,-0.43485166535256425,0.2190628873220455,1.3037329798642237,-0.7184295821646065,-0.28313478463464264,0.06086025599797311,0.6324473562602222,0,-1,0.0658244788646698,-1.6019657293902796,-0.5509174505816858,-1.4522698561297815,0.44943878054618835,0.14262688159942627
3307,1734172626,830674886,-0.4383707221374395,0.21840814347181992,1.3015129271078925,-0.718631899147556,-0.285542484535036,0.06127257499935942,0.6310937763962527,0,-1,0.06642293930053711,-1.6022537390338343,-0.5559805075274866,-1.4511311689959925,0.4535493850708008,0.14396800100803375
3324,1734172626,846831321,-0.4418299925741081,0.2177440906635118,1.299312267892678,-0.7188305273637603,-0.287904392288493,0.06170317545341982,0.629751103190694,0,-1,0.06709293276071548,-1.6025531927691858,-0.5610917250262659,-1.450075928364889,0.4575880467891693,0.14523757994174957
3339,1734172626,862714052,-0.4453545355419414,0.21708991821762802,1.2970399893359348,-0.7190407927993118,-0.29028416441860344,0.06207505263791481,0.628380561458047,0,-1,0.06766780465841293,-1.6027820746051233,-0.5661543051349085,-1.4489730040179651,0.4616626799106598,0.14656707644462585
3355,1734172626,878969669,-0.44875476235273526,0.2164251999845731,1.294811099366382,-0.7192382408666047,-0.2926710128424693,0.0625044021856153,0.627003373853996,0,-1,0.06830184161663055,-1.6030452887164515,-0.5711339155780237,-1.4478820005999964,0.46578526496887207,0.14783665537834167
3371,1734172626,894701480,-0.4522045024132514,0.2157581187317702,1.2925313250962538,-0.7194500833444855,-0.295040045136517,0.0629102384466401,0.6256079053528989,0,-1,0.06887634098529816,-1.6033209005938929,-0.5761249701129358,-1.4468634764300745,0.46990785002708435,0.14916615188121796
3388,1734172626,910966634,-0.4556079585813867,0.21506797121748455,1.2902828858783268,-0.7196515179005911,-0.2973919009382666,0.06335544826906991,0.6242161782702564,0,-1,0.06953471899032593,-1.6036089102374476,-0.5810921827899378,-1.4457600752459925,0.47400644421577454,0.15037581324577332
3403,1734172626,926792860,-0.4590503294708223,0.21436369363903468,1.2879755582333237,-0.7198409484784514,-0.29979875886057805,0.06375170379350929,0.6228044904644837,0,-1,0.07013280689716339,-1.6039088408099573,-0.586095158253805,-1.4446333090411585,0.47806909680366516,0.1516929566860199
3420,1734172626,943074703,-0.46239250397064,0.21370383457054515,1.2856850687381116,-0.7200616146830666,-0.30210796163855214,0.06416193760476667,0.6213898102941632,0,-1,0.0707312747836113,-1.604196850453512,-0.5911815802203577,-1.4436262289630335,0.48221564292907715,0.15301010012626648
3435,1734172626,958873033,-0.46584188543759825,0.21301556202491584,1.2832991127777775,-0.7202748493654613,-0.3044965511879467,0.06448926722429431,0.619941227939457,0,-1,0.07128217071294785,-1.6044724623309534,-0.5962689558612269,-1.4425719420062464,0.4863146245479584,0.1542557030916214
3452,1734172626,975077390,-0.4692207391563664,0.2123328510423133,1.280933348188554,-0.7204884155867638,-0.30684598015477593,0.06483620356862203,0.618496769736866,0,-1,0.071856290102005,-1.604748551045553,-0.6013320128070276,-1.4415047804461878,0.4904012382030487,0.15557321906089783
3468,1734172626,990809440,-0.47251492108363613,0.21165695484167002,1.2785884988246687,-0.7207079598771846,-0.30914684532405345,0.06521020466381254,0.6170542065358245,0,-1,0.07249070703983307,-1.6050365606891077,-0.6063225905047815,-1.4404376188861292,0.49451181292533875,0.156926691532135
3484,1734172627,7056713,-0.47586018797833346,0.21098223102583635,1.2761993684877029,-0.7209337461821234,-0.31145861031920263,0.06555902641907371,0.6155892150848843,0,-1,0.07305321842432022,-1.6053598562823694,-0.6112659613238733,-1.4394186178790491,0.49863478541374207,0.15820825099945068
3499,1734172627,22781848,-0.4792193808259306,0.21026906150916247,1.2738069030254584,-0.7211545480384224,-0.31379350232305886,0.065987244339915,0.6140972555937305,0,-1,0.07365167886018753,-1.6056478659259241,-0.616305176411764,-1.4383400122271937,0.5027573704719543,0.15948981046676636
3516,1734172627,38991689,-0.4825782976950722,0.20957273212156918,1.27137169923644,-0.7213698787030932,-0.3161197057490672,0.06630519573440845,0.6126152550790991,0,-1,0.07421419024467468,-1.605959717427389,-0.6213081518756312,-1.4372733275042933,0.506844699382782,0.16075938940048218
3531,1734172627,54690837,-0.48588324792837545,0.20888240187488677,1.268908391870326,-0.7216058829831774,-0.31844529512904474,0.06665058517221381,0.6110934815152638,0,-1,0.07483624666929245,-1.6062596479998987,-0.6264427343951624,-1.4361336866961878,0.5109912753105164,0.16208890080451965
3548,1734172627,71246623,-0.48921655299032835,0.20813050781095213,1.266432494284221,-0.721815136552006,-0.32078810045260914,0.06702489786771235,0.6095781872067261,0,-1,0.075398750603199,-1.606523338948385,-0.6315534750567835,-1.435019318257467,0.5150898694992065,0.16339442133903503
3563,1734172627,86867570,-0.4925290023892381,0.20741883938216715,1.2639284851974564,-0.7220416911056088,-0.3231048118450315,0.06736504880465671,0.6080468954509066,0,-1,0.07599721848964691,-1.6068709532367151,-0.6365683714496058,-1.4339283148394983,0.5191648602485657,0.1646040827035904
3579,1734172627,103105306,-0.49578685747298284,0.20669672180540805,1.2614566096755924,-0.7222663873730891,-0.32539062544533315,0.06771361604327834,0.6065204635836001,0,-1,0.07659567892551422,-1.6071465651141565,-0.6415355841266077,-1.4328253904925745,0.5232638716697693,0.1658736616373062
3595,1734172627,118814945,-0.4989989212110387,0.2059738162818125,1.258991183655945,-0.7224816783982145,-0.32766203896997614,0.06806771030278344,0.6049996689346806,0,-1,0.0772780328989029,-1.607483212147848,-0.6463950316058558,-1.4317343870746058,0.5273265242576599,0.1671428680419922
3612,1734172627,134975671,-0.5022215312920063,0.2052289539636529,1.2565011526863636,-0.7226976947565315,-0.3299205754159176,0.06842283500988205,0.6034722624611967,0,-1,0.07784053683280945,-1.6077588240252894,-0.651409927998678,-1.4306076208697718,0.5313659310340881,0.16848397254943848
3627,1734172627,150720357,-0.5054888114257853,0.20448239931530565,1.253944464065996,-0.7229259557118319,-0.33218332165294423,0.06872811762218328,0.6019208828590867,0,-1,0.07846259325742722,-1.6080463568316858,-0.6565564314471644,-1.4295409361468714,0.5353567004203796,0.1697535514831543
3644,1734172627,166984081,-0.5087111184872891,0.20374819757453658,1.2513736244014975,-0.7231647549148668,-0.3344444352167137,0.06904527496863776,0.6003435741356773,0,-1,0.07910899072885513,-1.6083462874041956,-0.6616070906268519,-1.4284618536578577,0.5395159721374512,0.17108304798603058
3659,1734172627,182668685,-0.5119341845431394,0.2029898716385638,1.248793117497236,-0.7233909266719832,-0.3367257711475978,0.06937578978439644,0.5987556446877944,0,-1,0.07969509810209274,-1.608633820210592,-0.6666582266436976,-1.4273350874530237,0.5436269044876099,0.1724245399236679
3675,1734172627,198806285,-0.5151064884845585,0.2022162114954243,1.2462213389702863,-0.723629025364439,-0.3389823853806212,0.06976318608297348,0.5971474473857596,0,-1,0.0803178995847702,-1.6089580694781702,-0.6716492811786097,-1.4262803236590784,0.5478214025497437,0.17378999292850494
3691,1734172627,214991569,-0.5182424788311023,0.20147090280293703,1.2436425923242598,-0.7238859903114295,-0.34117912009336754,0.0701441396644743,0.5955381437942388,0,-1,0.08093995600938797,-1.6092575232135218,-0.6765807310687464,-1.4252379576312464,0.5519087910652161,0.17515544593334198
3707,1734172627,231088161,-0.5214206420445113,0.2007100991559881,1.2410162170667924,-0.7241213113075884,-0.3434499397334445,0.07046573389580807,0.5939065968263001,0,-1,0.08152643591165543,-1.6095574537860315,-0.6816075483905237,-1.4241583983050745,0.5561036467552185,0.17646098136901855
3723,1734172627,246599912,-0.5245345309626901,0.19995806285955087,1.2383967032565366,-0.7243611882527377,-0.3456871931151306,0.07077155633253902,0.5922774858827025,0,-1,0.08214886486530304,-1.6098573843585413,-0.6866462866412562,-1.423079792653219,0.5601670145988464,0.17776650190353394
3739,1734172627,263269186,-0.5277088271100818,0.19916900434031634,1.2356987902689613,-0.7246002073162714,-0.3479726542122687,0.07106972073241728,0.5906087251918155,0,-1,0.0827353447675705,-1.6101215521441858,-0.6917570273028772,-1.4219887892352503,0.5642780065536499,0.17905931174755096
3756,1734172627,278826475,-0.5307866456464957,0.19840545847187416,1.233029807341233,-0.7248419922909145,-0.3501819368599809,0.07136674333451284,0.5889681530053691,0,-1,0.08333343267440796,-1.6103609243976038,-0.6968796888934534,-1.4209097067462366,0.568389356136322,0.1803528517484665
3772,1734172627,294824361,-0.5338405234984802,0.19764735364599667,1.2303768305099037,-0.7250818068021874,-0.3523675803512176,0.07164246050161475,0.5873336527180939,0,-1,0.08392028510570526,-1.6106966177569788,-0.7018349806415003,-1.4197948614703577,0.5725002884864807,0.1815744936466217
3787,1734172627,311094999,-0.5368311651789457,0.19690965393971743,1.2277318156276027,-0.7253274612096141,-0.3545314614854674,0.07196864477149478,0.5856859491245702,0,-1,0.08450639247894287,-1.6109727064715784,-0.7068136374102991,-1.418692413960592,0.57656329870224,0.18290399014949799
3803,1734172627,326813697,-0.5399049992878752,0.196116243807388,1.2250338496134923,-0.7255766575275885,-0.35674066529791365,0.07228074052068315,0.5839949540224437,0,-1,0.08508088439702988,-1.6112483183490198,-0.7118166128741663,-1.4176371733294886,0.5806506872177124,0.1841975450515747
3819,1734172627,342574834,-0.542939546422924,0.19530806078592428,1.2223245260340174,-0.7257984355419946,-0.3589427839192028,0.0725506564552445,0.5823341919250823,0,-1,0.08571530133485794,-1.6115244070636194,-0.7168195883380335,-1.416558567677633,0.5846657752990723,0.18545514345169067
3835,1734172627,358852386,-0.5459026007209703,0.19455521720596686,1.219614803842029,-0.7260608678746562,-0.3610701651062362,0.07283682363522692,0.5806537256696002,0,-1,0.08628979325294495,-1.6117880980121058,-0.721870247517721,-1.4154675642596644,0.5887771248817444,0.18676066398620605
3851,1734172627,374591827,-0.5488951822460781,0.19376072320655904,1.2168685426199757,-0.726302992729738,-0.36328049271963914,0.07310185370708586,0.5789364087236094,0,-1,0.08688825368881226,-1.612039868031637,-0.726969067250387,-1.4143889586078089,0.592960000038147,0.18809017539024353
3868,1734172627,390787363,-0.5518342927055048,0.1929804198710504,1.2141161952850599,-0.726559812522667,-0.3654151225233506,0.07339750564453001,0.5772308318371713,0,-1,0.08746274560689926,-1.6122801939593714,-0.7319358030902308,-1.4133217970477503,0.5970233678817749,0.1893717348575592
3883,1734172627,406554460,-0.5547474821072872,0.19220700916644134,1.211396250812239,-0.7268128564198266,-0.3675795594333079,0.0736835452872603,0.5754989786120979,0,-1,0.08806083351373672,-1.612579647694723,-0.7368076483355921,-1.412267033253805,0.6011227369308472,0.19066490232944489
3899,1734172627,422713279,-0.5576441483893009,0.19140937947534087,1.2086605343858294,-0.727062247110895,-0.3696933890440525,0.07398500033773303,0.5737887299766391,0,-1,0.08865967392921448,-1.6128676573382776,-0.741798226033346,-1.4111879507647913,0.6052696704864502,0.1919824182987213
3915,1734172627,438782215,-0.5605237352113506,0.19062148573849552,1.2058901751965643,-0.7273157155524351,-0.3718518278597356,0.07427764245820413,0.5720322542118353,0,-1,0.0892813578248024,-1.6131194273578089,-0.7468369642840784,-1.410121266041891,0.609381377696991,0.193263977766037
3931,1734172627,455075979,-0.5634500077816068,0.1898184407216524,1.2030534578810808,-0.7275719744864765,-0.37399851532204176,0.0744985553157724,0.5702754577698582,0,-1,0.08990415930747986,-1.6133711973773401,-0.751983944569723,-1.4090665022479456,0.6134084463119507,0.1945575326681137
3947,1734172627,470697641,-0.5663820345413924,0.1890039771490863,1.200162271046818,-0.7278168925132724,-0.3761916136750649,0.07465650778079486,0.5684970066929557,0,-1,0.09051460772752762,-1.6136229673968714,-0.7571418921100062,-1.407999340687887,0.6174961924552917,0.19577917456626892
3963,1734172627,486979007,-0.5693160515966394,0.18814181177310452,1.1972615988370303,-0.7280541345074977,-0.37839082501681187,0.07488341360910925,0.5667010103536801,0,-1,0.09111269563436508,-1.6139105002032679,-0.7621925512896937,-1.4069808165179651,0.6216075420379639,0.19707271456718445
3979,1734172627,502773761,-0.5721515352261086,0.18734173202326398,1.1944155032306851,-0.7283120578676803,-0.38052324827776124,0.07511926508434295,0.5649076914840815,0,-1,0.09171115607023239,-1.614234749470846,-0.7671716848956507,-1.4058898130999964,0.6257784366607666,0.19835428893566132
3995,1734172627,519038438,-0.5750170138193317,0.1864968491786499,1.1915529179795321,-0.7285650537463264,-0.3826264806106137,0.07539116810850262,0.5631217546555837,0,-1,0.09233358502388,-1.6145108381854456,-0.772078816090719,-1.4047749678241175,0.6298182010650635,0.19962386786937714
4011,1734172627,534759521,-0.5777738561704395,0.18569565925690482,1.1887437243693009,-0.7288370750918972,-0.38466686231749797,0.07569731952806817,0.5613357629997975,0,-1,0.09294403344392776,-1.614786450062887,-0.7771294752704065,-1.4036601225482386,0.6339415311813354,0.20102526247501373
4027,1734172627,550983190,-0.5805672281691953,0.18487598987930123,1.185845435012262,-0.7291041303803047,-0.38674369800594993,0.07591942914223859,0.5595290156853163,0,-1,0.09350654482841492,-1.6150262991534632,-0.7821920553790491,-1.4026053587542933,0.6380652189254761,0.20234240591526031
4043,1734172627,566694736,-0.5833419778103375,0.18405862730250072,1.1829419412373747,-0.7293795230385364,-0.38883464810084895,0.07619776598999463,0.557680041122596,0,-1,0.09409264475107193,-1.6152899901019495,-0.7872193495379847,-1.4014905134784144,0.6422005295753479,0.2036958783864975
4059,1734172627,582897901,-0.5860985563436285,0.18323506752022584,1.1800138300318346,-0.7296621901643304,-0.3908495747384448,0.07644084931760889,0.5558655365526558,0,-1,0.09470309317111969,-1.6154940764056605,-0.7922819296466272,-1.4003637472735804,0.6462639570236206,0.20506133139133453
4076,1734172627,598857164,-0.5888640338475665,0.18240370273487622,1.1770720162572135,-0.7299380428039987,-0.3929020626195494,0.07665381425207686,0.5540240207945678,0,-1,0.0953255221247673,-1.6158297697650355,-0.7972610632525843,-1.3992608229266565,0.6503753066062927,0.20640243589878082
4091,1734172627,614941835,-0.5915955595875314,0.1815761014732159,1.1741458575957686,-0.7302100702875387,-0.39494198900017885,0.07689247958272445,0.552178979280152,0,-1,0.095876045525074,-1.616117302571432,-0.8021920363055628,-1.398182217274801,0.6544510722160339,0.20774392783641815
4107,1734172627,631133794,-0.5943402006228823,0.1807319001030361,1.1711831784234206,-0.7304805538094722,-0.3969753628232536,0.07710662551089555,0.550330164646529,0,-1,0.09649848192930222,-1.6164172331439417,-0.8072307745562952,-1.3970673719989222,0.6585147976875305,0.20906144380569458
4124,1734172627,646884679,-0.5969934639734402,0.17992784642460652,1.1682411506966697,-0.7307559792513272,-0.39897571892860495,0.07729643043250871,0.5484882280744311,0,-1,0.09704900532960892,-1.616692845021383,-0.812317196522848,-1.3959882895099085,0.6625902056694031,0.21031902730464935
4139,1734172627,662504911,-0.599740043351051,0.1790549705353452,1.1652079990156652,-0.7310086512005927,-0.4010729124307232,0.07741922924324247,0.5466014395586697,0,-1,0.09767143428325653,-1.6169574896441858,-0.8174517790423792,-1.394909683858053,0.6666659712791443,0.21164816617965698
4155,1734172627,678731441,-0.6024548497147049,0.17820540689228387,1.1621442301034868,-0.7312842265436955,-0.4031635354884504,0.07759782063202822,0.5446660645698441,0,-1,0.098269522190094,-1.6172450224505823,-0.8225024382220667,-1.393879238759176,0.670813262462616,0.2128937691450119
4171,1734172627,695073127,-0.6051205187202683,0.17736408220620922,1.1591059093197518,-0.7315528319894291,-0.4052022667720653,0.07774551758907286,0.5427681010393235,0,-1,0.098844014108181,-1.617521111165182,-0.827529255543844,-1.3928235212909144,0.6749249696731567,0.21416334807872772
4187,1734172627,710736036,-0.6077538788112713,0.17651266708320118,1.1561058835305926,-0.731829405082029,-0.4072032719952628,0.07795296699481015,0.5408646337766425,0,-1,0.0994424819946289,-1.6178682486163538,-0.8324483076678675,-1.3917573134051722,0.679000735282898,0.215492844581604
4204,1734172627,726774930,-0.6103058780866433,0.17567691710006045,1.153146637289481,-0.7321113626605152,-0.4091716574008282,0.0781967472519014,0.538958974470641,0,-1,0.10004094243049622,-1.6181805769549769,-0.8373673597918909,-1.3906305472003382,0.6831603646278381,0.21677440404891968
4219,1734172627,742908716,-0.6129387610836535,0.17479592742072997,1.1500851128412888,-0.7323756116874721,-0.41119339268054245,0.07837205323199276,0.5370323812336345,0,-1,0.10067497938871384,-1.6184561888324183,-0.8423946539508265,-1.3895037809955042,0.6872841119766235,0.2180679589509964
4235,1734172627,759077072,-0.6155350032804999,0.17391342952975183,1.1469973254805412,-0.7326414333161031,-0.4132198276668914,0.07853195095524244,0.535087503956721,0,-1,0.10130976885557175,-1.6187198797809046,-0.8475287596331995,-1.388472859059469,0.6913358569145203,0.21939745545387268
4252,1734172627,774923086,-0.618138604297478,0.17307094291738645,1.1438746758196587,-0.732930001299753,-0.41519230192579687,0.07866140300202512,0.5331428976306959,0,-1,0.10191984474658966,-1.6189959684955042,-0.8526037375079554,-1.3873456160174769,0.695447564125061,0.22065505385398865
4267,1734172627,791046619,-0.6207188520399548,0.1721821533003869,1.1407504201075636,-0.7331931773389119,-0.41722097962290294,0.07878232593504908,0.5311758315157419,0,-1,0.10249433666467667,-1.619307819996969,-0.857678238545553,-1.3862794081317347,0.6995713114738464,0.22194822132587433
4283,1734172627,806736230,-0.6232717588687838,0.17129075122678222,1.137656786646485,-0.733469199170012,-0.41920697727857376,0.07894058925922465,0.5292039563696297,0,-1,0.10310478508472443,-1.6196678320514124,-0.8625853697406214,-1.3852365652667444,0.7036230564117432,0.2232537567615509
4299,1734172627,822870254,-0.6258357169780467,0.17043543325808552,1.1345457309520577,-0.7337468132701735,-0.42115156253164987,0.07904845881125265,0.5272554566361363,0,-1,0.1037508100271225,-1.619979206715719,-0.8675401846515101,-1.3841336409198206,0.7076389193534851,0.22448737919330597
4315,1734172627,838796615,-0.628368592004183,0.16955563916931277,1.1314021353853945,-0.7340130885076923,-0.4231162387230176,0.07916225749171468,0.5252911301526995,0,-1,0.10438559949398041,-1.620314900075094,-0.8725431601153772,-1.383054558430807,0.7116907238960266,0.22576895356178284
4332,1734172627,854913711,-0.6308693851052269,0.16862843882752557,1.1282417317941444,-0.734268540302462,-0.4251140117121419,0.07929014060841377,0.5232980616918034,0,-1,0.10497169941663742,-1.6205547491656702,-0.8777139822589319,-1.381927792225973,0.7158503532409668,0.2270265370607376
4347,1734172627,870636463,-0.6333434544011051,0.16774790664047318,1.1250268999232635,-0.7345477644418125,-0.4271124250502064,0.07937025068651433,0.5212628141611747,0,-1,0.10555817931890488,-1.6208789984332483,-0.8828361670123499,-1.3809211889850062,0.7199743986129761,0.22829648852348328
4364,1734172627,886884927,-0.6358534907633558,0.16687018355112332,1.12179573834657,-0.7348296707648377,-0.42909145210739724,0.07941003897017714,0.5192301285583882,0,-1,0.10614465922117233,-1.6212142149554651,-0.8877909819232386,-1.3798540274249476,0.7240621447563171,0.22959004342556
4379,1734172627,902576923,-0.6382447249336235,0.16600945761680408,1.1186751876985968,-0.7351142984272468,-0.4309809524324745,0.07954263449816473,0.5172382006245336,0,-1,0.10675472766160965,-1.6214659849749964,-0.8928058783160608,-1.378763500844137,0.7281503081321716,0.23085962235927582
4395,1734172627,918785095,-0.6406187157782395,0.1651171209003698,1.1155558387262787,-0.735401303870401,-0.4328780800598824,0.07974082533222278,0.5152115010796247,0,-1,0.1073535680770874,-1.6218021551715296,-0.897689167653219,-1.3777449766742151,0.7322856187820435,0.2321411818265915
4411,1734172627,934459924,-0.6429771695805956,0.1642390357411443,1.1124026359091679,-0.7356869488154018,-0.43478052738350437,0.07988743330642194,0.5131750231164005,0,-1,0.10798760503530502,-1.622077767048971,-0.9027045408831995,-1.3766778151141565,0.7364456057548523,0.23349428176879883
4427,1734172627,950590133,-0.645353834292841,0.16335517803544367,1.109145237287674,-0.7359863741726834,-0.4366676839027101,0.07994366598060891,0.5111305128211096,0,-1,0.10857408493757248,-1.6223419348346155,-0.9077428022967737,-1.375599209462301,0.7405453324317932,0.23478782176971436
4443,1734172627,966699838,-0.6476715260173649,0.16248485552734482,1.1059463665529792,-0.7362920417484238,-0.4385286110112915,0.08004390638412812,0.5090772629308974,0,-1,0.10907705128192902,-1.6225937048541468,-0.9128297011004847,-1.3745325247394007,0.7446694374084473,0.23621319234371185
4459,1734172627,982912778,-0.6500146157380668,0.1616041214738104,1.1026833404317418,-0.7366077772395577,-0.44038284321182253,0.08016666488086113,0.5069962916597608,0,-1,0.10972306877374649,-1.6228578726397913,-0.9178803602801722,-1.3733933607684534,0.7487695217132568,0.23753070831298828
4475,1734172627,998987913,-0.6523062300929549,0.1607160218497889,1.0994753251494331,-0.7368956428205148,-0.44223610799162216,0.08025452246472403,0.5049467773978976,0,-1,0.11026161164045334,-1.6231573263751429,-0.9228594938861292,-1.3723509947406214,0.7528456449508667,0.23881228268146515
4492,1734172628,14725923,-0.6546120764697252,0.1598362134694235,1.0962083820408606,-0.7371908796807315,-0.44409324316453264,0.080314938680201,0.502872060186239,0,-1,0.11093160510063171,-1.6234453360186976,-0.9278386274920862,-1.3711641470538538,0.7569333910942078,0.24016574025154114
4507,1734172628,30811071,-0.6568854732477101,0.15892578922944542,1.0929691803374268,-0.737475374592918,-0.44593808273880264,0.08041485501046394,0.500802105951964,0,-1,0.11150609701871872,-1.6237567106830042,-0.9328411261187952,-1.370073143635885,0.7610338926315308,0.24142296612262726
4523,1734172628,46983718,-0.6591629734077914,0.15803372982218905,1.0896791293932102,-0.7377670801671262,-0.4477896662034882,0.08046036089131126,0.49870861290765944,0,-1,0.11211691796779633,-1.6240204016314905,-0.9379156271563929,-1.369042698537008,0.7651336193084717,0.24269254505634308
4539,1734172628,62720537,-0.6613753472033264,0.1570906691853824,1.086388277274758,-0.7380484352604597,-0.4496383012453316,0.08055674497909972,0.4966090173377559,0,-1,0.11275096237659454,-1.6242368857013147,-0.9430506865130823,-1.3679278532611292,0.7692217230796814,0.24402204155921936
4555,1734172628,78701019,-0.663595560286347,0.15619706393852423,1.0830578339764156,-0.7383316736219989,-0.45150835726444366,0.08055111938749013,0.49448767447968206,0,-1,0.113337442278862,-1.6245487372027796,-0.9481609503375452,-1.3668611685382288,0.7733578085899353,0.24529162049293518
4571,1734172628,95070838,-0.6657203758089993,0.15531548056223332,1.0798033229533375,-0.7386388670047909,-0.4532966343048708,0.08064588939263101,0.49237285262474273,0,-1,0.11394751071929932,-1.6248005072223108,-0.9530919233905237,-1.3657944838153284,0.7774219512939453,0.2465851753950119
4587,1734172628,111131191,-0.6679090603897024,0.1544029559975369,1.076514362489136,-0.7389356636761706,-0.4550910603025472,0.08071172194660954,0.490256901757205,0,-1,0.11453399062156677,-1.6250880400287073,-0.9580352942096155,-1.3647154013263147,0.7814860939979553,0.24789069592952728
4603,1734172628,127228260,-0.6700188198625954,0.15348376002404665,1.0732781727601286,-0.739222662285675,-0.45685442191071546,0.08079032519152023,0.4881667912705179,0,-1,0.11515641957521439,-1.6253278891192835,-0.9629781881915491,-1.363612476979391,0.7855861783027649,0.2492082118988037
4619,1734172628,142803430,-0.6721351846759055,0.15256155319541914,1.069961552909266,-0.7395242289475442,-0.4586325896795931,0.08087021929025649,0.4860247628622189,0,-1,0.1157904639840126,-1.6255438963519495,-0.9681246916400355,-1.3625457922564905,0.789674699306488,0.25054931640625
4635,1734172628,158856391,-0.6742194814345815,0.1516361244864091,1.0665885026397224,-0.7398182376362503,-0.46046356983960035,0.0808953178638197,0.48383698045837276,0,-1,0.11636532843112946,-1.6258075873004358,-0.9732473532306116,-1.3614915052997034,0.7938946485519409,0.2518428862094879
4651,1734172628,175088167,-0.6763776517509906,0.15069033805393192,1.0631541908253206,-0.7401134446343879,-0.4622973598435255,0.08090128469473527,0.48163079458011004,0,-1,0.11695143580436707,-1.626047436391012,-0.9783461729632776,-1.3603881041156214,0.7980190515518188,0.2531484067440033
4667,1734172628,190682411,-0.6784245140775674,0.149785771142348,1.0598021902217325,-0.7404028025682116,-0.4640707333585879,0.08088768440061168,0.4794780776025817,0,-1,0.11763378232717514,-1.6263592878924769,-0.983253304158346,-1.3593695799456995,0.8020708560943604,0.2544419467449188
4683,1734172628,206764459,-0.6804498806018613,0.14889500972716452,1.0565248756168077,-0.7407103857711459,-0.4657666325741268,0.0809474014033827,0.4773437824014871,0,-1,0.1182202622294426,-1.6266234556781214,-0.9881604353534144,-1.3582308928119105,0.8062192797660828,0.2557235062122345
4699,1734172628,222927331,-0.6824614238211757,0.1479490360021773,1.0532151269859902,-0.740997904892765,-0.46750377313667263,0.08104719275067551,0.4751775242945968,0,-1,0.11884269118309021,-1.626911465321676,-0.9931514898883265,-1.3571284453021448,0.8102954030036926,0.2569930851459503
4715,1734172628,238567113,-0.6845038416181672,0.14704992446919146,1.0498096129877903,-0.7413000946134544,-0.4692659685666927,0.08104454242109009,0.4729644834604427,0,-1,0.11945313960313797,-1.6272109190570276,-0.9981783072101038,-1.3560498396502894,0.8143954873085022,0.2582267224788666
4731,1734172628,254716873,-0.6864841011362735,0.14612799505904603,1.0463937492425568,-0.7415850181569846,-0.4709978075352705,0.08098873391067105,0.4708009676302925,0,-1,0.12003923952579498,-1.6274507681476038,-1.0033729712115687,-1.3549464384662073,0.8184244632720947,0.25950828194618225
4748,1734172628,270818233,-0.6884539486549965,0.1452419996891669,1.042947365895874,-0.7418934280982873,-0.47272690009966006,0.08095124006945864,0.46858330742564264,0,-1,0.12060175091028214,-1.627702538167135,-1.008411709462301,-1.3539040724383753,0.8225845098495483,0.2607658803462982
4763,1734172628,286969184,-0.6904180542937676,0.14433812084664233,1.0394959250199918,-0.7422052637382266,-0.4744422085720542,0.08091358974097206,0.46635708228756484,0,-1,0.12122455984354019,-1.6279900709735315,-1.0134742895709437,-1.3527653853045862,0.8267089128494263,0.26208338141441345
4779,1734172628,302653074,-0.6923725265740276,0.14341912859664852,1.0360785019440388,-0.742504699048172,-0.47614367326290874,0.08087495732192687,0.46414783806591675,0,-1,0.1217866912484169,-1.6282780806170862,-1.0184052626239222,-1.351710621510641,0.8307610750198364,0.2633889317512512
4795,1734172628,318760633,-0.6943285141585513,0.1424948704669555,1.0326567110153382,-0.7428104783577979,-0.4778209805836944,0.08086296671206458,0.461931687991222,0,-1,0.12234920263290405,-1.6286256949054163,-1.0233367125140589,-1.3506434599505823,0.8348376154899597,0.2647424042224884
4811,1734172628,334844827,-0.6961660707684517,0.14159475778498706,1.0292970224602018,-0.7431395751504432,-0.4794392905304064,0.08091343507825115,0.4597113818090184,0,-1,0.12295927107334137,-1.6288660208331507,-1.0284112135516565,-1.3495052496539515,0.8389620780944824,0.26605990529060364
4827,1734172628,350980758,-0.6980915088171801,0.1406641704417531,1.0257909859210241,-0.7434608289577748,-0.4811222140630692,0.08086258490235144,0.4574370484595432,0,-1,0.12353414297103882,-1.6291540304767054,-1.0334742704974573,-1.3484981695758265,0.8431104421615601,0.26744896173477173
4843,1734172628,366637468,-0.6999419327903277,0.13975272604553596,1.0222974205461903,-0.7437780425055053,-0.4827779163814108,0.08078528976657691,0.45518506554854415,0,-1,0.12410863488912582,-1.6293934027301233,-1.0386326948748987,-1.3474434057818812,0.8471390604972839,0.26881441473960876
4859,1734172628,382709503,-0.7017976024778246,0.1388146740010989,1.0187622437919872,-0.7440963412265693,-0.4844349042494485,0.08068308692777026,0.4529168775855746,0,-1,0.12470672279596329,-1.629669491444723,-1.0437315146075647,-1.3463652769671839,0.8512750864028931,0.27011993527412415
4875,1734172628,398795843,-0.703664881266224,0.1379215715247358,1.015250636255731,-0.7444137176931706,-0.48609495293915256,0.08059485309279002,0.4506266562158382,0,-1,0.1252812147140503,-1.630017105733053,-1.0486868063556116,-1.3453219572650355,0.8553879261016846,0.2714254856109619
4891,1734172628,414962530,-0.7054174558964853,0.1369934165724476,1.0118629446716094,-0.7447163283508385,-0.4877033443682772,0.08059498192004665,0.4483831922239627,0,-1,0.1259036511182785,-1.6303170363055628,-1.05359393755068,-1.3442547957049769,0.8594880104064941,0.27269506454467773
4907,1734172628,430553197,-0.7072118449233754,0.13606472927482274,1.0083840870394305,-0.745015740468878,-0.4893464494876641,0.0805239955300094,0.44610254983726494,0,-1,0.1264781355857849,-1.6306045691119593,-1.058573071156637,-1.3431647459613245,0.8635888695716858,0.2739642560482025
4923,1734172628,446706771,-0.708985498971223,0.1351385677680816,1.0048851305262814,-0.7453201057201803,-0.49095515379064625,0.08044831781701353,0.4438344794358308,0,-1,0.12710019946098328,-1.630892578755514,-1.0636480490313929,-1.3420379797564905,0.8676294684410095,0.27525779604911804
4939,1734172628,462856054,-0.7107356616742211,0.13418989002375337,1.0013447356171845,-0.745627435187913,-0.4925837929116223,0.08038286351467973,0.4415195693387498,0,-1,0.1277226358652115,-1.6311562697040003,-1.0687344709979456,-1.3409712950335901,0.8718022108078003,0.2765038013458252
4955,1734172628,479000091,-0.7124927574992179,0.133253204193989,0.9977484716843495,-0.7459364519980655,-0.494229567987077,0.08025291385195447,0.4391758344058967,0,-1,0.12833307683467865,-1.6314681212054651,-1.0738094488727015,-1.3398802916156214,0.8759386539459229,0.27784526348114014
4971,1734172628,495191812,-0.7142086664190961,0.13233180078827084,0.9942093133054087,-0.7462525359705648,-0.49581729262413093,0.08014057215587868,0.4368636556031025,0,-1,0.12895551323890686,-1.6317804495440882,-1.078836743031637,-1.3387892881976526,0.8800147771835327,0.2791268229484558
4987,1734172628,510847568,-0.7159178386758565,0.13136353741763002,0.9907266479735047,-0.7465504575022174,-0.4974008107143306,0.08009606733348981,0.4345566337103434,0,-1,0.12955397367477417,-1.6321280638324183,-1.0836718718158167,-1.3377106825457972,0.8841515779495239,0.2804203927516937
5003,1734172628,526940584,-0.7175613662281388,0.130408901955135,0.9872799880889855,-0.7468569108103043,-0.49894573125192987,0.0800774251886968,0.43225631055603436,0,-1,0.13011610507965088,-1.632427994404928,-1.0886152426349085,-1.3365843931781214,0.8882640600204468,0.2817259132862091
5019,1734172628,542494058,-0.7192387485622648,0.12949918897221865,0.9836988977093372,-0.747180200202109,-0.5004874449347407,0.0799648868246564,0.4299298579579592,0,-1,0.13079845905303955,-1.632679287587301,-1.093665901814596,-1.335505787526266,0.8923049569129944,0.283019095659256
5035,1734172628,558656454,-0.720835215163672,0.12854719169895226,0.9801537155998713,-0.7474800774162517,-0.5020603062470674,0.07983922683846387,0.42759172187348504,0,-1,0.1313493549823761,-1.6329916159259241,-1.0988009611712855,-1.3344391028033655,0.8964054584503174,0.2843126356601715
5052,1734172628,574925661,-0.7224860961909371,0.12761547075587526,0.9764835827625257,-0.7477953070858605,-0.5036143631582495,0.07963093983703871,0.4252454177786567,0,-1,0.13199537992477417,-1.6332553068744105,-1.1039236227618616,-1.3333600203143519,0.9004703164100647,0.28560617566108704
5067,1734172628,591017723,-0.7241096115788493,0.12667832701660697,0.9728635612998929,-0.748108643506435,-0.5051627118113695,0.0794720872504078,0.42288092822260076,0,-1,0.13258185982704163,-1.6335910002337855,-1.1089509169207972,-1.3323290983783167,0.9045591950416565,0.2869356870651245
5083,1734172628,606895923,-0.7256916263876212,0.1257305516135182,0.9693189450638402,-0.7484144924944458,-0.5066815563883094,0.07933245366025315,0.42054239933263016,0,-1,0.13316796720027924,-1.6339147726642054,-1.1139419714557093,-1.3312504927264612,0.9086237549781799,0.288205623626709
5099,1734172628,622726202,-0.7272407058317876,0.1248059373403803,0.9657405697055599,-0.7487303663687135,-0.508179959511569,0.0792077673897146,0.4181890682613894,0,-1,0.13377878069877625,-1.63420278230776,-1.1188491026507776,-1.3301480452166956,0.912712574005127,0.2894752025604248
5115,1734172628,638824701,-0.7287710848782053,0.12387722765968942,0.962168058014649,-0.7490264700936976,-0.5097153445157664,0.07906337825372238,0.4158107705233926,0,-1,0.1343289315700531,-1.634514633809225,-1.1238639990436,-1.32904559770693,0.9168973565101624,0.29070845246315
5131,1734172628,654944419,-0.7302659894173456,0.12298104868601586,0.9585538140054775,-0.7493622399060159,-0.5111820970633305,0.07888953115319029,0.41343141985026266,0,-1,0.13493938744068146,-1.6347907225238245,-1.1290352980243128,-1.3279665152179163,0.9211300015449524,0.2920379638671875
5147,1734172628,670602083,-0.731735209060451,0.12201572029545066,0.9548982257452665,-0.749667927312282,-0.5127230306669204,0.07873989762261262,0.41099041485832205,0,-1,0.13551387190818787,-1.6350544134723108,-1.134169880543844,-1.326923672352926,0.9251949191093445,0.2933075428009033
5163,1734172628,686598300,-0.7332033292635325,0.12112963377239919,0.9512409219957983,-0.7499945896601978,-0.5141832664072588,0.07850854079262458,0.40860750488678776,0,-1,0.13610035181045532,-1.6353419462787073,-1.1391966978656214,-1.3258212248431605,0.9292834401130676,0.29460108280181885
5180,1734172628,702770709,-0.7346284862128799,0.12022257045546898,0.9476409640578075,-0.750325542962813,-0.515623467073303,0.07835948918761762,0.4062066102799435,0,-1,0.13668683171272278,-1.6356061140643519,-1.1441519896136683,-1.324742619191305,0.9334086179733276,0.2959305942058563
5196,1734172628,718940734,-0.7360094479167626,0.11927223003453191,0.944113847330198,-0.7506535037212219,-0.5170435578590994,0.0782882423671257,0.40380221363252056,0,-1,0.1372969001531601,-1.6359055677997034,-1.14907151857485,-1.3236401716815394,0.9375211000442505,0.2972956597805023
5211,1734172628,735160350,-0.737432682124784,0.11833890423158046,0.9405062870109548,-0.7509744492567083,-0.5184598713328181,0.07812759101905163,0.4014135248128808,0,-1,0.13789573311805725,-1.6361573378192347,-1.154050652180807,-1.3225014845477503,0.9416223168373108,0.2986615002155304
5227,1734172628,750722646,-0.7387736916894678,0.1174015690086737,0.9369164385651183,-0.7513025349020533,-0.5198625872208359,0.07799291484995657,0.3990043817942547,0,-1,0.13847023248672485,-1.636409107838766,-1.1590655485736292,-1.3214343229876917,0.9457471370697021,0.3000149726867676
5243,1734172628,767009973,-0.7401137556657441,0.11643889683562322,0.9332923006388654,-0.7516338061584829,-0.521250457983658,0.077844536799828,0.3965914895480728,0,-1,0.13910427689552307,-1.6366608778582972,-1.1642363707171839,-1.3203437964068812,0.9498835206031799,0.30129653215408325
5259,1734172628,783058166,-0.741432826948826,0.1155109716522571,0.9296388922182304,-0.7519349032292142,-0.5226879698734569,0.07761730540810781,0.3941658805077133,0,-1,0.13971471786499023,-1.636937443410055,-1.1692159811602991,-1.3192771116839808,0.9539128541946411,0.3026140332221985
5275,1734172628,798568010,-0.7427372903233644,0.11458969918366443,0.9260016290974714,-0.7522616251057889,-0.5240787387703494,0.07741523879927108,0.3917279716381372,0,-1,0.14032478630542755,-1.6372368971454065,-1.174171272908346,-1.3182466665851038,0.9580496549606323,0.30389562249183655
5292,1734172628,814815998,-0.7440374780655543,0.11364461396078794,0.922389006289223,-0.7525682020548038,-0.5254699813780629,0.07719989850554831,0.3893103846512075,0,-1,0.14095957577228546,-1.6375129858600062,-1.1791022459613245,-1.3171799818622034,0.9621025919914246,0.30518877506256104
5307,1734172628,830621004,-0.7452851611930468,0.11272584342754655,0.9187776518605282,-0.7528944350244444,-0.5268263488952459,0.07701498280267104,0.38687551000655446,0,-1,0.14158163964748383,-1.6378005186664026,-1.184117619191305,-1.3160889784442347,0.9662397503852844,0.30648231506347656
5323,1734172628,846810817,-0.7465470651715765,0.11174091461176977,0.9151238783171209,-0.7531900064346363,-0.5282244561598517,0.07682675003008148,0.38442344959879465,0,-1,0.14218010008335114,-1.6380279699908655,-1.1892526785479944,-1.3150227705584925,0.970268726348877,0.3077522814273834
5339,1734172628,862642526,-0.74776084524833,0.11080236179598774,0.9113720575329869,-0.7535078197124224,-0.5296021839488306,0.0765196195376586,0.38195842733820207,0,-1,0.14283810555934906,-1.6382682959186,-1.1943877379046839,-1.3139556089984339,0.9743576049804688,0.3091297149658203
5355,1734172628,878741979,-0.7489417605243545,0.10989878012239143,0.9076984098738341,-0.7538252194778833,-0.5309480572073897,0.07625710532822076,0.3795083041433746,0,-1,0.14341260492801666,-1.638508145009176,-1.1995347181903284,-1.3128655592547815,0.9784468412399292,0.3103873133659363
5371,1734172628,894944429,-0.7501348191301833,0.10895979237625115,0.9039941708695856,-0.7541504869411599,-0.5322884951509632,0.0760186038647688,0.3770241011431309,0,-1,0.14404664933681488,-1.6387837568866175,-1.2045014540301722,-1.3117626349078577,0.9825116991996765,0.31170445680618286
5387,1734172628,910650253,-0.7512957575093987,0.10800246289042556,0.9003780259195149,-0.7544572238490516,-0.5336021201821891,0.07580994423922216,0.374587676083318,0,-1,0.14464548230171204,-1.6391194502459925,-1.209409538899557,-1.3106597105609339,0.9866605401039124,0.3130219578742981
5403,1734172628,926953077,-0.7524241283149502,0.10708268640512827,0.896792829534941,-0.7547842752201116,-0.5348808029508135,0.07565608779135696,0.3721281780452136,0,-1,0.14521996676921844,-1.6393831411944788,-1.2143648306476038,-1.3095811049090784,0.9907141923904419,0.31432750821113586
