yildirimyigit/pemp/data/ur10/raw/7_2024-12-14_13-38-36.csv
Time,ROS secs,ROS nsecs,________p_x________,________p_y________,________p_z________,________q_x________,________q_y________,________q_z________,________q_w________,gripper_position,gripper_force,shoulder_pan_joint,shoulder_lift_joint,elbow_joint,wrist_1_joint,wrist_2_joint,wrist_3_joint
0,1734172716,66649198,-0.00014285235564520562,0.25614101903866093,1.427299988340159,-0.7071067831649939,-1.2534170710317864e-05,-6.314490023741123e-05,0.7071067762775791,0,-1,-0.00013143221010381012,-1.5708802382098597,-2.366701234990387e-05,-1.5707357565509241,3.5952674807049334e-05,5.992112710373476e-05
15,1734172716,82855224,-0.00010255242726532568,0.25614101914848586,1.4272999918628226,-0.7071067824267988,2.5318920379572405e-05,-5.057991836691456e-05,0.7071067776839959,0,-1,-0.00014335313905888825,-1.5708563963519495,0.0,-1.5707839171039026,3.5952674807049334e-05,2.3968450477696024e-05
30,1734172716,99499464,-0.00011811104658491214,0.25614101781332044,1.4272999909399537,-0.7071067833298346,-1.6731795870154874e-05,-6.729776745421674e-05,0.7071067756428246,0,-1,-0.00014335313905888825,-1.5708802382098597,-8.374849428349762e-05,-1.5707719961749476,3.5952674807049334e-05,3.5952674807049334e-05
46,1734172716,114431858,-0.00012750588886391594,0.25614102091478363,1.4272999890688516,-0.7071067849149385,-1.601548364413918e-07,-5.068137146792794e-05,0.707106775641863,0,-1,-0.00014335313905888825,-1.5709040800677698,-8.374849428349762e-05,-1.5707476774798792,7.190534961409867e-05,1.1984225238848012e-05
62,1734172716,130469799,-0.00010602918141798304,0.2561410129039304,1.4272999930248123,-0.7071067827479987,-4.127179988436552e-06,-3.749723751152392e-05,0.7071067786188294,0,-1,-0.00014335313905888825,-1.5708563963519495,-4.7985707418263246e-05,-1.5707600752459925,5.992112710373476e-05,1.1984225238848012e-05
78,1734172716,146773815,-0.00017370157342595682,0.2561410227254905,1.4272999835983335,-0.707106783486405,-1.689506429755365e-05,-6.750579384013837e-05,0.7071067754625429,0,-1,-0.000119511281148732,-1.5709040800677698,-5.990663637334137e-05,-1.5707719961749476,5.992112710373476e-05,3.5952674807049334e-05
94,1734172716,163135528,-0.00015657098944784863,0.25614102072453915,1.427299985740696,-0.7071067828126639,-1.2511791796216315e-05,-7.159664885656955e-05,0.707106775825051,0,-1,-0.00015527406801396637,-1.5708921591388147,-5.990663637334137e-05,-1.5707476774798792,5.992112710373476e-05,1.1984225238848012e-05
110,1734172716,178860187,-9.494794407452827e-05,0.2561410161614275,1.427299993221186,-0.7071067840695389,-4.149559100523527e-06,-4.61966453981854e-05,0.7071067767823227,0,-1,-0.00014335313905888825,-1.5709040800677698,-4.7985707418263246e-05,-1.5707719961749476,3.5952674807049334e-05,2.3968450477696024e-05
126,1734172716,194970607,-0.00012461785691665026,0.25614102262102156,1.4272999885353879,-0.7071067827602708,-4.042983469742815e-06,-8.84159494893739e-05,0.7071067740735436,0,-1,-0.00013143221010381012,-1.5708683172809046,-5.990663637334137e-05,-1.5707476774798792,4.793690095539205e-05,1.1984225238848012e-05
142,1734172716,211057186,-0.00017044917935583014,0.2561410247981723,1.4272999831620348,-0.707106783182335,-8.420937373545913e-06,-7.59351641629885e-05,0.7071067750633343,0,-1,-0.00013143221010381012,-1.5709040800677698,-5.990663637334137e-05,-1.5707839171039026,8.388957940042019e-05,3.5952674807049334e-05
158,1734172716,226775646,-0.00012610500565596143,0.2561410170835104,1.427299990192667,-0.7071067825757498,8.46018091875162e-06,-5.062467626973584e-05,0.70710677793452,0,-1,-0.000119511281148732,-1.5708802382098597,-3.5587941304981996e-05,-1.5707476774798792,8.388957940042019e-05,-1.1746083394825746e-05
175,1734172716,242810964,-9.612096750750854e-05,0.25614101498270436,1.4272999933364554,-0.7071067830317834,8.43780203048211e-06,-5.0602297305324796e-05,0.7071067774803558,0,-1,-0.000119511281148732,-1.5708921591388147,-2.366701234990387e-05,-1.5707719961749476,7.190534961409867e-05,3.5952674807049334e-05
190,1734172716,258427143,-0.00015934385154453578,0.2561410232922278,1.427299985154436,-0.7071067837802482,-2.1278336495028305e-05,-8.031843567934029e-05,0.7071067737111099,0,-1,-0.000119511281148732,-1.5709040800677698,-8.374849428349762e-05,-1.5707839171039026,8.388957940042019e-05,3.5952674807049334e-05
206,1734172716,275285005,-0.00011309199533081468,0.25614101548196216,1.4272999916699942,-0.7071067829676257,-1.2725136743765624e-05,-6.33358662459141e-05,0.7071067764544573,0,-1,-0.00013143221010381012,-1.5708921591388147,-4.7985707418263246e-05,-1.5707719961749476,8.388957940042019e-05,1.1984225238848012e-05
222,1734172716,291046619,-7.724084537495308e-05,0.2561410137819623,1.427299994882372,-0.7071067829711323,8.539253239803516e-06,-5.045608817668678e-05,0.7071067775502369,0,-1,-0.000119511281148732,-1.57092792192568,-5.990663637334137e-05,-1.5707357565509241,3.5952674807049334e-05,1.1984225238848012e-05
238,1734172716,306688070,-0.00010177029160140533,0.25614101713943244,1.4272999924465843,-0.707106784069539,-4.149559100523523e-06,-4.61966453981854e-05,0.7071067767823227,0,-1,-0.00015527406801396637,-1.5708802382098597,-3.5587941304981996e-05,-1.5707357565509241,5.992112710373476e-05,2.3968450477696024e-05
254,1734172716,322595357,-0.00012357883628587231,0.25614101673525796,1.4272999895992045,-0.7071067836381012,-8.42093733532483e-06,-5.9031666970434934e-05,0.7071067762207696,0,-1,-0.0001671949969690445,-1.5708921591388147,-5.990663637334137e-05,-1.5707476774798792,5.992112710373476e-05,2.3968450477696024e-05
270,1734172716,338588953,-0.00013269486006546195,0.25614102173146946,1.427299987768964,-0.7071067840926294,-1.693982178900798e-05,-7.593516309308478e-05,0.7071067740002729,0,-1,-0.00014335313905888825,-1.5709040800677698,-4.7985707418263246e-05,-1.5707357565509241,8.388957940042019e-05,4.793690095539205e-05
286,1734172716,354709863,-0.00010739171257658871,0.25614101968140973,1.4272999915592275,-0.7071067843226,-1.262368602395524e-05,-6.310014190330165e-05,0.7071067751223763,0,-1,-0.000119511281148732,-1.5708921591388147,-2.366701234990387e-05,-1.5707600752459925,2.3968450477696024e-05,3.5952674807049334e-05
302,1734172716,370784521,-9.319212469398792e-05,0.2561410177745251,1.4272999929723655,-0.7071067818608587,1.7013380414347675e-05,-7.583371201007682e-05,0.7071067762411649,0,-1,-0.0001671949969690445,-1.5708921591388147,-7.18275653284195e-05,-1.5707839171039026,3.5952674807049334e-05,1.1984225238848012e-05
318,1734172716,386214733,-9.902469643096481e-05,0.2561410154106946,1.427299993029766,-0.7071067819972521,2.12728228447968e-05,-4.6241404040096756e-05,0.7071067785438704,0,-1,-0.00014335313905888825,-1.5709040800677698,-5.990663637334137e-05,-1.5707719961749476,2.3968450477696024e-05,0.0
334,1734172716,402264595,-0.0001430439074064908,0.2561410210903015,1.4272999871132939,-0.7071067840931652,-1.6917443173177193e-05,-6.748341485583872e-05,0.7071067748573837,0,-1,-0.000119511281148732,-1.5709040800677698,-5.990663637334137e-05,-1.5707719961749476,3.5952674807049334e-05,5.992112710373476e-05
350,1734172716,418290615,-7.639945097799437e-05,0.25614101802946543,1.4272999941081068,-0.7071067797350269,5.082037361424015e-05,-6.735958515873661e-05,0.7071067776034508,0,-1,-0.00013143221010381012,-1.5708921591388147,-5.990663637334137e-05,-1.5707476774798792,5.992112710373476e-05,2.3968450477696024e-05
366,1734172716,434389829,-0.0001337505602145771,0.25614101979602577,1.4272999872620915,-0.707106785008295,-3.396714749417924e-05,-7.605899417374724e-05,0.7071067724583714,0,-1,-0.00015527406801396637,-1.570916000996725,0.0,-1.5707357565509241,2.3968450477696024e-05,3.5952674807049334e-05
382,1734172716,450367450,-0.00010170784860724244,0.2561410156574119,1.4272999929647292,-0.7071067829068651,1.2798695332939745e-05,-3.77672764497507e-05,0.7071067783418072,0,-1,-0.000119511281148732,-1.5708921591388147,-3.5587941304981996e-05,-1.5707839171039026,3.5952674807049334e-05,3.5952674807049334e-05
398,1734172716,466411352,-0.00011708248252362732,0.2561410233390251,1.4272999886544053,-0.7071067827646738,2.114899216206844e-05,-7.165334381740732e-05,0.7071067756617178,0,-1,-0.00014335313905888825,-1.5708683172809046,-8.374849428349762e-05,-1.5707600752459925,5.992112710373476e-05,1.1984225238848012e-05
414,1734172716,482362508,-0.00010503662435512401,0.2561410194746286,1.427299991551139,-0.7071067835378886,-8.108242980427067e-08,-6.750579347136225e-05,0.7071067756128936,0,-1,-0.00010711351503545075,-1.5709403196917933,-3.5587941304981996e-05,-1.5707476774798792,7.190534961409867e-05,3.5952674807049334e-05
430,1734172716,498427391,-0.00013334788682531882,0.2561410239765689,1.427299987659018,-0.7071067829294183,-3.632460609837844e-08,-8.440929069423986e-05,0.7071067744055907,0,-1,-0.000119511281148732,-1.5708683172809046,-7.18275653284195e-05,-1.5707600752459925,3.5952674807049334e-05,4.793690095539205e-05
446,1734172716,514423847,-7.13172154146514e-05,0.25614101176903914,1.427299995672098,-0.707106782008365,2.110423545135522e-05,-4.640999143350819e-05,0.7071067785267643,0,-1,-0.00013143221010381012,-1.570916000996725,-2.366701234990387e-05,-1.5707839171039026,4.793690095539205e-05,2.3968450477696024e-05
462,1734172716,530456781,-0.00010797489310710122,0.25614102181628173,1.427299990652239,-0.7071067827656767,4.155981616937906e-06,-8.864635412160645e-05,0.7071067740386354,0,-1,-0.00015527406801396637,-1.570916000996725,-2.366701234990387e-05,-1.5707719961749476,4.793690095539205e-05,3.5952674807049334e-05
478,1734172716,546677350,-0.00011736419190219983,0.2561410215278203,1.4272999903700292,-0.7071067820618194,1.7058137353244502e-05,-7.578895509802714e-05,0.7071067760439245,0,-1,-0.00013143221010381012,-1.5708802382098597,-2.366701234990387e-05,-1.5707839171039026,3.5952674807049334e-05,4.793690095539205e-05
494,1734172716,562695503,-0.0001413697199222209,0.2561410229750378,1.4272999868415257,-0.7071067844343906,-1.2680379969468265e-05,-7.16757213785461e-05,0.7071067741923105,0,-1,-0.00010711351503545075,-1.5708921591388147,-1.1746083394825746e-05,-1.5707719961749476,7.190534961409867e-05,2.3968450477696024e-05
510,1734172716,578662395,-0.00012846112448448998,0.25614102303901554,1.4272999885786466,-0.7071067842836688,-4.295766234972852e-06,-6.324635233594434e-05,0.7071067752478789,0,-1,-0.00013143221010381012,-1.5709040800677698,-5.990663637334137e-05,-1.5707719961749476,4.793690095539205e-05,5.992112710373476e-05
526,1734172716,594745159,-0.00011074008743542216,0.256141016685636,1.4272999920061586,-0.7071067837149221,4.324567819244508e-06,-2.9293148853980427e-05,0.7071067780381884,0,-1,-0.00014335313905888825,-1.5708802382098597,-1.1746083394825746e-05,-1.5707839171039026,4.793690095539205e-05,3.5952674807049334e-05
542,1734172716,610621690,-0.00011435607690653694,0.2561410192415874,1.4272999905848982,-0.7071067823598555,-4.251009839022881e-06,-8.866873246276533e-05,0.7071067744410859,0,-1,-0.000119511281148732,-1.5708921591388147,-5.990663637334137e-05,-1.570808235798971,3.5952674807049334e-05,0.0
558,1734172716,626561880,-0.00013289381485857442,0.2561410216871597,1.4272999883265904,-0.7071067844852748,-1.272513593010741e-05,-6.324635233595991e-05,0.7071067749448205,0,-1,-0.00013143221010381012,-1.5708563963519495,-7.18275653284195e-05,-1.5707719961749476,1.1984225238848012e-05,3.5952674807049334e-05
574,1734172716,642863273,-4.973644117516611e-05,0.25614100896573505,1.4272999972435967,-0.7071067804372902,3.804736597855378e-05,-3.79409871531727e-05,0.7071067798943023,0,-1,-0.00015527406801396637,-1.5708921591388147,-5.990663637334137e-05,-1.5707719961749476,4.793690095539205e-05,1.1984225238848012e-05
590,1734172716,659123897,-7.304792094068536e-05,0.25614101318089344,1.4272999953556627,-0.7071067812176899,3.8300148355489686e-05,-2.069519311778535e-05,0.7071067798153017,0,-1,-0.00015527406801396637,-1.5708802382098597,-0.00010759035219365387,-1.5707600752459925,3.5952674807049334e-05,1.1984225238848012e-05
606,1734172716,675123453,-0.00012839024764407033,0.2561410173566226,1.4272999894178577,-0.7071067828790099,-8.443315713059225e-06,-6.752817281357792e-05,0.7071067762192306,0,-1,-0.000119511281148732,-1.570916000996725,-1.1746083394825746e-05,-1.5707600752459925,0.000107858024421148,1.1984225238848012e-05
623,1734172716,691006660,-0.00010001306011401352,0.25614101880053464,1.4272999921379066,-0.7071067819985971,2.1228065613267854e-05,-6.314490059793595e-05,0.7071067772364221,0,-1,-0.00013143221010381012,-1.5708921591388147,-3.5587941304981996e-05,-1.5707719961749476,4.793690095539205e-05,2.3968450477696024e-05
638,1734172716,706760168,-0.00014816797711201385,0.25614101747715357,1.427299987271665,-0.7071067834828962,-1.704127339788855e-05,-5.888545851471058e-05,0.7071067762329605,0,-1,-0.000119511281148732,-1.5708921591388147,-5.990663637334137e-05,-1.5707476774798792,7.190534961409867e-05,3.5952674807049334e-05
654,1734172716,723155021,-0.00012838778932085297,0.2561410152988395,1.4272999898834196,-0.7071067834806053,-3.4158114659966926e-05,-6.752817208709849e-05,0.7071067748430089,0,-1,-0.00014335313905888825,-1.5709040800677698,-7.18275653284195e-05,-1.5707719961749476,7.190534961409867e-05,0.0
671,1734172716,738840579,-0.00013485483535892353,0.25614102214704404,1.4272999886718707,-0.7071067824182566,1.6996320789689535e-05,-5.89472757765303e-05,0.7071067772935314,0,-1,-0.000119511281148732,-1.5708802382098597,-3.5587941304981996e-05,-1.5707719961749476,8.388957940042019e-05,3.5952674807049334e-05
686,1734172716,754914522,-0.00014910546133958032,0.25614102188698495,1.4272999869518443,-0.7071067839842098,-8.297107787097424e-06,-5.886307953150622e-05,0.707106775890179,0,-1,-0.00015527406801396637,-1.5708802382098597,-4.7985707418263246e-05,-1.5707719961749476,7.190534961409867e-05,4.793690095539205e-05
702,1734172716,771038770,-0.0001054896652907535,0.2561410163133674,1.4272999924218517,-0.7071067814565445,1.705813760970389e-05,-6.7404342388162e-05,0.7071067774981662,0,-1,-0.00013143221010381012,-1.5708683172809046,0.0,-1.570808235798971,2.3968450477696024e-05,3.5952674807049334e-05
719,1734172716,786636114,-0.00011851446125913044,0.2561410179722775,1.427299990439699,-0.7071067827285217,-1.685562542539718e-05,-8.436985206969933e-05,0.7071067744102975,0,-1,-0.0001671949969690445,-1.570916000996725,-7.18275653284195e-05,-1.5707719961749476,3.5952674807049334e-05,4.793690095539205e-05
734,1734172716,802901029,-7.956805959516333e-05,0.2561410142215111,1.4272999947734282,-0.7071067815564489,2.5442750430826835e-05,-5.050084611135598e-05,0.7071067785555527,0,-1,-0.00014335313905888825,-1.5708802382098597,-7.18275653284195e-05,-1.5707839171039026,0.000107858024421148,2.3968450477696024e-05
750,1734172716,818644762,-8.347645080948574e-05,0.2561410146030254,1.4272999945220308,-0.7071067823182358,2.5380933924087212e-05,-2.51402825731681e-05,0.7071067791524315,0,-1,-0.00014335313905888825,-1.5708921591388147,-2.366701234990387e-05,-1.5707476774798792,3.5952674807049334e-05,2.3968450477696024e-05
767,1734172716,834932804,-0.00011510293150799904,0.2561410156627031,1.4272999909568844,-0.7071067835875321,-1.6939821858414598e-05,-5.9076423831034614e-05,0.7071067761148337,0,-1,-0.000119511281148732,-1.5708921591388147,-1.1746083394825746e-05,-1.5707719961749476,5.992112710373476e-05,-1.1746083394825746e-05
782,1734172716,850538730,-0.00012755960807852356,0.25614101731031946,1.4272999895056178,-0.7071067818162153,-8.420937498777537e-06,-8.445404769086111e-05,0.7071067754633079,0,-1,-0.00014335313905888825,-1.5708921591388147,-4.7985707418263246e-05,-1.5707839171039026,4.793690095539205e-05,2.3968450477696024e-05
798,1734172716,866806268,-0.00016516450704980902,0.2561410240572494,1.4272999829405488,-0.7071067836380331,-2.5346812583618588e-05,-8.438691170756685e-05,0.7071067732453593,0,-1,-0.00015527406801396637,-1.5708921591388147,-5.990663637334137e-05,-1.5707839171039026,5.992112710373476e-05,2.3968450477696024e-05
814,1734172716,882796287,-0.00010769215301444481,0.25614101825318825,1.4272999904682868,-0.7071067828784741,-8.488072944643932e-06,-8.443166930976402e-05,0.7071067744029189,0,-1,-0.00014335313905888825,-1.5708802382098597,-2.366701234990387e-05,-1.5707719961749476,4.793690095539205e-05,3.5952674807049334e-05
830,1734172716,899119615,-0.00010347901857940336,0.2561410174704563,1.4272999920885294,-0.7071067842455033,-8.51045110442128e-06,-5.9031667519153624e-05,0.7071067756122958,0,-1,-0.00010711351503545075,-1.5708921591388147,-4.7985707418263246e-05,-1.5707719961749476,4.793690095539205e-05,1.1984225238848012e-05
846,1734172716,914906024,-0.00011323719227158625,0.2561410154993148,1.4272999919142124,-0.7071067830604074,4.391704561650426e-06,-4.621902508207651e-05,0.7071067777885293,0,-1,-0.00014335313905888825,-1.5709040800677698,-7.18275653284195e-05,-1.5707839171039026,2.3968450477696024e-05,2.3968450477696024e-05
862,1734172716,930714845,-7.761956639839088e-05,0.25614101527705907,1.4272999947077878,-0.7071067814535392,3.389449845969167e-05,-4.2004340250544814e-05,0.7071067788596112,0,-1,-0.00013143221010381012,-1.5708921591388147,-4.7985707418263246e-05,-1.5707600752459925,5.992112710373476e-05,2.3968450477696024e-05
879,1734172716,946685552,-0.00014160221305910134,0.2561410189356015,1.4272999882320871,-0.7071067826637911,-1.2702757824653092e-05,-7.178761486407069e-05,0.7071067759511573,0,-1,-0.00010711351503545075,-1.5708683172809046,-8.374849428349762e-05,-1.5707719961749476,8.388957940042019e-05,4.793690095539205e-05
894,1734172716,963080644,-0.0001583673144462211,0.25614101861598715,1.4272999859525786,-0.7071067827214195,-8.443315733742208e-06,-5.876162837612756e-05,0.7071067771596766,0,-1,-0.00013143221010381012,-1.5708802382098597,-3.5587941304981996e-05,-1.5707719961749476,5.992112710373476e-05,1.1984225238848012e-05
910,1734172716,978975057,-0.00013489356888703085,0.25614101421781527,1.4272999893472467,-0.7071067822688447,-1.701889456199992e-05,-6.738196375093969e-05,0.7071067766889445,0,-1,-0.00013143221010381012,-1.570916000996725,-5.990663637334137e-05,-1.570796314870016,5.992112710373476e-05,5.992112710373476e-05
926,1734172716,994686603,-0.0001499500397533689,0.256141026508106,1.4272999853445258,-0.7071067834868123,-1.6878004288318337e-05,-9.27768426844362e-05,0.7071067725983995,0,-1,-8.32716571252945e-05,-1.5708563963519495,-3.5587941304981996e-05,-1.5707476774798792,4.793690095539205e-05,2.3968450477696024e-05
942,1734172717,10939359,-0.00012182929783758561,0.25614101822918794,1.427299990004102,-0.7071067844856771,-1.2702757635819155e-05,-5.4794604409885386e-05,0.7071067756502674,0,-1,-0.00014335313905888825,-1.570916000996725,-3.5587941304981996e-05,-1.570796314870016,2.3968450477696024e-05,2.3968450477696024e-05
958,1734172717,26626586,-0.00012202966484745955,0.2561410182555226,1.4272999903248729,-0.7071067839816255,-2.956681539865168e-05,-7.165866195002809e-05,0.7071067741423515,0,-1,-0.00014335313905888825,-1.5709040800677698,-4.7985707418263246e-05,-1.5707839171039026,3.5952674807049334e-05,2.3968450477696024e-05
974,1734172717,42929410,-0.00011335339340097024,0.2561410170291086,1.4272999913134288,-0.707106784334521,-1.2747516185214039e-05,-4.636523278891711e-05,0.7071067764035776,0,-1,-0.000119511281148732,-1.5708921591388147,-8.374849428349762e-05,-1.5707600752459925,5.992112710373476e-05,0.0
990,1734172717,58658361,-0.00011895459416891229,0.2561410162289556,1.4272999911766102,-0.7071067826085149,-4.082422113728667e-06,-6.31672792098707e-05,0.7071067769313649,0,-1,-0.00015527406801396637,-1.5709040800677698,-7.18275653284195e-05,-1.5707719961749476,4.793690095539205e-05,2.3968450477696024e-05
1006,1734172717,74944496,-0.00012871379875606373,0.2561410193459037,1.4272999892966562,-0.7071067820499137,1.2843452482194254e-05,-6.314490062408493e-05,0.7071067773871094,0,-1,-0.00014335313905888825,-1.5708802382098597,-4.7985707418263246e-05,-1.5707719961749476,4.793690095539205e-05,-1.1746083394825746e-05
1023,1734172717,90641260,-0.00016250897805634784,0.25614102593258636,1.4272999841981728,-0.7071067848521574,-8.465693778566322e-06,-5.898691029532373e-05,0.7071067750099141,0,-1,-0.00014335313905888825,-1.5708802382098597,-1.1746083394825746e-05,-1.5707600752459925,3.5952674807049334e-05,2.3968450477696024e-05
1038,1734172717,106684684,-0.00012437809091995526,0.2561410245588144,1.427299988085706,-0.7071067830684706,4.20073889558812e-06,-8.860159688698393e-05,0.7071067737411866,0,-1,-0.00010711351503545075,-1.5708802382098597,-2.366701234990387e-05,-1.5707839171039026,5.992112710373476e-05,1.1984225238848012e-05
1054,1734172717,122830629,-0.00011239364436332128,0.2561410169890391,1.427299991677556,-0.7071067836706268,-2.096885834408735e-05,-6.306070493801139e-05,0.7071067755796403,0,-1,-0.00015527406801396637,-1.5709040800677698,-3.5587941304981996e-05,-1.5707719961749476,7.190534961409867e-05,1.1984225238848012e-05
1070,1734172717,138544082,-0.00011138326799929467,0.2561410152181613,1.427299991953938,-0.7071067830106491,-4.127179961863454e-06,-4.6263781962032954e-05,0.7071067778369541,0,-1,-0.00015527406801396637,-1.5709040800677698,-4.7985707418263246e-05,-1.5707600752459925,3.5952674807049334e-05,1.1984225238848012e-05
1086,1734172717,154874563,-0.00012631715821381057,0.25614101693009916,1.4272999897245218,-0.7071067847090696,-1.7063650916638765e-05,-5.072612805594461e-05,0.7071067756386537,0,-1,-0.00014335313905888825,-1.5708563963519495,-7.18275653284195e-05,-1.5707476774798792,7.190534961409867e-05,0.0
1102,1734172717,170578956,-0.00010861398114673108,0.256141020089688,1.427299991539471,-0.7071067824658298,1.699100185761557e-05,-5.890783680261596e-05,0.7071067772493728,0,-1,-9.519258608037262e-05,-1.5708802382098597,-7.18275653284195e-05,-1.5707839171039026,8.388957940042019e-05,5.992112710373476e-05
1119,1734172717,187004566,-0.0001345439121934608,0.2561410140454904,1.4272999899549568,-0.7071067834854505,-8.611903706964946e-06,-3.35525916242429e-05,0.7071067780391579,0,-1,-0.00015527406801396637,-1.5708802382098597,-4.7985707418263246e-05,-1.5707719961749476,8.388957940042019e-05,4.793690095539205e-05
1134,1734172717,202627897,-0.00013979994751421213,0.2561410270313363,1.4272999866259792,-0.7071067839915066,-8.532830706228773e-06,-8.438691132249608e-05,0.7071067732946905,0,-1,-0.00013143221010381012,-1.5708802382098597,-4.7985707418263246e-05,-1.5707719961749476,4.793690095539205e-05,1.1984225238848012e-05
1150,1734172717,218949317,-0.00012092471954392242,0.25614101818312773,1.4272999904700718,-0.7071067839923134,-8.465695180300962e-06,-5.903166692446441e-05,0.7071067758660229,0,-1,-0.00013143221010381012,-1.5709040800677698,-4.7985707418263246e-05,-1.570796314870016,4.793690095539205e-05,2.3968450477696024e-05
1166,1734172717,234629154,-0.00015510168205309493,0.25614102050259363,1.4272999859840467,-0.7071067837809212,-2.125595820076235e-05,-7.18666877667923e-05,0.707106774620612,0,-1,-0.000119511281148732,-1.5708683172809046,-8.374849428349762e-05,-1.5707600752459925,4.793690095539205e-05,3.5952674807049334e-05
1182,1734172717,250768661,-0.00014752584287293502,0.2561410216793722,1.4272999868740766,-0.7071067835809178,-1.67936130808804e-05,-6.735958469131541e-05,0.7071067753843899,0,-1,-0.00015527406801396637,-1.5709040800677698,-2.366701234990387e-05,-1.5707719961749476,4.793690095539205e-05,4.793690095539205e-05
1198,1734172717,266674757,-0.00011419242797153993,0.25614101735787637,1.4272999914328681,-0.7071067826476106,4.49315605712219e-06,-5.454694319655689e-05,0.7071067776073054,0,-1,-0.00013143221010381012,-1.5708563963519495,-7.18275653284195e-05,-1.5707719961749476,5.992112710373476e-05,3.5952674807049334e-05
1214,1734172717,282903432,-0.00010685600873139059,0.256141018027389,1.4272999920012266,-0.7071067832234105,8.561631567197645e-06,-5.0433709879568116e-05,0.7071067772992846,0,-1,-9.519258608037262e-05,-1.5708802382098597,-4.7985707418263246e-05,-1.5707600752459925,4.793690095539205e-05,4.793690095539205e-05
1230,1734172717,298765420,-9.597125757680855e-05,0.25614101657296107,1.427299993029766,-0.707106781997925,2.1250443907477398e-05,-5.4693152644478146e-05,0.7071067779406562,0,-1,-9.519258608037262e-05,-1.5709040800677698,-1.1746083394825746e-05,-1.5707719961749476,4.793690095539205e-05,5.992112710373476e-05
1246,1734172717,315180778,-0.00013131560862159993,0.2561410215337494,1.42729998802429,-0.7071067837277297,-2.111506806673611e-05,-8.011040927696108e-05,0.7071067737921212,0,-1,-0.00013143221010381012,-1.5708921591388147,-8.374849428349762e-05,-1.570796314870016,3.5952674807049334e-05,2.3968450477696024e-05
1262,1734172717,330693960,-0.0001376716880663311,0.2561410264172846,1.4272999869987097,-0.7071067860025206,-1.2747515296513906e-05,-6.317921604806735e-05,0.7071067734331733,0,-1,-0.00013143221010381012,-1.5708683172809046,-5.990663637334137e-05,-1.5707600752459925,7.190534961409867e-05,2.3968450477696024e-05
1278,1734172717,346525192,-0.00012057464254542145,0.25614102005358685,1.4272999897156697,-0.7071067830620009,-4.127179626171587e-06,-7.159664849440126e-05,0.7071067756743636,0,-1,-0.00013143221010381012,-1.5708802382098597,-8.374849428349762e-05,-1.5707839171039026,4.793690095539205e-05,4.793690095539205e-05
1294,1734172717,362778186,-0.0001336092844337581,0.2561410259234579,1.4272999872234209,-0.7071067845997735,-5.870302220090346e-08,-6.743865885472326e-05,0.7071067745574168,0,-1,-0.00013143221010381012,-1.5708921591388147,-5.990663637334137e-05,-1.5707839171039026,2.3968450477696024e-05,2.3968450477696024e-05
1310,1734172717,379219770,-0.00013800743536662594,0.25614102233414077,1.427299987601845,-0.707106784385813,-8.36424392229414e-06,-5.0411330217897e-05,0.7071067761408404,0,-1,-0.00015527406801396637,-1.5708563963519495,-5.990663637334137e-05,-1.5707476774798792,1.1984225238848012e-05,4.793690095539205e-05
1327,1734172717,394800901,-8.22427773633086e-05,0.25614101179513254,1.4272999949743561,-0.707106782669959,1.0988380373979804e-07,-5.050084575902072e-05,0.7071067778997681,0,-1,-9.519258608037262e-05,-1.5709040800677698,-5.990663637334137e-05,-1.5707839171039026,3.5952674807049334e-05,4.793690095539205e-05
1342,1734172717,411172151,-0.00014033462021251463,0.25614102275382256,1.4272999878257602,-0.7071067845758688,-4.08242156330887e-06,-5.4603638079823115e-05,0.7071067756771622,0,-1,-0.00015527406801396637,-1.570916000996725,-3.5587941304981996e-05,-1.5707839171039026,3.5952674807049334e-05,5.992112710373476e-05
1358,1734172717,426903009,-0.00014977027362874474,0.2561410241064531,1.427299985927342,-0.7071067847499984,-2.5391569068584967e-05,-7.591278538234602e-05,0.7071067730923222,0,-1,-0.00014335313905888825,-1.5708563963519495,-4.7985707418263246e-05,-1.5707839171039026,7.190534961409867e-05,4.793690095539205e-05
1374,1734172717,443250417,-0.00010872174763165605,0.25614101822201796,1.4272999910604716,-0.7071067839813139,4.1783606888139125e-06,-4.634285582196509e-05,0.7071067768608108,0,-1,-0.000119511281148732,-1.5709040800677698,-2.366701234990387e-05,-1.5707719961749476,2.3968450477696024e-05,1.1984225238848012e-05
1391,1734172717,458897590,-0.00015647745106344606,0.2561410298793201,1.4272999835450644,-0.7071067840416446,-8.465694499377035e-06,-9.279390269342954e-05,0.7071067721920831,0,-1,-0.0001671949969690445,-1.5708683172809046,-3.5587941304981996e-05,-1.5707839171039026,5.992112710373476e-05,2.3968450477696024e-05
1406,1734172717,475129842,-0.00012336422507766665,0.25614101486668317,1.427299990652239,-0.7071067826611495,-1.2848966603263052e-05,-6.316727921081311e-05,0.7071067767737746,0,-1,-0.00013143221010381012,-1.5708802382098597,-8.374849428349762e-05,-1.5707839171039026,2.3968450477696024e-05,1.1984225238848012e-05
1423,1734172717,490936279,-7.793919597618149e-05,0.25614101263938066,1.4272999948191873,-0.707106782311089,4.155981559905437e-06,-6.335824522211642e-05,0.707106777211277,0,-1,-0.00014335313905888825,-1.5708921591388147,-2.366701234990387e-05,-1.570796314870016,7.190534961409867e-05,2.3968450477696024e-05
1438,1734172717,506661176,-8.1000327415535e-05,0.2561410112162835,1.4272999951170309,-0.707106784247261,-1.7006956356786e-05,-2.5247053280251302e-05,0.7071067774705933,0,-1,-0.000119511281148732,-1.5708563963519495,-1.1746083394825746e-05,-1.5707476774798792,4.793690095539205e-05,2.3968450477696024e-05
1454,1734172717,522723913,-0.0001526461000005079,0.2561410247305825,1.4272999857839035,-0.7071067825242633,-8.443316052263637e-06,-9.286103865654436e-05,0.7071067737009187,0,-1,-0.00014335313905888825,-1.5708921591388147,1.1920928955078125e-05,-1.5707839171039026,7.190534961409867e-05,0.0
1470,1734172717,539012193,-0.00013555674722401145,0.25614101816675344,1.4272999891697695,-0.7071067832274056,-8.297107231434917e-06,-5.8907836798889835e-05,0.7071067766432559,0,-1,-0.00013143221010381012,-1.5708921591388147,-1.1746083394825746e-05,-1.5707839171039026,1.1984225238848012e-05,2.3968450477696024e-05
1486,1734172717,555113315,-0.00016506852612259976,0.25614102637233616,1.4272999830556976,-0.7071067842443568,-3.382093976344994e-05,-9.281628091836766e-05,0.7071067712282826,0,-1,-0.00015527406801396637,-1.5708921591388147,-2.366701234990387e-05,-1.570808235798971,4.793690095539205e-05,2.3968450477696024e-05
1502,1734172717,570864439,-0.0001807405984328737,0.2561410209065329,1.4272999828799844,-0.7071067835282947,-4.241889693028161e-05,-7.578895432541054e-05,0.7071067735108616,0,-1,-0.00014335313905888825,-1.5709040800677698,-7.18275653284195e-05,-1.5707719961749476,5.992112710373476e-05,4.793690095539205e-05
1519,1734172717,587022542,-8.997954987720279e-05,0.25614101560809555,1.4272999937928574,-0.7071067823116056,2.546512881540662e-05,-3.353021267778417e-05,0.7071067788079674,0,-1,-0.000119511281148732,-1.5708802382098597,-7.18275653284195e-05,-1.5707719961749476,7.190534961409867e-05,2.3968450477696024e-05
1535,1734172717,602865695,-6.647126406670308e-05,0.2561410098506702,1.4272999963045205,-0.7071067824021724,1.2776316335305231e-05,-2.9360285716294804e-05,0.7071067792459538,0,-1,-0.00014335313905888825,-1.5708802382098597,-7.18275653284195e-05,-1.5707719961749476,4.793690095539205e-05,2.3968450477696024e-05
1550,1734172717,618948698,-0.0001963578767803125,0.25614102809747435,1.4272999785338647,-0.7071067842454267,-3.3798561147614355e-05,-8.436453271304815e-05,0.7071067722871662,0,-1,-0.000119511281148732,-1.5708802382098597,-3.5587941304981996e-05,-1.5707600752459925,4.793690095539205e-05,2.3968450477696024e-05
1566,1734172717,634730815,-6.036438648656577e-05,0.2561410113626689,1.4272999963045205,-0.7071067824029796,1.2731559425305593e-05,-4.626378197418589e-05,0.7071067783420514,0,-1,-0.00014335313905888825,-1.570916000996725,-1.1746083394825746e-05,-1.5707719961749476,7.190534961409867e-05,4.793690095539205e-05
1582,1734172717,650720834,-8.756929159560246e-05,0.25614101536851286,1.4272999937119046,-0.7071067817071726,2.546512874310829e-05,-5.047846781361907e-05,0.7071067784056213,0,-1,-0.00013143221010381012,-1.5708921591388147,-7.18275653284195e-05,-1.5707600752459925,4.793690095539205e-05,2.3968450477696024e-05
1598,1734172717,666971206,-0.00015541232512065597,0.2561410248291864,1.42729998550597,-0.7071067850420604,-1.2725137789501642e-05,-5.477222413662963e-05,0.7071067750952156,0,-1,-0.000119511281148732,-1.5709040800677698,-1.1746083394825746e-05,-1.5707600752459925,4.793690095539205e-05,2.3968450477696024e-05
1614,1734172717,682549238,-0.00013053072465391664,0.2561410155879654,1.4272999903156414,-0.7071067830233684,-8.465694651229053e-06,-5.030987975014491e-05,0.707106777509303,0,-1,-0.00013143221010381012,-1.5709040800677698,-5.990663637334137e-05,-1.5707719961749476,8.388957940042019e-05,0.0
1630,1734172717,698875427,-0.00014577031276670672,0.2561410257266836,1.427299984875327,-0.7071067848887832,-2.1176884195829647e-05,-8.012747018381662e-05,0.7071067726272859,0,-1,-0.00013143221010381012,-1.5708802382098597,-1.1746083394825746e-05,-1.5707719961749476,1.1984225238848012e-05,3.5952674807049334e-05
1646,1734172717,714716196,-0.00012262752191949793,0.25614102034787356,1.4272999901070287,-0.707106783226879,-8.341864463041693e-06,-7.581133330767543e-05,0.7071067750330147,0,-1,-0.00014335313905888825,-1.5708921591388147,-1.1746083394825746e-05,-1.5707719961749476,4.793690095539205e-05,3.5952674807049334e-05
1662,1734172717,730806589,-0.00011562684948789566,0.25614101754640556,1.4272999912504525,-0.7071067825513437,2.129520056494671e-05,-3.774489882433163e-05,0.7071067784936895,0,-1,-0.0001671949969690445,-1.5708802382098597,-5.990663637334137e-05,-1.5707600752459925,7.190534961409867e-05,4.793690095539205e-05
1678,1734172717,746412277,-0.00012390831215654792,0.2561410168209808,1.4272999895019924,-0.7071067831866399,-8.567145829730259e-06,-6.765200298452088e-05,0.7071067758982745,0,-1,-0.00013143221010381012,-1.5708802382098597,-3.5587941304981996e-05,-1.5707600752459925,3.5952674807049334e-05,1.1984225238848012e-05
1694,1734172717,762625932,-8.477191746602349e-05,0.2561410118789017,1.4272999949292657,-0.7071067833672229,-4.211376425192662e-06,-2.9399723327782278e-05,0.7071067783821477,0,-1,-0.00015527406801396637,-1.5708921591388147,-8.374849428349762e-05,-1.5707839171039026,4.793690095539205e-05,3.5952674807049334e-05
1710,1734172717,778707504,-9.674672734576932e-05,0.2561410165781917,1.4272999930248123,-0.7071067826419624,1.2922525462900694e-05,-4.607281595789921e-05,0.7071067781120731,0,-1,-0.00015527406801396637,-1.5708921591388147,-2.366701234990387e-05,-1.5707719961749476,4.793690095539205e-05,3.5952674807049334e-05
1726,1734172717,794816255,-0.00012362808143932187,0.2561410185980252,1.4272999897156697,-0.7071067830216702,8.606389423805931e-06,-5.0433709912066174e-05,0.7071067775004817,0,-1,-0.000119511281148732,-1.5709040800677698,-7.18275653284195e-05,-1.5707357565509241,7.190534961409867e-05,3.5952674807049334e-05
1742,1734172717,810945749,-9.572556670522085e-05,0.2561410197682556,1.4272999925257128,-0.7071067813391992,3.4063085842734934e-05,-5.8739250085815095e-05,0.7071067777737139,0,-1,-0.00014335313905888825,-1.5708802382098597,-5.990663637334137e-05,-1.5707719961749476,4.793690095539205e-05,1.1984225238848012e-05
1758,1734172717,827038764,-0.00012358275754126128,0.2561410224139508,1.4272999895778973,-0.7071067826551728,1.718196757280608e-05,-5.87168711119513e-05,0.7071067770712985,0,-1,-0.00014335313905888825,-1.5709040800677698,-5.990663637334137e-05,-1.5707600752459925,1.1984225238848012e-05,2.3968450477696024e-05
1774,1734172717,842599868,-0.00013095822973089823,0.25614102158845337,1.4272999885332056,-0.7071067830682034,4.245496127184846e-06,-7.169810040542519e-05,0.707106775657181,0,-1,-0.00010711351503545075,-1.5708921591388147,-1.1746083394825746e-05,-1.5707600752459925,4.793690095539205e-05,2.3968450477696024e-05
1790,1734172717,858794689,-6.830458753361284e-05,0.2561410114061876,1.4272999957729966,-0.7071067816588199,1.701338039024594e-05,-5.8974972706122966e-05,0.7071067780502486,0,-1,-0.00013143221010381012,-1.5708320776568812,-3.5587941304981996e-05,-1.5707719961749476,2.3968450477696024e-05,1.1984225238848012e-05
1806,1734172717,874881029,-0.00013125316574024646,0.25614101964655356,1.4272999889747278,-0.707106782727279,8.460180940491189e-06,-5.9054045931174426e-05,0.7071067771292547,0,-1,-0.000119511281148732,-1.5708802382098597,-5.990663637334137e-05,-1.5707600752459925,8.388957940042019e-05,0.0
1822,1734172717,890512228,-0.00011737497569954322,0.25614101604017336,1.4272999910348378,-0.707106782455271,4.369326202291199e-06,-5.471553093762771e-05,0.7071067777873958,0,-1,-0.00013143221010381012,-1.5708802382098597,-5.990663637334137e-05,-1.5707357565509241,4.793690095539205e-05,4.793690095539205e-05
1838,1734172717,906556844,-0.00016460369892730268,0.25614103110556896,1.4272999826474055,-0.7071067851549474,-8.488072663474698e-06,-7.586802847293552e-05,0.7071067730971257,0,-1,-0.00014335313905888825,-1.5708921591388147,-8.374849428349762e-05,-1.5707600752459925,3.5952674807049334e-05,2.3968450477696024e-05
1854,1734172717,922709465,-9.205715195540898e-05,0.2561410144949348,1.4272999935596034,-0.707106782008365,2.1104235451355227e-05,-4.64099914335082e-05,0.7071067785267643,0,-1,-0.0001671949969690445,-1.5708921591388147,-5.990663637334137e-05,-1.5707719961749476,4.793690095539205e-05,1.1984225238848012e-05
1870,1734172717,938903570,-0.0001319340665115172,0.2561410216224073,1.4272999888000428,-0.7071067840192504,4.391704691616333e-06,-5.460363683669123e-05,0.7071067762319273,0,-1,-0.00013143221010381012,-1.5708802382098597,-2.366701234990387e-05,-1.5707476774798792,5.992112710373476e-05,2.3968450477696024e-05
1886,1734172717,954664230,-0.00015168422709033817,0.2561410199617501,1.4272999867425764,-0.7071067839725146,-2.100829693299184e-05,-5.4670773922969686e-05,0.707106775975033,0,-1,-0.00013143221010381012,-1.5709040800677698,-7.18275653284195e-05,-1.5707476774798792,3.5952674807049334e-05,2.3968450477696024e-05
1903,1734172717,970933198,-0.00010503662435512401,0.2561410194746286,1.427299991551139,-0.7071067834880821,8.393044210279173e-06,-5.9031666921411886e-05,0.7071067763711203,0,-1,-0.00014335313905888825,-1.5708802382098597,-5.990663637334137e-05,-1.5707719961749476,5.992112710373476e-05,2.3968450477696024e-05
1919,1734172717,986432790,-0.00011472085892122334,0.25614101742732925,1.427299991539471,-0.7071067826181354,8.561632139178904e-06,-5.0478467143385925e-05,0.7071067779013659,0,-1,-0.00010711351503545075,-1.5708921591388147,-4.7985707418263246e-05,-1.5707476774798792,4.793690095539205e-05,3.5952674807049334e-05
1934,1734172718,2517223,-0.0001417484408542717,0.25614102523461035,1.4272999867711784,-0.7071067834358613,8.437802093271265e-06,-6.746103660538705e-05,0.7071067756688533,0,-1,-0.00013143221010381012,-1.5708921591388147,-4.7985707418263246e-05,-1.5707719961749476,4.793690095539205e-05,3.5952674807049334e-05
1950,1734172718,18405199,-0.00011531441353715417,0.25614101750534146,1.4272999914712299,-0.7071067826218447,8.499814898749902e-06,-5.054028438372007e-05,0.7071067778939869,0,-1,-0.00013143221010381012,-1.5708802382098597,-2.366701234990387e-05,-1.5707476774798792,2.3968450477696024e-05,0.0
1966,1734172718,34652709,-0.00014091780120192843,0.2561410251850851,1.4272999868457663,-0.7071067823596534,1.2697244072912167e-05,-8.014984837388451e-05,0.7071067753569892,0,-1,-0.00013143221010381012,-1.5708921591388147,-0.00010759035219365387,-1.570808235798971,7.190534961409867e-05,1.1984225238848012e-05
1982,1734172718,50404071,-0.00024069249309844503,0.2561410332888589,1.427299965053242,-0.7071067879433645,-9.310700918376824e-05,-9.28282155794434e-05,0.7071067622066877,0,-1,-0.000119511281148732,-1.5708683172809046,-0.0002630392657678726,-1.5707476774798792,0.00015579492901451886,3.5952674807049334e-05
1998,1734172718,66724777,-0.00036301451247578256,0.25614102196957267,1.4272999145526308,-0.7071067985630755,-0.00020341835746617444,-2.5069516170709097e-05,0.7071067341062235,0,-1,-7.135072817021637e-05,-1.5708444754229944,-0.0006464163409631851,-1.5706399122821253,0.0005029629683122039,0.00011984225420746952
2014,1734172718,82442760,-0.000682643261010338,0.2561410008635262,1.4272996854535243,-0.7071068318457656,-0.000431739346082117,5.154372283077135e-05,0.7071065968447937,0,-1,-1.1746083394825746e-05,-1.570820156727926,-0.0012930075274866226,-1.5704720656024378,0.001006300444714725,0.00023968450841493905
2031,1734172718,98884582,-0.001353734440380131,0.2561407856336404,1.4272988342420785,-0.7071068998821348,-0.0008549080978314435,0.00017867012844637988,0.7071061231160469,0,-1,0.00014381069922819734,-1.5708563963519495,-0.002263371144429982,-1.5702326933490198,0.0018088689539581537,0.000514947168994695
2046,1734172718,114524602,-0.00231177798101311,0.25614026105058113,1.4272965561825919,-0.7071071337889826,-0.0014691319160590151,0.0003183768835571338,0.707104830723354,0,-1,0.00033480930142104626,-1.5708921591388147,-0.0037596861468713882,-1.5699084440814417,0.0029106687288731337,0.0008624896872788668
2063,1734172718,130887269,-0.00372421251105149,0.25613881280680595,1.4272912913016078,-0.7071075979549962,-0.002361868185242324,0.0005089975390116906,0.7071018366646322,0,-1,0.0005984622403047979,-1.5709765593158167,-0.00572377840151006,-1.5694893042193812,0.0044558849185705185,0.0013894210569560528
2078,1734172718,147234678,-0.0055195388819277245,0.2561357182400131,1.427280924173701,-0.7071085255843222,-0.0035258423394410243,0.0007760688343822114,0.707095820380044,0,-1,0.0008857091306708753,-1.5710604826556605,-0.008225742970601857,-1.5689733664142054,0.0064321584068238735,0.0019523052033036947
2094,1734172718,162900924,-0.007867543608699193,0.2561301981574814,1.42726169999926,-0.7071103009054456,-0.00502486277909009,0.0010896556448330692,0.7070845676141131,0,-1,0.0012328771408647299,-1.571240250264303,-0.011207405720845998,-1.5683859030352991,0.008887801319360733,0.002790451981127262
2110,1734172718,179081439,-0.010591730658467403,0.2561210946004673,1.4272312395999016,-0.7071129801974223,-0.006802480546096309,0.001463005138257283,0.7070663470359095,0,-1,0.0016515760216861963,-1.5714319388019007,-0.01472789445985967,-1.567702595387594,0.01167862769216299,0.003712862730026245
2126,1734172718,194682836,-0.013762382968359792,0.2561081505780226,1.4271844819105537,-0.7071174247263791,-0.008783501909340154,0.0018698305137971145,0.7070391088733293,0,-1,0.002130570588633418,-1.5717080275165003,-0.0187152067767542,-1.566922966633932,0.014864559285342693,0.004730772692710161
2142,1734172718,211168527,-0.017376608391153354,0.2560884062334461,1.4271171162087013,-0.7071239028561108,-0.011056642724802019,0.002348420945032616,0.7069993080479375,0,-1,0.002597206272184849,-1.572019402180807,-0.02301341692079717,-1.5659878889666956,0.01843436062335968,0.005844556726515293
2158,1734172718,226902246,-0.02117654311509694,0.2560617584242987,1.427029382292672,-0.7071318833568878,-0.01349461118509055,0.0028994132721693665,0.7069469487958635,0,-1,0.0032192624639719725,-1.572343651448385,-0.027671162282125294,-1.5650408903705042,0.022255081683397293,0.007042230572551489
2174,1734172718,243222236,-0.02531634450370993,0.25602590153664384,1.4269151275323961,-0.7071413554930417,-0.016118658359866415,0.0035008922318497983,0.7068797889017074,0,-1,0.0038061151280999184,-1.5727151075946253,-0.03262836137880498,-1.5639851729022425,0.026315860450267792,0.008299450390040874
2190,1734172718,258934974,-0.029730522373634764,0.2559830793722966,1.4267708281152875,-0.7071542751672247,-0.018949392709750962,0.004089682952841647,0.7067934819464551,0,-1,0.004452139604836702,-1.5730269590960901,-0.037836853657857716,-1.5629423300372522,0.030580371618270874,0.009569029323756695
2206,1734172718,275196075,-0.03424818109207633,0.25593180154433,1.4265982293749493,-0.7071692954860676,-0.02180535986980401,0.004686177632246803,0.7066924037669333,0,-1,0.005122507456690073,-1.573338810597555,-0.04318887392152959,-1.5617669264422815,0.03489207103848457,0.010910513810813427
2223,1734172718,290919542,-0.03883131141025982,0.2558712035320702,1.4263985312843017,-0.7071871748314985,-0.024702893589409653,0.005350930332522605,0.7065744365222466,0,-1,0.005780516192317009,-1.5737345854388636,-0.04866058031191045,-1.5605557600604456,0.03935994207859039,0.01238344982266426
2238,1734172718,307056665,-0.04347371511277464,0.255798622853908,1.426171613662241,-0.7072067603047737,-0.02763842154629121,0.006112020877447777,0.7064399189134555,0,-1,0.006486461963504553,-1.5740345160113733,-0.054192368184224904,-1.5592730681048792,0.04385177791118622,0.01385676022619009
2255,1734172718,322933435,-0.04812278164345514,0.25572063576402426,1.425916532111137,-0.7072300944965273,-0.03058568312349992,0.006826092432413598,0.706288548603477,0,-1,0.007144845090806484,-1.574322525654928,-0.05967599550356084,-1.558014218007223,0.04845147207379341,0.015293744392693043
2270,1734172718,339187145,-0.05268901341421112,0.2556365412702145,1.4256401505134833,-0.7072570144486836,-0.033532242500386195,0.007598944982949618,0.7061199333407718,0,-1,0.007803228683769703,-1.5746100584613245,-0.06523162523378545,-1.5568035284625452,0.05303918570280075,0.01683858595788479
2287,1734172718,354923009,-0.05728557338906236,0.2555463665620667,1.4253362421265467,-0.7072867826564362,-0.036431292030058,0.008325389961438745,0.7059382805334457,0,-1,0.008413675241172314,-1.5748861471759241,-0.07060748735536748,-1.5556405226336878,0.05748346075415611,0.01828792691230774
2302,1734172718,370674133,-0.06175576975445392,0.25544857400925003,1.4250178839898129,-0.7073168886932492,-0.03927900271089629,0.009025484082805556,0.7057467814679782,0,-1,0.009035731665790081,-1.575197998677389,-0.0757678190814417,-1.5544770399676722,0.061963312327861786,0.019665364176034927
2319,1734172718,386914730,-0.06612251573666175,0.2553435249818871,1.4246844015617808,-0.707348079960956,-0.04209220855663529,0.009767282450902668,0.7055434359044791,0,-1,0.009646552614867687,-1.5754616896258753,-0.08089238802065069,-1.5533140341388147,0.06610798090696335,0.021030442789196968
2334,1734172718,403038501,-0.07022060434299543,0.2552444907042385,1.4243455510323948,-0.7073824863239558,-0.04469308182608342,0.010424338296792268,0.70533954918897,0,-1,0.01020906213670969,-1.57574969926943,-0.08581382433046514,-1.5522587935077112,0.07012119889259338,0.022335974499583244
2351,1734172718,418935060,-0.0742700738972329,0.25513592831884085,1.4239935607662237,-0.7074141928065841,-0.04729334063094545,0.011038304680000102,0.7051288219733793,0,-1,0.01072326023131609,-1.5759533087359827,-0.09066230455507451,-1.5512402693377894,0.0740022137761116,0.02356960065662861
2366,1734172718,435190677,-0.07819515862057885,0.25503072101654284,1.4236308301202352,-0.7074500562943202,-0.049774518076990425,0.011601634409041762,0.7049129856077311,0,-1,0.011274159885942936,-1.5761688391314905,-0.09525996843446904,-1.5502684752093714,0.07782331109046936,0.024742931127548218
2383,1734172718,450945615,-0.08198078015447621,0.25491960891402976,1.423264409360819,-0.707483302662524,-0.052229743754944886,0.012164053798565522,0.70469246208272,0,-1,0.011776748113334179,-1.5764454046832483,-0.09971362749208623,-1.54932147661318,0.08148860931396484,0.025952588766813278
2398,1734172718,467203378,-0.08564501734645669,0.25480703535084565,1.422895902489815,-0.7075185095346793,-0.054544760760190554,0.012730314214231812,0.7044716934266744,0,-1,0.012314914725720882,-1.576625172291891,-0.1040118376361292,-1.5483382383929651,0.08499886840581894,0.027090340852737427
2414,1734172718,482916116,-0.08917849840340951,0.2546953593810274,1.4225210964464126,-0.7075546719905917,-0.05682560616483531,0.013287921344646183,0.7042447499091659,0,-1,0.012793909758329391,-1.5769007841693323,-0.10835773149599248,-1.5474150816546839,0.08855631202459335,0.028168171644210815
2430,1734172718,499159336,-0.09273444320574639,0.25457706495944094,1.422129531326802,-0.7075919148644663,-0.05910103073169049,0.013840606108153276,0.7040093662782113,0,-1,0.013320466503500938,-1.5770567099200647,-0.11264402071108037,-1.5464437643634241,0.09210214018821716,0.02928195707499981
2446,1734172718,515007495,-0.09635101832369494,0.25444839011398396,1.4217146586688663,-0.7076290642036654,-0.06143104388775798,0.014405624285863483,0.7037611898435715,0,-1,0.013823429122567177,-1.577308479939596,-0.11712199846376592,-1.5453885237323206,0.09567194432020187,0.03046727180480957
2462,1734172718,531244754,-0.10000997802121911,0.2543175456277911,1.4212766379359403,-0.7076707886378183,-0.06374682629285465,0.014956954926187312,0.7035017317289651,0,-1,0.01442151702940464,-1.577512566243307,-0.12168342271913701,-1.5443819204913538,0.09934960305690765,0.03162936493754387
2479,1734172718,547034978,-0.10387300542067895,0.25417229543798725,1.4208003199049597,-0.7077129855391345,-0.06623017954959189,0.015507483697170855,0.7032178975008354,0,-1,0.014996010810136795,-1.577751938496725,-0.12634069124330694,-1.5433743635760706,0.10314710438251495,0.03277910128235817
2494,1734172718,563193082,-0.10778756909332717,0.25401724440541057,1.420299339307096,-0.7077583954752921,-0.06875053234961843,0.016103336272924044,0.7029168517660999,0,-1,0.015546536073088646,-1.578076187764303,-0.13123780885805303,-1.5423792044269007,0.10718391090631485,0.034012727439403534
2511,1734172718,579005718,-0.11197195843301275,0.2538517733862848,1.4197450666310412,-0.7078094117816451,-0.07140433709515707,0.016664179986449226,0.7025877613100743,0,-1,0.016144998371601105,-1.5783517996417444,-0.1361468474017542,-1.5413716475116175,0.11118477582931519,0.035282306373119354
2526,1734172718,594743967,-0.116202767068991,0.2536760286631822,1.4191650172679846,-0.7078641617181759,-0.07409461766417894,0.01724490046700336,0.7022399373405834,0,-1,0.01677941344678402,-1.5786760489093226,-0.1412108580218714,-1.5403531233416956,0.11524593085050583,0.036659371107816696
2542,1734172718,611025094,-0.12054679484432013,0.25349147580889303,1.418546128399161,-0.70791956767147,-0.07685038877830142,0.01778246568093976,0.7018744099671744,0,-1,0.017437797039747238,-1.5790475050555628,-0.14639455476869756,-1.5393217245685022,0.11936700344085693,0.03794093430042267
2558,1734172718,626851797,-0.12495963731881227,0.25328629182642254,1.4178948343108977,-0.7079755956831274,-0.07967657434524765,0.01839035043406314,0.7014869880679465,0,-1,0.018036259338259697,-1.5793712774859827,-0.15159112611879522,-1.5382426420794886,0.12361953407526016,0.0392584502696991
2574,1734172718,642951011,-0.1293542682825161,0.2530828189948259,1.4172180508964418,-0.7080356126655263,-0.08250056687261052,0.01894655677382761,0.7010850559307814,0,-1,0.018658315762877464,-1.5797069708453577,-0.156870190297262,-1.5371277968036097,0.1279083788394928,0.04058757424354553
2590,1734172718,658666849,-0.13372675382158702,0.2528687724715315,1.4165206265228314,-0.7080956199986067,-0.08533574202119945,0.01955652686337248,0.700668214156688,0,-1,0.01935265213251114,-1.5800307432757776,-0.16215020815004522,-1.536048714314596,0.13220885396003723,0.041881121695041656
2606,1734172718,674927711,-0.13814584887938647,0.2526496173240935,1.4157906851853017,-0.7081630320152977,-0.08815634993343499,0.020169130986167665,0.7002333783879321,0,-1,0.019987065345048904,-1.5803306738482874,-0.16742974916567022,-1.534945313130514,0.13652166724205017,0.04322260618209839
2622,1734172718,690665721,-0.1425267098875417,0.252415773824705,1.4150466544940516,-0.7082287032455746,-0.09102489247953748,0.020865434273279304,0.69977939845409,0,-1,0.020561184734106064,-1.5806787649737757,-0.1726616064654749,-1.533806625996725,0.14090602099895477,0.04458768293261528
2638,1734172718,706429719,-0.146896002208053,0.2521812215311747,1.4142815721982662,-0.7083029297698982,-0.09378681770628615,0.021555506762577763,0.6993184915559685,0,-1,0.021243536844849586,-1.5809662977801722,-0.1779411474810999,-1.5326078573810022,0.14520686864852905,0.04598908871412277
2654,1734172718,722848415,-0.15130238311140826,0.2519388724534712,1.4134831570652582,-0.7083745507010759,-0.09661419923139422,0.022168588290819653,0.6988417175005491,0,-1,0.02180604636669159,-1.5812786261187952,-0.1831610838519495,-1.5315163771258753,0.14954328536987305,0.047402478754520416
2670,1734172718,738419771,-0.15563255934820544,0.25169647399280926,1.4126684877752278,-0.7084552332960018,-0.09937129598881857,0.02282265356667147,0.6983520991829164,0,-1,0.02244008705019951,-1.581613842641012,-0.18846446672548467,-1.5303414503680628,0.15382015705108643,0.048791151493787766
2686,1734172718,754679918,-0.16001088571456787,0.25144312014695236,1.4118264994656997,-0.7085319836655001,-0.10215675024285013,0.0234287554113495,0.6978520759607487,0,-1,0.023086486384272575,-1.5819018522845667,-0.1937201658831995,-1.5291789213763636,0.1580251157283783,0.050168588757514954
2702,1734172718,770448207,-0.16433042530616565,0.251187199756049,1.4109724119798743,-0.7086087683450961,-0.10488999057809444,0.024017314290250797,0.69734845802888,0,-1,0.023673338815569878,-1.5822375456439417,-0.19886809984316045,-1.528027359639303,0.1622180938720703,0.05152168124914169
2718,1734172718,786656856,-0.16852226077735238,0.2509263415553885,1.4101239569463238,-0.7086900901136344,-0.10754104987543872,0.024667443291869817,0.6968391464375832,0,-1,0.024295395240187645,-1.5825136343585413,-0.20388442674745733,-1.5269482771502894,0.16636313498020172,0.052863165736198425
2734,1734172718,802564144,-0.17267633389524684,0.2506615371531656,1.4092564660839868,-0.7087707476702213,-0.11020336519089045,0.025295559158595302,0.6963184474322455,0,-1,0.024881873279809952,-1.5828254858600062,-0.20891267458070928,-1.5258334318744105,0.17053252458572388,0.0541447289288044
2751,1734172718,818746328,-0.17688001996129032,0.2503891844585099,1.408359302452562,-0.7088529635358544,-0.11288790481295369,0.025888723199961567,0.6957827038986051,0,-1,0.025504304096102715,-1.583137337361471,-0.2140124479876917,-1.524790112172262,0.17462962865829468,0.055485840886831284
2766,1734172718,834716081,-0.18093599264810079,0.25011887567705526,1.4074659536408776,-0.7089335007961476,-0.11552111688012498,0.026489241112225073,0.6952456278963468,0,-1,0.026090407744050026,-1.5834129492389124,-0.21899301210512334,-1.523663345967428,0.17869079113006592,0.056755419820547104
2782,1734172718,850675821,-0.18504623834773262,0.24984127693904953,1.4065363488181382,-0.7090198019874528,-0.11817217120796507,0.02704966750753696,0.6946902718689821,0,-1,0.02671283856034279,-1.5836527983294886,-0.22399646440614873,-1.5225961844073694,0.1827762871980667,0.058024998754262924
2798,1734172718,866553783,-0.18915407226047157,0.24955667720806696,1.4055896614232652,-0.7091087005678712,-0.12080427144439311,0.02765955448407026,0.6941225596574983,0,-1,0.027311675250530243,-1.5839288870440882,-0.22906047502626592,-1.5214694182025355,0.18695728480815887,0.05931854620575905
2814,1734172718,882917881,-0.19323715537410818,0.24926681975868314,1.404628997779475,-0.7091948199818225,-0.12343893254004315,0.028247654297434224,0.693547119719358,0,-1,0.02790938876569271,-1.5842402617083948,-0.23400479951967412,-1.5203903357135218,0.19104278087615967,0.06062370166182518
2830,1734172718,898541212,-0.19728849993189485,0.24896821717053824,1.4036503112319743,-0.7092855130233217,-0.126083035779228,0.02887974357160045,0.6929524439059118,0,-1,0.02848425693809986,-1.5845163504229944,-0.23904449144472295,-1.519322697316305,0.19511592388153076,0.061857327818870544
2846,1734172718,914827346,-0.2013702710763297,0.24866318752634511,1.4026402384473668,-0.7093775394397984,-0.12875423419614365,0.02944669428283244,0.6923429395254314,0,-1,0.02908271923661232,-1.584803883229391,-0.24406081834901983,-1.518207852040426,0.19928531348705292,0.06319881230592728
2862,1734172718,930543184,-0.2054955070832121,0.24834059659503208,1.401607655744819,-0.7094720683173834,-0.13140644458330325,0.030078757727031617,0.6917203184329833,0,-1,0.029704775661230087,-1.5850918928729456,-0.2491362730609339,-1.517188851033346,0.20345431566238403,0.06448037177324295
2878,1734172718,946860551,-0.2096687210318343,0.24801560237176634,1.400535488386113,-0.7095682034454153,-0.1341010857334827,0.030611920715350124,0.6910808735411972,0,-1,0.03037514165043831,-1.5853918234454554,-0.25422460237611944,-1.5161336104022425,0.20752783119678497,0.06580950319766998
2894,1734172718,962584733,-0.21373239747212158,0.24769312261570361,1.3994629805788756,-0.7096650448795984,-0.13672286152540708,0.031165856243377164,0.6904426642502325,0,-1,0.03092566691339016,-1.5857036749469202,-0.2593124548541468,-1.5150788466082972,0.21158936619758606,0.06711503118276596
2911,1734172718,979014396,-0.2178686406611124,0.24735850655793987,1.3983554731869932,-0.7097662223907774,-0.13937912704091793,0.03172920790315106,0.6897815783741081,0,-1,0.03152412921190262,-1.585991684590475,-0.2643397490130823,-1.5139277617083948,0.2156984508037567,0.06843254715204239
2926,1734172718,994548082,-0.22196348152161294,0.24702752673677184,1.3972306399886045,-0.7098711014544729,-0.14198282997626754,0.03227487677743485,0.6891169912581935,0,-1,0.032122593373060226,-1.5862072149859827,-0.26937991777528936,-1.512824837361471,0.21974799036979675,0.06972609460353851
2942,1734172719,10852813,-0.22595071127506966,0.24668600630536874,1.3961166707644133,-0.7099687839571696,-0.1445931526678882,0.03283686811083028,0.688446719870616,0,-1,0.032709069550037384,-1.586543385182516,-0.27438384691347295,-1.5117343107806605,0.22379754483699799,0.07098331302404404
2958,1734172719,26534795,-0.22996374647945017,0.24634493133960583,1.394963394127012,-0.7100722419924426,-0.14721696860429123,0.03337095876680798,0.687757918469699,0,-1,0.03333112597465515,-1.5868070761310022,-0.27943545976747686,-1.510690991078512,0.22788304090499878,0.07220495492219925
2974,1734172719,42651414,-0.2339990289256484,0.24599564088901194,1.393789370688048,-0.7101763570232864,-0.1498749646304715,0.03391612026559204,0.6870492949478066,0,-1,0.033869668841362,-1.5870469252215784,-0.2844279448138636,-1.5096476713763636,0.2320404350757599,0.07345056533813477
2990,1734172719,58892011,-0.2379132513506125,0.24562875332149536,1.392625647165832,-0.7102872613526442,-0.15246791154699071,0.03462248180135376,0.6863285117657393,0,-1,0.03445614501833916,-1.5872991720782679,-0.28943139711488897,-1.5084846655475062,0.23623380064964294,0.0747680813074112
3006,1734172719,74562311,-0.24187809305717656,0.24528130678975152,1.391424675512226,-0.7104006065358914,-0.15504937628892015,0.03517708524193113,0.6856042895283957,0,-1,0.03506659343838692,-1.5875266234027308,-0.2943161169635218,-1.507441822682516,0.24034325778484344,0.07608522474765778
3022,1734172719,90878963,-0.24581978119813916,0.24490905848716626,1.3902115413013083,-0.7105168065451855,-0.15761926160119152,0.03580381801219874,0.6848650397011633,0,-1,0.03566505387425423,-1.587790314351217,-0.29931956926454717,-1.5063627401935022,0.24447669088840485,0.07743868976831436
3038,1734172719,106623411,-0.24978269683731294,0.24453259216102105,1.3889677507918234,-0.7106390760782662,-0.1601856023991877,0.03641968108350312,0.684109847293849,0,-1,0.036203596740961075,-1.5880425612079065,-0.304359261189596,-1.5052836577044886,0.24858616292476654,0.07881613075733185
3055,1734172719,122810363,-0.25376268211433906,0.2441583892981083,1.3876939907419987,-0.7107598174904293,-0.16278654626438463,0.03696236362490028,0.6833409148233007,0,-1,0.03682602569460869,-1.588330094014303,-0.30950719514955694,-1.5042646566974085,0.2526836395263672,0.08016959577798843
3070,1734172719,138496160,-0.2578433343833745,0.24376269675428627,1.3863650230764508,-0.7108872670429222,-0.16540774640084188,0.03750930841285225,0.6825486230073499,0,-1,0.037448082119226456,-1.5886181036578577,-0.3145945707904261,-1.5031731764422815,0.2567691504955292,0.08151070773601532
3086,1734172719,154449939,-0.26187461816407087,0.24336149491125914,1.3850355998311714,-0.7110044536185307,-0.16801996949317807,0.038005470054614146,0.6817606185693436,0,-1,0.038058530539274216,-1.588869873677389,-0.31973010698427373,-1.5020821730243128,0.26085537672042847,0.0828162431716919
3102,1734172719,170700788,-0.2658929735365786,0.24294472706582615,1.3836936010279142,-0.7111286007850136,-0.1706484806751076,0.03860275367893313,0.6809442242924376,0,-1,0.03870530426502228,-1.589182202016012,-0.3246977964984339,-1.5011113325702112,0.2650247812271118,0.08410978317260742
3118,1734172719,186439514,-0.2698689526018372,0.24253036691731636,1.382344938400196,-0.7112527875230367,-0.17324094913067362,0.039182366128739175,0.6801263029537724,0,-1,0.03932735696434975,-1.5894816557513636,-0.32971364656557256,-1.5000322500811976,0.269062340259552,0.08542729914188385
3134,1734172719,202875375,-0.2737842765598774,0.2421208225012958,1.3809800418270015,-0.7113755971480388,-0.1758021316807613,0.03969840658194672,0.6793102434040178,0,-1,0.0398898683488369,-1.589757267628805,-0.3346455732928675,-1.4989531675921839,0.2731601893901825,0.08673246204853058
3150,1734172719,218729972,-0.2776707984244102,0.2416993785733317,1.3796129326601234,-0.7114986499769623,-0.1783766450240516,0.040313056888397945,0.6784735079833526,0,-1,0.040452003479003906,-1.5900452772723597,-0.3396971861468714,-1.4977901617633265,0.27725768089294434,0.08795410394668579
3166,1734172719,234588861,-0.2815333200293652,0.24127136617898412,1.3782192904360595,-0.7116273579390001,-0.1809223294302433,0.04090792375754362,0.6776283316982398,0,-1,0.04112236946821213,-1.5902488867389124,-0.34471208253969365,-1.496627155934469,0.28135553002357483,0.08928322792053223
3182,1734172719,250684261,-0.28550435351037345,0.24085058463005518,1.3767770925058507,-0.7117624620733389,-0.18347194400108321,0.04140822981151985,0.6767699770613635,0,-1,0.041673269122838974,-1.590524975453512,-0.34970409074892217,-1.4955843130694788,0.28545302152633667,0.09063669294118881
3198,1734172719,266390323,-0.28932817782906506,0.24041643511599975,1.3753521314154133,-0.7118896573140537,-0.18600378222801423,0.041966021307514915,0.6759101729237176,0,-1,0.04227135702967644,-1.5908005873309534,-0.3547557036029261,-1.4944575468646448,0.28950291872024536,0.09189391881227493
3214,1734172719,282721281,-0.2932490324227896,0.23997147130909657,1.3738815396288064,-0.7120226742463839,-0.18855541078925742,0.04251193461680369,0.6750283726157434,0,-1,0.04291775822639465,-1.5910761992083948,-0.3597477118121546,-1.4934142271624964,0.2936251163482666,0.0931515097618103
3230,1734172719,298471212,-0.29722615644510914,0.23951713035152927,1.372367494793619,-0.7121646730812317,-0.19119174438206799,0.043061332903941464,0.6741015627513263,0,-1,0.04351621866226196,-1.591412369404928,-0.3648107687579554,-1.4923232237445276,0.29777055978775024,0.09444505721330643
3246,1734172719,314862489,-0.301136235681216,0.23906719579491117,1.3708541164264614,-0.7123015571158696,-0.1937527047279597,0.043568335443493464,0.6731925291382777,0,-1,0.04412629082798958,-1.5917122999774378,-0.36987477937807256,-1.4911964575396937,0.30191633105278015,0.09576257318258286
3262,1734172719,330460309,-0.30511138294199774,0.238607492499551,1.3692915600314626,-0.7124423860892067,-0.19634540163944617,0.044059708899256304,0.6722596758770193,0,-1,0.044712770730257034,-1.5919883886920374,-0.3749139944659632,-1.4901416937457483,0.3060261905193329,0.09705612063407898
3278,1734172719,346567153,-0.30903137611751863,0.23812484974239506,1.3677298066718282,-0.7125778921455304,-0.19895632023431475,0.04460271123197696,0.6713119456817452,0,-1,0.045323215425014496,-1.592299763356344,-0.3800609747516077,-1.4890387693988245,0.3101356327533722,0.09834929555654526
3294,1734172719,362864017,-0.3129533925985315,0.23765971387726495,1.366140921431106,-0.7127299586466537,-0.20148735897279393,0.045109629345095596,0.6703610755123359,0,-1,0.04590931907296181,-1.5926111380206507,-0.3850768248187464,-1.4880073706256312,0.31426945328712463,0.09965482354164124
3310,1734172719,378584146,-0.31689232314456844,0.2371748262333619,1.364533400154819,-0.7128776174614396,-0.204072519625196,0.04562972256135387,0.6693861648370835,0,-1,0.046532124280929565,-1.5928872267352503,-0.39003259340395147,-1.4869406859027308,0.31828340888023376,0.1009124219417572
3326,1734172719,394742012,-0.3206746004601216,0.23670529851092276,1.36294482880983,-0.7130223142630678,-0.20657778828001364,0.046129948963170825,0.6684286233854233,0,-1,0.04711860418319702,-1.5932229200946253,-0.3950117270099085,-1.485849682484762,0.322405606508255,0.10221794992685318
3342,1734172719,410435914,-0.3245029529894716,0.2362205875564114,1.3613304364981733,-0.7131662980388597,-0.20913177587728193,0.046665134462803196,0.6674429540309278,0,-1,0.047716692090034485,-1.5935347715960901,-0.40002710023988897,-1.4847944418536585,0.3265993595123291,0.10341562330722809
3358,1734172719,426761627,-0.3283399864483532,0.23572905014506,1.3596814126524808,-0.7133074848700404,-0.21168292819447287,0.047129946779925616,0.6664544530993188,0,-1,0.048315152525901794,-1.5937989393817347,-0.40504295030702764,-1.4836915175067347,0.3306492567062378,0.10468520224094391
3374,1734172719,442929267,-0.33224301620806196,0.2352190765762472,1.3579823740087669,-0.7134539793904717,-0.2142695384324175,0.0475983082758572,0.6654369881823038,0,-1,0.0489259734749794,-1.5940511862384241,-0.41009456316103154,-1.4825528303729456,0.33469918370246887,0.10596638917922974
3390,1734172719,458469152,-0.33603006599983076,0.23470808462250303,1.3563104127400765,-0.7136072634690104,-0.21677450892594582,0.04815308105460503,0.664420624746955,0,-1,0.049524061381816864,-1.5943506399737757,-0.41514569917787725,-1.481473747883932,0.3387974202632904,0.10723596811294556
3406,1734172719,474581241,-0.3398413578121709,0.23420647533108685,1.3545967404144295,-0.7137689618936993,-0.2192617354291203,0.048667267018570486,0.6633925365383186,0,-1,0.05012252554297447,-1.5946744124041956,-0.42008906999696904,-1.480358902608053,0.3428836762905121,0.10857745260000229
3422,1734172719,490878582,-0.34363107136674576,0.23367979716967338,1.3528967103809009,-0.7139191420377615,-0.2217838759559054,0.049191311989294856,0.6623530673461201,0,-1,0.05072098597884178,-1.5949743429767054,-0.42509299913515264,-1.4793275038348597,0.3470054864883423,0.10990695655345917
3438,1734172719,506391763,-0.3474110435424599,0.2331638676355604,1.3511542486798396,-0.7140900609003807,-0.22425750149873225,0.04971099997054313,0.6612962833910117,0,-1,0.05134304240345955,-1.5953095594989222,-0.43007213274110967,-1.478236500416891,0.3511033356189728,0.11126042157411575
3454,1734172719,522626638,-0.35121809604860776,0.2326334723205655,1.349383996412197,-0.7142559235771624,-0.22674060170156862,0.0502149209902854,0.6602315024935456,0,-1,0.05194150656461716,-1.595609490071432,-0.4351714293109339,-1.4771459738360804,0.355225533246994,0.11264947056770325
3470,1734172719,538537740,-0.3550533543243438,0.23209237529905946,1.3475739360437513,-0.7144143772492061,-0.2293123629912806,0.050687288531171715,0.6591348394223613,0,-1,0.05253996700048447,-1.5958612600909632,-0.44030648866762334,-1.4760544935809534,0.3593357503414154,0.11387111246585846
3486,1734172719,554640293,-0.35881537937151287,0.23156265715195173,1.3457549310077854,-0.7145931584269789,-0.2317963710691573,0.05118867657234652,0.6580325065521426,0,-1,0.05316239595413208,-1.5961616675006312,-0.4452860991107386,-1.474975887929098,0.36336207389831543,0.11521259695291519
3502,1734172719,570745706,-0.3625989818997372,0.2309910494546926,1.3439293585852221,-0.7147449712690201,-0.23434168574396097,0.05164153582695979,0.6569297924023229,0,-1,0.053796812891960144,-1.5964611212359827,-0.4502175490008753,-1.4739211241351526,0.3675078749656677,0.11652974039316177
3518,1734172719,586414098,-0.3663452379254414,0.2304414358893857,1.3421036116170548,-0.7149153404560383,-0.23681942071364095,0.05216437442156956,0.6558136137613252,0,-1,0.054455194622278214,-1.5967610518084925,-0.455148998891012,-1.4728897253619593,0.3716180920600891,0.11781129986047745
3534,1734172719,602776765,-0.3699966287381799,0.22988149545502706,1.3402739724259398,-0.7150820861509014,-0.23931707501420077,0.052700522965332154,0.6546812984589544,0,-1,0.05499336123466492,-1.5970609823810022,-0.4601405302630823,-1.4718230406390589,0.37581220269203186,0.11903256922960281
3550,1734172719,618640661,-0.3736400856373543,0.2293399444916991,1.3384201088436514,-0.7152496969431318,-0.24179461460179594,0.053161477555363316,0.6535496099581558,0,-1,0.05563976243138313,-1.5973370710956019,-0.46517974535097295,-1.4707558790790003,0.3798385262489319,0.1203860342502594
3567,1734172719,634925842,-0.37733705685323893,0.22877927592905772,1.3365276231065895,-0.7154314677347375,-0.24421727860727716,0.05364042306244206,0.6524097185191655,0,-1,0.05623822286725044,-1.5976007620440882,-0.4702666441546839,-1.4696767965899866,0.3838888108730316,0.12171553820371628
3582,1734172719,650644540,-0.38105563522504365,0.2281895302741802,1.334599729211199,-0.7156027147044124,-0.24674846479786416,0.05412255807840665,0.6512286069688755,0,-1,0.0568123422563076,-1.5978520552264612,-0.4752581755267542,-1.4686458746539515,0.3880106508731842,0.1230090856552124
3598,1734172719,666931390,-0.3847264524303506,0.2276297244386321,1.332659452135938,-0.7157846008123789,-0.24920586314630136,0.05456743313580136,0.6500547963474618,0,-1,0.0573752261698246,-1.5981047789203089,-0.4803217093097132,-1.4675548712359827,0.39210885763168335,0.12436255067586899
3614,1734172719,682636499,-0.38834659668900234,0.22706916844413422,1.3307257764724707,-0.7159665085883148,-0.2515998374710221,0.055040717060791555,0.6488913621168397,0,-1,0.05799728259444237,-1.5984161535846155,-0.48533660570253545,-1.4664400259601038,0.39619550108909607,0.12563174962997437
3630,1734172719,698922395,-0.39200969978096456,0.22647015994834957,1.3287667981750408,-0.7161430167236873,-0.2540732714576654,0.0555358179585135,0.6476895284411928,0,-1,0.05855979397892952,-1.5987041632281702,-0.49040013948549444,-1.4653132597552698,0.4002937078475952,0.1269492655992508
3646,1734172719,714655160,-0.39565104525602884,0.2258812771976368,1.3267656180840968,-0.7163270905655165,-0.2565246766960274,0.055994975670299194,0.6464790424040239,0,-1,0.05915825441479683,-1.5990036169635218,-0.49551135698427373,-1.464222256337301,0.40443989634513855,0.1282188445329666
3663,1734172719,730855941,-0.39930619419660923,0.22531301456470004,1.3247407077946454,-0.716514939312419,-0.2589862724682594,0.05639472446600651,0.6452535063581756,0,-1,0.05975709110498428,-1.5992792288409632,-0.5005505720721644,-1.4631312529193323,0.4084905683994293,0.1295243799686432
3678,1734172719,746748208,-0.40295090709756687,0.22470484740001503,1.3227054472529605,-0.7166957870306132,-0.2614369209501332,0.05683029807850031,0.6440250014067719,0,-1,0.06030724197626114,-1.5995195547686976,-0.5056374708758753,-1.4620526472674769,0.41254085302352905,0.13080593943595886
3695,1734172719,762960433,-0.40653584212528926,0.22411178077993205,1.3206585009321774,-0.7168845626108771,-0.2638651997552038,0.057272859492615555,0.6427841782541767,0,-1,0.06088173761963844,-1.5997713247882288,-0.5106766859637659,-1.4609854857074183,0.41668701171875,0.13209949433803558
3710,1734172719,778781414,-0.4100802037444677,0.22351568674637595,1.318629239873336,-0.7170713082728882,-0.26627776537193504,0.05772643807313039,0.6415392029079177,0,-1,0.06148019805550575,-1.60002309480776,-0.5155962149249476,-1.4598820845233362,0.4208451807498932,0.13330915570259094
3726,1734172719,794991731,-0.41357229168436443,0.22290523109476182,1.3165912169456917,-0.717255520595911,-0.2687095086954754,0.058217653344309554,0.640273709401227,0,-1,0.06210225448012352,-1.6002867857562464,-0.5205391089068812,-1.4587553183185022,0.4249437749385834,0.13459071516990662
3742,1734172719,810567855,-0.4170794568952261,0.22229658603418045,1.3145382177265685,-0.7174365934637894,-0.27111423355742614,0.058657774136309834,0.6390157057968265,0,-1,0.06268911063671112,-1.600562874470846,-0.5255306402789515,-1.457700554524557,0.42900604009628296,0.1358599215745926
3758,1734172719,826882362,-0.4205503377128457,0.22168503774918474,1.3124605852262248,-0.7176322075677443,-0.27348365917212325,0.059112768641216756,0.6377431955033639,0,-1,0.06327521055936813,-1.6007550398456019,-0.5306418577777308,-1.4566214720355433,0.4331166446208954,0.1371295005083084
3774,1734172719,842586994,-0.4241048246579547,0.22105046142273388,1.310309238652968,-0.71782379265003,-0.2759416835452491,0.05952698114591636,0.6364288872320254,0,-1,0.0638856589794159,-1.6010664145099085,-0.5356686750995081,-1.4556029478656214,0.4372272193431854,0.13845862448215485
3790,1734172719,858289957,-0.42763068714796926,0.2204186813315004,1.3081587329805215,-0.7180204760518334,-0.2783432351892523,0.05995184852841042,0.6351200006712949,0,-1,0.0644601508975029,-1.6013181845294397,-0.5407198111163538,-1.4545119444476526,0.44126591086387634,0.13977614045143127
3806,1734172719,874703407,-0.43115028995569915,0.21977812918104106,1.3059958230762567,-0.718223568663813,-0.280726647947156,0.060367224511583766,0.633800641174288,0,-1,0.06509419530630112,-1.6016300360309046,-0.5456631819354456,-1.4534686247455042,0.44534018635749817,0.14115357398986816
3822,1734172719,890811920,-0.43460040624851765,0.21914325123931488,1.3038538613666784,-0.7184367947627022,-0.28306771747529463,0.06085895280077483,0.6324693092304281,0,-1,0.06568104773759842,-1.601893726979391,-0.5506179968463343,-1.4523537794696253,0.44948673248291016,0.14262688159942627
3838,1734172719,906697988,-0.438115906738454,0.21849086595988065,1.3016538721023494,-0.7186498113786932,-0.2854076851113297,0.06131642754435089,0.6311300956205139,0,-1,0.06631545722484589,-1.6021936575519007,-0.5557172934161585,-1.4512508551227015,0.4535973072052002,0.1438841074705124
3854,1734172719,922374963,-0.4415842058495569,0.21782494641207317,1.299433903436637,-0.7188480398985276,-0.28780398888925396,0.06174228936283297,0.6297731728310719,0,-1,0.0669015645980835,-1.602469269429342,-0.5609720388995569,-1.4501598517047327,0.45764797925949097,0.14522558450698853
3870,1734172719,938679695,-0.44520458287262477,0.21715933753811212,1.2970896433835235,-0.7190568270571028,-0.2902495202939922,0.0620561412102672,0.628380084638088,0,-1,0.06753598153591156,-1.6027339140521448,-0.5660703817950647,-1.4491170088397425,0.46172261238098145,0.14649516344070435
3886,1734172719,954847335,-0.4486944488553822,0.21647363389181723,1.2948158957041715,-0.7192503186824171,-0.2926829524345905,0.062457139413189575,0.6269886555319275,0,-1,0.06815841048955917,-1.6029976050006312,-0.5710862318622034,-1.4479659239398401,0.4658811390399933,0.1477767378091812
3902,1734172719,970654010,-0.45211270758316385,0.215798109999224,1.2925691841521856,-0.7194598997301681,-0.29503746473702486,0.06290473144799352,0.6255983870209874,0,-1,0.06878046691417694,-1.6032851378070276,-0.5761011282550257,-1.44692308107485,0.46997973322868347,0.14911821484565735
3918,1734172719,986312866,-0.45548168338314365,0.21513907915407854,1.2903162083674464,-0.7196678006250613,-0.2973568617697599,0.06331173668139732,0.6242185334482727,0,-1,0.0693909078836441,-1.6035731474505823,-0.5810440222369593,-1.445820156727926,0.47403040528297424,0.15035183727741241
3934,1734172720,2590417,-0.45882316646725535,0.21444942122209415,1.288068642989621,-0.719855062662996,-0.29970393069177464,0.0637381213250935,0.6228352065966581,0,-1,0.07000135630369186,-1.6038606802569788,-0.5859873930560511,-1.4447534720050257,0.47809305787086487,0.151668980717659
3950,1734172720,18306016,-0.46227351698959007,0.2137763727186085,1.2857354368645535,-0.7200772329093001,-0.30205036168817656,0.06412859436830905,0.6214031549920486,0,-1,0.07058783620595932,-1.6041486899005335,-0.5910981337176722,-1.4436982313739222,0.48216769099235535,0.15297451615333557
3966,1734172720,34581899,-0.4657046540847194,0.21309304826913816,1.2833526955265069,-0.720289489104442,-0.30441704163075844,0.06443161906543315,0.6199692598145863,0,-1,0.07118629664182663,-1.6044123808490198,-0.596173111592428,-1.4426315466510218,0.4862546920776367,0.15426768362522125
3982,1734172720,50302028,-0.4690408002275444,0.2124136197690725,1.2810150204030377,-0.7205030443327578,-0.3067588778036672,0.06479601194961557,0.6185271463980286,0,-1,0.07172446697950363,-1.6046879927264612,-0.6012118498431605,-1.4416006247149866,0.49026942253112793,0.15552528202533722
3998,1734172720,66596031,-0.4724201295046858,0.2117282623245762,1.278627696755917,-0.7207228684021161,-0.30907087989621584,0.06513914502432726,0.6170823526466338,0,-1,0.07229933142662048,-1.604987923298971,-0.606239144002096,-1.4405339399920862,0.4944039583206177,0.1568547785282135
4014,1734172720,82874059,-0.4757878461238919,0.21103200114591775,1.2762275544645787,-0.7209466993348346,-0.3114289304455915,0.06551702034251425,0.6155935331411151,0,-1,0.0729457288980484,-1.6053240934955042,-0.6111939589129847,-1.4395025412188929,0.4985988140106201,0.15814833343029022
4030,1734172720,98454952,-0.4790712751543705,0.21033243483564246,1.2738763309424572,-0.7211570327528064,-0.313755063284485,0.06592232191351624,0.6141209505040902,0,-1,0.07355580478906631,-1.605624024068014,-0.6161974112140101,-1.4384000937091272,0.5026974081993103,0.1594059318304062
4046,1734172720,114182472,-0.4824198875105285,0.20964762055724195,1.2714310993144269,-0.7213895051805286,-0.3160425995139413,0.06627523658740524,0.6126351688592048,0,-1,0.07408235967159271,-1.6059353987323206,-0.6212361494647425,-1.4373210112201136,0.5068327188491821,0.16078336536884308
4062,1734172720,130445003,-0.48576184758940927,0.2089381576325614,1.268967173991087,-0.7216123010364535,-0.3183985114746246,0.06661709265124148,0.6111139319720291,0,-1,0.07468082010746002,-1.6061638037311,-0.6263468901263636,-1.4362300078021448,0.5109193325042725,0.16208890080451965
4078,1734172720,146283149,-0.4890530291553093,0.20821639412114373,1.2664993648391467,-0.721831745740468,-0.3207310432460985,0.06698508475773739,0.6095929192170264,0,-1,0.0753268450498581,-1.6064751783954065,-0.6314933935748499,-1.4351032415973108,0.5150299668312073,0.16333450376987457
4094,1734172720,162548542,-0.4923365381958788,0.2074759824633752,1.264021566098847,-0.722054872326521,-0.3230155902451282,0.06736791882617726,0.6080783282778235,0,-1,0.07590171694755554,-1.6067512671100062,-0.6364968458758753,-1.4340603987323206,0.5191528797149658,0.16456812620162964
4110,1734172720,178833246,-0.49563195153513806,0.20677568210687958,1.2615290540957276,-0.7222832231724149,-0.3252852915944176,0.06768695632284787,0.6065598903156646,0,-1,0.07652377337217331,-1.6070507208453577,-0.6414158979998987,-1.4329093138324183,0.5231799483299255,0.1658736616373062
4126,1734172720,194541931,-0.4988298679630665,0.2060301404752059,1.2590800148998385,-0.7224849074253659,-0.32758340429984656,0.0680662386375658,0.6050385598683921,0,-1,0.07711025327444077,-1.607386891041891,-0.6463230291949671,-1.4318183104144495,0.5272785425186157,0.1671188920736313
4142,1734172720,210274219,-0.5020767920451377,0.2053054084173411,1.2565781624791117,-0.7227140525773328,-0.32984509906971465,0.06840388058279506,0.60349607948035,0,-1,0.07775665074586868,-1.607722584401266,-0.6513140837298792,-1.430727783833639,0.5312581062316895,0.16843603551387787
4158,1734172720,226590633,-0.5052768086773698,0.20458734574151533,1.254048828214086,-0.7229440536862877,-0.33209318673835936,0.06870554248009034,0.6019514590015675,0,-1,0.07833114266395569,-1.6079743544207972,-0.6564009825335901,-1.4296487013446253,0.5352967381477356,0.16968165338039398
4174,1734172720,242844820,-0.5084938416770679,0.2038416498425393,1.2514897528925881,-0.7231748889378687,-0.33432767908448907,0.06900727017821638,0.6004007658807828,0,-1,0.07900150865316391,-1.608274284993307,-0.6614158789264124,-1.428582016621725,0.5393598079681396,0.17102313041687012
4190,1734172720,258705377,-0.5116976932535369,0.20307531374148047,1.2489127583929565,-0.7234005188765187,-0.3365981421227257,0.06934098816875944,0.5988198455032138,0,-1,0.07958798855543137,-1.6085379759417933,-0.6665623823748987,-1.4274428526507776,0.5435430407524109,0.17234064638614655
4206,1734172720,274827957,-0.5149315671108664,0.20232431059441575,1.246294381674851,-0.7236487460167329,-0.3388807007311527,0.06969552715477688,0.5971891631258813,0,-1,0.08017409592866898,-1.6088617483722132,-0.671577278767721,-1.4263880888568323,0.547713577747345,0.1737540364265442
4222,1734172720,290559053,-0.5180728465138479,0.2015699591313486,1.2437135826630095,-0.7238952720141393,-0.34113582770389317,0.07007226707325924,0.5955601225733376,0,-1,0.08077255636453629,-1.6092336813556116,-0.6765206495868128,-1.425333325062887,0.5518608093261719,0.17503559589385986
4238,1734172720,306300163,-0.5213177292081393,0.20078251346594828,1.2410735458911502,-0.7241320062525989,-0.3433913482764754,0.07040606768221513,0.5939345124531643,0,-1,0.08137064427137375,-1.609509293233053,-0.6815837065326136,-1.4242547194110315,0.5560317039489746,0.1763531118631363
4254,1734172720,322540521,-0.5244666338998971,0.1999946590966864,1.2384261246094321,-0.7243613762951533,-0.3456942847339954,0.07071874764407661,0.5922794245672361,0,-1,0.08198146522045135,-1.6098335425006312,-0.6865981260882776,-1.423211399708883,0.5601310729980469,0.17768262326717377
4270,1734172720,338279485,-0.5275629620265019,0.19925810569579805,1.2357745415344144,-0.7246106679035844,-0.34790400119862386,0.07100945258509185,0.5906435841976742,0,-1,0.08261587470769882,-1.6100853125201624,-0.6917088667498987,-1.4220846335040491,0.5642420649528503,0.17891624569892883
4286,1734172720,354578733,-0.5306635114436496,0.1984965782205369,1.2330895938520137,-0.7248433514188323,-0.3501241180342116,0.07125113314187036,0.5890148503227064,0,-1,0.08320198208093643,-1.6103132406817835,-0.6967957655536097,-1.4210055510150355,0.5682811141014099,0.18023338913917542
4302,1734172720,370833873,-0.5336895772298844,0.19773895526972363,1.2304509408762,-0.72508388417609,-0.3523203795012891,0.0715473602436238,0.5873709954861162,0,-1,0.08374052494764328,-1.61060077348818,-0.70178729692568,-1.41992694536318,0.5723684430122375,0.1815149486064911
4318,1734172720,386509418,-0.5367433024108255,0.1969848071166343,1.2277752783481208,-0.7253280769645465,-0.354505854252226,0.07185378458089095,0.5857147887062572,0,-1,0.08439890295267105,-1.6108887831317347,-0.7067177931415003,-1.418812100087301,0.5764315128326416,0.18279613554477692
4334,1734172720,402908563,-0.5397120265243618,0.1961900651812471,1.2251554018459077,-0.7255703519354221,-0.35666072677782024,0.0722285177238897,0.5840580721075898,0,-1,0.08499699085950851,-1.611164395009176,-0.7116368452655237,-1.4177454153644007,0.5805428624153137,0.18413762748241425
4350,1734172720,418592453,-0.5427119626712938,0.19543553460821617,1.222463620011384,-0.7258133246177755,-0.3588123000380008,0.07248730985993906,0.5824039329005263,0,-1,0.08558384329080582,-1.6114280859576624,-0.7166999022113245,-1.416666332875387,0.5845579504966736,0.18544314801692963
4366,1734172720,434834003,-0.5457170093709334,0.19464708486084914,1.2197163663359567,-0.7260664265689376,-0.3609934975923388,0.07276672781651553,0.5807032307713992,0,-1,0.08614598214626312,-1.611704174672262,-0.7217143217669886,-1.4155996481524866,0.5887287855148315,0.1867247223854065
4382,1734172720,450942993,-0.5486967764363881,0.19386513798442512,1.21698320426057,-0.7263256844428521,-0.36315488958135395,0.0730895437040251,0.5789882942624267,0,-1,0.08675643056631088,-1.611920181904928,-0.7268136183368128,-1.4144728819476526,0.5928401350975037,0.18804223835468292
4398,1734172720,466766595,-0.551685452275087,0.19306577799795577,1.2141894515850566,-0.7265698382222268,-0.365375950140825,0.07333641722346874,0.5772507731941483,0,-1,0.08734328299760818,-1.6122563521014612,-0.7319119612323206,-1.413405720387594,0.5969395041465759,0.1893477588891983
4415,1734172720,482905864,-0.5546814192043221,0.19227811991328436,1.2114091488227334,-0.726828111349211,-0.36755277432027067,0.07361768676019374,0.5755052483149822,0,-1,0.08796495944261551,-1.6125438849078577,-0.736795727406637,-1.4123628775226038,0.6011227369308472,0.19062931835651398
4430,1734172720,498686790,-0.5575564917530698,0.1914675115957274,1.2086864037130305,-0.7270653097503842,-0.3697062905382555,0.07392781850225688,0.5737839068373373,0,-1,0.08859974890947342,-1.612807575856344,-0.7418101469623011,-1.4113081137286585,0.6052457094192505,0.19192250072956085
4446,1734172720,514957904,-0.5604864748404025,0.19065276024279806,1.2058930295714412,-0.7273204899890096,-0.37185709164792524,0.07421355929703727,0.5720310794439044,0,-1,0.08918622881174088,-1.6131194273578089,-0.746800724660055,-1.4102290312396448,0.6094053387641907,0.19322803616523743
4462,1734172720,530596256,-0.5634100186928201,0.1898685267779836,1.2030360976918941,-0.7275822394923612,-0.37401532665561293,0.07441052212298019,0.5702628292282085,0,-1,0.08980828523635864,-1.6133349577533167,-0.751983944569723,-1.4091504255877894,0.6133964657783508,0.1945335566997528
4478,1734172720,546901226,-0.566320990349356,0.18904112744777501,1.20017766124864,-0.7278263482825088,-0.37618088459581184,0.07464392998699093,0.5684936521427112,0,-1,0.09040674567222595,-1.6136110464679163,-0.7571657339679163,-1.4081075827227991,0.6175201535224915,0.1957312375307083
4494,1734172720,563118219,-0.5692372294283679,0.18822285396722221,1.1972787331000037,-0.7280836430034902,-0.37834103333779545,0.07482718140684791,0.5667037711241757,0,-1,0.09100483357906342,-1.6138628164874476,-0.7621687094317835,-1.4070761839496058,0.6216195225715637,0.197012796998024
4510,1734172720,578697919,-0.5721336487706463,0.18739593072867475,1.1944029050773866,-0.7283272186449737,-0.3805312883939336,0.07504811188253227,0.5648921862063562,0,-1,0.09160367399454117,-1.6141508261310022,-0.7671478430377405,-1.4059737364398401,0.6256945133209229,0.19829435646533966
4526,1734172720,594912528,-0.5749141410211358,0.18657427737883586,1.191600667347564,-0.7285782843254768,-0.3825934948669163,0.07533656326455182,0.5631343565529897,0,-1,0.09220213443040848,-1.614450756703512,-0.7721264998065394,-1.4048827330218714,0.6297942399978638,0.19958791136741638
4542,1734172720,610749721,-0.577676218517829,0.18574547636057354,1.1887871627618147,-0.7288395024773456,-0.3846693466596194,0.07564297358456136,0.561338234860518,0,-1,0.0928361788392067,-1.6147025267230433,-0.7770698706256312,-1.4037922064410608,0.6339055895805359,0.20094138383865356
4558,1734172720,627182006,-0.5805073509928025,0.18492208699961038,1.1858642377644426,-0.7291113649658338,-0.3867373125674294,0.07588017441194742,0.5595293269141426,0,-1,0.09344661980867386,-1.6149423758136194,-0.7821562925921839,-1.402701203023092,0.6380892395973206,0.20231881737709045
4574,1734172720,642643928,-0.5832639929619173,0.1841228779655083,1.1829579888951236,-0.7293864477447581,-0.38882817923988655,0.07611178978792946,0.5576872352228945,0,-1,0.09400913119316101,-1.6151941458331507,-0.7872431913958948,-1.4016106764422815,0.6422005295753479,0.203623965382576
4591,1734172720,658925056,-0.5860156307305399,0.18328625837458667,1.1800402235365466,-0.7296620595806651,-0.39085647916671856,0.0763582903433772,0.5558722002382697,0,-1,0.09463118761777878,-1.615457836781637,-0.7923296133624476,-1.4005072752581995,0.6462160348892212,0.20500141382217407
4606,1734172720,674594640,-0.5887894205189736,0.18245189957491606,1.177099094332604,-0.729933894572872,-0.39292399978169557,0.07658930664709934,0.5540228497603235,0,-1,0.09523002803325653,-1.6157577673541468,-0.7972610632525843,-1.399428669606344,0.6504112482070923,0.20635487139225006
4622,1734172720,690809249,-0.5915182962746074,0.18161858612515996,1.1741854488389922,-0.7302012392206526,-0.39497634169036877,0.07681465586313048,0.5521769176542469,0,-1,0.09578017145395279,-1.6160815397845667,-0.802215878163473,-1.3983023802386683,0.6544510722160339,0.2076360583305359
4638,1734172720,706478595,-0.594228215012962,0.1808000366300119,1.1712422388281245,-0.7304800055394344,-0.396968709428707,0.07703793361383245,0.5503453116236438,0,-1,0.09635467082262039,-1.616345230733053,-0.8072426954852503,-1.3972108999835413,0.6584908366203308,0.20894159376621246
4654,1734172720,722471237,-0.5969948637371919,0.17994786348954897,1.1682320796722552,-0.7307437325355937,-0.3990485812328124,0.07720088222512651,0.5484649951999584,0,-1,0.09700144082307816,-1.6166327635394495,-0.8122814337359827,-1.3961203734027308,0.662518322467804,0.21019919216632843
4670,1734172720,738711357,-0.5996649196390975,0.17914581241827365,1.165223163457113,-0.7310232694768661,-0.4010530783721876,0.0773516071903113,0.5466060159535576,0,-1,0.09761151671409607,-1.616873566304342,-0.817416016255514,-1.3950656096087855,0.6666659712791443,0.2115286886692047
4686,1734172720,754393339,-0.6023664349337334,0.17828130518351834,1.1621647051857966,-0.7312930788000905,-0.40313978091648445,0.07751064773822558,0.5446841740209589,0,-1,0.09819798916578293,-1.6171730200396937,-0.8225505987750452,-1.3940108458148401,0.6707773208618164,0.21278591454029083
4702,1734172720,770826101,-0.6050013051891497,0.17744061451597615,1.1591585787272267,-0.7315546487316961,-0.4051880670965221,0.07768726776885018,0.5427845932119296,0,-1,0.09874814003705978,-1.6174605528460901,-0.8274934927569788,-1.3929436842547815,0.6748770475387573,0.21410343050956726
4718,1734172720,786401510,-0.6076204981338567,0.17658528931786638,1.1561705010960548,-0.7318380832700018,-0.40716941691048747,0.07790360312776237,0.540885491049793,0,-1,0.09933461993932724,-1.6177848021136683,-0.8324483076678675,-1.391853157673971,0.6789887547492981,0.21543292701244354
4734,1734172720,802794456,-0.6102491546455612,0.17572708123330505,1.1531489571095428,-0.7321074824007321,-0.409209716294542,0.07808526248128277,0.538951513669116,0,-1,0.09994544088840485,-1.6180842558490198,-0.8373797575580042,-1.3907626310931605,0.6831364035606384,0.2166905254125595
4750,1734172720,818448781,-0.6128373377419158,0.17485407485519477,1.1501217837641444,-0.7323763526831701,-0.4112431624623771,0.0783615458883285,0.536994792790797,0,-1,0.10056749731302261,-1.6183484236346644,-0.8424666563617151,-1.3896592299090784,0.6873559951782227,0.21800804138183594
4766,1734172720,834839344,-0.6154759154319586,0.17397966321903272,1.1470182726245393,-0.7326511535614111,-0.41324550497230217,0.0784786192815664,0.5350621890219676,0,-1,0.10120191425085068,-1.6186836401568812,-0.8475049177752894,-1.3885687033282679,0.6914317607879639,0.21931356191635132
4782,1734172720,850540876,-0.6180631649345119,0.17310386178029752,1.143901752451424,-0.7329346855569873,-0.41522648646483723,0.07862558879849135,0.533115117429282,0,-1,0.10182397067546844,-1.6189597288714808,-0.8526514212237757,-1.387453858052389,0.6955554485321045,0.22057116031646729
4798,1734172720,866688251,-0.6206744921015657,0.1722229269183895,1.1407521869280952,-0.733196571104972,-0.41727558469982223,0.07874912298554505,0.5311331755429526,0,-1,0.1023864820599556,-1.6192835013019007,-0.857666317616598,-1.3864348570453089,0.6996431946754456,0.22185271978378296
4814,1734172720,882529258,-0.6232188712129045,0.17135435305916408,1.137672157090225,-0.7334697947746034,-0.4192592799501664,0.07889464155796067,0.5291685476881728,0,-1,0.10303325206041336,-1.619643513356344,-0.8625496069537562,-1.3853204886065882,0.7037069797515869,0.2231578826904297
4830,1734172720,898822546,-0.6257176749847432,0.1704790740764955,1.1346187699959207,-0.7337349924901124,-0.4211765550095606,0.07905518735126209,0.5272509342416285,0,-1,0.10363133996725082,-1.6199191252337855,-0.8675401846515101,-1.3842170874225062,0.7077831029891968,0.2244514375925064
4846,1734172720,914551019,-0.6282400564582661,0.16962084345063322,1.1314715409300768,-0.734024727717012,-0.4231145796100125,0.07917672525793852,0.5252740216295086,0,-1,0.10422980040311813,-1.6202071348773401,-0.8725670019732874,-1.3831384817706507,0.711882472038269,0.22570939362049103
4862,1734172720,930698156,-0.6307799273228056,0.16870185309894875,1.1282792385060225,-0.7342870925718262,-0.4251317490649231,0.07929012099040086,0.523257621380464,0,-1,0.10486384481191635,-1.6204946676837366,-0.8777139822589319,-1.3820598761187952,0.7159582376480103,0.22696661949157715
4878,1734172720,946537017,-0.6332471531801122,0.1678319138107615,1.1250841645021603,-0.7345547953529937,-0.42712230962260367,0.0793636642181762,0.5212458096219469,0,-1,0.10548627376556396,-1.6208065191852015,-0.8827760855304163,-1.3810175100909632,0.7200822830200195,0.22823657095432281
4894,1734172720,962378263,-0.6357272197681609,0.1669658709536092,1.1218662797972867,-0.7348486938797878,-0.4290637169044763,0.07942767303930519,0.5192234284918646,0,-1,0.1060132086277008,-1.6210945288287562,-0.8878033796893519,-1.3799379507647913,0.7241460680961609,0.22945821285247803
4910,1734172720,978681564,-0.6381682046627581,0.16607620243849747,1.1187005370801764,-0.7351270720048286,-0.43099462304754044,0.07954485902624135,0.5172083122999971,0,-1,0.10664724558591843,-1.6213939825641077,-0.8927343527423304,-1.3789075056659144,0.7282581329345703,0.2307877093553543
4926,1734172720,994985103,-0.6405180998498221,0.16521453278010056,1.115595149761205,-0.7354074660238853,-0.43288171797069913,0.07968768058841945,0.5152078713737808,0,-1,0.10724570602178574,-1.6217182318316858,-0.8976295630084437,-1.377840820943014,0.7324174046516418,0.23204530775547028
4942,1734172721,10752916,-0.6428789887362057,0.16432233017129047,1.1124551702087637,-0.7356875270987181,-0.43478661879700764,0.07984181690721082,0.5131761323945161,0,-1,0.1078437939286232,-1.6219938437091272,-0.9026683012591761,-1.376725975667135,0.7364935874938965,0.2333984076976776
4958,1734172721,26368618,-0.6452642911658865,0.16343562454665134,1.1091985909270825,-0.7359847927587063,-0.4366813854217762,0.07991536839546001,0.511125509389093,0,-1,0.10839469730854034,-1.6222699324237269,-0.9077308813678187,-1.3756707350360315,0.7406172752380371,0.23466798663139343
4974,1734172721,42625904,-0.6476128388321492,0.1625614887555438,1.1059762835805087,-0.7362854362398278,-0.43855407385464407,0.08001362370047563,0.5090696422975353,0,-1,0.1090051457285881,-1.622521702443258,-0.9128058592425745,-1.374580208455221,0.7447053790092468,0.23604542016983032
4990,1734172721,58389425,-0.6499654909832041,0.1616873129408236,1.1026912503490902,-0.7365995442585398,-0.44043452456369137,0.08009471722513972,0.5069747303792286,0,-1,0.10955529659986496,-1.6227615515338343,-0.9179042021380823,-1.3734896818744105,0.7488533854484558,0.2373749166727066
5006,1734172721,74756622,-0.6522862598010168,0.16080722809620773,1.0994393366287447,-0.73689529974583,-0.44232140722393354,0.08016123497390477,0.5048873798496067,0,-1,0.11016573756933212,-1.6230734030352991,-0.9228113333331507,-1.3724225203143519,0.7529894709587097,0.23868045210838318
5022,1734172721,90476036,-0.654529521995955,0.15989270511565967,1.0962486921883117,-0.7371798361309272,-0.4441456090256978,0.08027784617348435,0.502847923928217,0,-1,0.11080052703619003,-1.6233609358416956,-0.9277904669391077,-1.371296230946676,0.7569813132286072,0.24000994861125946
5038,1734172721,106743812,-0.6567975412397964,0.15901501856364353,1.0929971105004639,-0.737482121949822,-0.44594756633087257,0.08037687241970554,0.5007898224484861,0,-1,0.11138663440942764,-1.6236727873431605,-0.9328292051898401,-1.3702290693866175,0.76109379529953,0.24130350351333618
5054,1734172721,122504234,-0.6590512853718478,0.15809061061859234,1.0897375872511326,-0.7377588029768772,-0.4478346537974407,0.080464440022075,0.49867980245863736,0,-1,0.1119731068611145,-1.6239364782916468,-0.9378917852984827,-1.369138542805807,0.7652174830436707,0.242584690451622
5070,1734172721,138773918,-0.6612899974403914,0.15718311519407901,1.0864182621822007,-0.7380518303076872,-0.4496866110064185,0.08051054928687502,0.4965677185586682,0,-1,0.11259516328573227,-1.624164883290426,-0.943026367818014,-1.3680718580829065,0.7693056464195251,0.24384228885173798
5086,1734172721,154481649,-0.663503563265254,0.15629494927066828,1.0831007781094237,-0.7383389820418108,-0.45152355801587435,0.08050654514410124,0.4944701410025774,0,-1,0.11316966265439987,-1.6244648138629358,-0.94812518755068,-1.3669570128070276,0.7734536528587341,0.2451598048210144
5102,1734172721,170667886,-0.6656536963610189,0.15539684803420695,1.0798350179601726,-0.7386430667246966,-0.4533100497068719,0.08060321117797466,0.4923611897398977,0,-1,0.11382804065942764,-1.6247161070453089,-0.9530919233905237,-1.365889851246969,0.7775177955627441,0.24650128185749054
5118,1734172721,186938762,-0.667852086177819,0.15446532447497427,1.0765232662209445,-0.738940885999369,-0.45512232554193194,0.0806780128822608,0.4902255542392103,0,-1,0.1144145205616951,-1.6250165144549769,-0.957987133656637,-1.3648112455951136,0.7816419005393982,0.24780681729316711
5134,1734172721,202645301,-0.6699551555871973,0.15356193882703112,1.073292337838269,-0.7392336302237834,-0.45687973745105204,0.08075462979841906,0.48813239517465407,0,-1,0.11504893749952316,-1.6252921263324183,-0.9629901091205042,-1.3636968771563929,0.7856221199035645,0.24914829432964325
5150,1734172721,218502283,-0.6720695163729269,0.15264286027350166,1.0699805775215876,-0.7395371006184341,-0.4586382543394122,0.08083602123964066,0.48600552068420066,0,-1,0.11564702540636063,-1.6255200544940394,-0.968053166066305,-1.3626177946673792,0.7897825241088867,0.25048941373825073
5166,1734172721,234702348,-0.6741809671787508,0.15172320127653155,1.066619068954671,-0.739830678373595,-0.4604635159162812,0.08085628300285996,0.4838245336340898,0,-1,0.11628144234418869,-1.6257837454425257,-0.9731758276568812,-1.3616469542132776,0.7939545512199402,0.2517949342727661
5182,1734172721,250433444,-0.6762702099826876,0.1508276345435194,1.0632173298493615,-0.7401385946062952,-0.4622574504518176,0.08085151954495695,0.4816388087179799,0,-1,0.11687953025102615,-1.6259873549090784,-0.9783223311053675,-1.3605201880084437,0.7980430126190186,0.25306451320648193
5198,1734172721,266710996,-0.6783838493231553,0.14987367475708785,1.0598099787635504,-0.7404270381243081,-0.464064334941572,0.08084172187581765,0.47945459665525564,0,-1,0.11750233173370361,-1.626275364552633,-0.9832895437823694,-1.3594897429095667,0.8021547794342041,0.25438204407691956
5214,1734172721,282632112,-0.6803526020822527,0.1489752843274738,1.0565649026033443,-0.7407278369218373,-0.46578814147037184,0.08094147881497366,0.4772967168145177,0,-1,0.11808881163597107,-1.6265748182879847,-0.9881485144244593,-1.3583267370807093,0.8062552213668823,0.2556396424770355
5230,1734172721,298744201,-0.6823794588856593,0.14805432051772838,1.053244187781111,-0.7410259321709156,-0.46749844708991967,0.08102502201943557,0.4751428370769036,0,-1,0.11873483657836914,-1.6268513838397425,-0.993079964314596,-1.3572242895709437,0.8103793263435364,0.2569212019443512
5246,1734172721,314443588,-0.6844108905378583,0.1471297377577777,1.0498755473056718,-0.7413173975867721,-0.4692393411731862,0.08104372699930855,0.4729639215041581,0,-1,0.1193213164806366,-1.6271150747882288,-0.9981067816363733,-1.3561213652240198,0.8145400881767273,0.258190780878067
5262,1734172721,330678224,-0.686360017886876,0.14621390034168807,1.0464942834278093,-0.7415920547443513,-0.47099482231838263,0.0810198522119271,0.4707875160163911,0,-1,0.11990741640329361,-1.6273186842547815,-1.0032532850848597,-1.3550666014300745,0.8185323476791382,0.25943636894226074
5278,1734172721,346378564,-0.6883628911242669,0.14530917600879628,1.043029657950869,-0.7419065699158995,-0.4727232319164859,0.08097706123168119,0.4685617388096655,0,-1,0.12047030031681061,-1.6276066938983362,-1.0083516279803675,-1.3540118376361292,0.8226563930511475,0.2607179582118988
5294,1734172721,362663984,-0.6903761223289189,0.14437510742988435,1.039530385713541,-0.7422023068867665,-0.4744850050035889,0.08090647238019869,0.4663194810488816,0,-1,0.12109272927045822,-1.627918545399801,-1.0133903662311,-1.3528850714312952,0.8268048167228699,0.2620234787464142
5310,1734172721,378397226,-0.692258854332817,0.1434805552858652,1.036201244809715,-0.742517313934685,-0.47612559159494616,0.08093923531398345,0.4641350016130764,0,-1,0.12167883664369583,-1.6282184759723108,-1.018261734639303,-1.3517945448504847,0.8308809399604797,0.2633649706840515
5326,1734172721,394661664,-0.6941915823206488,0.14257078395792022,1.0327961473619227,-0.742830561229769,-0.4777756944512414,0.08092016296690163,0.46193621888753267,0,-1,0.12226531654596329,-1.6285298506366175,-1.0232165495501917,-1.350703541432516,0.8349458575248718,0.26470643281936646
5342,1734172721,410381078,-0.6960730869343991,0.14164979935257052,1.0294106960981022,-0.7431398630521049,-0.4794339246435735,0.08093970120725581,0.4597118887001284,0,-1,0.1228637769818306,-1.6288178602801722,-1.0282676855670374,-1.3496249357806605,0.8390219807624817,0.2660479247570038
5358,1734172721,426672458,-0.6979699486094513,0.14073300230107819,1.0259036860322248,-0.7434634350098075,-0.48110384762005426,0.08088403570883157,0.4574483373847256,0,-1,0.12342628836631775,-1.6290815512286585,-1.0333426634417933,-1.3485701719867151,0.8431943655014038,0.2673770487308502
