yildirimyigit/pemp/data/ur10/raw/8_2024-12-14_13-40-05.csv
Time,ROS secs,ROS nsecs,________p_x________,________p_y________,________p_z________,________q_x________,________q_y________,________q_z________,________q_w________,gripper_position,gripper_force,shoulder_pan_joint,shoulder_lift_joint,elbow_joint,wrist_1_joint,wrist_2_joint,wrist_3_joint
1,1734172805,654463529,-0.00016597559369416347,0.2561410063054748,1.4272999880567072,-0.707106780499394,2.101342130901354e-05,-1.2456788480606814e-05,0.7071067814517452,0,-1,-3.5587941304981996e-05,-1.5709527174579065,-1.1746083394825746e-05,-1.5707476774798792,-3.5587941304981996e-05,0.00011984225420746952
11,1734172805,670887470,-0.00016546981654260692,0.2561410105894424,1.4272999872334213,-0.7071067790923009,4.230018818364241e-05,-1.6795305403240103e-05,0.7071067818161015,0,-1,-4.7985707418263246e-05,-1.5709527174579065,0.0,-1.570796314870016,-1.1746083394825746e-05,0.00014381069922819734
25,1734172805,686785459,-0.00017355112182234969,0.2561410110735662,1.4272999860972069,-0.7071067796366387,2.9673195586079723e-05,-2.942229801765192e-05,0.7071067815017276,0,-1,-7.135072817021637e-05,-1.57092792192568,1.1920928955078125e-05,-1.5707839171039026,-3.5587941304981996e-05,0.000107858024421148
41,1734172805,703004360,-0.0001718448395214851,0.25614101099717046,1.4272999864705929,-0.7071067811459835,1.2645868883825342e-05,-2.9714519922687176e-05,0.7071067804896907,0,-1,-4.7985707418263246e-05,-1.5709527174579065,-2.366701234990387e-05,-1.570796314870016,-2.366701234990387e-05,0.00011984225420746952
57,1734172805,718282699,-0.00018500684063507052,0.2561410069891182,1.4272999852646484,-0.7071067812449384,4.4692840396668275e-06,-2.0695190580922684e-05,0.707106780811185,0,-1,-2.366701234990387e-05,-1.5709527174579065,2.384185791015625e-05,-1.5707600752459925,-1.1746083394825746e-05,0.00013182648399379104
73,1734172805,734786510,-0.00013399938708709875,0.2561410069614978,1.427299991687686,-0.7071067804950341,2.11596284794011e-05,-2.107712580243651e-05,0.7071067812473393,0,-1,-3.5587941304981996e-05,-1.57092792192568,0.0,-1.5707600752459925,-2.366701234990387e-05,0.000107858024421148
89,1734172805,750589847,-0.00022176196419363127,0.2561410082907969,1.427299979305531,-0.7071067806003873,3.9860944963946e-06,-2.948411526093689e-05,0.7071067811467753,0,-1,-5.990663637334137e-05,-1.5709527174579065,1.1920928955078125e-05,-1.5707600752459925,-4.7985707418263246e-05,0.00013182648399379104
106,1734172805,767171144,-0.0001960690007752605,0.25614101477841644,1.4272999819856826,-0.7071067781003044,1.2601110754517474e-05,-7.178249167063887e-05,0.7071067805169831,0,-1,-1.1746083394825746e-05,-1.57092792192568,-1.1746083394825746e-05,-1.5707719961749476,2.3968450477696024e-05,0.00013182648399379104
121,1734172805,783309936,-0.00013120435387849617,0.25614101019804203,1.4272999912537054,-0.7071067782413011,5.070718275977793e-05,-2.4909875393107745e-05,0.7071067818749069,0,-1,-4.7985707418263246e-05,-1.5709403196917933,0.0,-1.5707839171039026,-1.1746083394825746e-05,0.00013182648399379104
138,1734172805,798859596,-0.00012980182518476804,0.2561410084201292,1.4272999910009487,-0.7071067777972181,6.368841212476939e-05,-3.8364511598814005e-06,0.7071067816972931,0,-1,-2.366701234990387e-05,-1.570916000996725,-3.5587941304981996e-05,-1.570808235798971,1.1984225238848012e-05,8.388957940042019e-05
153,1734172805,814551115,-0.0001814454906572297,0.25614100683655516,1.427299985781617,-0.7071067797432737,2.128858117332023e-05,-2.0610998196994613e-05,0.7071067820089695,0,-1,-3.5587941304981996e-05,-1.5709403196917933,-1.1746083394825746e-05,-1.5707600752459925,-2.366701234990387e-05,0.00011984225420746952
170,1734172805,830999612,-0.00013729095397871006,0.2561410106843507,1.4272999904091173,-0.7071067791301459,5.093758748588622e-05,-7.82073138817194e-06,0.7071067813650139,0,-1,-3.5587941304981996e-05,-1.5709403196917933,0.0,-1.5707839171039026,-1.1746083394825746e-05,0.00011984225420746952
185,1734172805,847280979,-0.00020933436892126342,0.25614100526895894,1.4272999819897525,-0.7071067812590547,-1.0495582346254882e-07,-1.6840060743191904e-05,0.7071067809135058,0,-1,-3.5587941304981996e-05,-1.5709765593158167,0.0,-1.5707719961749476,-3.5587941304981996e-05,0.00015579492901451886
202,1734172805,863030195,-0.00016989654631530452,0.25614100863202305,1.4272999869951108,-0.7071067789453495,3.367985597632111e-05,-2.541563754777316e-05,0.7071067821688924,0,-1,-2.366701234990387e-05,-1.570916000996725,1.1920928955078125e-05,-1.5707839171039026,-1.1746083394825746e-05,0.00014381069922819734
217,1734172805,878732442,-0.00018538802806789475,0.2561410094337785,1.4272999847931023,-0.7071067807999553,2.5480891051126252e-05,-8.450128060408205e-06,0.7071067810635417,0,-1,-1.1746083394825746e-05,-1.5709527174579065,-1.1746083394825746e-05,-1.5707600752459925,0.0,0.00011984225420746952
234,1734172805,895058870,-0.00016821006461214454,0.2561410042372838,1.427299988175838,-0.7071067793026012,2.52504862994929e-05,-1.6649093044284492e-05,0.7071067824236471,0,-1,-3.5587941304981996e-05,-1.5709403196917933,1.1920928955078125e-05,-1.5707600752459925,-1.1746083394825746e-05,0.000107858024421148
249,1734172805,910584211,-0.00020397075579780115,0.2561410076573839,1.4272999824556358,-0.7071067819175608,-8.787108721327e-06,-2.5477456489567243e-05,0.7071067799419526,0,-1,-5.990663637334137e-05,-1.5709403196917933,-2.366701234990387e-05,-1.5707839171039026,2.3968450477696024e-05,0.000107858024421148
266,1734172805,926864862,-0.0001901638344496033,0.25614100717264493,1.4272999845602794,-0.7071067809411348,2.1204191350696863e-05,-3.960283273110685e-06,0.7071067811029423,0,-1,-4.7985707418263246e-05,-1.5709403196917933,0.0,-1.5707600752459925,0.0,0.00014381069922819734
282,1734172805,942997932,-0.000141463779790117,0.2561410054136884,1.4272999911489124,-0.7071067801453466,2.113725081076024e-05,-2.0762328654940098e-05,0.7071067816070093,0,-1,-7.135072817021637e-05,-1.570916000996725,2.384185791015625e-05,-1.5707600752459925,-3.5587941304981996e-05,0.00011984225420746952
297,1734172805,958646535,-0.0001851566703629199,0.2561410093165255,1.4272999849023884,-0.7071067784997591,2.1159628323925524e-05,-4.6702409603868e-05,0.7071067820144619,0,-1,-9.519258608037262e-05,-1.57092792192568,-2.366701234990387e-05,-1.5707719961749476,-1.1746083394825746e-05,0.00013182648399379104
313,1734172805,974545478,-0.00016265614353609654,0.2561410104208847,1.427299987449292,-0.7071067792883701,4.242402030442099e-05,-1.6671473328294128e-05,0.7071067816155441,0,-1,-3.5587941304981996e-05,-1.5709403196917933,-3.5587941304981996e-05,-1.5707600752459925,-2.366701234990387e-05,0.00014381069922819734
329,1734172805,990331411,-0.0001821976804215989,0.25614100462009365,1.4272999859554465,-0.7071067818671152,-8.388116700788749e-06,-1.6649094765114934e-05,0.7071067802602229,0,-1,-3.5587941304981996e-05,-1.5709403196917933,0.0,-1.5707600752459925,0.0,0.00011984225420746952
345,1734172806,6566762,-0.00019628300632863448,0.25614100995658173,1.4272999831775042,-0.7071067812080583,8.493001273437368e-06,-2.5438017834637527e-05,0.7071067806564688,0,-1,-4.7985707418263246e-05,-1.57092792192568,-2.366701234990387e-05,-1.5707719961749476,1.1984225238848012e-05,0.00013182648399379104
361,1734172806,22059440,-0.00014225023136161976,0.2561410092178966,1.4272999902379095,-0.7071067798802765,3.8209335491356185e-05,-1.2456788489073857e-05,0.7071067813507528,0,-1,-7.135072817021637e-05,-1.5709646383868616,-1.1746083394825746e-05,-1.570796314870016,-4.7985707418263246e-05,0.00014381069922819734
377,1734172806,38407564,-0.0002234536516312341,0.2561410083510005,1.4272999790616698,-0.7071067805133219,-1.443929030331703e-07,-3.361460263470565e-05,0.7071067810607691,0,-1,-3.5587941304981996e-05,-1.570916000996725,-1.1746083394825746e-05,-1.5707600752459925,-3.5587941304981996e-05,0.00014381069922819734
393,1734172806,54312229,-0.00015502603384108854,0.2561410098834612,1.4272999885043427,-0.7071067788194865,3.392751503399889e-05,-4.2363892723570395e-05,0.7071067814706307,0,-1,-3.5587941304981996e-05,-1.5709403196917933,-2.366701234990387e-05,-1.5707839171039026,-3.5587941304981996e-05,9.58738019107841e-05
409,1734172806,70201635,-0.00018919517886074983,0.25614100711235066,1.4272999847439087,-0.7071067798461402,2.086721408080695e-05,-2.103236531565577e-05,0.7071067819062558,0,-1,-7.135072817021637e-05,-1.5709403196917933,-4.7985707418263246e-05,-1.5707839171039026,2.3968450477696024e-05,0.00014381069922819734
426,1734172806,86794853,-0.00016689724829703349,0.25614101277731993,1.4272999866947844,-0.7071067796459256,2.107523846023639e-05,-4.611245000052602e-05,0.7071067809095346,0,-1,-5.990663637334137e-05,-1.5709527174579065,-1.1746083394825746e-05,-1.5707719961749476,2.3968450477696024e-05,0.00013182648399379104
441,1734172806,102981328,-0.00016099537605090107,0.2561410103472156,1.4272999879495785,-0.7071067806248557,2.9948355612570405e-05,-1.2412033197319531e-05,0.7071067810050966,0,-1,-3.5587941304981996e-05,-1.5709403196917933,-1.1746083394825746e-05,-1.5707719961749476,-1.1746083394825746e-05,0.000107858024421148
457,1734172806,118293046,-0.00015866061608332005,0.2561410002170822,1.427299990193024,-0.7071067803492812,4.402145898605084e-06,-1.2332958937076409e-05,0.7071067819025586,0,-1,-5.990663637334137e-05,-1.57092792192568,3.5762786865234375e-05,-1.5707719961749476,-2.366701234990387e-05,0.000107858024421148
473,1734172806,134417772,-0.0001838673549096939,0.25614100466623085,1.4272999858376265,-0.7071067811383221,1.3067241136056918e-05,-3.6678637872057694e-06,0.7071067811045196,0,-1,-7.135072817021637e-05,-1.5709527174579065,0.0,-1.5707719961749476,-1.1746083394825746e-05,0.00011984225420746952
489,1734172806,150496482,-0.0001747645647375009,0.2561410111462595,1.4272999859181066,-0.7071067800558403,1.6731600895850628e-05,-4.236389273100958e-05,0.7071067808502587,0,-1,-5.990663637334137e-05,-1.570916000996725,2.384185791015625e-05,-1.5707719961749476,1.1984225238848012e-05,0.00011984225420746952
505,1734172806,166527271,-0.00014913225396133577,0.25614100953060054,1.4272999896028842,-0.7071067828219831,8.656464269949247e-06,1.925830119124851e-07,0.7071067794980991,0,-1,-5.990663637334137e-05,-1.5709403196917933,0.0,-1.570796314870016,-1.1746083394825746e-05,0.00011984225420746952
521,1734172806,182659864,-0.000180473362888589,0.2561410091979448,1.427299985416459,-0.7071067810580475,1.6860553734423363e-05,-1.7070465377803047e-05,0.707106780907981,0,-1,-4.7985707418263246e-05,-1.5709527174579065,-3.5587941304981996e-05,-1.5707476774798792,-3.5587941304981996e-05,0.00014381069922819734
537,1734172806,198054552,-0.0001713635197334437,0.25614100649722005,1.4272999872472298,-0.7071067804070351,2.539669355622999e-05,-8.073516238561231e-06,0.7071067814638913,0,-1,-3.5587941304981996e-05,-1.57092792192568,2.384185791015625e-05,-1.5707839171039026,0.0,0.00013182648399379104
553,1734172806,214317798,-0.00015998643593046898,0.2561410059925423,1.4272999886691666,-0.7071067783647057,4.267680509046464e-05,-1.6418688413790174e-05,0.7071067825299118,0,-1,-7.135072817021637e-05,-1.5709403196917933,0.0,-1.5707839171039026,-1.1746083394825746e-05,0.00011984225420746952
569,1734172806,230136871,-0.0001650101975524894,0.25614100421993824,1.427299988691415,-0.7071067812085308,8.453564256292222e-06,-8.281540666393708e-06,0.7071067810655364,0,-1,-3.5587941304981996e-05,-1.5709403196917933,0.0,-1.5707476774798792,-3.5587941304981996e-05,0.00013182648399379104
585,1734172806,246255636,-0.00012548111593807307,0.2561410098222487,1.4272999919247071,-0.7071067779828067,5.920368798925939e-05,-7.984000467616516e-06,0.7071067818667509,0,-1,-7.135072817021637e-05,-1.57092792192568,1.1920928955078125e-05,-1.5707839171039026,-1.1746083394825746e-05,8.388957940042019e-05
601,1734172806,262321710,-0.00015090694657548018,0.2561410038795355,1.4272999902827688,-0.7071067813919382,1.28935295439648e-05,4.632551532438003e-06,0.7071067808484304,0,-1,-3.5587941304981996e-05,-1.5709403196917933,-2.366701234990387e-05,-1.5707839171039026,1.1984225238848012e-05,8.388957940042019e-05
617,1734172806,278487205,-0.00018652751373740074,0.2561410118767601,1.427299984265376,-0.7071067812467564,4.171741306839925e-06,-3.818864748876551e-05,0.7071067800828073,0,-1,-4.7985707418263246e-05,-1.57092792192568,-1.1746083394825746e-05,-1.5707839171039026,-2.366701234990387e-05,0.000107858024421148
633,1734172806,294473648,-0.00014645955131765504,0.25614100561729947,1.4272999906383852,-0.7071067810575135,1.6882933957932776e-05,-8.281540666393703e-06,0.7071067810655364,0,-1,-8.32716571252945e-05,-1.5709646383868616,-1.1746083394825746e-05,-1.5707719961749476,-1.1746083394825746e-05,0.00016777915880084038
649,1734172806,310515403,-0.000190767327190835,0.2561410121243926,1.4272999835104583,-0.7071067802583086,2.5312303604667825e-05,-2.5353820350834266e-05,0.7071067812071945,0,-1,-7.135072817021637e-05,-1.5709403196917933,2.384185791015625e-05,-1.5707719961749476,-1.1746083394825746e-05,0.00011984225420746952
665,1734172806,326718568,-0.00013478182462866008,0.2561410105053225,1.4272999909173059,-0.7071067806121805,1.6877808106724367e-05,-4.18805107852307e-05,0.7071067803192387,0,-1,-5.990663637334137e-05,-1.5709527174579065,0.0,-1.5707839171039026,1.1984225238848012e-05,0.00013182648399379104
681,1734172806,342275857,-0.0001562637721220774,0.25614100802987005,1.4272999890003457,-0.7071067805570087,1.7113531019724266e-05,-2.5123223255480075e-05,0.7071067811626848,0,-1,-2.366701234990387e-05,-1.5709527174579065,-1.1746083394825746e-05,-1.5707839171039026,-2.366701234990387e-05,0.00014381069922819734
697,1734172806,358485698,-0.00015753247664966355,0.25614100590521094,1.4272999892735763,-0.7071067788241899,1.6922565866474715e-05,-4.217292763101706e-05,0.7071067820887798,0,-1,-5.990663637334137e-05,-1.5709403196917933,0.0,-1.5707476774798792,-4.7985707418263246e-05,9.58738019107841e-05
713,1734172806,375036954,-0.00022666028991789983,0.25614101427461927,1.4272999768918884,-0.7071067803598211,-8.61852306149664e-06,-5.928464693251231e-05,0.7071067794755043,0,-1,-2.366701234990387e-05,-1.5709646383868616,-4.7985707418263246e-05,-1.5707839171039026,-4.7985707418263246e-05,0.000107858024421148
729,1734172806,390769481,-0.00013822341205464773,0.2561410035793541,1.4272999918677742,-0.7071067813580414,1.6984382309115147e-05,8.723404285811694e-06,0.7071067807572659,0,-1,-2.366701234990387e-05,-1.5709403196917933,0.0,-1.570796314870016,-1.1746083394825746e-05,0.000107858024421148
745,1734172806,407019853,-0.0001486081041513328,0.2561410095987754,1.427299989589574,-0.70710678045878,1.7029141074940076e-05,-3.363698287623763e-05,0.7071067809092064,0,-1,-9.519258608037262e-05,-1.5709527174579065,-1.1746083394825746e-05,-1.570796314870016,0.0,0.000107858024421148
761,1734172806,422576665,-0.0002031618506255912,0.2561410128669068,1.427299981505797,-0.7071067805113311,-1.8915335036140302e-07,-5.0855277259185486e-05,0.7071067800329772,0,-1,-4.7985707418263246e-05,-1.5709403196917933,-3.5587941304981996e-05,-1.5707600752459925,-1.1746083394825746e-05,0.00011984225420746952
777,1734172806,438653945,-0.00018209268946993507,0.25614100687904906,1.4272999857860604,-0.7071067806515373,1.2393083989840425e-05,-2.1077125797802464e-05,0.7071067812988254,0,-1,-4.7985707418263246e-05,-1.5709527174579065,-2.366701234990387e-05,-1.5707719961749476,-5.990663637334137e-05,0.00016777915880084038
793,1734172806,454384565,-0.00015530689857444233,0.25614101405726897,1.4272999879190094,-0.7071067799022152,3.391026068820747e-05,-3.327742786971338e-05,0.7071067808747328,0,-1,-8.32716571252945e-05,-1.5709403196917933,2.384185791015625e-05,-1.5707719961749476,-1.1746083394825746e-05,0.00011984225420746952
809,1734172806,470625162,-0.00017383459355771572,0.25614100442878535,1.4272999871361662,-0.707106780806811,2.5289923433672673e-05,8.554818512325822e-06,0.707106781062283,0,-1,-2.366701234990387e-05,-1.570916000996725,-1.1746083394825746e-05,-1.5707839171039026,0.0,0.00013182648399379104
825,1734172806,486846685,-0.00019365504900360336,0.25614100719073896,1.4272999839511253,-0.7071067785693115,2.5289923259785164e-05,-3.380557019365037e-05,0.7071067825434387,0,-1,-5.990663637334137e-05,-1.5709646383868616,0.0,-1.5707719961749476,1.1984225238848012e-05,0.00011984225420746952
841,1734172806,502443552,-0.00016280001739329348,0.2561410083435164,1.4272999880567072,-0.7071067804950341,2.1159628479401102e-05,-2.107712580243651e-05,0.7071067812473393,0,-1,-2.366701234990387e-05,-1.5709527174579065,-2.366701234990387e-05,-1.570808235798971,-7.135072817021637e-05,9.58738019107841e-05
857,1734172806,518826246,-0.00017874523208431315,0.2561410183602666,1.427299983839415,-0.7071067785062842,4.189587780893009e-05,-5.0579919720846416e-05,0.70710678081664,0,-1,-7.135072817021637e-05,-1.57092792192568,-2.366701234990387e-05,-1.5707600752459925,-4.7985707418263246e-05,0.00011984225420746952
873,1734172806,534465312,-0.00020729827829782418,0.25614101048515736,1.4272999813108094,-0.7071067811433229,-1.2793768251921454e-05,-4.672478732801623e-05,0.7071067795702729,0,-1,-3.5587941304981996e-05,-1.57092792192568,2.384185791015625e-05,-1.5707719961749476,-2.366701234990387e-05,9.58738019107841e-05
889,1734172806,550584793,-0.00014164745687979285,0.2561410129003632,1.4272999893322014,-0.7071067778208754,6.33736124055369e-05,-1.2243445785208775e-05,0.7071067816063302,0,-1,-4.7985707418263246e-05,-1.5709527174579065,-2.366701234990387e-05,-1.570796314870016,-5.990663637334137e-05,8.388957940042019e-05
905,1734172806,566972970,-0.00017574604611001794,0.25614101342814954,1.4272999854401527,-0.7071067803568551,2.0676246498461125e-05,-3.8082072359141166e-05,0.7071067806884691,0,-1,-4.7985707418263246e-05,-1.5709765593158167,0.0,-1.5707600752459925,-3.5587941304981996e-05,0.00016777915880084038
921,1734172806,582560539,-0.00020937929340381325,0.2561410078498626,1.4272999812454268,-0.707106781853658,-1.2793769165638924e-05,-2.9484116921654346e-05,0.7071067797890002,0,-1,-3.5587941304981996e-05,-1.5709403196917933,2.384185791015625e-05,-1.5707719961749476,-3.5587941304981996e-05,0.00015579492901451886
937,1734172806,598854303,-0.00016879980882939923,0.25614101070860174,1.4272999869535399,-0.7071067784116108,1.6922565807194586e-05,-5.9368841796673625e-05,0.7071067812666771,0,-1,-3.5587941304981996e-05,-1.5709403196917933,0.0,-1.5707476774798792,-4.7985707418263246e-05,0.000107858024421148
953,1734172806,614458322,-0.0002035932766609176,0.2561410075921854,1.4272999824457415,-0.7071067791395568,2.086721402166082e-05,-2.946173497754694e-05,0.707106782311871,0,-1,-4.7985707418263246e-05,-1.5709527174579065,-2.366701234990387e-05,-1.5707719961749476,-3.5587941304981996e-05,0.00013182648399379104
969,1734172806,630859613,-0.0001645963422207726,0.2561410062563901,1.4272999881841786,-0.7071067804110897,2.5228106162123237e-05,-8.242103632492868e-06,0.7071067814639267,0,-1,-4.7985707418263246e-05,-1.57092792192568,3.5762786865234375e-05,-1.5707719961749476,-1.1746083394825746e-05,0.000107858024421148
985,1734172806,646481037,-0.0001857394607166193,0.2561410094442818,1.4272999847597732,-0.7071067806489597,1.2539293732699115e-05,-2.9697460544687842e-05,0.7071067809893291,0,-1,-2.366701234990387e-05,-1.57092792192568,-1.1746083394825746e-05,-1.570808235798971,-3.5587941304981996e-05,0.00013182648399379104
1001,1734172806,662687778,-0.000146632038670694,0.256141013334899,1.427299988995047,-0.707106779952794,3.3887880473003266e-05,-3.329980809736315e-05,0.7071067808241731,0,-1,-3.5587941304981996e-05,-1.5709884802447718,-1.1746083394825746e-05,-1.5707600752459925,-3.5587941304981996e-05,0.00013182648399379104
1017,1734172806,678293704,-0.00019909667931051328,0.25614101009159784,1.4272999827386683,-0.7071067812070191,-8.57908340088739e-06,-4.251010248575552e-05,0.7071067798362136,0,-1,-4.7985707418263246e-05,-1.5709884802447718,0.0,-1.5707600752459925,-1.1746083394825746e-05,0.00014381069922819734
1033,1734172806,694453239,-0.0001899840682129925,0.2561410047845113,1.427299985157241,-0.7071067824613371,-4.173430194435037e-06,-3.960281409465819e-06,0.7071067798883517,0,-1,-3.5587941304981996e-05,-1.57092792192568,-1.1746083394825746e-05,-1.5707719961749476,-1.1746083394825746e-05,0.000107858024421148
1049,1734172806,710108757,-0.00016574995837689133,0.2561410105736609,1.4272999872341325,-0.7071067792989713,2.5351935595164966e-05,-4.217292767123102e-05,0.7071067813620228,0,-1,-2.366701234990387e-05,-1.5709527174579065,1.1920928955078125e-05,-1.5707476774798792,-1.1746083394825746e-05,0.00015579492901451886
1065,1734172806,726380348,-0.00022342113525714876,0.25614101406111095,1.427299977987615,-0.7071067797440719,4.19411883187824e-06,-5.490137468639956e-05,0.7071067804852511,0,-1,-3.5587941304981996e-05,-1.57092792192568,3.5762786865234375e-05,-1.5707719961749476,1.1984225238848012e-05,0.00014381069922819734
1081,1734172806,742124557,-0.00023160447952459256,0.2561410057376402,1.4272999781849809,-0.7071067789508849,8.307351751680643e-06,-3.3592227456257415e-05,0.7071067825754852,0,-1,-5.990663637334137e-05,-1.5709403196917933,-1.1746083394825746e-05,-1.5707600752459925,0.0,0.00013182648399379104
1097,1734172806,758384943,-0.00018031829930303052,0.25614101147896506,1.4272999849995756,-0.707106779442024,3.407884804508583e-05,-2.5016645546880988e-05,0.7071067816673294,0,-1,-3.5587941304981996e-05,-1.5709403196917933,0.0,-1.5707719961749476,-1.1746083394825746e-05,0.00013182648399379104
1113,1734172806,774104118,-0.00016868906386402515,0.256141008606645,1.4272999871906835,-0.707106779798844,2.5627098138012016e-05,-2.5039025770409666e-05,0.7071067816665374,0,-1,-3.5587941304981996e-05,-1.5709403196917933,-4.7985707418263246e-05,-1.5707600752459925,-2.366701234990387e-05,0.00014381069922819734
1129,1734172806,790627002,-0.00017801189373102048,0.2561410044692638,1.4272999868654215,-0.7071067792554029,8.431183892612883e-06,-3.346839540630469e-05,0.7071067822753735,0,-1,-4.7985707418263246e-05,-1.57092792192568,1.1920928955078125e-05,-1.5707839171039026,-2.366701234990387e-05,0.00011984225420746952
1145,1734172806,806668281,-0.00016628107165613735,0.25614100841076654,1.4272999874749972,-0.7071067781571836,4.244640042629455e-05,-2.5415637534515085e-05,0.7071067824851605,0,-1,-4.7985707418263246e-05,-1.5709403196917933,-2.366701234990387e-05,-1.5707719961749476,-1.1746083394825746e-05,0.00014381069922819734
1161,1734172806,822428941,-0.00016280001739329348,0.2561410083435164,1.4272999880567072,-0.7071067806978379,1.2685503482044921e-05,-2.955125080577543e-05,0.7071067809439684,0,-1,-3.5587941304981996e-05,-1.5709527174579065,-4.7985707418263246e-05,-1.570808235798971,-5.990663637334137e-05,0.000107858024421148
1177,1734172806,838538169,-0.00017352403347316517,0.25614100652208294,1.4272999870385443,-0.7071067794099072,8.555013434093017e-06,-4.177393561612774e-05,0.707106781677491,0,-1,-1.1746083394825746e-05,-1.5708921591388147,3.5762786865234375e-05,-1.5707839171039026,-2.366701234990387e-05,9.58738019107841e-05
1193,1734172806,854723215,-0.000205478083134223,0.2561410076918257,1.4272999821229986,-0.7071067799077337,8.262596537461934e-06,-3.363698283918131e-05,0.7071067816170332,0,-1,-5.990663637334137e-05,-1.57092792192568,2.384185791015625e-05,-1.570808235798971,-2.366701234990387e-05,0.00014381069922819734
1209,1734172806,870422363,-0.00016720481083651312,0.2561410128184657,1.4272999867092755,-0.7071067813138276,2.5289925092954475e-05,-1.668853176594269e-05,0.7071067804100816,0,-1,-7.135072817021637e-05,-1.5709646383868616,-2.366701234990387e-05,-1.5707839171039026,-3.5587941304981996e-05,0.000107858024421148
1225,1734172806,886873006,-0.0001676901570561478,0.2561410063470312,1.427299987890831,-0.7071067800454396,1.2393083946369305e-05,-2.9506495471773468e-05,0.7071067816034212,0,-1,-3.5587941304981996e-05,-1.5709646383868616,-2.366701234990387e-05,-1.5707600752459925,-3.5587941304981996e-05,0.00011984225420746952
1241,1734172806,902466773,-0.00020586385678185426,0.25614101041632564,1.427299981560179,-0.7071067812590597,6.363157059832198e-08,-3.386738752849017e-05,0.707106780302981,0,-1,-5.990663637334137e-05,-1.5709403196917933,-1.1746083394825746e-05,-1.5707839171039026,-1.1746083394825746e-05,8.388957940042019e-05
1257,1734172806,918789625,-0.0001625037548030713,0.25614100833566045,1.427299988080406,-0.7071067809406172,2.1221445754902098e-05,-1.2709573357604519e-05,0.7071067809998113,0,-1,-5.990663637334137e-05,-1.5709884802447718,1.1920928955078125e-05,-1.5707719961749476,0.0,8.388957940042019e-05
1273,1734172806,934498310,-0.00011933734367937916,0.2561410046457155,1.4272999933318185,-0.7071067796968951,4.230018824883613e-05,8.829978465193452e-06,0.7071067813558376,0,-1,-4.7985707418263246e-05,-1.5709403196917933,0.0,-1.5707719961749476,-1.1746083394825746e-05,0.00014381069922819734
1289,1734172806,950877428,-0.00016389316654363855,0.2561410083959719,1.4272999877392196,-0.7071067803596034,2.5228106155336118e-05,-1.700864812102318e-05,0.7071067813588865,0,-1,-5.990663637334137e-05,-1.5709646383868616,-1.1746083394825746e-05,-1.5707839171039026,-3.5587941304981996e-05,0.00013182648399379104
1305,1734172806,966570377,-0.00017037587787330466,0.2561410087067889,1.4272999870386243,-0.7071067811986482,2.5627099865670526e-05,1.7020763353296163e-07,0.7071067807100352,0,-1,-3.5587941304981996e-05,-1.5709765593158167,4.8160552978515625e-05,-1.5707600752459925,-2.366701234990387e-05,0.000107858024421148
1321,1734172806,982380628,-0.00020145201862610955,0.2561410050757863,1.4272999833124664,-0.7071067817198251,8.262598286079571e-06,1.6202289129596746e-09,0.7071067806049954,0,-1,-4.7985707418263246e-05,-1.57092792192568,-2.366701234990387e-05,-1.570796314870016,0.0,0.00013182648399379104
1337,1734172806,998638868,-0.000167424145680534,0.2561410085133832,1.427299987351841,-0.7071067792843572,2.9588998106199153e-05,-2.9506495471121134e-05,0.707106781854029,0,-1,-3.5587941304981996e-05,-1.570916000996725,-1.1746083394825746e-05,-1.5707357565509241,-1.1746083394825746e-05,0.00013182648399379104
1353,1734172807,14399766,-0.0002274448822906742,0.2561410056975807,1.427299978635612,-0.7071067812057809,-8.680532696832867e-06,-2.54156376111408e-05,0.7071067806572736,0,-1,-7.135072817021637e-05,-1.5709527174579065,-1.1746083394825746e-05,-1.5707476774798792,-2.366701234990387e-05,0.00011984225420746952
1369,1734172807,30518293,-0.0001161617674026707,0.25614100610554696,1.4272999933318185,-0.7071067799297824,3.820933549757539e-05,-4.027418788095742e-06,0.7071067813995003,0,-1,-4.7985707418263246e-05,-1.57092792192568,2.384185791015625e-05,-1.5707839171039026,-1.1746083394825746e-05,0.00011984225420746952
1385,1734172807,46293020,-0.00019305987263977715,0.25614100242212023,1.4272999850400117,-0.7071067785669551,2.5272861320912574e-05,-1.6963892687096285e-05,0.7071067831510117,0,-1,-8.32716571252945e-05,-1.5709403196917933,3.5762786865234375e-05,-1.5707839171039026,-2.366701234990387e-05,0.00014381069922819734
1401,1734172807,62469720,-0.00016476215077555303,0.25614100626229086,1.42729998822148,-0.707106780355226,2.548089101389921e-05,-7.989318769684576e-06,0.7071067815136276,0,-1,-7.135072817021637e-05,-1.5709403196917933,-3.5587941304981996e-05,-1.5707719961749476,-3.5587941304981996e-05,0.00013182648399379104
1417,1734172807,78284263,-0.00016611002556083754,0.25614101274061246,1.4272999867310188,-0.7071067795136718,4.198539365476033e-05,-1.6772925196490778e-05,0.7071067814140233,0,-1,0.0,-1.5709403196917933,0.0,-1.5707600752459925,-1.1746083394825746e-05,0.00011984225420746952
1433,1734172807,94542741,-0.00013969463490947219,0.2561410089650087,1.4272999905198798,-0.7071067780911655,4.686910969942568e-05,-2.9422297999228626e-05,0.7071067821164964,0,-1,-4.7985707418263246e-05,-1.57092792192568,0.0,-1.5707839171039026,1.1984225238848012e-05,0.00011984225420746952
1449,1734172807,110379457,-0.00015946047629676667,0.25614101024890445,1.4272999878673485,-0.7071067800581241,3.365747585279282e-05,-1.7008648125185493e-05,0.7071067813093804,0,-1,-1.1746083394825746e-05,-1.5709527174579065,0.0,-1.5707600752459925,-3.5587941304981996e-05,0.000107858024421148
1465,1734172807,126621246,-0.0001722792138707577,0.2561410131287632,1.4272999859442763,-0.7071067784357398,3.797873308351038e-05,-3.7638324978138314e-05,0.7071067819157174,0,-1,-4.7985707418263246e-05,-1.5709527174579065,-1.1746083394825746e-05,-1.5707719961749476,1.1984225238848012e-05,9.58738019107841e-05
1481,1734172807,142310857,-0.00014687742003677683,0.25614100950145635,1.427299989803419,-0.7071067809329855,2.1474230613027275e-05,-2.0886158198377625e-05,0.7071067808055702,0,-1,-5.990663637334137e-05,-1.5709527174579065,0.0,-1.570723835621969,-1.1746083394825746e-05,0.00013182648399379104
1497,1734172807,158472537,-0.00019755738056676292,0.2561410125117004,1.4272999822880381,-0.7071067795401357,2.946517115897638e-05,-2.9630322418862644e-05,0.7071067815982433,0,-1,-2.366701234990387e-05,-1.5709527174579065,-2.366701234990387e-05,-1.5707600752459925,1.1984225238848012e-05,0.00011984225420746952
1513,1734172807,174301624,-0.00018485827360080516,0.2561410023257835,1.4272999861874804,-0.7071067789086084,2.101342120968296e-05,-2.1223332876118752e-05,0.7071067828337517,0,-1,-5.990663637334137e-05,-1.57092792192568,-1.1746083394825746e-05,-1.5707719961749476,-1.1746083394825746e-05,0.00013182648399379104
1529,1734172807,190594673,-0.0001972870262067679,0.2561410123558824,1.4272999824861645,-0.7071067770846997,2.9695575559029195e-05,-5.502520154136702e-05,0.7071067825238907,0,-1,-3.5587941304981996e-05,-1.5709646383868616,-1.1746083394825746e-05,-1.5707719961749476,-2.366701234990387e-05,0.00011984225420746952
1545,1734172807,206366777,-0.00018652537967278192,0.25614100472277784,1.427299985625048,-0.7071067806630799,8.200779358717134e-06,-1.6840060716819323e-05,0.7071067814619336,0,-1,-4.7985707418263246e-05,-1.570916000996725,-4.7985707418263246e-05,-1.5707839171039026,-3.5587941304981996e-05,0.000107858024421148
1561,1734172807,222693204,-0.00017346385677975113,0.2561410088615887,1.4272999866682303,-0.7071067812070395,8.57739120331256e-06,-2.5353627904827914e-05,0.7071067806594997,0,-1,-5.990663637334137e-05,-1.5709646383868616,1.1920928955078125e-05,-1.5707719961749476,0.0,9.58738019107841e-05
1577,1734172807,238620996,-0.00013132198209229727,0.2561410085111967,1.4272999914079638,-0.7071067785246403,5.1021977365122264e-05,-1.6502885928452254e-05,0.7071067818151073,0,-1,-8.32716571252945e-05,-1.57092792192568,0.0,-1.5707719961749476,-1.1746083394825746e-05,0.00011984225420746952
1593,1734172807,254871845,-0.00016680273147301128,0.25614100851612803,1.4272999872117458,-0.7071067797490259,3.380368300440946e-05,-1.686244094568056e-05,0.7071067816150058,0,-1,-5.990663637334137e-05,-1.570916000996725,-2.366701234990387e-05,-1.570796314870016,1.1984225238848012e-05,0.00013182648399379104
1609,1734172807,270512580,-0.00016704739281980848,0.2561410063436179,1.427299987817003,-0.7071067806632982,8.577391164313815e-06,-2.489281861611594e-05,0.7071067812196133,0,-1,-2.366701234990387e-05,-1.5709403196917933,1.1920928955078125e-05,-1.5707719961749476,1.1984225238848012e-05,0.000107858024421148
1625,1734172807,286830663,-0.00017112773171398533,0.2561410153810564,1.4272999856634492,-0.7071067806399924,2.9588805746130477e-05,-2.929314767083915e-05,0.7071067805072723,0,-1,-4.7985707418263246e-05,-1.5709527174579065,-1.1746083394825746e-05,-1.5707719961749476,0.0,0.00014381069922819734
1641,1734172807,302639722,-0.00016839412802438657,0.2561410107646281,1.427299986881534,-0.7071067798551458,1.717534819867148e-05,-4.1920145384346535e-05,0.7071067810667602,0,-1,-7.135072817021637e-05,-1.57092792192568,-2.366701234990387e-05,-1.5707839171039026,-2.366701234990387e-05,0.00011984225420746952
1657,1734172807,318555593,-0.000180296364629884,0.256141009183091,1.427299985625048,-0.7071067805990564,1.2561671376924684e-05,-2.967508288916425e-05,0.7071067810397746,0,-1,-4.7985707418263246e-05,-1.57092792192568,-1.1746083394825746e-05,-1.5707719961749476,0.0,0.00014381069922819734
1673,1734172807,334637403,-0.0001845549298184405,0.2561410069730356,1.4272999854820283,-0.707106781259031,-2.1153093871835292e-07,-2.537600555588521e-05,0.7071067806586969,0,-1,-4.7985707418263246e-05,-1.5709403196917933,0.0,-1.5707719961749476,-2.366701234990387e-05,9.58738019107841e-05
1689,1734172807,350694417,-0.00020433048296624067,0.2561410103169237,1.4272999819012284,-0.7071067797414169,1.2437844346038389e-05,-3.822827948495414e-05,0.7071067814889219,0,-1,-4.7985707418263246e-05,-1.5709765593158167,1.1920928955078125e-05,-1.5707839171039026,-2.366701234990387e-05,0.00013182648399379104
1705,1734172807,366338014,-0.00015926632796305044,0.2561410122523096,1.4272999876411048,-0.7071067800413292,2.9717950914228883e-05,-2.904036793625129e-05,0.7071067811109463,0,-1,-5.990663637334137e-05,-1.5709527174579065,-1.1746083394825746e-05,-1.5707719961749476,0.0,0.00013182648399379104
1721,1734172807,382457256,-0.00022481197748607532,0.2561410169353999,1.4272999766710803,-0.7071067811402526,-1.296235564595438e-05,-6.341493928561515e-05,0.7071067782704348,0,-1,-2.366701234990387e-05,-1.5709403196917933,0.0,-1.5707839171039026,-4.7985707418263246e-05,9.58738019107841e-05
1737,1734172807,398634910,-0.00018313197230007675,0.25614101164752273,1.427299984683572,-0.7071067798552307,1.7006760804325175e-05,-4.208873277797971e-05,0.7071067810607354,0,-1,-7.135072817021637e-05,-1.5709527174579065,-1.1746083394825746e-05,-1.5707839171039026,-2.366701234990387e-05,0.00011984225420746952
1753,1734172807,414678812,-0.00015572560961769595,0.2561410039938394,1.427299989851397,-0.7071067807128553,8.346986535924315e-06,-1.6693853551798913e-05,0.7071067814139141,0,-1,-4.7985707418263246e-05,-1.5709527174579065,-1.1746083394825746e-05,-1.570796314870016,-1.1746083394825746e-05,0.00014381069922819734
1769,1734172807,430940866,-0.00015961612458209528,0.2561410102645893,1.427299988105503,-0.7071067807924283,2.5688915462198925e-05,-1.6671473349212955e-05,0.7071067809175007,0,-1,-5.990663637334137e-05,-1.5709527174579065,-2.366701234990387e-05,-1.5707839171039026,0.0,0.00011984225420746952
1785,1734172807,446569442,-0.00019418266930162,0.25614100730930656,1.4272999838209908,-0.7071067804982805,2.1075238549706326e-05,-1.2394971239995894e-05,0.7071067814521054,0,-1,-5.990663637334137e-05,-1.5709527174579065,1.1920928955078125e-05,-1.570796314870016,-3.5587941304981996e-05,0.000107858024421148
1801,1734172807,462823152,-0.00020034817764653148,0.25614101269834916,1.4272999819518375,-0.7071067804992697,1.2645868825702302e-05,-3.802025511374437e-05,0.7071067807385953,0,-1,-7.135072817021637e-05,-1.570916000996725,3.5762786865234375e-05,-1.570820156727926,-4.7985707418263246e-05,0.00013182648399379104
1817,1734172807,478871822,-0.00016487648405245204,0.25614100624689834,1.4272999881751267,-0.7071067801590494,1.675397855993924e-05,-2.5145600894180074e-05,0.7071067815684593,0,-1,-3.5587941304981996e-05,-1.5709403196917933,-2.366701234990387e-05,-1.5707600752459925,0.0,0.000107858024421148
1833,1734172807,494407415,-0.00018820170106377022,0.2561410095687946,1.4272999844557408,-0.7071067809436548,2.1119993886555053e-05,-1.2811025225959718e-05,0.7071067809979804,0,-1,-5.990663637334137e-05,-1.5709646383868616,-3.5587941304981996e-05,-1.5707839171039026,1.1984225238848012e-05,9.58738019107841e-05
1849,1734172807,510294198,-0.0002514891963928926,0.25614100934872785,1.4272999734328213,-0.7071067804608134,-8.618523043957622e-06,-4.208873277978729e-05,0.707106780607146,0,-1,-5.990663637334137e-05,-1.57092792192568,1.1920928955078125e-05,-1.5707719961749476,-2.366701234990387e-05,0.00014381069922819734
1865,1734172807,526446342,-0.00016695807707849922,0.25614101064483236,1.4272999871649057,-0.7071067829244775,-4.324763791070828e-06,-2.126277260603026e-05,0.7071067791157053,0,-1,-3.5587941304981996e-05,-1.5709403196917933,-3.5587941304981996e-05,-1.570796314870016,0.0,0.00011984225420746952
1881,1734172807,542273759,-0.0001507101290668752,0.25614100566241765,1.4272999901306997,-0.7071067785706082,2.539669341351189e-05,-3.3698800040612604e-05,0.7071067825434116,0,-1,-5.990663637334137e-05,-1.57092792192568,-1.1746083394825746e-05,-1.570820156727926,-1.1746083394825746e-05,0.00011984225420746952
1897,1734172807,558542490,-0.00015263976485186843,0.25614100984003807,1.427299989061809,-0.707106781033338,2.9841784716351863e-05,-4.044477214694271e-06,0.707106780698489,0,-1,-4.7985707418263246e-05,-1.57092792192568,2.384185791015625e-05,-1.5707839171039026,-2.366701234990387e-05,0.00011984225420746952
1913,1734172807,574276924,-0.00017760450457337553,0.25614101354062846,1.42729998519019,-0.7071067823306629,8.195459284011192e-06,-2.530887069381117e-05,0.7071067795420095,0,-1,-4.7985707418263246e-05,-1.57092792192568,-2.366701234990387e-05,-1.5707600752459925,-3.5587941304981996e-05,0.000107858024421148
1929,1734172807,590527534,-0.0001630528487145416,0.2561410083036234,1.4272999879551258,-0.7071067789964567,2.5649478283479402e-05,-3.344601520140481e-05,0.7071067821204409,0,-1,-4.7985707418263246e-05,-1.5709765593158167,-1.1746083394825746e-05,-1.5707839171039026,-1.1746083394825746e-05,0.00013182648399379104
1945,1734172807,606768846,-0.0001581303236385777,0.25614100211162555,1.4272999899323062,-0.7071067807125324,8.599771394308873e-06,-8.011698987881908e-06,0.7071067815628804,0,-1,-3.5587941304981996e-05,-1.57092792192568,3.5762786865234375e-05,-1.5707476774798792,-1.1746083394825746e-05,9.58738019107841e-05
1961,1734172807,622647523,-0.00020375428044110158,0.256141015407096,1.427299980446084,-0.7071067795465292,2.092903127143296e-05,-4.625865715980825e-05,0.7071067810037239,0,-1,-5.990663637334137e-05,-1.570916000996725,-3.5587941304981996e-05,-1.570796314870016,-3.5587941304981996e-05,0.00013182648399379104
1977,1734172807,638780832,-0.0001897044692837809,0.2561410094062143,1.427299984123538,-0.7071067766126491,3.795635787276532e-05,-4.642724444381589e-05,0.7071067832175668,0,-1,-5.990663637334137e-05,-1.5709403196917933,-4.7985707418263246e-05,-1.5707719961749476,-4.7985707418263246e-05,0.00011984225420746952
1993,1734172807,654411077,-0.00014954508510324732,0.2561410057012854,1.427299990193024,-0.707106779739438,2.969557582442557e-05,-1.220400359818726e-05,0.707106781904796,0,-1,-5.990663637334137e-05,-1.5709040800677698,3.5762786865234375e-05,-1.5707719961749476,-4.7985707418263246e-05,0.00011984225420746952
2009,1734172807,670683383,-0.00022136106417055222,0.25614101115997007,1.4272999788671987,-0.7071067812093101,-8.388118355763988e-06,-4.23191374410011e-05,0.7071067798476683,0,-1,-3.5587941304981996e-05,-1.57092792192568,-3.5587941304981996e-05,-1.5707719961749476,-1.1746083394825746e-05,9.58738019107841e-05
2025,1734172807,686527967,-0.00014926494327156201,0.25614100571077714,1.427299990201893,-0.7071067802402935,2.9695575866350773e-05,-3.7746339215616493e-06,0.7071067814991808,0,-1,-1.1746083394825746e-05,-1.5709527174579065,-1.1746083394825746e-05,-1.570796314870016,-2.366701234990387e-05,0.00014381069922819734
2041,1734172807,702766656,-0.00017309818167217592,0.25614101323922245,1.427299985805763,-0.7071067805133917,1.6815795814214973e-05,-4.194252305734626e-05,0.7071067804158293,0,-1,-4.7985707418263246e-05,-1.5709403196917933,2.384185791015625e-05,-1.5707600752459925,-2.366701234990387e-05,9.58738019107841e-05
2057,1734172807,718284606,-0.0001915430859158109,0.25614100722172967,1.4272999843708134,-0.707106781246614,-4.195811155490747e-06,-2.9360285768875462e-05,0.7071067805044878,0,-1,-8.32716571252945e-05,-1.5709403196917933,-3.5587941304981996e-05,-1.570796314870016,0.0,0.000107858024421148
2073,1734172807,734466791,-0.00021743998707581273,0.25614100813672613,1.4272999801904869,-0.7071067819562036,-4.31963900772246e-06,-2.1009986787282693e-05,0.7071067800915666,0,-1,-7.135072817021637e-05,-1.570916000996725,1.1920928955078125e-05,-1.570796314870016,-3.5587941304981996e-05,0.000107858024421148
2089,1734172807,750700950,-0.00016815173172679923,0.25614100638927956,1.4272999876220205,-0.7071067808112291,2.5166091341843204e-05,1.6167193372576381e-09,0.7071067811140325,0,-1,-7.135072817021637e-05,-1.570916000996725,2.384185791015625e-05,-1.5707719961749476,-3.5587941304981996e-05,0.00011984225420746952
2105,1734172807,766718864,-0.00015889471445471945,0.2561410122056713,1.4272999878688466,-0.7071067815413508,2.9735011084845924e-05,-3.769318904003828e-06,0.7071067801964946,0,-1,-5.990663637334137e-05,-1.5709646383868616,3.5762786865234375e-05,-1.570796314870016,0.0,0.00014381069922819734
2121,1734172807,782403945,-0.00015704946896132545,0.2561410080675723,1.4272999888355908,-0.7071067805965423,1.2960663406010371e-05,-2.9276090860947552e-05,0.70710678105172,0,-1,-8.32716571252945e-05,-1.5709403196917933,1.1920928955078125e-05,-1.5707719961749476,-3.5587941304981996e-05,0.00014381069922819734
2137,1734172807,798557758,-0.00021162404918246823,0.2561410053167884,1.4272999813856901,-0.7071067803968824,-1.283320789054327e-05,-3.7874047931428714e-05,0.7071067808454536,0,-1,-4.7985707418263246e-05,-1.5709646383868616,-1.1746083394825746e-05,-1.5707600752459925,0.0,0.00011984225420746952
2153,1734172807,814952373,-0.00019138568540762554,0.2561410047380161,1.4272999849023884,-0.7071067787047737,1.2561671259020381e-05,-3.810445249433812e-05,0.7071067825300599,0,-1,-7.135072817021637e-05,-1.5709527174579065,-1.1746083394825746e-05,-1.5707839171039026,0.0,0.00011984225420746952
2169,1734172807,830908298,-0.00017247244311474,0.25614101319431504,1.4272999858806488,-0.7071067813931781,2.1260884420464554e-05,-2.071757242048147e-05,0.707106780356784,0,-1,-2.366701234990387e-05,-1.57092792192568,0.0,-1.5707719961749476,0.0,0.00011984225420746952
2185,1734172807,846428871,-0.00017445733456895846,0.2561410065878611,1.4272999869553578,-0.7071067798451349,2.10358014751278e-05,-2.0863777921895453e-05,0.7071067819072603,0,-1,-5.990663637334137e-05,-1.57092792192568,-1.1746083394825746e-05,-1.570796314870016,-2.366701234990387e-05,0.00011984225420746952
2201,1734172807,862520217,-0.00016927093231228595,0.25614100866038825,1.4272999871439738,-0.7071067806284165,2.9864163293345155e-05,-4.066855815903438e-06,0.7071067811023374,0,-1,-5.990663637334137e-05,-1.5709527174579065,2.384185791015625e-05,-1.5707839171039026,0.0,0.00014381069922819734
2217,1734172807,878696441,-0.00015529563351935884,0.2561410059059356,1.4272999892477989,-0.7071067799449854,2.9420410767566113e-05,-1.2479168697595707e-05,0.7071067817059484,0,-1,-4.7985707418263246e-05,-1.5709403196917933,3.5762786865234375e-05,-1.5707719961749476,-1.1746083394825746e-05,0.00011984225420746952
2233,1734172807,893966913,-0.00018099357982977624,0.2561410068204726,1.4272999859181066,-0.7071067798089502,2.5081898938447422e-05,-1.68176804713142e-05,0.7071067819193088,0,-1,-7.135072817021637e-05,-1.5709403196917933,-3.5587941304981996e-05,-1.5707357565509241,-1.1746083394825746e-05,9.58738019107841e-05
2249,1734172807,910818815,-0.00021277369155391928,0.25614100795146133,1.4272999809385483,-0.7071067798455288,1.2499661604228325e-05,-2.9399917761420416e-05,0.7071067818058954,0,-1,-3.5587941304981996e-05,-1.5709527174579065,-1.1746083394825746e-05,-1.5707719961749476,-2.366701234990387e-05,0.000107858024421148
2265,1734172807,926376819,-0.00019966078930146164,0.2561410025799844,1.4272999840857066,-0.7071067795504635,-1.707027042399907e-05,-4.211111039456302e-05,0.70710678136264,0,-1,-1.1746083394825746e-05,-1.5709403196917933,-3.5587941304981996e-05,-1.5707476774798792,0.0,0.00011984225420746952
2281,1734172807,942508459,-0.0002228486149829009,0.25614100822989366,1.4272999753915019,-0.7071067838806799,-3.812663364802648e-05,-2.9394600979086154e-05,0.7071067768535658,0,-1,-3.5587941304981996e-05,-1.570916000996725,-0.00021535554994756012,-1.570711914693014,0.00011984225420746952,0.000107858024421148
2297,1734172807,958207130,-0.000421118642330851,0.2561410022872259,1.427299907764849,-0.7071067951001272,-0.00017754691343395635,-7.895984302522632e-06,0.7071067449388202,0,-1,4.793690095539205e-05,-1.570916000996725,-0.0005510489093225601,-1.5706518332110804,0.00043105758959427476,0.0001917476038215682
2313,1734172807,974699258,-0.0007827210371268768,0.2561409344945052,1.427299641274943,-0.7071068196469305,-0.0004570223412688358,4.295108328956813e-05,0.7071065937286877,0,-1,0.000107858024421148,-1.5708683172809046,-0.001233402882711232,-1.5704601446734827,0.000946379266679287,0.0003475425182841718
2329,1734172807,990415811,-0.0014435464506202579,0.2561407166756671,1.427298746709479,-0.7071069318363916,-0.0008465335547785933,0.0001785705073245215,0.7071061012623489,0,-1,0.0002037318336078897,-1.570916000996725,-0.0022152105914514664,-1.57025653520693,0.0017129952320829034,0.0006108210072852671
2345,1734172808,6722211,-0.0023955946408233723,0.2561400787669515,1.4272964525377414,-0.7071071481902487,-0.00149002809003593,0.0003395862524466716,0.7071047627301924,0,-1,0.00041869888082146645,-1.5709403196917933,-0.0037234465228479507,-1.5699322859393519,0.0029106687288731337,0.000982331926934421
2361,1734172808,22443771,-0.003727783225824506,0.2561384305797464,1.4272914069788611,-0.7071076076488972,-0.0023449423757500422,0.0005852417545210509,0.7071018243099054,0,-1,0.0006460246513597667,-1.5709765593158167,-0.005711857472554982,-1.5695489088641565,0.0044439006596803665,0.0014969046460464597
2377,1734172808,38718461,-0.005549513549424058,0.25613529362007614,1.42728099817979,-0.7071085751872039,-0.0035300790780056646,0.000848097722781789,0.7070956669140874,0,-1,0.0009695987100712955,-1.5710843245135706,-0.008189980183736623,-1.5690215269671839,0.0064081898890435696,0.002096115844324231
2393,1734172808,54645061,-0.007851289075870778,0.2561300083983699,1.4272619969077105,-0.7071103741411084,-0.005033313772513165,0.0011235733877594698,0.7070843811861011,0,-1,0.0013044080697000027,-1.5712640921222132,-0.011219326649801076,-1.5684340635882776,0.008875817060470581,0.0028983100783079863
2409,1734172808,70654153,-0.010583416530834736,0.25612033896310993,1.4272316228184612,-0.7071132319902775,-0.006781471931678123,0.0015602759416812534,0.7070660890763251,0,-1,0.0016755445394665003,-1.571479622517721,-0.014667812977926076,-1.5677502791034144,0.011726564727723598,0.0037847680505365133
2425,1734172808,86884975,-0.013789304379531462,0.2561070556962708,1.4271846760500457,-0.7071176920494197,-0.008813345890277166,0.0019419277943781737,0.7070382757965524,0,-1,0.002154539106413722,-1.5717080275165003,-0.018678967152730763,-1.5669949690448206,0.014936838299036026,0.004814662504941225
2441,1734172808,102696180,-0.017341979415608413,0.2560875742048668,1.4271182208614834,-0.7071240679118294,-0.011056730949972367,0.0024330653896704815,0.7069988553550396,0,-1,0.0026807214599102736,-1.572043244038717,-0.022977654133931935,-1.5661075750934046,0.01849428191781044,0.005952415056526661
2457,1734172808,118880748,-0.021235651320371047,0.2560599196196295,1.4270290763701075,-0.7071317369042293,-0.01354952876120955,0.002971319664801404,0.7069457462865214,0,-1,0.0032192624639719725,-1.572319809590475,-0.027671162282125294,-1.5651009718524378,0.02236293815076351,0.007126119919121265
2473,1734172808,134717226,-0.025360500192747718,0.25602489093962655,1.4269143538586462,-0.707142075113797,-0.016152614320944742,0.0035685838518710678,0.706877955423455,0,-1,0.0038300834130495787,-1.5727275053607386,-0.03264028230776006,-1.5640094915973108,0.026399750262498856,0.008407308720052242
2490,1734172808,151043176,-0.029778298594158044,0.25598028468588896,1.4267700665821559,-0.7071543800776275,-0.018991956415055508,0.004157229958409331,0.7067918404789545,0,-1,0.00450007664039731,-1.5730508009540003,-0.037836853657857716,-1.5629904905902308,0.030687855556607246,0.009652919135987759
2505,1734172808,166641473,-0.03431644349607043,0.25592835152933807,1.4265966646374095,-0.7071694020517142,-0.02189427116630883,0.004740959937098882,0.7066891827322617,0,-1,0.00514647550880909,-1.5733869711505335,-0.04320079485048467,-1.5618394056903284,0.03503625839948654,0.011029981076717377
2521,1734172808,183029651,-0.038959101250117575,0.2558663510729281,1.4263951370913812,-0.7071871882413071,-0.024800198223477836,0.005439389290014784,0.706570339031849,0,-1,0.005840437486767769,-1.5737465063678187,-0.04868442216982061,-1.560591999684469,0.03945581614971161,0.012491308152675629
2537,1734172808,198593139,-0.04355600216478919,0.2557957060148159,1.4261687758950752,-0.7072073516926819,-0.027701767848105224,0.00615843660763627,0.7064364425965457,0,-1,0.006582335568964481,-1.5740464369403284,-0.054180447255269826,-1.559345547352926,0.044007573276758194,0.01389233861118555
2553,1734172808,214997768,-0.04824264940293896,0.2557164885384581,1.4259120598867885,-0.7072299088301187,-0.030691297496328804,0.006855615777664652,0.7062838670438698,0,-1,0.007204766385257244,-1.5743702093707483,-0.059736076985494435,-1.5581219832049769,0.04854734614491463,0.015341680496931076
2569,1734172808,230510950,-0.05284318815987054,0.2556320033815438,1.4256337270424164,-0.7072577465509056,-0.03360841742169649,0.007615749092025309,0.7061153975009407,0,-1,0.00785116571933031,-1.574658219014303,-0.06518394151796514,-1.5569356123553675,0.05315902829170227,0.016874538734555244
2585,1734172808,246396780,-0.05745166739513357,0.2555391880892634,1.4253283971521191,-0.7072881817407406,-0.03653256810117168,0.008367493320931797,0.7059311471335816,0,-1,0.008473222143948078,-1.5749457518206995,-0.07054740587343389,-1.5557602087603968,0.05759131908416748,0.01835983246564865
2601,1734172808,262499570,-0.06177600940410742,0.2554451700080551,1.4250170935425333,-0.7073176274622163,-0.03932117826788289,0.00906756405520432,0.7057431530684173,0,-1,0.009095652028918266,-1.5752337614642542,-0.0757678190814417,-1.554560963307516,0.06199926510453224,0.019701316952705383
2617,1734172808,278485774,-0.06615952205738664,0.25534157914917543,1.424682474141424,-0.7073495768642867,-0.042121841981693865,0.00976282418784195,0.7055402283370249,0,-1,0.009670521132647991,-1.5754974524127405,-0.08085614839662725,-1.553446118031637,0.06615591794252396,0.021090364083647728
2633,1734172808,294687032,-0.07029036754170648,0.2552394413994596,1.4243414783484332,-0.7073825601727444,-0.04476051470251801,0.010432597432213545,0.7053350769654355,0,-1,0.010256999172270298,-1.57574969926943,-0.08581382433046514,-1.55235463777651,0.07020509243011475,0.022383911535143852
2649,1734172808,310445547,-0.07436589249607992,0.25513272648267477,1.423985777918253,-0.7074164072078807,-0.04735681516355535,0.011042149307659819,0.7051222800403673,0,-1,0.010819134302437305,-1.5760133902179163,-0.09066230455507451,-1.551347557698385,0.07412168383598328,0.023605553433299065
2665,1734172808,326875209,-0.0783027615878497,0.25502363449025844,1.42362342760196,-0.7074496883067772,-0.04987178277630957,0.011605318745477301,0.7049064195864386,0,-1,0.011345691047608852,-1.5762532393084925,-0.09527188936342412,-1.5503647963153284,0.07790720462799072,0.02481483668088913
2681,1734172808,342381238,-0.0820623942271055,0.25491357474246024,1.4232599623943196,-0.7074836569386881,-0.052284779712870454,0.012184879978357729,0.7046876653347569,0,-1,0.011872622184455395,-1.5764692465411585,-0.09974939027895147,-1.5493453184710901,0.0815485343337059,0.02596457302570343
2697,1734172808,358559370,-0.08573025053960308,0.2548013095319841,1.422888734624406,-0.7075191786615498,-0.054646329015152484,0.012729785629686389,0.704463159511607,0,-1,0.012386820279061794,-1.5767329374896448,-0.10403567949403936,-1.5484345594989222,0.0850827544927597,0.02711430937051773
2713,1734172808,374799728,-0.08932101475341062,0.25468483954255444,1.4225107736408769,-0.7075528930031364,-0.056943762203431995,0.013279032746487942,0.7042371609325433,0,-1,0.012901767157018185,-1.5769246260272425,-0.10836965242494756,-1.5475347677813929,0.08858028054237366,0.02819214016199112
2729,1734172808,390571117,-0.09291705834124851,0.25456646915328757,1.4221151626870765,-0.7075909649710203,-0.05923620768777949,0.013823226844535226,0.7039993014128317,0,-1,0.01339237205684185,-1.5771649519549769,-0.11266786256899053,-1.5465157667743128,0.09217404574155807,0.02934187836945057
2745,1734172808,406791687,-0.09646757041554896,0.2544406487984687,1.421705767938267,-0.7076296873892797,-0.061510795863884866,0.014417834921935649,0.7037533470994689,0,-1,0.013966865837574005,-1.5773327986346644,-0.11709815660585576,-1.5455206076251429,0.09571988135576248,0.03052719309926033
2761,1734172808,422518014,-0.10016991848046528,0.2543100136205261,1.4212630986526735,-0.7076715165958954,-0.06383956317001072,0.014948131893174562,0.7034927775933678,0,-1,0.014493422582745552,-1.5775840918170374,-0.12174350420107061,-1.5444772879229944,0.09940914809703827,0.03165333345532417
2777,1734172808,438832044,-0.10400445420052726,0.254161061605955,1.4207906498969158,-0.707713304349637,-0.06631894839832735,0.015544877406764235,0.7032083849871721,0,-1,0.015055932104587555,-1.5778124968158167,-0.12640077272524053,-1.5434821287738245,0.10323099046945572,0.03292291238903999
2793,1734172808,454803705,-0.10799939540801014,0.25400287047670117,1.420278947309792,-0.7077595313034684,-0.06888548925017635,0.016119401640510046,0.7029021269782945,0,-1,0.01563042588531971,-1.5781000296222132,-0.1312497297870081,-1.5424030462848108,0.10724383592605591,0.0340966172516346
2809,1734172808,470299959,-0.11208565853636274,0.253837235279195,1.4197362105618412,-0.7078101567578599,-0.07148412356996806,0.01673572381290889,0.702577196908856,0,-1,0.016192935407161713,-1.5784114042865198,-0.13617068925966436,-1.5414441267596644,0.11128102242946625,0.03536619618535042
2825,1734172808,486653089,-0.11636239233045596,0.2536586341753705,1.4191481329023938,-0.7078629926239369,-0.07422499435164127,0.017290478530182844,0.7022262265389838,0,-1,0.01683933474123478,-1.578735653554098,-0.14128238359560186,-1.540412727986471,0.11536577343940735,0.036707308143377304
2841,1734172808,502389192,-0.12067130163268044,0.25347373082581315,1.418533180865708,-0.7079192756033913,-0.07697250390248181,0.01785359745081905,0.7018595172327695,0,-1,0.0174733754247427,-1.579095188771383,-0.14644271532167608,-1.5393698851214808,0.119474858045578,0.03800085559487343
2857,1734172808,518641233,-0.12507720855145352,0.2532769532327329,1.417882871576826,-0.7079775533585234,-0.07976486166534136,0.018427740246089886,0.7014739975034077,0,-1,0.018131384626030922,-1.5794075171100062,-0.15162641206850225,-1.5382784048663538,0.12371540069580078,0.03933035582304001
2873,1734172808,534241199,-0.12946027219287898,0.25306453527369765,1.4172099844655586,-0.708034393520293,-0.08258484615834723,0.01903012899451578,0.701074100910742,0,-1,0.018766174092888832,-1.5797913710223597,-0.156870190297262,-1.53717548051943,0.1279323548078537,0.04063551127910614
2889,1734172808,550518751,-0.13392002988042112,0.25285298042883225,1.4164982894937999,-0.7080967570715672,-0.0854448937146367,0.019581028672889193,0.7006530782626562,0,-1,0.019388603046536446,-1.5801146666156214,-0.16218597093691045,-1.5361083189593714,0.1322687715291977,0.04196501150727272
2905,1734172808,566266536,-0.13831376160217956,0.25263061316630536,1.4157734205004227,-0.7081609147371134,-0.0882780735515062,0.020197905982644166,0.7002193550328681,0,-1,0.020058222115039825,-1.5804145971881312,-0.16741782823671514,-1.5349696318255823,0.13656960427761078,0.043318480253219604
2921,1734172808,582683563,-0.14263204972991028,0.25240509140767453,1.4150372260877888,-0.7082291056180869,-0.09106316052673001,0.020885502179648217,0.6997734137197494,0,-1,0.020681027323007584,-1.5807626883136194,-0.17262536684145147,-1.53381854692568,0.141001895070076,0.044671572744846344
2937,1734172808,598372459,-0.14700465060855797,0.25217152404657905,1.4142675245348406,-0.7083047765634399,-0.09384543576061746,0.021563177225762602,0.699308520663266,0,-1,0.021303458139300346,-1.5810383001910608,-0.1779411474810999,-1.5326555410968226,0.14531472325325012,0.04607260599732399
2953,1734172808,614525794,-0.15136243812270722,0.2519273726271217,1.4134783011556924,-0.7083776435362098,-0.09665575801687477,0.022243960650157726,0.6988304406612981,0,-1,0.021889936178922653,-1.5813620726214808,-0.18323260942567998,-1.5315640608416956,0.14963915944099426,0.04750958830118179
2969,1734172808,630285739,-0.15578666852268247,0.25167962432895774,1.4126491567016852,-0.7084584686070297,-0.09942555296603738,0.022867873546746006,0.6983396151127547,0,-1,0.02257191389799118,-1.5816739241229456,-0.18851262727846319,-1.5304015318499964,0.1539519727230072,0.04889900982379913
2985,1734172808,646528959,-0.16016871315884806,0.2514283820561909,1.4118030993699284,-0.7085358460892822,-0.10224870865543371,0.023469560891095052,0.6978333154102205,0,-1,0.02317037619650364,-1.5819380919085901,-0.19376784959901983,-1.5292027632342737,0.15816892683506012,0.05026446282863617
3001,1734172808,662242650,-0.16447805041503274,0.2511721927714257,1.4109508897251233,-0.7086145654343473,-0.10496040716390373,0.024087406417443596,0.697329554396169,0,-1,0.02378082275390625,-1.5823095480548304,-0.19886809984316045,-1.5280635992633265,0.16234992444515228,0.05164152383804321
3017,1734172808,678515911,-0.16870577806119014,0.25090824855526783,1.4100939279522404,-0.7086949383379861,-0.10764057455560953,0.024708415997297704,0.6968173973591364,0,-1,0.024378910660743713,-1.5826094786273401,-0.20398027101625615,-1.5269964377032679,0.16648298501968384,0.05295903980731964
3033,1734172808,694223880,-0.1729139283301118,0.25063572703109016,1.4092217371588838,-0.7087731474641845,-0.11032430722837737,0.025339906309277294,0.6962952404092168,0,-1,0.024965763092041016,-1.5829451719867151,-0.2090686003314417,-1.5258334318744105,0.17067596316337585,0.05430052429437637
3049,1734172808,710532665,-0.17709473258580566,0.2503668461690408,1.408326560548382,-0.7088574725228193,-0.11299176138792902,0.025958545644545934,0.6957586502624555,0,-1,0.025611788034439087,-1.5832331816302698,-0.2140720526324671,-1.5247662703143519,0.1747255027294159,0.0555817149579525
3065,1734172808,726250171,-0.18115371899280203,0.2501027480345135,1.4074251368423483,-0.7089396541860381,-0.1156370549961166,0.026495757149189628,0.69521983076398,0,-1,0.02617429755628109,-1.5835087935077112,-0.2191241423236292,-1.523675266896383,0.17881062626838684,0.056827325373888016
3081,1734172808,742580175,-0.1852243185680085,0.24982153798173756,1.4065085245246953,-0.7090199096311413,-0.11828064512881581,0.027082303459829215,0.6946704294655626,0,-1,0.0267847441136837,-1.5837844053851526,-0.22410470644106084,-1.5225961844073694,0.1829436868429184,0.05816880613565445
3097,1734172808,758339881,-0.1892950145122696,0.24953780187112073,1.405565654203751,-0.7091061642968084,-0.12081258310575015,0.02761684473071936,0.6941254046688562,0,-1,0.02739519067108631,-1.584012810383932,-0.22914439836610967,-1.5214694182025355,0.18695728480815887,0.059414416551589966
3113,1734172808,774590492,-0.19338859116196855,0.24924022443190985,1.404603519464663,-0.7091949689838334,-0.12350532133462415,0.028270769231034963,0.6935342062055313,0,-1,0.02796931006014347,-1.5843003431903284,-0.23408872285951787,-1.5203784147845667,0.19104278087615967,0.06075552850961685
3129,1734172808,790335416,-0.1974695128816928,0.248948200427377,1.403621166353469,-0.709288966118742,-0.12610775994813875,0.02886928818106809,0.6929448460180557,0,-1,0.02856777049601078,-1.584564510975973,-0.23905688921083623,-1.5193589369403284,0.19512790441513062,0.062037091702222824
3145,1734172808,806048393,-0.20153006980928337,0.24864547909143353,1.402610015506348,-0.7093825484786973,-0.1287661140812237,0.0294490593211254,0.6923354972001585,0,-1,0.02919057570397854,-1.5848520437823694,-0.24412089983095342,-1.518207852040426,0.19928531348705292,0.06330666691064835
3161,1734172808,822346210,-0.20561915388586408,0.24832322251897312,1.4015843697572015,-0.7094751495323903,-0.1314470258873667,0.030068534352286982,0.6917098920958582,0,-1,0.029824616387486458,-1.5851643721209925,-0.24917251268495733,-1.5172246138202112,0.20340637862682343,0.06463617086410522
3177,1734172808,838411808,-0.20974818050625074,0.24799934584618966,1.4005210237325338,-0.7095700208098448,-0.13411329533379804,0.030623140668477686,0.6910761411293437,0,-1,0.03043506294488907,-1.5854280630694788,-0.25426036516298467,-1.516169850026266,0.20749187469482422,0.0659053772687912
3193,1734172808,854602336,-0.2138489425688793,0.24767563998043335,1.3994411822003814,-0.7096702395257161,-0.136726556968483,0.031176320367031093,0.6904361207232926,0,-1,0.03099757246673107,-1.5857155958758753,-0.2593124548541468,-1.515066925679342,0.21154142916202545,0.06721090525388718
3209,1734172808,870313644,-0.2179557190756979,0.24734435300529678,1.3983394572289976,-0.7097703487126911,-0.1393664119810586,0.03174032446542487,0.6897793901695095,0,-1,0.03163161501288414,-1.5860512892352503,-0.26438790956606084,-1.513951603566305,0.2156265527009964,0.0685284212231636
3225,1734172808,886653184,-0.22200767162712243,0.2470076786356598,1.397227213894101,-0.7098707186436415,-0.14201620578246435,0.032315350598801036,0.6891086113401784,0,-1,0.03219449892640114,-1.5863269011126917,-0.26937991777528936,-1.5128849188434046,0.2196880728006363,0.06979800015687943
3241,1734172808,902384281,-0.22608802869512423,0.2466562284409368,1.396090793233904,-0.7099701250348287,-0.1446262950331852,0.032859088341321084,0.6884373149796434,0,-1,0.0328049436211586,-1.5866149107562464,-0.27438384691347295,-1.5117700735675257,0.22374960780143738,0.0710911750793457
3257,1734172808,918775796,-0.23011130969457835,0.24631469564144326,1.394940413718753,-0.7100723725906226,-0.14723768138711046,0.03338958681636436,0.6877524455467273,0,-1,0.03337906301021576,-1.5868786017047327,-0.27938777605165654,-1.510702912007467,0.22778716683387756,0.07227686047554016
3273,1734172808,934355735,-0.2340278510837096,0.24597480050025106,1.3937895967153817,-0.7101773512467826,-0.14983364636675897,0.033964843702024336,0.6870548723245049,0,-1,0.03398951143026352,-1.5870826880084437,-0.2844160238849085,-1.5096476713763636,0.23200449347496033,0.07355842739343643
3289,1734172808,950171947,-0.23796616905859358,0.24562202303954267,1.392623232803369,-0.710286320287871,-0.1524350390738892,0.03457137796114398,0.6863393635078245,0,-1,0.03457598760724068,-1.5872991720782679,-0.28943139711488897,-1.5085442701922815,0.23611395061016083,0.07482800632715225
3305,1734172808,966484785,-0.24188832660173598,0.24526589783894528,1.391428994072729,-0.7104026293386871,-0.1549624381125578,0.03517980822459269,0.6856217091780076,0,-1,0.03512651473283768,-1.5875986258136194,-0.2943995634662073,-1.507453743611471,0.24018746614456177,0.07614514231681824
3321,1734172808,982219219,-0.24579676180600843,0.2449027504766661,1.390223951040589,-0.710517084521895,-0.15754534215130014,0.03577775494497789,0.6848831214302431,0,-1,0.03572497516870499,-1.587862793599264,-0.299295727406637,-1.5063985029803675,0.24430891871452332,0.07747464627027512
3337,1734172808,998532772,-0.24983410944643664,0.24450960130892618,1.3889615466879022,-0.7106319348350848,-0.16016632274405432,0.03636347164236214,0.6841247694545975,0,-1,0.036323439329862595,-1.5881264845477503,-0.3043711821185511,-1.5053074995623987,0.24840639531612396,0.07887604832649231
3353,1734172809,14305591,-0.2538284846326315,0.2441345057303102,1.3876826332247805,-0.7107565601642389,-0.1627542331118294,0.036918361045719286,0.6833543783465331,0,-1,0.036909542977809906,-1.5883777777301233,-0.3095310370074671,-1.5042765776263636,0.2524799108505249,0.08021753281354904
3369,1734172809,30630588,-0.25789113057061397,0.2437363856146219,1.3863657590839245,-0.7108797405647014,-0.16538056240192836,0.037461409578036085,0.682565679496641,0,-1,0.03757990896701813,-1.588665787373678,-0.3146784941302698,-1.5032451788531702,0.2566257119178772,0.08152269572019577
3385,1734172809,46294212,-0.2619670920788395,0.24333697629639944,1.385015985341165,-0.7110000009480326,-0.1680330609072134,0.03796532026988078,0.681764272715178,0,-1,0.03815440088510513,-1.5889175573932093,-0.31976586977113897,-1.5021303335772913,0.26069921255111694,0.0828641727566719
3401,1734172809,62659263,-0.26601750345218544,0.24293838838543075,1.383654033614626,-0.7111302155452843,-0.17064808019200378,0.03848337445037696,0.6809493954444875,0,-1,0.038800425827503204,-1.5892656485186976,-0.32478124300111944,-1.5011113325702112,0.26489293575286865,0.08414573967456818
3417,1734172809,78400611,-0.2699737690539067,0.24250596822696352,1.382316222693561,-0.7112438246268271,-0.17327097738084432,0.0390839421895854,0.6801336896453601,0,-1,0.039375293999910355,-1.5895293394671839,-0.32977325121034795,-1.5000441710101526,0.26890692114830017,0.08547523617744446
3433,1734172809,94694852,-0.27386348484377754,0.24209887020234636,1.380969095252483,-0.7113695770272832,-0.17580297337701056,0.03966335739355272,0.6793183771340928,0,-1,0.03999772667884827,-1.5898292700396937,-0.3347051779376429,-1.4989655653582972,0.27299240231513977,0.0867920070886612
3449,1734172809,110420703,-0.27783634195997736,0.24166740574843099,1.3795687814898931,-0.7114956176035957,-0.1784219094844104,0.04023824082818249,0.6784692272475354,0,-1,0.04058383032679558,-1.5900691191302698,-0.3397448698626917,-1.4978140036212366,0.2770898938179016,0.08799005299806595
3465,1734172809,126166105,-0.28170244960423524,0.24125304239299525,1.3781708871490626,-0.7116238207096174,-0.18095113629137877,0.04078411017313795,0.6776318177527458,0,-1,0.04119427502155304,-1.590308968220846,-0.34476024309267217,-1.4966872374164026,0.28117576241493225,0.08933116495609283
3481,1734172809,142570495,-0.2855966877053136,0.2408207420125858,1.3767567183516598,-0.7117551772997613,-0.18348549213647544,0.041368213368891044,0.6767764126246472,0,-1,0.04179273918271065,-1.5905850569354456,-0.34977609315981084,-1.4955723921405237,0.28528523445129395,0.09062471240758896
3497,1734172809,158250808,-0.2895060422422959,0.24038593193337682,1.3753120859844938,-0.7118849075434268,-0.18602915977011003,0.04190435203355744,0.6759120175050604,0,-1,0.04240281134843826,-1.5908363501178187,-0.354743782673971,-1.494481388722555,0.289335161447525,0.09189391881227493
3513,1734172809,174486875,-0.2933898849383545,0.23995517481927214,1.373845178570403,-0.7120249934409167,-0.18856700720766317,0.042446145797255024,0.6750268270336859,0,-1,0.043025240302085876,-1.5911362806903284,-0.3597953955279749,-1.4934385458575647,0.2934689521789551,0.09318746626377106
3529,1734172809,190144062,-0.29733994129206937,0.23948995946235402,1.3723443811857101,-0.7121543495052384,-0.19119788956658101,0.0429879635165876,0.6741154088869004,0,-1,0.04361172020435333,-1.5914481321917933,-0.3647993246661585,-1.4923232237445276,0.2976023852825165,0.09454093128442764
3545,1734172809,206453084,-0.30120965350438234,0.23904828767930975,1.3708371038309253,-0.7122965176604155,-0.19372092101481733,0.0435172580841183,0.6732103118185702,0,-1,0.044234149158000946,-1.5917719046222132,-0.3699224630938929,-1.4912446180926722,0.3017245829105377,0.09581051021814346
3561,1734172809,222203969,-0.3051879167627731,0.23857695391043687,1.3692832615909534,-0.7124349256666466,-0.19631844271515766,0.04404540949913377,0.6722763922988139,0,-1,0.04480864480137825,-1.592071835194723,-0.3749497572528284,-1.4901416937457483,0.30583444237709045,0.09709206968545914
3577,1734172809,238496780,-0.3090913253695165,0.23811679550893655,1.3677173288483624,-0.7125774849208472,-0.19890766735781568,0.0445429579911023,0.6713307625482057,0,-1,0.04539512097835541,-1.5923479239093226,-0.3800132910357874,-1.4890506903277796,0.3099442720413208,0.09836127609014511
3593,1734172809,254257917,-0.3130519323482071,0.23763393934647425,1.3661158678836354,-0.712725575117273,-0.20148808317678504,0.04506539580295017,0.6703684934516395,0,-1,0.04600519314408302,-1.592635456715719,-0.38505298296083623,-1.4880312124835413,0.3140777051448822,0.09966681152582169
3609,1734172809,270564079,-0.31690197651109486,0.2371550222373493,1.3645359752838289,-0.7128680687683372,-0.20402968742448338,0.045583088071465855,0.6694125673019874,0,-1,0.04659167304635048,-1.5929353872882288,-0.3900206724749964,-1.4869044462787073,0.3181276321411133,0.10094837099313736
3625,1734172809,286292552,-0.3207235132855396,0.2366768055842613,1.3629446845250073,-0.7130123409948661,-0.20656771928435708,0.04612456925333911,0.6684427447806385,0,-1,0.04721447825431824,-1.5932348410235804,-0.395059887562887,-1.4858253637896937,0.32223784923553467,0.10225390642881393
3641,1734172809,302536249,-0.3245372394284059,0.23621638801704037,1.3613208765232856,-0.7131650758536163,-0.20910406288252847,0.04659276687995257,0.6674579983363714,0,-1,0.04776462912559509,-1.5935829321490687,-0.3999436537372034,-1.4848182837115687,0.3263836205005646,0.1034635603427887
3657,1734172809,318265914,-0.3284071430369233,0.23571419344922193,1.3596667898031827,-0.713305243863973,-0.21166343494291376,0.047099137607886414,0.6664652208637133,0,-1,0.04835110530257225,-1.5937989393817347,-0.40509111086000615,-1.4836915175067347,0.33046987652778625,0.10470917075872421
3673,1734172809,334527254,-0.3322666830048856,0.23519223481264162,1.3579834840332958,-0.713449600164465,-0.21422600778408105,0.04759206721673083,0.6654561448751509,0,-1,0.048985522240400314,-1.5941346327411097,-0.41009456316103154,-1.4825528303729456,0.3345317840576172,0.1060263141989708
3689,1734172809,350469589,-0.33607828562575515,0.2347070561958064,1.3562927370190583,-0.7136124327261952,-0.2167211278765391,0.04809720136041621,0.6644365340736598,0,-1,0.049524061381816864,-1.5944345633136194,-0.41513377824892217,-1.4814494291888636,0.3386176526546478,0.10730787366628647
3705,1734172809,366539001,-0.33984681575606285,0.2341995813030012,1.354606366373511,-0.7137749961515667,-0.21918426741511948,0.048653103959324887,0.6634126824697062,0,-1,0.05017046257853508,-1.5947225729571741,-0.4201253096209925,-1.4803827444659632,0.3427394926548004,0.1086493581533432
3721,1734172809,382269859,-0.3437081238697643,0.23366459802137582,1.3528712944582442,-0.7139277539167543,-0.2217460862328119,0.049158046522984424,0.6623589071567262,0,-1,0.05075693875551224,-1.5950339476214808,-0.4250572363482874,-1.4793394247638147,0.34683769941329956,0.11008671671152115
3737,1734172809,398107767,-0.3474733939353453,0.2331495144694557,1.3511394806963513,-0.7141024198932908,-0.22419502377242007,0.04969407616014852,0.6613053939087594,0,-1,0.05136701092123985,-1.5953581968890589,-0.4301078955279749,-1.478236500416891,0.35092395544052124,0.11145179718732834
3753,1734172809,414363384,-0.35127527091715804,0.23261807979102733,1.3493646515484365,-0.714266219959206,-0.22670222373118776,0.05019831722777974,0.6602348049959355,0,-1,0.05200142413377762,-1.5956695715533655,-0.43519527116884404,-1.4771459738360804,0.3550098240375519,0.11275732517242432
3769,1734172809,430117845,-0.35517149642919765,0.23206538787613576,1.3475365618971022,-0.7144277414467046,-0.2292737341885263,0.05068541499548991,0.6591339361384334,0,-1,0.052587904036045074,-1.5959456602679651,-0.4403308073626917,-1.4761021772967737,0.3592035472393036,0.11407484114170074
3785,1734172809,446501493,-0.3589254161582037,0.23153712523523573,1.3457205106200396,-0.7145965966316342,-0.23177964994746836,0.051142077393269016,0.6580382860234009,0,-1,0.05320996046066284,-1.5962098280536097,-0.44535810152162725,-1.474999729787008,0.36323025822639465,0.11536801606416702
3801,1734172809,462195634,-0.36270376976791235,0.2309927982331932,1.343888356946401,-0.714767233784317,-0.23428101599543427,0.05162044846577532,0.6569288670416721,0,-1,0.05384437367320061,-1.5965450445758265,-0.45030147234071904,-1.473980728779928,0.3673640787601471,0.11663759499788284
3817,1734172809,478410243,-0.3663637106929112,0.23043024241002594,1.3420885651658254,-0.7149264345704753,-0.2367848996946656,0.052168745119488026,0.6558136369896501,0,-1,0.05444321036338806,-1.5968449751483362,-0.4552567640887659,-1.4728897253619593,0.37155815958976746,0.11796671897172928
3833,1734172809,494205474,-0.3700971586655039,0.22987105451667855,1.340230225371281,-0.7150949416705156,-0.23929415131913478,0.05265823925454223,0.6546790384457932,0,-1,0.05501732975244522,-1.5971205870257776,-0.46018821397890264,-1.4718588034259241,0.37565603852272034,0.11918836086988449
3849,1734172809,510412454,-0.3737970129487288,0.22931288672527622,1.3383729698851712,-0.7152597397264778,-0.2417763375092288,0.05314752119775495,0.6535465158177869,0,-1,0.05563976243138313,-1.597348992024557,-0.4652517477618616,-1.4707673231707972,0.37974265217781067,0.12051786482334137
3865,1734172809,526216983,-0.3774180368284042,0.22875850337658288,1.3364982630649451,-0.7154391438649862,-0.24421544967794842,0.053644124613705865,0.6524016810667812,0,-1,0.056250207126140594,-1.5976126829730433,-0.4703267256366175,-1.469724480305807,0.38380491733551025,0.12182339280843735
3881,1734172809,542524099,-0.3810830030738579,0.22819131421807182,1.3345908713786052,-0.7156105532231758,-0.24669922272733694,0.05410468528768342,0.6512401343984174,0,-1,0.05687226355075836,-1.59792405763735,-0.47528201738466436,-1.4686339537249964,0.3879387378692627,0.12312892824411392
3897,1734172809,558296918,-0.38479018321323116,0.22760590891806484,1.3326421941272673,-0.7157870179238082,-0.24918568023646998,0.05458495080502011,0.6500584011321161,0,-1,0.057399194687604904,-1.5981643835650843,-0.48040515581239873,-1.4675429503070276,0.3920489549636841,0.12439850717782974
3913,1734172809,574509143,-0.3884558827075632,0.2270412184822449,1.3306834405220105,-0.7159735911390163,-0.2516256319104743,0.05503016083473943,0.6488744405165439,0,-1,0.05800926685333252,-1.5985000769244593,-0.48544437090028936,-1.4664519468890589,0.396171510219574,0.12571564316749573
3929,1734172809,590284585,-0.39212553453161125,0.22646014587246713,1.3287134445168893,-0.7161531590938627,-0.2540903850873629,0.05549343333149813,0.6476752332636463,0,-1,0.05860773101449013,-1.5987761656390589,-0.49048358598818,-1.465325180684225,0.4002697467803955,0.1270211786031723
3945,1734172809,606596469,-0.3957442051150908,0.22588296795634166,1.3267309517644688,-0.7163378468737258,-0.2565062717382119,0.05595062460681691,0.6464782666891317,0,-1,0.05918222293257713,-1.5990398565875452,-0.4955351988421839,-1.4642460981952112,0.40439194440841675,0.12831471860408783
3961,1734172809,622307538,-0.3994245937593548,0.22529978171372533,1.3246998880314451,-0.71652707900954,-0.2589558093180635,0.05637769597105157,0.6452537402165746,0,-1,0.0597803108394146,-1.5993154684649866,-0.5006101767169397,-1.4631550947772425,0.4084545969963074,0.12960827350616455
3977,1734172809,638600587,-0.40302567346536466,0.22468870430849575,1.3226751332052407,-0.7167052258401089,-0.26142245950705933,0.05682139952638809,0.6440211529714075,0,-1,0.060343194752931595,-1.5995433966266077,-0.5056975523578089,-1.462064568196432,0.41254085302352905,0.13088983297348022
3993,1734172809,654371738,-0.4066505310784846,0.22408776285425852,1.3206131305051985,-0.7168914296770719,-0.2638751603429118,0.057254554952679775,0.6427740611962629,0,-1,0.060953643172979355,-1.5998190085040491,-0.5106766859637659,-1.4609854857074183,0.41662710905075073,0.1321713924407959
4009,1734172809,670719385,-0.41014821362897225,0.22348256312905374,1.3186089911732146,-0.7170720251724774,-0.26630096510694684,0.05775462146095011,0.641526235159602,0,-1,0.06150379404425621,-1.6000712553607386,-0.5156081358539026,-1.4598701635943812,0.42080920934677124,0.13342899084091187
4025,1734172809,686399698,-0.4136716055830047,0.22288128136326224,1.3165602094544977,-0.7172605185093573,-0.2687081972606613,0.05822134762153752,0.6402683249964389,0,-1,0.062126222997903824,-1.600334946309225,-0.5205748716937464,-1.4588034788714808,0.4249078333377838,0.13468621671199799
4041,1734172809,702177047,-0.41711605179482536,0.2222894679490489,1.3145204535964767,-0.717451558378868,-0.2710873151799929,0.058686440305486,0.6390076921700611,0,-1,0.06272505968809128,-1.6006110350238245,-0.5255902449237269,-1.457712475453512,0.42900604009628296,0.1359557956457138
4057,1734172809,718407630,-0.42063387438034383,0.221654942942193,1.3124277924132832,-0.7176347005072403,-0.2735063882210743,0.05913226183831482,0.6377288356660935,0,-1,0.06327521055936813,-1.6008151213275355,-0.5306299368487757,-1.4566453138934534,0.43305671215057373,0.13724933564662933
4073,1734172809,734184265,-0.42419217393241265,0.22103553742157933,1.3102769784837418,-0.7178342211759257,-0.2759348999975618,0.05953483768549618,0.6364193310812059,0,-1,0.06392160803079605,-1.6010788122760218,-0.5356686750995081,-1.455578629170553,0.43719127774238586,0.13856647908687592
4089,1734172809,750432729,-0.4277091041902657,0.22039428897383329,1.3081211472119112,-0.7180295013149979,-0.27834844582537016,0.05996215555447233,0.6351065405498497,0,-1,0.06454404443502426,-1.6013544241534632,-0.5407679716693323,-1.4545119444476526,0.4412060081958771,0.13983605802059174
4105,1734172809,766570806,-0.4312446752654079,0.21974265294476458,1.3059660786300504,-0.7182221126258995,-0.28073854037588186,0.06039154034652262,0.6337947070916445,0,-1,0.06514213234186172,-1.601666275654928,-0.5457828680621546,-1.4534686247455042,0.44534018635749817,0.14126142859458923
4121,1734172809,782197952,-0.4347327991945825,0.21910451328472624,1.3037907064084402,-0.7184332652606933,-0.2831298586765175,0.06083578541857329,0.6324477319946519,0,-1,0.06578852981328964,-1.6019895712481897,-0.5507257620440882,-1.4523900190936487,0.4494747221469879,0.14257894456386566
4137,1734172809,798308610,-0.438220036959131,0.21844287223665523,1.3016092401824175,-0.7186339372123802,-0.2854886984485351,0.06130349440388003,0.6311127862107276,0,-1,0.0663633942604065,-1.6022537390338343,-0.5558012167560022,-1.4512751738177698,0.45358532667160034,0.1438841074705124
4153,1734172809,814363479,-0.4417469181147598,0.2177835318276975,1.2993618373420714,-0.7188379048395623,-0.2878947805035487,0.06169027956929247,0.6297483396812925,0,-1,0.06697347015142441,-1.6025412718402308,-0.5608399550067347,-1.4502080122577112,0.4576719403266907,0.14514170587062836
4169,1734172809,830649614,-0.44520151067057634,0.21712956582894288,1.2971286955323167,-0.7190485659587907,-0.2902289555386175,0.06211355951443802,0.6283933631762957,0,-1,0.06758391112089157,-1.6027820746051233,-0.5659750143634241,-1.4491289297686976,0.46172261238098145,0.14649516344070435
4185,1734172809,846167802,-0.448701645498932,0.2164565527625904,1.2948424961312863,-0.7192465789753998,-0.2926801878271972,0.06250233289846747,0.6269897325059396,0,-1,0.06822993606328964,-1.6029976050006312,-0.5710142294513147,-1.4480140844928187,0.4658811390399933,0.1477767378091812
4201,1734172809,862595081,-0.4520607926348431,0.21578545242061437,1.2926146854694276,-0.7194518139481386,-0.29502086573885994,0.06296038700332857,0.6256099150859246,0,-1,0.06885237246751785,-1.6033209005938929,-0.5759452025042933,-1.4469712416278284,0.47000372409820557,0.1491062343120575
4217,1734172809,878650903,-0.45553641775548315,0.21510737531688004,1.2903218659619529,-0.7196557616804833,-0.2973947295119216,0.06333918768957371,0.6242115881986167,0,-1,0.06946281343698502,-1.6035969893084925,-0.5809367338763636,-1.4458439985858362,0.4740903377532959,0.15036383271217346
4233,1734172809,894229173,-0.45887832594745204,0.21442344077214753,1.2880646949617058,-0.7198524992607014,-0.2997387161521109,0.06374618161527942,0.6228206047306706,0,-1,0.07007288932800293,-1.6039207617389124,-0.5859277884112757,-1.4447534720050257,0.47814100980758667,0.15165700018405914
4249,1734172809,910233497,-0.46230306441512503,0.2137348939806329,1.2857438869068758,-0.7200650010014048,-0.30208437331359633,0.06418355494869574,0.6213951214861011,0,-1,0.07064775377511978,-1.604184929524557,-0.5910022894488733,-1.4436982313739222,0.4822515845298767,0.15301010012626648
4265,1734172809,926368951,-0.4657083678349579,0.21306551311171198,1.2833814530052325,-0.7202853345545829,-0.30444859272781066,0.06452067832584561,0.619949331219916,0,-1,0.07119828462600708,-1.60443622270693,-0.596053425465719,-1.4426196257220667,0.4863146245479584,0.1542796790599823
4281,1734172809,942494630,-0.4690972080563009,0.21237278679062738,1.2810182653777133,-0.7204930301496649,-0.3067997367818629,0.06486776243951783,0.6185110252957696,0,-1,0.071856290102005,-1.6047361532794397,-0.60114032426943,-1.4416006247149866,0.49043717980384827,0.15554925799369812
4297,1734172809,958044767,-0.4724142166750394,0.21170701592162036,1.2786531499479907,-0.7207199435745362,-0.3090830869023245,0.06523382179273243,0.6170696531341997,0,-1,0.07239483296871185,-1.6050241629229944,-0.6061909834491175,-1.440521542225973,0.49451181292533875,0.1568547785282135
4313,1734172809,974158287,-0.4758276628886739,0.2110017514085127,1.2762405991450645,-0.7209347923468654,-0.3114738024981658,0.0655873300218127,0.6155772881464402,0,-1,0.07300528138875961,-1.6053360144244593,-0.6111581961261194,-1.4394667784320276,0.4987186789512634,0.15813635289669037
4329,1734172809,990455150,-0.4791383528273856,0.21028955820646628,1.2738694013402088,-0.721151412239111,-0.3138090025121721,0.06598311210362004,0.6140934615227331,0,-1,0.07357977330684662,-1.6056478659259241,-0.6160538832293909,-1.4384239355670374,0.5028412342071533,0.15944187343120575
4345,1734172810,6087064,-0.48247167136946495,0.20959527643765533,1.271440719150685,-0.7213716713477679,-0.3161044342046992,0.06633368400130153,0.6126179403346511,0,-1,0.07417823374271393,-1.6059353987323206,-0.6211407820331019,-1.4373686949359339,0.5069042444229126,0.16073542833328247
4361,1734172810,22243499,-0.4857479743523746,0.2089026851093821,1.2689971957013773,-0.721610987570759,-0.3184102373925126,0.06669046236506888,0.6111013709445684,0,-1,0.07474037259817123,-1.6062114874469202,-0.6262272039996546,-1.436242405568258,0.5110152363777161,0.1620769053697586
4377,1734172810,38379430,-0.489070582583739,0.20817336351898777,1.2665181072253817,-0.7218301625634442,-0.32073529108252935,0.06706601503890022,0.6095836604557563,0,-1,0.07533883303403854,-1.6064870993243616,-0.631350342427389,-1.4351514021502894,0.5151857137680054,0.16334648430347443
4393,1734172810,54501056,-0.49238708490604427,0.20746886588222385,1.2640210323258712,-0.7220483084317577,-0.32305485392508143,0.06737705244934575,0.6080642519088912,0,-1,0.07594965398311615,-1.6067870298968714,-0.6364005247699183,-1.4340603987323206,0.5192487835884094,0.1646040827035904
4409,1734172810,70260047,-0.4956306217972982,0.20675821814497658,1.2615545946689386,-0.7222769532897387,-0.32532429183733647,0.0677529265857558,0.6065390744429358,0,-1,0.07652377337217331,-1.6070988813983362,-0.641331974660055,-1.4328973929034632,0.5232638716697693,0.1658496856689453
4425,1734172810,86452245,-0.49886501692369223,0.20600506451058956,1.2590871111390858,-0.7224808035163706,-0.32762918714529377,0.06811262119706091,0.6050134503583532,0,-1,0.07714620232582092,-1.6074350515948694,-0.6462629477130335,-1.431866470967428,0.5273744463920593,0.16709493100643158
4441,1734172810,102132320,-0.502106818055465,0.2052694662804446,1.2565820221729624,-0.7227037870781152,-0.3299001677205343,0.06844987054451918,0.6034730571478333,0,-1,0.07779259979724884,-1.6077469030963343,-0.6512659231769007,-1.430727783833639,0.531437873840332,0.16843603551387787
4457,1734172810,118269920,-0.5053274246301912,0.2045385740693848,1.254056752648113,-0.7229415411628991,-0.33212710230353754,0.06877627143782174,0.6019276870717767,0,-1,0.07835473865270615,-1.6080101172076624,-0.6563051382647913,-1.4296372572528284,0.5354645252227783,0.1697535514831543
4473,1734172810,134383440,-0.5085562409706931,0.20378652570388944,1.2514890843017312,-0.7231721719689145,-0.33439824876761404,0.06910980160528783,0.6003529430534954,0,-1,0.07903709262609482,-1.6083462874041956,-0.6613200346576136,-1.4285338560687464,0.5395399332046509,0.17109504342079163
4489,1734172810,150497436,-0.5117665623841139,0.20304825148765637,1.2489022920256692,-0.7234100277391134,-0.3366464458215555,0.06943284987440321,0.5987705584282915,0,-1,0.07963517308235168,-1.6086457411395472,-0.6664426962481897,-1.4274314085589808,0.5436509251594543,0.17244850099086761
4505,1734172810,166140317,-0.5149754436924792,0.20228458358539855,1.2463122372385929,-0.7236565775778023,-0.3388970642078689,0.06979797053560087,0.5971584219524843,0,-1,0.08023401349782944,-1.6089218298541468,-0.6714456717120569,-1.4264243284808558,0.5478573441505432,0.17383792996406555
4521,1734172810,182459354,-0.5181443942254668,0.20151687717420816,1.243723330095308,-0.7239069544013018,-0.34113584135961283,0.0701885260135302,0.5955322240864458,0,-1,0.08080850541591644,-1.609293286000387,-0.6764009634601038,-1.425333325062887,0.5519567131996155,0.17515544593334198
4537,1734172810,198237895,-0.5213116893115731,0.20074142524005728,1.2411015120644255,-0.7241373348832784,-0.343397315585397,0.07051338936233033,0.593911833353674,0,-1,0.08145453035831451,-1.6095812956439417,-0.6814520994769495,-1.4242547194110315,0.5560796856880188,0.1764489859342575
4553,1734172810,214402675,-0.524417186027912,0.19999401121644328,1.2384765234784105,-0.7243802196820144,-0.3456445519119786,0.0708313239777339,0.5922719515649592,0,-1,0.08205299079418182,-1.6098092238055628,-0.6864665190326136,-1.423187557850973,0.5602389574050903,0.1778024584054947
4569,1734172810,230601787,-0.5275438567918532,0.19922550836447306,1.2358211603490055,-0.7246146249666132,-0.3478775430221658,0.07112474048004663,0.5906404419246972,0,-1,0.08263984322547913,-1.6100729147540491,-0.6915414969073694,-1.4220846335040491,0.5643615126609802,0.17904768884181976
4585,1734172810,246251583,-0.5305913394606173,0.19845510973644764,1.2331656790823977,-0.7248597241407173,-0.3501002462965978,0.07146050863556079,0.5889835257180388,0,-1,0.08323793113231659,-1.6103490034686487,-0.6966283957110804,-1.4210179487811487,0.5684252977371216,0.1803768277168274
4601,1734172810,262272834,-0.5336914742808279,0.19770004102348057,1.230480529371145,-0.725097816071054,-0.3523013104787401,0.07170366608482151,0.5873461739331813,0,-1,0.08384837955236435,-1.6106246153460901,-0.7016790548907679,-1.4198787848102015,0.5725002884864807,0.1815744936466217
4617,1734172810,278149843,-0.5367512813488773,0.1969089564776831,1.2278102081137845,-0.7253273430916672,-0.35452431913695026,0.07200155968128417,0.5856863733326285,0,-1,0.08445882797241211,-1.6109007040606897,-0.7065981070147913,-1.418788258229391,0.5766352415084839,0.18289200961589813
4633,1734172810,294428348,-0.5397407187879302,0.19614901320432504,1.225162904005239,-0.7255830455336423,-0.35666705464992193,0.07234574727945453,0.584023928458459,0,-1,0.08503294736146927,-1.6112244764911097,-0.7116010824786585,-1.4177573362933558,0.5806746482849121,0.18422150611877441
4649,1734172810,310122489,-0.5427442454994651,0.19537888587719993,1.2224672646281411,-0.7258244607931514,-0.3588300913509306,0.0726392291080958,0.582360163515668,0,-1,0.08564339578151703,-1.6115005652057093,-0.7166278998004358,-1.4166186491595667,0.584749698638916,0.18551506102085114
4665,1734172810,326421260,-0.5457564084362413,0.1946034014151777,1.2197198042129218,-0.7260756564446701,-0.36102247750348576,0.07287520974608631,0.5806600689389193,0,-1,0.08616995066404343,-1.6117637793170374,-0.7216785589801233,-1.4156115690814417,0.5888490080833435,0.1867966204881668
4681,1734172810,342219352,-0.5487074967465493,0.19382390865709548,1.2170017394598949,-0.7263109784661061,-0.3631531052464926,0.07309471374569941,0.5790072085318728,0,-1,0.08684031665325165,-1.6119559446917933,-0.7267416159259241,-1.4144609610186976,0.5928640961647034,0.1881261169910431
4697,1734172810,358461618,-0.5516655019963256,0.19304127903078422,1.2142387713155938,-0.7265726401586533,-0.3653252887725804,0.07343366251265004,0.5772669479245223,0,-1,0.0874028280377388,-1.6122801939593714,-0.7317922751056116,-1.4133575598346155,0.5969395041465759,0.18940767645835876
4713,1734172810,374776840,-0.5546078573261924,0.19224819480970065,1.2115035164650605,-0.7268231935053563,-0.3674910250783671,0.0737161251107951,0.5755382913135979,0,-1,0.08798892796039581,-1.6125319639789026,-0.7366879622088831,-1.4123747984515589,0.6010987758636475,0.19065292179584503
4729,1734172810,390428304,-0.5575461735719978,0.19143560570676726,1.2087422848372802,-0.7270618688633393,-0.36967606739050624,0.07401213117423852,0.5737968704016129,0,-1,0.08863570541143417,-1.6128199736224573,-0.7416423002826136,-1.4112604300128382,0.6052097678184509,0.19197043776512146
4745,1734172810,406570196,-0.5604064946304236,0.1906227125905967,1.2059889215826536,-0.7273064712618961,-0.37181329525342405,0.07429860114151501,0.5720663319946149,0,-1,0.08924615383148193,-1.6130955854998987,-0.746657673512594,-1.4102051893817347,0.6093334555625916,0.19324001669883728
4761,1734172810,422687530,-0.5633392486500436,0.1898303158719902,1.20313428989606,-0.7275613680836833,-0.37398140592848733,0.074505028148071,0.5702993639068924,0,-1,0.08979630470275879,-1.6133349577533167,-0.7518757025348108,-1.4091265837298792,0.6134204268455505,0.19452157616615295
4777,1734172810,438601016,-0.5662828573177682,0.18901422225075037,1.20024025598937,-0.7278174530465014,-0.37614952808384083,0.07469311519028017,0.5685193278212969,0,-1,0.09046667069196701,-1.6136110464679163,-0.7570102850543421,-1.408095661793844,0.617472231388092,0.19577917456626892
4793,1734172810,454265832,-0.5691712379667525,0.18819255761742398,1.1973529069712356,-0.7280670896409625,-0.3783443962917259,0.0749153854222719,0.5667111396500167,0,-1,0.09108872711658478,-1.6138747374164026,-0.7620847860919397,-1.4070046583758753,0.6216554641723633,0.19704875349998474
4809,1734172810,470418691,-0.5720742180978747,0.1873747712500823,1.1944751520640644,-0.7283208524010671,-0.38049575804465274,0.07512749378323307,0.5649137754964544,0,-1,0.09167520701885223,-1.6141746679889124,-0.7670758406268519,-1.405961815510885,0.6257784366607666,0.19834229350090027
4825,1734172810,486551284,-0.5749167485151429,0.1865382217370851,1.1916377919653596,-0.7285735580606391,-0.3825887438185918,0.07541483847252356,0.5631332220144142,0,-1,0.09233358502388,-1.614462677632467,-0.7720544973956507,-1.4048708120929163,0.629842221736908,0.19967180490493774
4841,1734172810,502504348,-0.5777380086880274,0.18571827821679443,1.18877283563671,-0.7288423988683299,-0.3846751389449143,0.07566963936719981,0.5613269107815937,0,-1,0.09289609640836716,-1.6147621313678187,-0.7770336310016077,-1.4037564436541956,0.6339295506477356,0.20094138383865356
4857,1734172810,518798589,-0.5805570071784224,0.1848843527132767,1.1858678436013603,-0.7290995511813889,-0.3867557835294701,0.0758931242502872,0.5595301976347061,0,-1,0.09348257631063461,-1.615002457295553,-0.7821081320392054,-1.4026415983783167,0.6380892395973206,0.20229484140872955
4873,1734172810,534331083,-0.5833098630182746,0.18406430256408032,1.182974068934368,-0.7293721881218237,-0.3888476958236169,0.07615429978900658,0.5576864739893673,0,-1,0.09414058178663254,-1.615229908620016,-0.7871354261981409,-1.401562515889303,0.6422005295753479,0.20363596081733704
4889,1734172810,550433874,-0.5860531360663677,0.18322573661908056,1.1800523214943772,-0.7296507699457261,-0.39087824809526667,0.07642824097201208,0.5558620989647599,0,-1,0.0947270616889,-1.6154821554767054,-0.7922576109515589,-1.4004715124713343,0.6462519764900208,0.20503735542297363
4905,1734172810,566646814,-0.5887844879977835,0.18240443593611444,1.1771511086650859,-0.7299279116128675,-0.3929027711750159,0.07667012098529213,0.55403460974886,0,-1,0.09527795761823654,-1.6157696882831019,-0.7971409002887171,-1.3994048277484339,0.650351345539093,0.20637847483158112
4921,1734172810,582626342,-0.5914980387012994,0.18157541808234434,1.1742395454950638,-0.7301986037383508,-0.39496046802552437,0.07692876419058499,0.5521758714718807,0,-1,0.0958520770072937,-1.6160691420184534,-0.8020842711078089,-1.398278538380758,0.6544870138168335,0.20767201483249664
4937,1734172810,598333120,-0.5942189420017373,0.18075186448868985,1.171283470909107,-0.73047195385857,-0.39695855639776373,0.07711466963468333,0.5503525750423814,0,-1,0.09645054489374161,-1.616357151662008,-0.807098690663473,-1.397163216267721,0.6585028171539307,0.20903746783733368
4953,1734172810,614284515,-0.5969210012026669,0.17994522485872402,1.168315562980434,-0.7307448300875722,-0.3989667934706966,0.07727148254429589,0.5485130891723575,0,-1,0.09704900532960892,-1.6166570822345179,-0.8121979872332972,-1.3960965315448206,0.6625542640686035,0.2102830857038498
4969,1734172810,630199909,-0.5996537719399582,0.17907803666277927,1.1652731010915764,-0.7310150549378637,-0.401043187182586,0.07743063662433072,0.5466130697125493,0,-1,0.09764746576547623,-1.6169212500201624,-0.8172844091998499,-1.3950417677508753,0.6666180491447449,0.21161220967769623
4985,1734172810,646497249,-0.6022900884037256,0.1782551380731517,1.1622785529312278,-0.7312901740754592,-0.40307724628304065,0.07761384091254775,0.5447196586578891,0,-1,0.09822195768356323,-1.6172087828265589,-0.8223350683795374,-1.3939507643329065,0.6707533597946167,0.2128698080778122
5001,1734172810,662634849,-0.6049682219637181,0.17740371723161596,1.1592366060577262,-0.7315525053571478,-0.40514532766165356,0.07776112344404376,0.5428088089376699,0,-1,0.09883203357458115,-1.6174967924701136,-0.8273499647723597,-1.3929322401629847,0.6748650670051575,0.21418730914592743
5017,1734172810,678505659,-0.6076263586533441,0.17657197503190425,1.1562066439540166,-0.7318463551289153,-0.40712234176965767,0.07795413968729774,0.5409024527788027,0,-1,0.09940652549266815,-1.6178324858294886,-0.8322928587542933,-1.3918169180499476,0.6789647936820984,0.215492844581604
5033,1734172810,694563388,-0.610245054028154,0.17568149002870725,1.1532242785985227,-0.732096862646552,-0.40915756657948527,0.07817103484498175,0.5389930971033806,0,-1,0.10000498592853546,-1.618120018635885,-0.8372481505023401,-1.3907626310931605,0.6831244230270386,0.21675044298171997
5049,1734172810,710139036,-0.6127791252813226,0.17484194281566393,1.1502398873724202,-0.7323776013495786,-0.4111229178052295,0.07842359621812721,0.5370760980093682,0,-1,0.10061543434858322,-1.6183603445636194,-0.8422506491290491,-1.3896353880511683,0.6872481107711792,0.2180439829826355
5065,1734172810,726273775,-0.6153987083170839,0.17398021622871218,1.1471117137576627,-0.7326514216739418,-0.41315261542508314,0.07853421791480014,0.5351253939994587,0,-1,0.10124985128641129,-1.618647877370016,-0.8473375479327601,-1.3885567823993128,0.6913238763809204,0.21937349438667297
5081,1734172810,742426872,-0.6180059581192654,0.17308871894843308,1.1440133566381907,-0.7329145418470925,-0.41515938483005455,0.07867391313580391,0.5331879358429797,0,-1,0.101811982691288,-1.6189120451556605,-0.852459732686178,-1.3874180952655237,0.6953996419906616,0.22063107788562775
5097,1734172810,758171558,-0.6206166723970225,0.17220413939771229,1.140847347435835,-0.7331905920840628,-0.4171760205849766,0.0787905338580908,0.5312134931481519,0,-1,0.10247036814689636,-1.6192472616778772,-0.8574746290790003,-1.3863633314715784,0.6995233297348022,0.22192426025867462
5113,1734172810,774549722,-0.6231497631193639,0.1713410570098951,1.1377725586239946,-0.7334721515220121,-0.41915662060017417,0.07895859683934126,0.5292370643991922,0,-1,0.10305684804916382,-1.6196077505694788,-0.8623698393451136,-1.3852723280536097,0.7035751342773438,0.22321780025959015
5129,1734172810,790130376,-0.6256754899982737,0.17047023408092188,1.1346769966021493,-0.7337409090504198,-0.4210920348127292,0.07908372243392783,0.5273059277583861,0,-1,0.10366729646921158,-1.6199191252337855,-0.8673613707171839,-1.3842170874225062,0.7075909972190857,0.22448737919330597
5145,1734172810,806265354,-0.6282078868937627,0.1695838439026274,1.1315583578393267,-0.73400402957242,-0.4230519749880356,0.0792064244559688,0.5253488872692826,0,-1,0.10425376892089844,-1.6202433745013636,-0.872387711201803,-1.3830788771258753,0.7116667628288269,0.2257569581270218
5161,1734172810,822412729,-0.6307062996818321,0.16871459839232722,1.1283822871958247,-0.7342904364294165,-0.4250003888834758,0.07933367630125684,0.5233530282913427,0,-1,0.10489979386329651,-1.6204946676837366,-0.8775342146502894,-1.3819878737079065,0.7158144116401672,0.226978600025177
5177,1734172810,838534832,-0.6332041538914788,0.16780242924368421,1.1251879026867233,-0.7345565420464358,-0.4270113853274916,0.07943758706729007,0.5213229642921994,0,-1,0.10549826174974442,-1.6208303610431116,-0.8826687971698206,-1.3809331099139612,0.7199264764785767,0.22829648852348328
5193,1734172810,854509353,-0.6356827890138088,0.16695053303493537,1.121957483336689,-0.7348432178847321,-0.42897252771458877,0.07947866140565844,0.5192987174797693,0,-1,0.10606076568365097,-1.6210945288287562,-0.887695614491598,-1.379890267048971,0.7240142226219177,0.22955408692359924
5209,1734172810,870142698,-0.6381003468896352,0.16608560660517888,1.1187967543305135,-0.7351346570933702,-0.43088508358153593,0.07958808608057394,0.5172821447152194,0,-1,0.10665923357009888,-1.6214421431170862,-0.8927105108844202,-1.3788355032550257,0.7281622886657715,0.2308116853237152
5225,1734172810,886573791,-0.6405334650254706,0.16515836128720612,1.1156278440949228,-0.7354024366036266,-0.4328485593780417,0.07973167896355386,0.5152361014636448,0,-1,0.10725769400596619,-1.6217425505267542,-0.8976176420794886,-1.3777688185321253,0.7323575019836426,0.23209324479103088
5241,1734172810,902260065,-0.6428875597943363,0.1643123775472019,1.1124701959122485,-0.7356980256285767,-0.4347273936657625,0.07985854488537313,0.5132086525883778,0,-1,0.1078437939286232,-1.6220420042621058,-0.9025605360614222,-1.3766658941852015,0.7364096641540527,0.23342236876487732
5257,1734172810,918484926,-0.6452679545384553,0.1634442021804351,1.1092369141730398,-0.7360017615964403,-0.436587227083431,0.079928550743048,0.5111794468194641,0,-1,0.10846622288227081,-1.6222942511187952,-0.9076350370990198,-1.3756468931781214,0.7404734492301941,0.23478782176971436
5273,1734172810,934191942,-0.6475865132051518,0.16258069314026963,1.1060237159275883,-0.7363079607106449,-0.43845780966101544,0.08001722057402638,0.5091194167904066,0,-1,0.10905308276414871,-1.6225336233722132,-0.9127100149737757,-1.374568287526266,0.7446094751358032,0.2361772507429123
5289,1734172810,950453042,-0.6499123008367219,0.16168406086589968,1.1027847054716184,-0.7366191898551118,-0.4403272861142252,0.08017010259933127,0.5070274202542628,0,-1,0.10962719470262527,-1.6227858702289026,-0.9177849928485315,-1.373441521321432,0.7487455606460571,0.23750674724578857
5305,1734172810,966184377,-0.6521944630184338,0.16079146735555006,1.0995733742147666,-0.7369119942005539,-0.4421654753221823,0.0802630331129249,0.5049834163138284,0,-1,0.11024963110685349,-1.6230734030352991,-0.9227035681353968,-1.3723867575274866,0.7528576254844666,0.23878830671310425
5321,1734172810,982503890,-0.6545137179219213,0.15989827010285,1.0963015405543008,-0.7371982858788474,-0.4440615815677139,0.08033507379736379,0.5028859463047681,0,-1,0.1108480915427208,-1.6233490149127405,-0.9276827017413538,-1.371284310017721,0.7568974494934082,0.24010582268238068
5337,1734172810,998643159,-0.656728279041077,0.159006897568032,1.0931109568369395,-0.7374831285682394,-0.4458657808887296,0.08043820649584146,0.5008513107154834,0,-1,0.11137464642524719,-1.6236851851092737,-0.9326975981341761,-1.3701570669757288,0.761009931564331,0.2413630485534668
5353,1734172811,14181613,-0.65902116257454,0.15808553326676528,1.0898221524385805,-0.7377812110033168,-0.4477179492735152,0.08054383280260982,0.4987386225130982,0,-1,0.11203303188085556,-1.6239727179156702,-0.9377959410296839,-1.3691023031817835,0.7651455998420715,0.24268056452274323
5369,1734172811,30502557,-0.6612512687992697,0.15719288845058155,1.0864990869003128,-0.7380697445592,-0.4495910165810671,0.08056994868644464,0.4966180155255983,0,-1,0.11263111978769302,-1.6241892019854944,-0.9429429213153284,-1.3679516951190394,0.7692337036132812,0.2439860999584198
