yildirimyigit/pemp/data/ur10/raw/9_2024-12-14_13-41-33.csv
Time,ROS secs,ROS nsecs,________p_x________,________p_y________,________p_z________,________q_x________,________q_y________,________q_z________,________q_w________,gripper_position,gripper_force,shoulder_pan_joint,shoulder_lift_joint,elbow_joint,wrist_1_joint,wrist_2_joint,wrist_3_joint
0,1734172893,139086246,-0.0001446495162731851,0.2561410169715225,1.427299988390556,-0.7071067752797798,-3.438339630147215e-05,-0.00016057667185438013,0.707106768024706,0,-1,-0.000119511281148732,-1.570916000996725,-1.1746083394825746e-05,-1.570820156727926,-0.000119511281148732,-7.18275653284195e-05
11,1734172893,154890537,-0.000182986186313146,0.25614101850269455,1.4272999831252866,-0.7071067733668552,-4.685886334897382e-05,-0.00017305213880982394,0.7071067662778509,0,-1,-0.00015527406801396637,-1.57092792192568,-3.5587941304981996e-05,-1.5708444754229944,-0.00010711351503545075,-5.990663637334137e-05
27,1734172893,170728683,-0.0001697884307303701,0.2561410174005873,1.4272999853889279,-0.707106775430514,-4.652168858769298e-05,-0.00015619339964404586,0.7071067681613682,0,-1,-0.000119511281148732,-1.5709403196917933,-1.1746083394825746e-05,-1.5708320776568812,-7.135072817021637e-05,-5.990663637334137e-05
43,1734172893,186892271,-0.00010013027490690635,0.2561410166998385,1.427299992702488,-0.7071067765877118,2.9511225947012923e-05,-0.0001475954427747313,0.7071067697656477,0,-1,-0.00013143221010381012,-1.5709527174579065,-1.1746083394825746e-05,-1.570820156727926,-9.519258608037262e-05,-9.566942323857575e-05
59,1734172893,202441930,-0.00020026214303730196,0.2561410253472697,1.4272999796044332,-0.7071067701126524,-2.5954026833400813e-05,-0.0001949684996424915,0.707106764905078,0,-1,-0.00014335313905888825,-1.5709403196917933,-2.366701234990387e-05,-1.5708320776568812,-0.00014335313905888825,-7.18275653284195e-05
75,1734172893,218684673,-0.00013299352199272103,0.2561410197001894,1.4272999893125018,-0.7071067772267466,-1.2804209877161575e-05,-0.0001561933996808508,0.7071067677795753,0,-1,-0.00013143221010381012,-1.5709527174579065,-5.990663637334137e-05,-1.570820156727926,-7.135072817021637e-05,-5.990663637334137e-05
91,1734172893,235137462,-0.00018840248782387643,0.2561410241706099,1.4272999814700242,-0.707106774469282,-2.1570754387834236e-05,-0.00017338931363937427,0.7071067663164428,0,-1,-9.519258608037262e-05,-1.57092792192568,-3.5587941304981996e-05,-1.570808235798971,-8.32716571252945e-05,-0.00010759035219365387
107,1734172893,250691413,-0.00011102363170126614,0.2561410148117853,1.427299992468435,-0.7071067758105927,-4.436657386863698e-06,-0.0001646845865675362,0.7071067673711313,0,-1,-8.32716571252945e-05,-1.5709403196917933,-2.366701234990387e-05,-1.570808235798971,-9.519258608037262e-05,-5.990663637334137e-05
123,1734172893,266710281,-0.00017990595285682822,0.2561410256829445,1.4272999825707406,-0.7071067740680754,-2.1570754435908922e-05,-0.00018181868315642473,0.7071067646004449,0,-1,-0.0001671949969690445,-1.5709646383868616,-2.366701234990387e-05,-1.570796314870016,-7.135072817021637e-05,-7.18275653284195e-05
139,1734172893,282603502,-0.00018453856873261373,0.2561410265441166,1.4272999816838305,-0.7071067762241761,-2.5616851918221097e-05,-0.00016091384658359183,0.7071067673755951,0,-1,-0.00010711351503545075,-1.5709527174579065,-4.7985707418263246e-05,-1.5708563963519495,-9.519258608037262e-05,-7.18275653284195e-05
155,1734172893,298865318,-0.0001999587422171041,0.2561410312198169,1.4272999785115734,-0.707106775236268,-4.605245039851955e-06,-0.00016485317390980115,0.7071067679050941,0,-1,-0.000119511281148732,-1.5709646383868616,-4.7985707418263246e-05,-1.570820156727926,-9.519258608037262e-05,-7.18275653284195e-05
171,1734172893,314865350,-0.0001627288359662715,0.2561410257847171,1.4272999846277867,-0.7071067736880395,-2.140216709430508e-05,-0.00019007946526266786,0.7071067628132514,0,-1,-0.000119511281148732,-1.5709527174579065,-3.5587941304981996e-05,-1.5708320776568812,-0.00013143221010381012,-5.990663637334137e-05
187,1734172893,330553293,-0.00012840564559528998,0.25614101700031033,1.427299990473312,-0.7071067755806366,-8.589525066894908e-06,-0.00016040808454278056,0.7071067685458976,0,-1,-0.00013143221010381012,-1.570916000996725,-5.990663637334137e-05,-1.570820156727926,-7.135072817021637e-05,-5.990663637334137e-05
203,1734172893,346871376,-0.00016001994867784802,0.25614102077857626,1.4272999862218072,-0.7071067746054591,-1.7187482182031465e-05,-0.00016900604148312106,0.7071067673616289,0,-1,-0.00014335313905888825,-1.5709646383868616,-5.990663637334137e-05,-1.570820156727926,-0.00010711351503545075,-8.374849428349762e-05
219,1734172893,362659931,-0.00017626626355276434,0.2561410173863219,1.4272999846803645,-0.7071067726796381,-1.7356069420393297e-05,-0.00017760399850202588,0.7071067671760561,0,-1,-0.000119511281148732,-1.57092792192568,-5.990663637334137e-05,-1.5708320776568812,-9.519258608037262e-05,-8.374849428349762e-05
235,1734172893,378420114,-0.00017461804260603722,0.25614103020965084,1.4272999823171197,-0.7071067764007551,-4.712015129308683e-06,-0.00016495994401490558,0.7071067667150034,0,-1,-0.00013143221010381012,-1.5709040800677698,-3.5587941304981996e-05,-1.5708444754229944,-7.135072817021637e-05,-7.18275653284195e-05
251,1734172893,394656181,-0.00016684229618088619,0.25614102159392377,1.4272999851186374,-0.7071067746054592,-1.7187482182031445e-05,-0.00016900604148312108,0.7071067673616289,0,-1,-9.519258608037262e-05,-1.5709527174579065,-2.366701234990387e-05,-1.570820156727926,-5.990663637334137e-05,-5.990663637334137e-05
267,1734172893,410891771,-0.00010637370270562415,0.2561410130002061,1.4272999931116275,-0.7071067782931815,-2.1402166940683746e-05,-0.00013107387828975342,0.7071067716076711,0,-1,-0.00013143221010381012,-1.5709527174579065,-4.7985707418263246e-05,-1.5708320776568812,-8.32716571252945e-05,-7.18275653284195e-05
283,1734172893,426489114,-0.0002404915542880451,0.2561410240617527,1.4272999728092841,-0.7071067720680673,-5.984009273383624e-05,-0.00017760399825970027,0.707106765468597,0,-1,-7.135072817021637e-05,-1.5709403196917933,-5.990663637334137e-05,-1.570796314870016,-9.519258608037262e-05,-9.566942323857575e-05
299,1734172893,442916631,-0.0001925941246895866,0.25614102485460716,1.4272999804316202,-0.7071067745291214,-4.264417857230876e-05,-0.00017760399828933707,0.7071067642536848,0,-1,-0.000119511281148732,-1.5709403196917933,-4.7985707418263246e-05,-1.5708320776568812,-0.00010711351503545075,-0.00010759035219365387
315,1734172893,458603620,-0.00020770294835212893,0.2561410262365299,1.4272999785633436,-0.707106769564842,-3.842949378977824e-05,-0.00020744396648384722,0.7071067613350533,0,-1,-0.00015527406801396637,-1.5709403196917933,-1.1746083394825746e-05,-1.570808235798971,-8.32716571252945e-05,-8.374849428349762e-05
331,1734172893,474860429,-0.00017441324107847017,0.25614102999480104,1.4272999822564238,-0.7071067737828794,-1.7356069682139512e-05,-0.00019446273739041694,0.7071067616374336,0,-1,-9.519258608037262e-05,-1.57092792192568,-5.990663637334137e-05,-1.5708320776568812,-9.519258608037262e-05,-9.566942323857575e-05
347,1734172893,490684270,-0.00011993071129525811,0.25614101805256306,1.4272999909155601,-0.7071067779583223,-4.2062528245540805e-06,-0.00013950324791108616,0.7071067706411467,0,-1,-0.00013143221010381012,-1.57092792192568,2.384185791015625e-05,-1.570796314870016,-0.00010711351503545075,-4.7985707418263246e-05
363,1734172893,506979227,-0.00022829785347955084,0.25614103518424164,1.427299972499822,-0.707106769687619,-5.141072321045759e-05,-0.00022008802047159738,0.7071067565651888,0,-1,-8.32716571252945e-05,-1.5709646383868616,1.1920928955078125e-05,-1.570808235798971,-0.000119511281148732,-5.990663637334137e-05
379,1734172893,522700786,-0.00020083013905648252,0.25614102843305653,1.4272999787863365,-0.7071067704900327,-5.141072308522907e-05,-0.00021165865106725513,0.707106758336186,0,-1,-9.519258608037262e-05,-1.57092792192568,-3.5587941304981996e-05,-1.5708444754229944,-9.519258608037262e-05,-4.7985707418263246e-05
395,1734172893,538633108,-0.00013975030450094208,0.2561410202940206,1.4272999886821485,-0.7071067743608551,-1.2804209905064231e-05,-0.00018148150841134912,0.707106764607369,0,-1,-0.00010711351503545075,-1.570916000996725,-4.7985707418263246e-05,-1.5708320776568812,-7.135072817021637e-05,-9.566942323857575e-05
411,1734172893,554373979,-0.00023473411836449538,0.2561410327779532,1.4272999720820285,-0.7071067707861464,-2.5954026932497884e-05,-0.00019463132480681525,0.7071067643244717,0,-1,-0.000119511281148732,-1.5709646383868616,-1.1746083394825746e-05,-1.570808235798971,-7.135072817021637e-05,-9.566942323857575e-05
427,1734172893,570639610,-0.00016181627366524288,0.25614101862726485,1.427299986373072,-0.7071067747454047,-2.578543915604041e-05,-0.00016883745409010338,0.7071067670006962,0,-1,-0.00013143221010381012,-1.5709403196917933,-2.366701234990387e-05,-1.570808235798971,-5.990663637334137e-05,-8.374849428349762e-05
443,1734172893,586423873,-0.00017656007828759717,0.2561410203046015,1.4272999838880378,-0.7071067755022309,-2.57854391832209e-05,-0.00016040808450903352,0.7071067682063262,0,-1,-0.000119511281148732,-1.57092792192568,-3.5587941304981996e-05,-1.570808235798971,-0.000119511281148732,-9.566942323857575e-05
459,1734172893,602673768,-0.00014514415549547142,0.25614101888957286,1.427299988282191,-0.707106773231934,-2.1402167016068316e-05,-0.00018165009581256342,0.7071067654850377,0,-1,-0.00013143221010381012,-1.57092792192568,1.1920928955078125e-05,-1.5707839171039026,-0.00010711351503545075,-7.18275653284195e-05
475,1734172893,618960857,-0.0001572674061640263,0.2561410205476923,1.4272999863172273,-0.7071067763238472,-4.3748402574292516e-06,-0.00014776403016510196,0.7071067705965972,0,-1,-0.000119511281148732,-1.57092792192568,-4.7985707418263246e-05,-1.5708444754229944,-0.00010711351503545075,-7.18275653284195e-05
491,1734172893,634696006,-0.0001834662536980855,0.25614102119856746,1.4272999824220336,-0.7071067749043278,-4.6690276041713415e-05,-0.00016479135656395302,0.7071067667249602,0,-1,-0.00013143221010381012,-1.5709403196917933,-3.5587941304981996e-05,-1.570820156727926,-8.32716571252945e-05,-5.990663637334137e-05
507,1734172893,650964260,-0.0001807066663739011,0.2561410182857011,1.4272999838808886,-0.7071067743945157,-4.702745064812652e-05,-0.00017322072619444212,0.7071067651977191,0,-1,-0.000119511281148732,-1.5709527174579065,-4.7985707418263246e-05,-1.570808235798971,-7.135072817021637e-05,-5.990663637334137e-05
523,1734172893,666546583,-0.00021231081267736088,0.25614102137915506,1.4272999782050264,-0.7071067720417515,-6.000868012743228e-05,-0.00017777258564940823,0.7071067654382616,0,-1,-0.00014335313905888825,-1.5709403196917933,-3.5587941304981996e-05,-1.5708444754229944,-9.519258608037262e-05,-7.18275653284195e-05
539,1734172893,682763814,-0.00020343771954610155,0.25614102284478146,1.4272999796044332,-0.7071067695262889,-3.876666857509387e-05,-0.00019901459700316014,0.7071067637778833,0,-1,-0.000119511281148732,-1.5709527174579065,-1.1746083394825746e-05,-1.5708320776568812,-0.00010711351503545075,-5.990663637334137e-05
555,1734172893,698637962,-0.00021063846163437986,0.2561410182534393,1.4272999788212068,-0.7071067702744762,-5.9671505210099306e-05,-0.00018586478049554807,0.707106765153321,0,-1,-0.00013143221010381012,-1.570916000996725,-1.1746083394825746e-05,-1.570808235798971,-0.00010711351503545075,-3.5587941304981996e-05
571,1734172893,714798927,-0.0001772824902113267,0.25614102543621287,1.4272999828922357,-0.707106773375744,-3.4214809027137514e-05,-0.0001860333678432699,0.7071067636977297,0,-1,-0.00017911592592412262,-1.5709403196917933,-2.366701234990387e-05,-1.570820156727926,-7.135072817021637e-05,-5.990663637334137e-05
587,1734172893,730496168,-0.00017508298344216504,0.25614102514712683,1.4272999829115938,-0.7071067739392544,-2.9831536775179148e-05,-0.00018165009570964317,0.7071067644723408,0,-1,-0.00013143221010381012,-1.5709403196917933,-3.5587941304981996e-05,-1.5708320776568812,-9.519258608037262e-05,-9.566942323857575e-05
603,1734172893,746869564,-0.0001553053644297758,0.25614101997442745,1.4272999867683591,-0.7071067736416318,-8.420937674019472e-06,-0.000177435411083959,0.7071067664192479,0,-1,-0.00014335313905888825,-1.5709403196917933,-1.1746083394825746e-05,-1.5708320776568812,-8.32716571252945e-05,-5.990663637334137e-05
619,1734172893,762672901,-0.00019525796318490188,0.25614102770069314,1.4272999797030026,-0.7071067737626731,-1.752465707672305e-05,-0.00017777258578871284,0.7071067660464988,0,-1,-0.00010711351503545075,-1.570916000996725,-3.5587941304981996e-05,-1.5708320776568812,-5.990663637334137e-05,-4.7985707418263246e-05
635,1734172893,778886795,-0.0002122362388948541,0.25614102690783375,1.42729997680061,-0.7071067721404954,-2.5954026721454526e-05,-0.0001862019553412016,0.7071067652400659,0,-1,-0.00014335313905888825,-1.5709403196917933,-2.366701234990387e-05,-1.5708444754229944,-8.32716571252945e-05,-4.7985707418263246e-05
651,1734172893,794558525,-0.00016137032325035103,0.25614101867757344,1.4272999862768627,-0.7071067765286857,-1.3371789287763997e-05,-0.00014799443479447457,0.707106770230673,0,-1,-9.519258608037262e-05,-1.57092792192568,-4.7985707418263246e-05,-1.5708320776568812,-9.519258608037262e-05,-8.374849428349762e-05
667,1734172893,810873031,-0.00020563069340661524,0.25614102341845724,1.4272999785447023,-0.707106772799101,-3.8598081275596976e-05,-0.00017322072616817615,0.7071067673035019,0,-1,-0.00010711351503545075,-1.570916000996725,1.1920928955078125e-05,-1.5708320776568812,-9.519258608037262e-05,-5.990663637334137e-05
683,1734172893,826911449,-0.00010628165268615893,0.256141019513808,1.4272999919695388,-0.7071067763087455,-4.543427651988827e-06,-0.00017322072618367883,0.7071067648327167,0,-1,-0.000119511281148732,-1.5709646383868616,-4.7985707418263246e-05,-1.5707839171039026,-5.990663637334137e-05,-7.18275653284195e-05
699,1734172893,843418836,-0.00013306304481013425,0.25614101755692215,1.4272999897612086,-0.7071067763817042,8.207397059548238e-06,-0.00014361116263554477,0.7071067713602713,0,-1,-0.000119511281148732,-1.5709403196917933,-2.366701234990387e-05,-1.570820156727926,-8.32716571252945e-05,-9.566942323857575e-05
716,1734172893,858804941,-0.00015027925011536992,0.2561410197125288,1.4272999874607455,-0.7071067766690503,-3.905600287948516e-07,-0.00014377975000600527,0.7071067710861894,0,-1,-0.00010711351503545075,-1.5708921591388147,-3.5587941304981996e-05,-1.5708320776568812,-8.32716571252945e-05,-9.566942323857575e-05
731,1734172893,874144315,-0.0001580533254377517,0.2561410161292711,1.4272999872698768,-0.7071067756625247,-2.1402166971348856e-05,-0.00014759544277146062,0.7071067709827706,0,-1,-8.32716571252945e-05,-1.5709527174579065,-5.990663637334137e-05,-1.570808235798971,-5.990663637334137e-05,-8.374849428349762e-05
747,1734172893,890280008,-0.00017475779286084614,0.2561410225399149,1.4272999839268563,-0.7071067743281494,-2.578543919847747e-05,-0.00017760399839872592,0.7071067652704013,0,-1,-0.000119511281148732,-1.570916000996725,-7.18275653284195e-05,-1.570820156727926,-5.990663637334137e-05,-8.374849428349762e-05
763,1734172893,906309366,-0.0001654359566772473,0.2561410166227886,1.4272999862721927,-0.7071067732499919,-2.140216701391313e-05,-0.0001644541819503762,0.707106769675382,0,-1,-0.00013143221010381012,-1.57092792192568,-1.1746083394825746e-05,-1.5708320776568812,-0.00010711351503545075,-7.18275653284195e-05
778,1734172893,922323465,-0.0002143211934583893,0.25614102450354853,1.4272999770665369,-0.7071067746092972,-4.702745086422035e-05,-0.00016512853133691336,0.7071067669189878,0,-1,-8.32716571252945e-05,-1.570916000996725,-2.366701234990387e-05,-1.570820156727926,-0.000119511281148732,-8.374849428349762e-05
795,1734172893,938307046,-0.00023178417772086977,0.25614102945328715,1.427299973363749,-0.7071067725424393,-4.281276607808323e-05,-0.00018620195522432159,0.7071067640183581,0,-1,-0.00013143221010381012,-1.5709403196917933,-7.18275653284195e-05,-1.5708320776568812,-0.00010711351503545075,-9.566942323857575e-05
811,1734172893,954339742,-0.00020952111593692795,0.25614102957533086,1.4272999773105737,-0.7071067736668686,-2.1570754488766374e-05,-0.00018181868315629872,0.7071067650016516,0,-1,-0.00010711351503545075,-1.57092792192568,-3.5587941304981996e-05,-1.5708444754229944,-4.7985707418263246e-05,-9.566942323857575e-05
827,1734172893,970383882,-0.00016255347980324375,0.2561410211794377,1.4272999858229556,-0.7071067744286356,-3.4214808888423183e-05,-0.0001776039983494372,0.707106764812286,0,-1,-9.519258608037262e-05,-1.57092792192568,-3.5587941304981996e-05,-1.5708320776568812,-7.135072817021637e-05,-8.374849428349762e-05
843,1734172893,986429214,-0.00016735403403953956,0.256141017099603,1.4272999857963065,-0.7071067756208732,-3.40462214792943e-05,-0.00015181012752116238,0.7071067696363768,0,-1,-0.000119511281148732,-1.570916000996725,-1.1746083394825746e-05,-1.570796314870016,-8.32716571252945e-05,-7.18275653284195e-05
859,1734172894,2401828,-0.0001942535179974155,0.2561410249679499,1.4272999802236745,-0.7071067735671195,-3.0000124222021318e-05,-0.00017338931357365833,0.707106766911219,0,-1,-0.00015527406801396637,-1.5709040800677698,-1.1746083394825746e-05,-1.570796314870016,-9.519258608037262e-05,-7.18275653284195e-05
875,1734172894,18440961,-0.00015774747354218663,0.25614102302290376,1.42729998578415,-0.7071067774177027,-8.25235032643516e-06,-0.0001435493453084566,0.7071067703363019,0,-1,-9.519258608037262e-05,-1.57092792192568,-1.1746083394825746e-05,-1.570820156727926,-7.135072817021637e-05,-7.18275653284195e-05
891,1734172894,34598588,-0.00013276464837628499,0.2561410117687578,1.4272999907720505,-0.707106777184118,8.207397136254098e-06,-0.00011798587901821532,0.707106775297947,0,-1,-9.519258608037262e-05,-1.5709527174579065,-3.5587941304981996e-05,-1.5708320776568812,-0.00010711351503545075,-8.374849428349762e-05
907,1734172894,50458192,-0.00014599757414132983,0.2561410233862381,1.4272999873161116,-0.7071067745115839,-2.123357959929306e-05,-0.00018991087785842598,0.7071067620400879,0,-1,-9.519258608037262e-05,-1.5709403196917933,1.1920928955078125e-05,-1.5708320776568812,-0.00010711351503545075,-8.374849428349762e-05
923,1734172894,66521644,-0.00011270194321101037,0.25614101703322234,1.4272999918620766,-0.7071067773112392,-4.6052448567850315e-06,-0.0001479944347588086,0.7071067695595571,0,-1,-0.000119511281148732,-1.57092792192568,-1.1746083394825746e-05,-1.570820156727926,-0.00010711351503545075,-8.374849428349762e-05
939,1734172894,82446098,-0.00017230622628192102,0.25614101738796563,1.4272999849796417,-0.707106774177944,-3.0000124006572474e-05,-0.00016462276932046807,0.7071067683956919,0,-1,-0.00014335313905888825,-1.5709403196917933,-7.18275653284195e-05,-1.570820156727926,-0.000119511281148732,-7.18275653284195e-05
955,1734172894,98579645,-0.000154724326175151,0.25614102213256484,1.4272999866511626,-0.7071067730519951,-1.2804209928468468e-05,-0.00019024805274643538,0.7071067636119208,0,-1,-0.00014335313905888825,-1.5709403196917933,-3.5587941304981996e-05,-1.570796314870016,-7.135072817021637e-05,-5.990663637334137e-05
971,1734172894,114025831,-0.0001751748663995208,0.2561410200581507,1.4272999842142589,-0.7071067753835483,-1.7524656882501332e-05,-0.00016057667193418597,0.7071067685397298,0,-1,-9.519258608037262e-05,-1.57092792192568,-1.1746083394825746e-05,-1.5708444754229944,-9.519258608037262e-05,-8.374849428349762e-05
987,1734172894,130048274,-0.00019845659912185988,0.25614102537218963,1.4272999799324035,-0.7071067735257361,-2.5785439294626837e-05,-0.00017760399839847408,0.7071067660728146,0,-1,-9.519258608037262e-05,-1.57092792192568,-4.7985707418263246e-05,-1.5708444754229944,-5.990663637334137e-05,-8.374849428349762e-05
1003,1734172894,146177291,-0.00019105732640467923,0.25614102395827343,1.4272999809163167,-0.7071067714832171,8.100626730930625e-06,-0.00017777258590713973,0.7071067684967164,0,-1,-0.00015527406801396637,-1.5709403196917933,-4.7985707418263246e-05,-1.570808235798971,-9.519258608037262e-05,-3.5587941304981996e-05
1019,1734172894,162455558,-0.00012617117447507695,0.25614101880351314,1.427299990249761,-0.7071067773291418,-4.3748402214771296e-06,-0.00014776403012759702,0.7071067695913027,0,-1,-0.00010711351503545075,-1.5709646383868616,-2.366701234990387e-05,-1.5708444754229944,-9.519258608037262e-05,-8.374849428349762e-05
1035,1734172894,178551197,-0.0001608852527444755,0.2561410233660612,1.4272999853846273,-0.7071067753630225,-2.561685192177384e-05,-0.00016900604138623691,0.7071067663489319,0,-1,-0.00014335313905888825,-1.57092792192568,-2.366701234990387e-05,-1.5708320776568812,-9.519258608037262e-05,-8.374849428349762e-05
1051,1734172894,194730520,-0.00025246206157377273,0.2561410285197032,1.4272999692387798,-0.7071067721114606,-5.562540798284777e-05,-0.0001818186829993463,0.7071067646981547,0,-1,-0.00014335313905888825,-1.5709403196917933,-4.7985707418263246e-05,-1.5708444754229944,-9.519258608037262e-05,-3.5587941304981996e-05
1067,1734172894,210884571,-0.00013478572281134643,0.25614101370511355,1.4272999900414927,-0.7071067766418891,1.2483899217613824e-05,-0.0001305681162183479,0.7071067735662251,0,-1,-8.32716571252945e-05,-1.5709040800677698,-1.1746083394825746e-05,-1.5708444754229944,-0.00010711351503545075,-7.18275653284195e-05
1083,1734172894,226402997,-0.0001529051652704619,0.25614101354396795,1.427299988435732,-0.707106775708112,-2.9831536574612077e-05,-0.00014759544277357904,0.7071067706318068,0,-1,-0.00010711351503545075,-1.5709527174579065,-5.990663637334137e-05,-1.5708444754229944,-9.519258608037262e-05,-7.18275653284195e-05
1099,1734172894,242727279,-0.00017626565567172646,0.25614101539115874,1.4272999844626895,-0.7071067728605066,-4.6858863267243325e-05,-0.00017305213885814526,0.7071067667841994,0,-1,-0.00015527406801396637,-1.57092792192568,-3.5587941304981996e-05,-1.5708563963519495,-0.00010711351503545075,-5.990663637334137e-05
1115,1734172894,258348703,-0.00017554967260541713,0.2561410177947936,1.4272999847273602,-0.7071067739845588,-4.264417850598284e-05,-0.00016883745404884222,0.7071067669457974,0,-1,-0.000119511281148732,-1.5709527174579065,-5.990663637334137e-05,-1.570808235798971,-7.135072817021637e-05,-7.18275653284195e-05
1131,1734172894,274496078,-0.00017249623371740275,0.2561410198693088,1.4272999847273602,-0.7071067746340494,-3.0000124075352424e-05,-0.00016462276927966003,0.7071067679395864,0,-1,-0.00014335313905888825,-1.5709527174579065,-7.18275653284195e-05,-1.570820156727926,-5.990663637334137e-05,-8.374849428349762e-05
1147,1734172894,290542364,-0.00020621806498041494,0.25614102914120357,1.4272999776129685,-0.7071067714801358,-4.281276605284889e-05,-0.0002030606942412343,0.7071067604402893,0,-1,-0.00014335313905888825,-1.5709403196917933,-4.7985707418263246e-05,-1.570820156727926,-0.000119511281148732,-7.18275653284195e-05
1163,1734172894,306653976,-0.0001301202089848281,0.25614101709404175,1.4272999903926422,-0.7071067738882746,-1.2972797350716576e-05,-0.0001732207262875788,0.707106767148783,0,-1,-0.00010711351503545075,-1.5709403196917933,-3.5587941304981996e-05,-1.570820156727926,-8.32716571252945e-05,-8.374849428349762e-05
1179,1734172894,322309494,-0.00018450695093499782,0.2561410208170403,1.4272999827403063,-0.707106771811356,-2.1570754433187602e-05,-0.0001818186832339969,0.7071067668571642,0,-1,-0.00010711351503545075,-1.5709403196917933,0.0,-1.570808235798971,-0.000119511281148732,-5.990663637334137e-05
1195,1734172894,338359832,-0.0001784996134741866,0.2561410203030977,1.427299983818957,-0.7071067728913724,-1.7356069663472356e-05,-0.00016883745410973568,0.7071067691118718,0,-1,-9.519258608037262e-05,-1.5709403196917933,-5.990663637334137e-05,-1.570796314870016,-0.00010711351503545075,-5.990663637334137e-05
1211,1734172894,354503393,-0.00017942100947608908,0.25614102550802903,1.4272999824936212,-0.7071067730717218,-4.543427867129052e-06,-0.00017322072627631098,0.7071067680697404,0,-1,-0.00014335313905888825,-1.5709527174579065,0.0,-1.5708320776568812,-7.135072817021637e-05,-5.990663637334137e-05
1227,1734172894,370729446,-0.00017837923874633221,0.2561410303699149,1.4272999817588137,-0.7071067726294767,-4.5434277835697415e-06,-0.00019884600962713592,0.7071067617702063,0,-1,-0.00014335313905888825,-1.5709040800677698,-4.7985707418263246e-05,-1.5708320776568812,-7.135072817021637e-05,-7.18275653284195e-05
1243,1734172894,386829376,-0.00021240883829129896,0.25614102366780234,1.4272999780316533,-0.7071067711086914,-1.3141384808553974e-05,-0.00018181868325560315,0.7071067677667291,0,-1,-0.00013143221010381012,-1.57092792192568,-4.7985707418263246e-05,-1.5708320776568812,-8.32716571252945e-05,-4.7985707418263246e-05
1259,1734172894,402399063,-0.0001889486412847423,0.25614102153350815,1.4272999821762944,-0.7071067725159499,-3.8766668540167136e-05,-0.00018181868315109425,0.7071067654189066,0,-1,-9.519258608037262e-05,-1.5709527174579065,-5.990663637334137e-05,-1.570808235798971,-0.00013143221010381012,-7.18275653284195e-05
1275,1734172894,418531894,-0.00015031962605168393,0.25614102179434817,1.4272999872205052,-0.7071067747923045,-3.9056017454276693e-07,-0.00016063848917329077,0.707106769333987,0,-1,-9.519258608037262e-05,-1.5709527174579065,-5.990663637334137e-05,-1.5708320776568812,-0.00010711351503545075,-8.374849428349762e-05
1291,1734172894,434723138,-0.00019263450052952124,0.25614102745396156,1.4272999799662087,-0.7071067731949444,-3.016871167321298e-05,-0.0001819872704722799,0.7071067651156475,0,-1,-0.00013143221010381012,-1.5709403196917933,-3.5587941304981996e-05,-1.5708563963519495,-0.000119511281148732,-8.374849428349762e-05
1307,1734172894,450835227,-0.00017590323875941796,0.2561410252549348,1.4272999831230282,-0.7071067739180834,-3.0000124169507495e-05,-0.00018181868309952818,0.7071067644430504,0,-1,-0.00010711351503545075,-1.5709527174579065,-3.5587941304981996e-05,-1.5708444754229944,-8.32716571252945e-05,-5.990663637334137e-05
1323,1734172894,466684103,-0.00019592373188729377,0.25614101981922643,1.4272999813107967,-0.7071067762408606,-2.5954026595539585e-05,-0.00014371793273445553,0.7071067710507386,0,-1,-0.000119511281148732,-1.57092792192568,-3.5587941304981996e-05,-1.5708320776568812,-9.519258608037262e-05,-5.990663637334137e-05
1339,1734172894,482839584,-0.00010859863976758771,0.256141019873576,1.4272999914163234,-0.7071067777248157,3.992712296919916e-06,-0.00016468458644586318,0.7071067654595543,0,-1,-0.000119511281148732,-1.5709403196917933,-2.366701234990387e-05,-1.570808235798971,-0.00010711351503545075,-5.990663637334137e-05
1355,1734172894,498460531,-0.00016588357822655894,0.2561410286703656,1.4272999837664324,-0.7071067742042525,-1.7187482232401858e-05,-0.00019429414999369858,0.7071067612665219,0,-1,-0.000119511281148732,-1.570916000996725,-1.1746083394825746e-05,-1.5708320776568812,-0.000119511281148732,-9.566942323857575e-05
1371,1734172894,514690637,-0.00019082648959636397,0.25614102421960266,1.4272999815035246,-0.707106771146373,-2.578543929388126e-05,-0.0001947999122776355,0.7071067639239892,0,-1,-9.519258608037262e-05,-1.5709527174579065,-4.7985707418263246e-05,-1.5708444754229944,-7.135072817021637e-05,-4.7985707418263246e-05
1387,1734172894,531140089,-0.0001558733605665112,0.2561410225242878,1.4272999862161948,-0.7071067747144648,-1.2804209975376899e-05,-0.00017305213885817676,0.7071067663669444,0,-1,-9.519258608037262e-05,-1.57092792192568,1.1920928955078125e-05,-1.5708444754229944,-9.519258608037262e-05,-7.18275653284195e-05
1403,1734172894,546912431,-0.00019852820410137182,0.25614102274265815,1.4272999799602726,-0.7071067730388939,-5.545682045962709e-05,-0.00018165009564264557,0.7071067638272922,0,-1,-0.00014335313905888825,-1.5709527174579065,0.0,-1.5708563963519495,-9.519258608037262e-05,-3.5587941304981996e-05
1419,1734172894,562888145,-0.00014004524045508896,0.256141018280195,1.4272999889078315,-0.7071067753796648,-1.6015537009780572e-07,-0.00016040808456699678,0.7071067687990216,0,-1,-9.519258608037262e-05,-1.5709403196917933,-4.7985707418263246e-05,-1.5708563963519495,-9.519258608037262e-05,-5.990663637334137e-05
1435,1734172894,578622579,-0.00017303398962341545,0.2561410297806391,1.4272999824412302,-0.7071067743407436,-8.926700007154188e-06,-0.0001860333679053985,0.7071067635041604,0,-1,-0.00013143221010381012,-1.570916000996725,-2.366701234990387e-05,-1.5708320776568812,-0.000119511281148732,-8.374849428349762e-05
1451,1734172894,594555854,-0.0001636230487033725,0.2561410235428464,1.427299985167452,-0.7071067749790952,-1.741788677149165e-05,-0.00017766581563104645,0.7071067648595496,0,-1,-0.00013143221010381012,-1.570916000996725,-4.7985707418263246e-05,-1.570808235798971,-9.519258608037262e-05,-7.18275653284195e-05
1467,1734172894,610829830,-0.00021354619009455628,0.2561410242663139,1.4272999773359398,-0.7071067719695912,-5.141072306582215e-05,-0.0001860333678343659,0.7071067640627321,0,-1,-9.519258608037262e-05,-1.5709403196917933,-1.1746083394825746e-05,-1.5708320776568812,-9.519258608037262e-05,-5.990663637334137e-05
1483,1734172894,627054929,-0.00019882314010995892,0.2561410200952286,1.4272999804316202,-0.7071067742511895,-4.7027450775325753e-05,-0.00016479135662039054,0.7071067673557545,0,-1,-0.00014335313905888825,-1.5709403196917933,-3.5587941304981996e-05,-1.5708444754229944,-9.519258608037262e-05,-5.990663637334137e-05
1499,1734172894,642797470,-0.0001150287178740886,0.2561410169152833,1.4272999917818827,-0.7071067746917891,-5.338519395734494e-08,-0.00017749722829931954,0.7071067654037164,0,-1,-0.00013143221010381012,-1.57092792192568,-2.366701234990387e-05,-1.570796314870016,-9.519258608037262e-05,-4.7985707418263246e-05
1515,1734172894,658414602,-0.00017783931377817982,0.2561410154110216,1.4272999849962718,-0.7071067722503642,-3.4383396257493356e-05,-0.0001690060415003518,0.7071067690896556,0,-1,-0.00013143221010381012,-1.5709527174579065,-1.1746083394825746e-05,-1.570820156727926,-4.7985707418263246e-05,-4.7985707418263246e-05
1531,1734172894,674776792,-0.00017479816876237692,0.25614102490043883,1.4272999836148699,-0.7071067722826329,-2.173934192384773e-05,-0.00019041664009391006,0.7071067641176549,0,-1,-0.00013143221010381012,-1.5709527174579065,-4.7985707418263246e-05,-1.5708320776568812,-7.135072817021637e-05,-8.374849428349762e-05
1547,1734172894,690587759,-0.00018221004213409301,0.25614102374213266,1.4272999823821413,-0.7071067761197711,-4.24755912287978e-05,-0.00016091384652013884,0.7071067666682748,0,-1,-0.000119511281148732,-1.57092792192568,-4.7985707418263246e-05,-1.570808235798971,-9.519258608037262e-05,-8.374849428349762e-05
1563,1734172894,706842660,-0.0001957158187101116,0.25614102225836427,1.427299980915606,-0.7071067727587225,-3.438339634595113e-05,-0.0001774354110006331,0.7071067665163454,0,-1,-0.00013143221010381012,-1.57092792192568,-7.18275653284195e-05,-1.5708320776568812,-9.519258608037262e-05,-3.5587941304981996e-05
1579,1734172894,722581386,-0.00019954677950082,0.25614102815320344,1.427299978684647,-0.7071067734156536,-1.3141384801965115e-05,-0.00018181868320285696,0.7071067654597669,0,-1,-0.00010711351503545075,-1.570916000996725,-5.990663637334137e-05,-1.5708444754229944,-9.519258608037262e-05,-7.18275653284195e-05
1595,1734172894,738833904,-0.00015185682662359124,0.2561410156243838,1.4272999879896164,-0.7071067761119648,-2.9831536628565087e-05,-0.00014759544273985323,0.707106770227954,0,-1,-0.000119511281148732,-1.5709765593158167,-2.366701234990387e-05,-1.570820156727926,-0.000119511281148732,-8.374849428349762e-05
1611,1734172894,754642248,-0.00016030605095145321,0.2561410208127687,1.427299986049146,-0.7071067742243782,-1.7018894837912026e-05,-0.000168837454090044,0.7071067677870615,0,-1,-0.00013143221010381012,-1.5709527174579065,-1.1746083394825746e-05,-1.5708320776568812,-7.135072817021637e-05,-8.374849428349762e-05
1627,1734172894,770720243,-0.00014472182075727651,0.2561410191333267,1.4272999882519926,-0.7071067769260257,-1.280420990946724e-05,-0.00014776403013123086,0.7071067698920236,0,-1,-0.000119511281148732,-1.5709403196917933,-1.1746083394825746e-05,-1.5708563963519495,-0.00013143221010381012,-5.990663637334137e-05
1643,1734172894,786679029,-0.00017650969262681095,0.2561410223706767,1.4272999835417552,-0.7071067691049502,-2.5616852006223203e-05,-0.0002030606943963844,0.7071067636475343,0,-1,-0.00013143221010381012,-1.57092792192568,-2.366701234990387e-05,-1.5708444754229944,-9.519258608037262e-05,-8.374849428349762e-05
1659,1734172894,802365779,-0.0002340511656446293,0.25614102020305396,1.4272999746609667,-0.7071067698429743,-5.9840092653924744e-05,-0.000186033367868124,0.7071067655262424,0,-1,-0.00010711351503545075,-1.5709403196917933,-5.990663637334137e-05,-1.570796314870016,-0.00010711351503545075,-7.18275653284195e-05
1675,1734172894,818678379,-0.00014571743228195834,0.25614102344415485,1.4272999872698768,-0.7071067757816086,-1.701889476007555e-05,-0.00017726682355631338,0.707106764166889,0,-1,-9.519258608037262e-05,-1.57092792192568,-4.7985707418263246e-05,-1.5708444754229944,-0.000119511281148732,-8.374849428349762e-05
1691,1734172894,834391593,-0.00016458957068349995,0.2561410167514731,1.4272999863236309,-0.7071067762012276,-1.3141384688352596e-05,-0.00013933466057869718,0.7071067723218774,0,-1,-9.519258608037262e-05,-1.5709403196917933,-1.1746083394825746e-05,-1.570796314870016,-0.00010711351503545075,-9.566942323857575e-05
1707,1734172894,850716829,-0.00019859154402981834,0.2561410252771387,1.4272999797519208,-0.7071067722826329,-2.1739341923847735e-05,-0.00018198727058187805,0.7071067663373553,0,-1,-0.000119511281148732,-1.5709403196917933,-5.990663637334137e-05,-1.5708320776568812,-0.00013143221010381012,-4.7985707418263246e-05
1723,1734172894,866451263,-0.00011982040675867049,0.25614101952248075,1.4272999907616721,-0.7071067750654132,2.1081856101827003e-05,-0.00015602481239559879,0.7071067697797868,0,-1,-0.00013143221010381012,-1.5709040800677698,-3.5587941304981996e-05,-1.570808235798971,-8.32716571252945e-05,-4.7985707418263246e-05
1739,1734172894,882772684,-0.00016419812656094773,0.25614102116673737,1.427299985488153,-0.7071067748852747,-5.59147448655004e-07,-0.0001608070765946977,0.7071067692025843,0,-1,-0.00014335313905888825,-1.57092792192568,-4.7985707418263246e-05,-1.5708444754229944,-8.32716571252945e-05,-9.566942323857575e-05
1755,1734172894,898725271,-0.00018731537860824864,0.2561410212473853,1.4272999818600587,-0.7071067711572034,-3.842949376863634e-05,-0.00018991087791618412,0.7071067646690045,0,-1,-0.00015527406801396637,-1.57092792192568,0.0,-1.5708320776568812,-0.00010711351503545075,-8.374849428349762e-05
1771,1734172894,914751529,-0.00017597728802336626,0.25614101990339816,1.4272999842225167,-0.7071067722002016,-2.5616851776689722e-05,-0.00018586478060946245,0.7071067652813628,0,-1,-0.00013143221010381012,-1.57092792192568,-5.990663637334137e-05,-1.5708563963519495,-0.000119511281148732,-5.990663637334137e-05
1787,1734172894,930179357,-0.00011212274131284128,0.25614101505431963,1.4272999923107081,-0.7071067763172418,1.259066927471078e-05,-0.0001392278904485926,0.7071067722369144,0,-1,-0.00015527406801396637,-1.5709527174579065,-5.990663637334137e-05,-1.5708320776568812,-9.519258608037262e-05,-7.18275653284195e-05
1803,1734172894,946794509,-0.00016755776576026497,0.2561410264769593,1.427299983934139,-0.7071067748027209,4.054529274318796e-06,-0.00016462276932046807,0.7071067683956919,0,-1,-0.00013143221010381012,-1.5709403196917933,-7.18275653284195e-05,-1.570808235798971,-7.135072817021637e-05,-8.374849428349762e-05
1819,1734172894,962414503,-0.0001528653250237738,0.25614101798008715,1.4272999874948789,-0.7071067769752082,-3.8260906326325116e-05,-0.00014793261743392458,0.7071067688883884,0,-1,-0.00010711351503545075,-1.5709040800677698,-2.366701234990387e-05,-1.570808235798971,-0.00010711351503545075,-7.18275653284195e-05
1835,1734172894,978855609,-0.00019721825292870476,0.2561410252241933,1.427299979474277,-0.7071067731681067,-3.421480890344986e-05,-0.00018603336790766394,0.7071067639053671,0,-1,-0.00013143221010381012,-1.5709403196917933,-0.0001557509051721695,-1.5708320776568812,-2.366701234990387e-05,-7.18275653284195e-05
1851,1734172894,994058132,-0.00031599227376793586,0.2561410274176831,1.4272999449016783,-0.7071067722372882,-0.000131135499617682,-0.00017306919798885218,0.7071067567960988,0,-1,-0.00010711351503545075,-1.570916000996725,-0.0003469626056116226,-1.5707357565509241,0.00016777915880084038,-5.990663637334137e-05
1867,1734172895,10411500,-0.0005657379093137979,0.25614100851313437,1.427299813156749,-0.7071067765747662,-0.0003301446986573719,-0.00010960425238124073,0.7071067002323126,0,-1,0.0,-1.5708921591388147,-0.0008619467364709976,-1.5706160704242151,0.000562884088139981,3.5952674807049334e-05
1883,1734172895,26732683,-0.0010424568877674602,0.2561409515118954,1.4272993180898879,-0.7071068300031322,-0.0006392294254802248,-3.6700581150724235e-06,0.7071064434264432,0,-1,5.992112710373476e-05,-1.5709040800677698,-0.0017479101764124039,-1.5704000631915491,0.0012459849240258336,0.00028762139845639467
1899,1734172895,42540550,-0.0018465247208106271,0.2561406474031115,1.4272978795770157,-0.7071069317717671,-0.0011683224954227296,0.00011921422268717961,0.7071056553661789,0,-1,0.00022732577053830028,-1.570916000996725,-0.0029338041888635757,-1.5701125303851526,0.0021919896826148033,0.0006108210072852671
1915,1734172895,59186935,-0.0029634027921298604,0.25613964452552207,1.4272945163867001,-0.7071072414774351,-0.0018874998676916674,0.000373763302396222,0.707103702928655,0,-1,0.00045465154107660055,-1.5709527174579065,-0.004646126423970998,-1.5697286764727991,0.003545458195731044,0.0010422531049698591
1931,1734172895,74540376,-0.004597717293348542,0.25613751998153983,1.4272868132884835,-0.7071078751089004,-0.0029336384304810073,0.0005640396421992466,0.7070993767383882,0,-1,0.0007179299718700349,-1.5710485617267054,-0.006896797810689748,-1.5692971388446253,0.005306015722453594,0.001628731144592166
1947,1734172895,90809345,-0.006598111252598427,0.2561336210625492,1.4272729680952156,-0.7071091302320935,-0.004232890392208905,0.000865301815239049,0.7070912330344001,0,-1,0.0010411295806989074,-1.5711563269244593,-0.009651009236470998,-1.5687220732318323,0.007498379796743393,0.0023238160647451878
1963,1734172895,106545925,-0.00916422282611577,0.25612609191118724,1.4272487106959248,-0.7071112879086033,-0.0058798089000228985,0.0012510215446258459,0.7070767209466242,0,-1,0.001364329131320119,-1.571371857319967,-0.012823883687154591,-1.5680859724627894,0.010181723162531853,0.003173947101458907
1979,1734172895,122867107,-0.012091170774710731,0.25611541093727375,1.4272108905198961,-0.7071148029309258,-0.007746386858364908,0.0016367810003268608,0.7070544320733416,0,-1,0.0018433236982673407,-1.571587864552633,-0.016607586537496388,-1.567366902028219,0.013199500739574432,0.004119951743632555
1995,1734172895,138568401,-0.015514294038863136,0.2560995979984756,1.4271541198933968,-0.7071202425773344,-0.009896773508934927,0.002060567706252468,0.7070210537687068,0,-1,0.0022979751229286194,-1.571911636983053,-0.020762268696920216,-1.5665157477008265,0.01662549003958702,0.005246094428002834
2011,1734172895,154874324,-0.019240342972848448,0.25607671332314536,1.4270768461882717,-0.7071270468197598,-0.01226300371886628,0.0025733148889523815,0.7069754850390771,0,-1,0.002932015573605895,-1.5721996466266077,-0.02519256273378545,-1.565580193196432,0.020302776247262955,0.006383472587913275
2027,1734172895,170595884,-0.023221794457835895,0.25604558440924213,1.4269757739657023,-0.7071360421727314,-0.014802449075890017,0.0031661482639581896,0.7069154693927777,0,-1,0.003446962684392929,-1.5725114981280726,-0.03005391756166631,-1.5645130316363733,0.024243712425231934,0.007593130227178335
2043,1734172895,186847925,-0.027501101963948536,0.25600704000094987,1.4268468460234176,-0.707147147724071,-0.01751095898627586,0.0037252540761448824,0.7068397274228155,0,-1,0.0041173305362463,-1.5728948752032679,-0.03514272371401006,-1.56348163286318,0.028364039957523346,0.008862708695232868
2059,1734172895,202569484,-0.03195311054756278,0.25595974896537343,1.4266892761599186,-0.7071605832641211,-0.02037115967116555,0.004335106568350809,0.7067461582366338,0,-1,0.004715417977422476,-1.573219124470846,-0.04047090211977178,-1.5624030272113245,0.03268809616565704,0.010155881755053997
2075,1734172895,218923568,-0.03658848106593624,0.2559025445990416,1.4265006441834522,-0.7071765485819709,-0.023303088181158924,0.004939940098552199,0.7066356148742683,0,-1,0.0054097543470561504,-1.573566738759176,-0.045894924794332326,-1.5611794630633753,0.037012532353401184,0.011617207899689674
2091,1734172895,234697818,-0.041181999369787566,0.25583516599141976,1.4262889220268264,-0.7071950229422885,-0.02618749656633273,0.0056761587371907795,0.7065105772536137,0,-1,0.00611607450991869,-1.573890511189596,-0.051379028950826466,-1.5599444548236292,0.04157627373933792,0.013006255030632019
2107,1734172895,250627040,-0.04584549712246959,0.25576148018142864,1.426047102912443,-0.7072169117466774,-0.029147667839848384,0.006403307989041043,0.7063665131118457,0,-1,0.00679805176332593,-1.574214283620016,-0.05687410036195928,-1.558709446583883,0.0461040623486042,0.014419644139707088
2123,1734172895,266709089,-0.05042820182017692,0.25567987519419794,1.425781188727208,-0.7072417315558441,-0.03208236203010264,0.007155317897630595,0.7062072334791287,0,-1,0.007468044757843018,-1.5745022932635706,-0.062357727681295216,-1.5574629942523401,0.050703760236501694,0.015964485704898834
2139,1734172895,282531261,-0.05506033439369084,0.2555929913551177,1.4254887873993907,-0.7072704312977065,-0.03501991970233029,0.007877740593074275,0.7060312198756842,0,-1,0.008102459833025932,-1.574789826069967,-0.06785375276674444,-1.5562756697284144,0.05520758032798767,0.0174733754247427
2155,1734172895,298685550,-0.05954410772315141,0.2554957177685449,1.4251799645146368,-0.7072996120163519,-0.03789746751360698,0.008633029169623885,0.7058445378445097,0,-1,0.008724890649318695,-1.5751021544085901,-0.07319385210146123,-1.5551484266864222,0.059663839638233185,0.018886389210820198
2171,1734172895,314511060,-0.06395081454355374,0.255397978209448,1.4248550822536992,-0.7073316588446736,-0.040706692487855224,0.009362789247562491,0.7056466734565162,0,-1,0.00929938443005085,-1.5753658453570765,-0.07831842104067022,-1.5540216604815882,0.06396392732858658,0.020275810733437538
2187,1734172895,330664634,-0.06820253371758224,0.25529544109615326,1.42451774671174,-0.707363797644954,-0.043409686822206195,0.010044990915270079,0.7054439418046048,0,-1,0.009873878210783005,-1.575653378163473,-0.0833352247821253,-1.552906338368551,0.06809661537408829,0.021629279479384422
2203,1734172895,346520423,-0.07233129544661493,0.25519256207572605,1.424167565374042,-0.7073974116260131,-0.046056927029394255,0.010646795405359922,0.7052335125651805,0,-1,0.010447997599840164,-1.5758932272540491,-0.08823186555971319,-1.5518391768084925,0.07212144136428833,0.022886499762535095
2219,1734172895,362337827,-0.0763660425650235,0.25508428431612246,1.4238056189610386,-0.7074312441493606,-0.04861831368740252,0.01122246888036667,0.7050186880982022,0,-1,0.010986912995576859,-1.5761449972735804,-0.09296113649477178,-1.5508320967303675,0.07595489919185638,0.02412012591958046
2235,1734172895,378472566,-0.08015566824347717,0.25497412985480533,1.4234458741317402,-0.707465365536972,-0.05108675911619636,0.01184887647057269,0.7047996195622038,0,-1,0.011525453999638557,-1.5763371626483362,-0.09759456316103154,-1.5498250166522425,0.07968011498451233,0.025233909487724304
2251,1734172895,394295454,-0.08396499924434161,0.2548618787557273,1.4230686506264065,-0.7074996853529666,-0.05350345462802632,0.012356061967763978,0.7045771095493869,0,-1,0.0120280422270298,-1.5766013304339808,-0.10196477571596319,-1.548878018056051,0.0832735151052475,0.026419973000884056
2267,1734172895,410683870,-0.08754347014728181,0.25475217486173946,1.4226974260185652,-0.7075357013872913,-0.055780658156057136,0.012892731107217503,0.7043546882946601,0,-1,0.012530631385743618,-1.5768287817584437,-0.10625106493105108,-1.547966782246725,0.08679575473070145,0.027545366436243057
2283,1734172895,426429748,-0.09112983827830429,0.2546391802769709,1.4223098300737065,-0.7075732543139117,-0.05805196137722122,0.013407557440784154,0.7041237795752605,0,-1,0.013057188130915165,-1.5770567099200647,-0.1105731169330042,-1.54698354402651,0.09032922238111496,0.0286471676081419
2299,1734172895,442591905,-0.09469515359396197,0.2545136407837967,1.4219086299527692,-0.7076089145616397,-0.0603778520142696,0.013985453844694021,0.7038810596257005,0,-1,0.013572135008871555,-1.5772607962237757,-0.11493140855898076,-1.5460241476642054,0.09386344999074936,0.029748966917395592
2315,1734172895,458427190,-0.09833313597828153,0.25438348450116,1.4214836372864261,-0.7076484970658923,-0.06267749999261059,0.014554367366473555,0.7036286705255989,0,-1,0.014110676012933254,-1.5774763266192835,-0.11949283281435186,-1.5450170675860804,0.09752874821424484,0.030922671779990196
2331,1734172895,474730014,-0.10211665898492236,0.25424466389866307,1.421024928256718,-0.7076897558718973,-0.06509408736111864,0.015130633190891885,0.7033555524511341,0,-1,0.01466082688421011,-1.5776680151568812,-0.12407809892763311,-1.5439861456500452,0.10129030048847198,0.03213232755661011
2347,1734172895,490379095,-0.10598624262380164,0.2540956602116621,1.4205349004034384,-0.7077347319177935,-0.06761519297145537,0.015701519663559586,0.7030598816579827,0,-1,0.01523569505661726,-1.5779441038714808,-0.12887937227358037,-1.5429790655719202,0.10515932738780975,0.033377937972545624
2363,1734172895,506573677,-0.11001636785299576,0.25393767023389086,1.420008205447495,-0.7077840284328651,-0.07017674241041856,0.016288927911290666,0.7027458037921732,0,-1,0.01582217402756214,-1.5782559553729456,-0.13378793398012334,-1.5419352690326136,0.10917254537343979,0.034623175859451294
2379,1734172895,522298336,-0.11423512001752607,0.25376382435040806,1.4194386736636553,-0.7078356429011322,-0.07288829230140066,0.016874760505065388,0.7024039022827414,0,-1,0.016408277675509453,-1.578615967427389,-0.13878041902651006,-1.5409167448626917,0.11325766891241074,0.03588077053427696
2395,1734172895,538556814,-0.11850913241423394,0.25358425118771344,1.418839091681739,-0.7078910112680296,-0.07559477263099434,0.01742891527085274,0.7020484167272769,0,-1,0.017078643664717674,-1.578951660786764,-0.14388066927065069,-1.5398734251605433,0.11735440045595169,0.03719828650355339
2411,1734172895,554373979,-0.12289866334671547,0.253390517675656,1.4182010093803818,-0.70794733381031,-0.07839622722267671,0.01799536957191238,0.7016699870894394,0,-1,0.01772504299879074,-1.5792754332171839,-0.14907628694643194,-1.5387948195086878,0.12161929160356522,0.03850344195961952
2427,1734172895,570760011,-0.1272966599120993,0.2531791322293494,1.4175404192782592,-0.7080011833610337,-0.0812297709418995,0.018594454129991132,0.7012776161747287,0,-1,0.01835908368229866,-1.5795872847186487,-0.15436822572817022,-1.5376670996295374,0.1258598268032074,0.03986889496445656
2443,1734172895,586374998,-0.13170865417310876,0.2529736743117225,1.4168475080022094,-0.7080628396606703,-0.08406995351467064,0.019175172548164747,0.7008648733996141,0,-1,0.018981514498591423,-1.5798991362201136,-0.15963584581484014,-1.5366480986224573,0.13008876144886017,0.04110252112150192
2459,1734172895,602573633,-0.13611631185294384,0.2527535086707403,1.416133761084336,-0.7081259672682496,-0.08690809128126181,0.019797015378920053,0.7004374892396469,0,-1,0.019603945314884186,-1.5802825132953089,-0.1648796240435999,-1.53550893465151,0.1344131976366043,0.0423956960439682
2475,1734172895,618395805,-0.14053314270396824,0.2525241420366856,1.4153949444631257,-0.7081893992262657,-0.08974871466856252,0.020422168300612137,0.6999970557657963,0,-1,0.02027393877506256,-1.580606762562887,-0.17006332079042608,-1.5343459288226526,0.13882189989089966,0.04377313330769539
2491,1734172895,634584903,-0.14489880244581163,0.2523008486854298,1.414638555677794,-0.7082627635826859,-0.09254485611843136,0.021070829066619026,0.6995393680777948,0,-1,0.02087240107357502,-1.5809186140643519,-0.17531949678529912,-1.5332310835467737,0.1431223601102829,0.04517453536391258
2507,1734172895,650414943,-0.14920350153474207,0.2520633246246369,1.4138654080473032,-0.7083337443773363,-0.09535225891417759,0.021756543211789117,0.6990693142484652,0,-1,0.02153078466653824,-1.581170384083883,-0.1806109587298792,-1.5320799986468714,0.14744716882705688,0.04653961583971977
2523,1734172895,666559219,-0.15361425590746752,0.2518120338978041,1.4130538133990278,-0.708409750921089,-0.09814847617950445,0.022423586449846673,0.6985840566419249,0,-1,0.02217680960893631,-1.581482235585348,-0.18592626253236944,-1.5309765974627894,0.15178395807743073,0.048000942915678024
2539,1734172895,682421207,-0.15800461475471123,0.25156784998582815,1.4122155450661236,-0.7084912154702362,-0.10093416585475204,0.023055499111465066,0.6980837598207208,0,-1,0.022763287648558617,-1.5817940870868128,-0.19125396410097295,-1.5297778288470667,0.15607281029224396,0.04943792521953583
2555,1734172895,698709011,-0.16239949246516716,0.25131414657441337,1.411361879026469,-0.7085700675091291,-0.10365527584664595,0.023631727224003994,0.6975855393338327,0,-1,0.023397700861096382,-1.5821417013751429,-0.19643766084779912,-1.5286510626422327,0.16026541590690613,0.05076742544770241
2571,1734172895,714331150,-0.16663151375171026,0.25105288891797045,1.4105142983248093,-0.7086507248750475,-0.10633689408780526,0.024295169106255107,0.6970770114183418,0,-1,0.024007773026823997,-1.5824773947345179,-0.2015016714679163,-1.5275357405291956,0.16438686847686768,0.05210890993475914
2587,1734172895,730491161,-0.1708751884319289,0.25078557181053296,1.4096417024869032,-0.7087282110071718,-0.10905441236197057,0.02486877543628277,0.6965579674910473,0,-1,0.024582641199231148,-1.582789723073141,-0.20654231706728154,-1.5264208952533167,0.16855588555335999,0.05345001816749573
2603,1734172895,746332645,-0.17499595654572936,0.2505174056613503,1.4087702143145622,-0.7088105205972749,-0.11170282288661929,0.025542562289222914,0.6960299582356222,0,-1,0.02520507201552391,-1.5831010977374476,-0.21158200899233037,-1.525329891835348,0.17268894612789154,0.05477951839566231
2619,1734172895,762566328,-0.1790801869609558,0.2502457392195167,1.4078790261681464,-0.7088909350705767,-0.11435342739731075,0.026118381735171146,0.695496057467465,0,-1,0.02583911269903183,-1.583353344594137,-0.21669418016542608,-1.5242145697223108,0.1767980307340622,0.05606108158826828
2635,1734172895,778235912,-0.1832688473067064,0.24997077956962677,1.4069501254935297,-0.7089764022960543,-0.11701363166369456,0.026679804978107062,0.6949449323497127,0,-1,0.026413606479763985,-1.5836170355426233,-0.22169810930360967,-1.5231478849994105,0.180883526802063,0.05731867626309395
2651,1734172895,794516801,-0.18732569705941726,0.24968808010142235,1.406023237298924,-0.7090600137745648,-0.11966800473796478,0.027286599959155326,0.6943838325960054,0,-1,0.02698810026049614,-1.583905045186178,-0.2266781965838831,-1.5220807234393519,0.18496865034103394,0.058659788221120834
2667,1734172895,810716629,-0.19133882919387413,0.2494050104165334,1.4050798654551773,-0.7091514592760796,-0.12224497581578726,0.02793405723978149,0.6938155822266672,0,-1,0.027586936950683594,-1.5841682592975062,-0.23165876070131475,-1.520965878163473,0.1891140639781952,0.05994135141372681
2683,1734172895,826362133,-0.19541795547231056,0.24911459995877513,1.4041091329574864,-0.7092422541988002,-0.12486115035859337,0.02852042943720346,0.6932327914163111,0,-1,0.02820899337530136,-1.584468189870016,-0.23665029207338506,-1.519886318837301,0.19318720698356628,0.061198942363262177
2699,1734172895,842658281,-0.1995170849432282,0.2488079822279921,1.4031120878854062,-0.7093315237008185,-0.1275209655876097,0.029101167405053377,0.6926328860771352,0,-1,0.028783487156033516,-1.5847318808185022,-0.24166661897768194,-1.518855396901266,0.19728468358516693,0.06252844631671906
2715,1734172895,858460426,-0.20357687156936008,0.2484968027557568,1.4020938288546183,-0.7094231121837569,-0.1302034310216929,0.029705072063815723,0.6920141061736931,0,-1,0.029393933713436127,-1.5850079695331019,-0.24675447145570928,-1.517740551625387,0.20150163769721985,0.06380963325500488
2731,1734172895,874716520,-0.20768260676077713,0.2481809437545614,1.4010471728376166,-0.7095195684309537,-0.13286180080619556,0.030294810192188285,0.6913840816619279,0,-1,0.030004005879163742,-1.5852721373187464,-0.25183040300478154,-1.516733471547262,0.20565904676914215,0.06511516124010086
2747,1734172895,890481472,-0.2118454939200918,0.24785068605073948,1.3999627615798214,-0.7096139981458094,-0.13556023966657205,0.03082278727925003,0.6907397128017173,0,-1,0.0306024681776762,-1.5855358282672327,-0.2568581740008753,-1.5156424681292933,0.20967262983322144,0.06636077165603638
2763,1734172895,906793832,-0.21598477193730228,0.24752740832831052,1.3988640905365632,-0.7097146353337814,-0.13819685043760296,0.03135018805922501,0.6900898004106537,0,-1,0.03123725764453411,-1.5858596006976526,-0.26194602647890264,-1.5145390669452112,0.21373341977596283,0.0676782876253128
2779,1734172895,922752618,-0.2200140083382379,0.24719285418355358,1.39776673956375,-0.709816050940671,-0.14080618449777085,0.031959879105133544,0.6894297341729291,0,-1,0.03178740665316582,-1.5861471335040491,-0.2670219580279749,-1.5134123007403772,0.21783126890659332,0.06898345053195953
2795,1734172895,938413619,-0.2240794815916262,0.24684986670770848,1.3966421451757742,-0.7099164351737585,-0.14341733998855055,0.03251315098721096,0.6887619448500868,0,-1,0.03242182359099388,-1.5864470640765589,-0.2719662825213831,-1.512369457875387,0.22186845541000366,0.07025302946567535
2811,1734172895,954576015,-0.22810684995210864,0.24650960391254673,1.3955064294189665,-0.7100166252091763,-0.14602193546256056,0.03304439789377759,0.6880857897516685,0,-1,0.03299631550908089,-1.586686913167135,-0.277017895375387,-1.511266056691305,0.22594234347343445,0.07153458893299103
2827,1734172895,970376968,-0.2321388866608008,0.24615847930588405,1.3943417430809724,-0.7101203605052527,-0.14866061196966274,0.03361093334580087,0.687385918683471,0,-1,0.03359440341591835,-1.5869749228106897,-0.28204566637148076,-1.5101750532733362,0.23007577657699585,0.07278019934892654
2843,1734172895,986082553,-0.2360442765793851,0.24582141293734616,1.3931832230861212,-0.7102299971003077,-0.15125036849986415,0.034181231025963175,0.6866791978013475,0,-1,0.0341569148004055,-1.5872271696673792,-0.28700143495668584,-1.509132210408346,0.2342211902141571,0.07407337427139282
2859,1734172896,2370834,-0.24000745739643242,0.24546393147065557,1.39199601196778,-0.7103447613462786,-0.15379998513691295,0.03479442557920141,0.6859629964862515,0,-1,0.03473178297281265,-1.587454620991842,-0.2919815222369593,-1.5080531279193323,0.23827074468135834,0.07531898468732834
2875,1734172896,18561840,-0.243976952285188,0.24509759699860445,1.3907824346599476,-0.7104552027292382,-0.15639267796285655,0.03535976293675608,0.6852331153407719,0,-1,0.03534185513854027,-1.5877183119403284,-0.2969253698932093,-1.5069859663592737,0.24232028424739838,0.07667244970798492
2891,1734172896,34287452,-0.2478563716210943,0.24472617100465882,1.3895785303892951,-0.7105675263088844,-0.15897419943518082,0.03599934679532077,0.684488890705705,0,-1,0.035928331315517426,-1.588006321583883,-0.3019173781024378,-1.5059188047992151,0.24646569788455963,0.07797760516405106
2907,1734172896,50662517,-0.2518083210004115,0.2443621815356209,1.3883190766501365,-0.7106945514364488,-0.16152614580468208,0.0365683018785673,0.6837289799896941,0,-1,0.036538779735565186,-1.5882099310504358,-0.3070171515094202,-1.5048039595233362,0.25062310695648193,0.079378642141819
2923,1734172896,66415071,-0.25592565663362915,0.24395007749410566,1.3869942309121848,-0.7108145630264795,-0.16420779608495834,0.03712364195163018,0.6829350568704485,0,-1,0.03716083616018295,-1.5884979406939905,-0.3121879736529749,-1.5037968794452112,0.25475654006004333,0.08069615811109543
2939,1734172896,83029270,-0.2599716848400559,0.24355943032645977,1.3856650924716958,-0.7109353193165279,-0.16683286449410453,0.037616059229895075,0.6821457316153282,0,-1,0.03772372007369995,-1.5887616316424769,-0.31732398668398076,-1.5026820341693323,0.2588060796260834,0.0820016860961914
2955,1734172896,98712205,-0.2640328253715613,0.24315794536143076,1.3843110188133618,-0.7110601157916127,-0.169450315425513,0.038144649224614594,0.6813406549356523,0,-1,0.038333792239427567,-1.5890496412860315,-0.32237559953798467,-1.5016511122332972,0.26290392875671387,0.08337912708520889
2971,1734172896,114390611,-0.2679573972557048,0.24274482021423816,1.3829826526864795,-0.711183591292434,-0.17205692399453718,0.038746045680623245,0.68052410561717,0,-1,0.038992173969745636,-1.589409653340475,-0.3273547331439417,-1.500620190297262,0.26706135272979736,0.08468428254127502
2987,1734172896,130700349,-0.2719290073163514,0.242344305815052,1.3816231390132288,-0.7113068818406397,-0.17454527559104327,0.03919643455665139,0.6797353206454987,0,-1,0.03957865387201309,-1.589637581502096,-0.33232289949526006,-1.4995291868792933,0.27101537585258484,0.0859658420085907
3003,1734172896,146762609,-0.27584585686653723,0.24191999697184324,1.3802559208509904,-0.7114342049269777,-0.17714535211949956,0.03984421329338162,0.6788912541411981,0,-1,0.040189098566770554,-1.589961353932516,-0.3372424284564417,-1.4983895460711878,0.2751008868217468,0.08727137744426727
3019,1734172896,162492752,-0.27973196303056436,0.24149578168670038,1.3788720155322767,-0.7115579737134184,-0.17967269706736233,0.04042020408351364,0.6780628135174801,0,-1,0.04081115499138832,-1.5901888052569788,-0.34239036241640264,-1.4972508589373987,0.27922308444976807,0.0885409563779831
3035,1734172896,178177356,-0.2836758293074726,0.24107323410465356,1.3774451899929905,-0.7116941130423382,-0.1822484584543024,0.04097962192834828,0.677198390014713,0,-1,0.04134969785809517,-1.5904768149005335,-0.3473461310016077,-1.496171776448385,0.2833205759525299,0.08985809236764908
3051,1734172896,194554328,-0.28755148420248755,0.2406423480420844,1.3760109720991553,-0.7118224000241187,-0.1848181545309159,0.04151699720778711,0.6763338373337081,0,-1,0.041984111070632935,-1.5907166639911097,-0.3524096647845667,-1.4950569311725062,0.2873465120792389,0.09111569076776505
3067,1734172896,210380315,-0.29145359052601805,0.24020175270860444,1.3745555018641737,-0.7119521232008024,-0.1873720554237802,0.042056000074493165,0.6754607168250953,0,-1,0.04257059097290039,-1.590968434010641,-0.35744935670961553,-1.4939659277545374,0.29144400358200073,0.09243320673704147
3083,1734172896,226680755,-0.295406532454815,0.23976104989433994,1.3730636321406027,-0.7120903184910166,-0.18994994180735728,0.04258757461438299,0.6745611139157137,0,-1,0.04318103566765785,-1.591304127370016,-0.3623927275287073,-1.492899243031637,0.29563772678375244,0.0937267541885376
3099,1734172896,242336988,-0.2993378849690828,0.23929895690271563,1.3715504104823697,-0.7122280908334584,-0.19253648593100772,0.043119472500600275,0.6736479490834479,0,-1,0.043755531311035156,-1.5916045347796839,-0.3673966566668909,-1.4917719999896448,0.2997235953807831,0.09503190964460373
3115,1734172896,258600473,-0.30323451702210724,0.23884164864640564,1.3700301966526904,-0.7123717316467347,-0.19506595382407962,0.0437045356624043,0.6727300373640738,0,-1,0.044437509030103683,-1.591867748891012,-0.3725078741656702,-1.4906929175006312,0.3038210868835449,0.09632545709609985
3131,1734172896,274463891,-0.30718073248178795,0.23836491782188754,1.3684692137663645,-0.7125054962737719,-0.19769880508715057,0.044211199078305556,0.6717860300146448,0,-1,0.04501200094819069,-1.5922039190875452,-0.3776195685016077,-1.4896138350116175,0.3078949749469757,0.09765496104955673
3147,1734172896,290663242,-0.31110987766310627,0.23791188242428465,1.3668849454194436,-0.7126583267548561,-0.2002477485877952,0.04471145062353793,0.6708351769813706,0,-1,0.045610461384058,-1.5924914518939417,-0.3827422300921839,-1.4885228315936487,0.31204113364219666,0.09897246956825256
3163,1734172896,306376218,-0.31504869704079763,0.23743095939224595,1.3652829091949041,-0.7128023227675847,-0.20283134591046312,0.04522093086210341,0.6698711526743416,0,-1,0.04617297276854515,-1.5928033033954065,-0.38766223589052373,-1.4874799887286585,0.316150963306427,0.10024204850196838
3179,1734172896,322701454,-0.31888992864877497,0.23693981226977107,1.3636984887874162,-0.7129389976611217,-0.20537188208233156,0.045737950640722946,0.6689158508625003,0,-1,0.046795401722192764,-1.5930913130389612,-0.39265376726259404,-1.486413304005758,0.3202488422393799,0.1014876589179039
3195,1734172896,338626384,-0.32273732019788126,0.23645814669264287,1.3620885857731027,-0.7130868885558124,-0.207911124660489,0.046264991925925585,0.6679368264546394,0,-1,0.04736989736557007,-1.593403164540426,-0.39759761491884404,-1.4853580633746546,0.32435867190361023,0.10278083384037018
3211,1734172896,354392051,-0.3265824939905078,0.23597419971476646,1.3604410969251468,-0.7132359645237726,-0.21047844104664437,0.04675523922796898,0.6669387021077374,0,-1,0.04800393804907799,-1.5937030951129358,-0.40266114870180303,-1.4842432180987757,0.3284805119037628,0.10403843224048615
3227,1734172896,370635986,-0.33039575204807575,0.2354754302760446,1.3587895865309438,-0.7133831298855282,-0.21301028685082932,0.04727685282621503,0.6659399574115547,0,-1,0.048590414226055145,-1.5939911047564905,-0.40774804750551397,-1.4831283728228968,0.3325667381286621,0.10529602319002151
3243,1734172896,386328935,-0.33427395303752927,0.23497189805317675,1.3570912503130244,-0.7135372824104083,-0.2155370784993059,0.047769620772192975,0.6649258437853309,0,-1,0.04920123517513275,-1.594278637562887,-0.4127877394305628,-1.4820368925677698,0.3366406261920929,0.10655362159013748
3259,1734172896,402596235,-0.33819537738408373,0.23446935722536033,1.3553314091571929,-0.7136928742585963,-0.21810758221733711,0.048166643068628674,0.6638912096927554,0,-1,0.04977535456418991,-1.5945661703692835,-0.4179347197162073,-1.4809940497027796,0.34075048565864563,0.10789472609758377
3275,1734172896,418321847,-0.3419334149963255,0.233953673120818,1.3536458763882149,-0.7138480114659538,-0.22061834207872502,0.04874735766584232,0.6628516114373838,0,-1,0.050409771502017975,-1.5949023405658167,-0.4228780905352991,-1.4798792044269007,0.3449082374572754,0.10916393250226974
3291,1734172896,434619665,-0.34575143324919444,0.23341130043413505,1.351918837292043,-0.714004399397465,-0.22312488933417274,0.04928858701349119,0.661803321683181,0,-1,0.05103220045566559,-1.5951898733722132,-0.4278820196734827,-1.478800121937887,0.3489345610141754,0.11057732254266739
3307,1734172896,450315237,-0.3495811781412112,0.23288548097486692,1.3501529007720574,-0.7141754279489609,-0.2256165111970142,0.04980107382573556,0.6607348189970085,0,-1,0.05163028836250305,-1.5954540411578577,-0.4329569975482386,-1.4777091185199183,0.35303279757499695,0.11193078756332397
3323,1734172896,466621637,-0.3534404439188583,0.23235162173368726,1.348335802051975,-0.7143449298783542,-0.22814424475701237,0.05027731411110463,0.6596466602864861,0,-1,0.05221676826477051,-1.595825497304098,-0.43802053133119756,-1.4766300360309046,0.35715463757514954,0.11323632299900055
3339,1734172896,482312679,-0.35725140158892976,0.2318048408072992,1.3465142239128354,-0.7145111526541077,-0.23069235018747986,0.05076723794611308,0.6585419803241083,0,-1,0.05281522870063782,-1.5960658232318323,-0.44314366975893194,-1.475550953541891,0.36125287413597107,0.11461375653743744
3355,1734172896,498636722,-0.36094999475545897,0.23127434092070298,1.3447159433198466,-0.7146778792377528,-0.23314505729562493,0.05124517824576859,0.6574593849762943,0,-1,0.05344964563846588,-1.596377197896139,-0.4481704870807093,-1.4745081106769007,0.3653627038002014,0.11587098240852356
3371,1734172896,514494419,-0.36473666796452836,0.23071678928443612,1.3428796279962765,-0.7148415859726704,-0.23568952488273368,0.05172577497459533,0.6563355841548635,0,-1,0.05408405885100365,-1.596689526234762,-0.4530904928790491,-1.4735010305987757,0.36952123045921326,0.11715254187583923
3387,1734172896,530789613,-0.3684088338651576,0.23015465769937027,1.3410663390594288,-0.7150056577540508,-0.23817792644249558,0.05227670082203489,0.6552139584032178,0,-1,0.05469413101673126,-1.5969889799701136,-0.4579857031451624,-1.4724462668048304,0.37361907958984375,0.11849402636289597
3403,1734172896,546801567,-0.3721477358485703,0.22960136333365871,1.3391870347632309,-0.7151710083002327,-0.24071346070021102,0.05271079889781409,0.6540711202951178,0,-1,0.05530457943677902,-1.5972407499896448,-0.4630492369281214,-1.4713433424579065,0.3777652382850647,0.11972765624523163
3419,1734172896,562500000,-0.3758223018106393,0.22904815510170612,1.3373034472019354,-0.715349560181433,-0.24316236405398445,0.053175333586612895,0.6529314323524794,0,-1,0.05589105561375618,-1.5975044409381312,-0.4681008497821253,-1.470300022755758,0.38182753324508667,0.12105715274810791
3435,1734172896,578760862,-0.37948555673559226,0.22847948397186188,1.3354139686383069,-0.7155182377737487,-0.2456367863405669,0.05365915175373048,0.6517798064089573,0,-1,0.05648914352059364,-1.5977681318866175,-0.4730919043170374,-1.4692452589618128,0.3858894407749176,0.12230276316404343
3451,1734172896,594752550,-0.3831765905782672,0.22790782552594413,1.3334776742995116,-0.7156920624491463,-0.2481216138100241,0.05411313658434439,0.6506091798895867,0,-1,0.05706401169300079,-1.598044220601217,-0.4782026449786585,-1.468142334614889,0.3899880349636078,0.12361990660429001
3467,1734172896,610324621,-0.386826695514796,0.22734377647795134,1.3315406983384754,-0.7158724094756514,-0.25055310413057447,0.054557090415182134,0.6494408050372938,0,-1,0.0576624758541584,-1.5983322302447718,-0.48322993913759404,-1.46702748933901,0.3940623104572296,0.12492543458938599
3483,1734172896,626555442,-0.3904821877969458,0.2267438802044356,1.329595639643075,-0.7160397511893885,-0.25302300262447347,0.055064390130324076,0.6482548478793736,0,-1,0.058320481330156326,-1.5986197630511683,-0.48822194734682256,-1.4659364859210413,0.398172527551651,0.1262189894914627
3499,1734172896,642264366,-0.39412873494114053,0.2261715110005447,1.327605358437947,-0.7162303057339526,-0.2554514696464077,0.05551680811788312,0.6470522234102448,0,-1,0.058871008455753326,-1.5989320913897913,-0.4932368437396448,-1.4648221174823206,0.4022711217403412,0.12750054895877838
3515,1734172896,658554315,-0.3977331926303985,0.22560449676975175,1.3256117887932672,-0.7164182027288284,-0.25788743463503344,0.055956120805532104,0.645838944629815,0,-1,0.05946984514594078,-1.5991595427142542,-0.49833614030946904,-1.4637067953692835,0.4063693583011627,0.12876975536346436
3531,1734172896,674582481,-0.4013635677916325,0.2250072480580395,1.3235948201717227,-0.7166028960228543,-0.2603236773235824,0.056428398704992375,0.6446143872548734,0,-1,0.06003198027610779,-1.5994237104998987,-0.50342303911318,-1.462639633809225,0.4104076623916626,0.13009925186634064
3547,1734172896,690552473,-0.40495136601955206,0.22440936300065423,1.3215553135427518,-0.7167857868470264,-0.262759618662904,0.05685101643026473,0.6433843956027068,0,-1,0.06059449166059494,-1.5996630827533167,-0.5084622542010706,-1.461536709462301,0.414517879486084,0.13139241933822632
3563,1734172896,706747531,-0.4085552059458829,0.22379819208777568,1.3194998886389822,-0.7169691528432468,-0.26520623796272674,0.05729518401259455,0.6421356142637297,0,-1,0.061216920614242554,-1.5999391714679163,-0.5134180227862757,-1.4604581038104456,0.4186883866786957,0.13265001773834229
3579,1734172896,722512245,-0.4120923596331834,0.22319787297596863,1.3174629689323614,-0.7171536317126781,-0.2676244753829038,0.05777308609349924,0.6408822662709392,0,-1,0.06179104000329971,-1.600227181111471,-0.5183971563922327,-1.459390942250387,0.4228345453739166,0.1338956356048584
3595,1734172896,738736629,-0.41557161013719274,0.22259520563836283,1.3154278756495512,-0.7173368061563423,-0.27005845314760724,0.05823474922077431,0.6396132053046851,0,-1,0.06235392391681671,-1.6005027929889124,-0.5233162085162562,-1.4582398573504847,0.4268728494644165,0.13515321910381317
3611,1734172896,754473209,-0.4190696773198447,0.22197993087758464,1.313350080016877,-0.7175266671033985,-0.2724428865971675,0.058687110257604924,0.6383464409141038,0,-1,0.06294040381908417,-1.6007311979876917,-0.528391186391012,-1.4571731726275843,0.43097183108329773,0.13645875453948975
3627,1734172896,770317792,-0.4225964641341504,0.22136002154553924,1.3112216198758653,-0.7177230062793349,-0.2748552898422016,0.05913027493585746,0.6370493438416863,0,-1,0.06352650374174118,-1.600994888936178,-0.5335143248187464,-1.4561179319964808,0.4351060092449188,0.13772833347320557
3643,1734172896,786517858,-0.4261815067194414,0.22071636543897644,1.3090587679309362,-0.7179232741201353,-0.2772853971600971,0.059557023949209136,0.6357294565274646,0,-1,0.06412496417760849,-1.601246182118551,-0.5385654608355921,-1.4550274054156702,0.4391922652721405,0.1390698254108429
3659,1734172896,802286386,-0.4296510056493078,0.2200921115047963,1.3069102920301365,-0.7181215063897387,-0.27965665073003193,0.05996934711591871,0.6344267784145652,0,-1,0.0647357851266861,-1.6015222708331507,-0.5435803572284144,-1.4539721647845667,0.4432433247566223,0.14037497341632843
3675,1734172896,818497419,-0.43316422149923717,0.21944377553561076,1.3047545567648826,-0.7183215124016253,-0.2820226629654588,0.060417116149864766,0.6331091489396172,0,-1,0.06539379805326462,-1.6018222014056605,-0.5485237280475062,-1.4529174009906214,0.4473535120487213,0.14178836345672607
3691,1734172896,834190607,-0.4366228223429871,0.21880481054380513,1.3025965446378989,-0.7185325179169589,-0.2843807559135478,0.06089524720638496,0.6317676592147051,0,-1,0.06602821499109268,-1.6020978132831019,-0.5535748640643519,-1.4518144766436976,0.45151203870773315,0.14316579699516296
3707,1734172896,850562572,-0.44014775614050117,0.21813209962084207,1.3003651697997833,-0.7187336981209809,-0.2867827765164544,0.06133302069255186,0.6304092090472501,0,-1,0.0666143149137497,-1.6024096647845667,-0.5586021582232874,-1.4507353941546839,0.4555507302284241,0.14444737136363983
3723,1734172896,866826057,-0.44362480099671325,0.21747887831275314,1.2981278838845107,-0.7189373714724385,-0.2891557065149607,0.0617374739553352,0.6290520786069695,0,-1,0.06722476333379745,-1.6026371161090296,-0.5637486616717737,-1.4496443907367151,0.4596613347530365,0.14580045640468597
3739,1734172896,882500886,-0.4470901897937022,0.21682596633754897,1.2958638250860957,-0.7191519227851221,-0.2915207494246288,0.062127242058645366,0.627675370238112,0,-1,0.06781124323606491,-1.6029017607318323,-0.5687997976886194,-1.4485777060138147,0.4638078808784485,0.1470700353384018
3755,1734172896,898813009,-0.4505813991398203,0.21613629186046207,1.293579732179168,-0.7193534606823266,-0.2939411825138326,0.06254974305166487,0.6262720730408636,0,-1,0.06843329966068268,-1.6032012144671839,-0.5738747755633753,-1.4474628607379358,0.46794241666793823,0.14844709634780884
3771,1734172896,914442777,-0.45396568486209365,0.21546453773443086,1.2913304946475739,-0.7195572363145841,-0.29632077772559373,0.06297700232383965,0.6248722089625367,0,-1,0.0690796971321106,-1.6035011450396937,-0.5787223021136683,-1.4464200178729456,0.47202906012535095,0.1497046947479248
3787,1734172896,930706501,-0.45731853293081637,0.21479712190282949,1.2890897165982416,-0.719761979917457,-0.2986310720288438,0.0634247960965582,0.6234897515792186,0,-1,0.0696905180811882,-1.6037886778460901,-0.5837252775775355,-1.4452927748309534,0.47612765431404114,0.15095029771327972
3803,1734172896,946442842,-0.46079500925118516,0.21409813353618928,1.2867527565386079,-0.7199657246903332,-0.30103493846090845,0.06380338301989359,0.6220582363510486,0,-1,0.07030058652162552,-1.6041010061847132,-0.5887287298785608,-1.444214169179098,0.48022663593292236,0.15229178965091705
3819,1734172896,962702274,-0.4641184341283784,0.21344238633481022,1.2844566901834382,-0.7201943456634989,-0.3033160522626595,0.0642365681025648,0.6206392996197749,0,-1,0.07085111737251282,-1.604316536580221,-0.5938752333270472,-1.4431708494769495,0.48437318205833435,0.15356136858463287
3835,1734172896,978424549,-0.4675666821505267,0.21275696603534508,1.282058043079776,-0.7204020741235301,-0.30574536526025603,0.06451674353389164,0.6191754299261,0,-1,0.07144957780838013,-1.6046040693866175,-0.5988662878619593,-1.4421284834491175,0.4884238541126251,0.15484292805194855
3851,1734172896,994710683,-0.47093618768540285,0.21204417255857833,1.279681654335028,-0.7206053291356991,-0.308105965625859,0.06491532583161988,0.6177254034270911,0,-1,0.07203567773103714,-1.604868237172262,-0.6039889494525355,-1.441073242818014,0.49249884486198425,0.15614846348762512
3867,1734172897,10431528,-0.47425817482011773,0.21139033944407382,1.2773051693380133,-0.7208362871389434,-0.31041899540720796,0.06524159146439767,0.616261818691792,0,-1,0.07262253016233444,-1.605192009602682,-0.6089203993426722,-1.4400542418109339,0.49666935205459595,0.15746597945690155
3883,1734172897,26719331,-0.4776508593200349,0.2106610342918654,1.2749074649788306,-0.7210537178208828,-0.3127942524907809,0.06565223660691465,0.6147609905108864,0,-1,0.0732206180691719,-1.60551625887026,-0.6138871351825159,-1.4389756361590784,0.5008043050765991,0.15872357785701752
3899,1734172897,42413234,-0.48093479733965655,0.2099562311065322,1.2725267935318214,-0.7212691092287435,-0.315078452525638,0.06605407824802667,0.6132970728555842,0,-1,0.07381908595561981,-1.6058157126056116,-0.6189382711993616,-1.437897030507223,0.5049028992652893,0.16001637279987335
3915,1734172897,58722972,-0.4842728100609412,0.20925204904712635,1.2700907266863388,-0.7214875954299371,-0.3174045347528236,0.06639695478331938,0.6118018105192015,0,-1,0.07438158988952637,-1.6061156431781214,-0.6240008513080042,-1.4368651548968714,0.5090134739875793,0.16134586930274963
3931,1734172897,74471950,-0.48757162933352005,0.20856198133792614,1.2676132313817874,-0.7217231375221818,-0.3196972817009892,0.06674248940985356,0.6102907511551454,0,-1,0.07498005777597427,-1.6063554922686976,-0.6291597525226038,-1.4357026259051722,0.5131723880767822,0.1626274287700653
3947,1734172897,90839147,-0.4908810960461816,0.2078294247596531,1.265127421269765,-0.7219440875611601,-0.3220442696738821,0.06711019443956118,0.6087531885813693,0,-1,0.07559049874544144,-1.6066072622882288,-0.6341632048236292,-1.4346120993243616,0.5173073410987854,0.16390900313854218
3963,1734172897,106719017,-0.49418628383409274,0.20712384827284117,1.262622354276226,-0.7221630990416507,-0.32436757981824266,0.06740192375763758,0.6072257506226039,0,-1,0.07616499811410904,-1.6069548765765589,-0.6391776243792933,-1.4335444609271448,0.5213580131530762,0.165178582072258
3979,1734172897,122845172,-0.49742618743843237,0.20638672316938905,1.2601595986038334,-0.7223767408465966,-0.3266200892895035,0.06777283407326998,0.6057210616430988,0,-1,0.07682300359010696,-1.607302490864889,-0.6440733114825647,-1.432406250630514,0.525456964969635,0.1664002239704132
3995,1734172897,138536453,-0.500602699648045,0.2056641311747539,1.2577107692000271,-0.7225942105031582,-0.3288735918999448,0.06814159433771172,0.6041990488400828,0,-1,0.07740948349237442,-1.607614819203512,-0.6489923636065882,-1.4313152472125452,0.5295559763908386,0.16771773993968964
4011,1734172897,154655218,-0.5038740580653739,0.20491206714016058,1.2551865748567121,-0.7228178571895374,-0.3311449088821278,0.06848675511798662,0.6026499473349198,0,-1,0.07803191244602203,-1.6078904310809534,-0.6540787855731409,-1.4302004019366663,0.5335115194320679,0.1689753234386444
4027,1734172897,170429468,-0.507090728685173,0.2041782244868664,1.2526256513943994,-0.7230485903233459,-0.333392992431667,0.06879611501247587,0.6010964508197256,0,-1,0.07864198088645935,-1.6082022825824183,-0.6591780821429651,-1.4291213194476526,0.5375621318817139,0.17028085887432098
4043,1734172897,186502218,-0.5102971484801898,0.2034366212420553,1.2500495870180233,-0.7232844575805039,-0.33566646926539534,0.06911103602642824,0.599509198872489,0,-1,0.07927677035331726,-1.6084778944598597,-0.6642525831805628,-1.428042236958639,0.5416611433029175,0.1715983748435974
4059,1734172897,202369451,-0.513549195050071,0.20266067462555992,1.2474451674110303,-0.7235239874909648,-0.33792895562580544,0.06947893807702181,0.5979044552756871,0,-1,0.07986287772655487,-1.6087783018695276,-0.6692193190204065,-1.4269397894488733,0.5458679795265198,0.17298780381679535
4075,1734172897,218639612,-0.5167508783603999,0.20188169926644503,1.244842102916444,-0.7237599245656605,-0.3402194408840166,0.06982949693263411,0.5962769029531598,0,-1,0.08050927519798279,-1.6091373602496546,-0.6742585341082972,-1.4258607069598597,0.5500508546829224,0.1743524968624115
4091,1734172897,234320878,-0.5199093371145328,0.20113247242899512,1.242244738003646,-0.7240102390882036,-0.34244387208654,0.07017606549947629,0.5946567816790063,0,-1,0.08111972361803055,-1.6094253698932093,-0.679213825856344,-1.4248178640948694,0.5541622042655945,0.17565803229808807
4107,1734172897,250522613,-0.5230136187420229,0.2003694996016358,1.2396428572147258,-0.7242391926462037,-0.34469880644115164,0.07052299778453593,0.5930318975035852,0,-1,0.08171781152486801,-1.6097257773028772,-0.6842520872699183,-1.4237869421588343,0.5583210587501526,0.1769515722990036
4123,1734172897,266653776,-0.5261622646181197,0.1996170439890643,1.2369781810349383,-0.7244893210238597,-0.34694724451700515,0.07081052851666648,0.5913786454511478,0,-1,0.08234024047851562,-1.6099651495562952,-0.6893633047686976,-1.422732178364889,0.5623485445976257,0.17825710773468018
4139,1734172897,282748937,-0.5292957080958278,0.1988306032819387,1.2342837374814881,-0.7247236240613932,-0.3492127530945359,0.07110558646379292,0.589720372191003,0,-1,0.08291473239660263,-1.61025315919985,-0.6944735685931605,-1.4216049353228968,0.5664351582527161,0.1795506626367569
4155,1734172897,298746585,-0.5323892611661596,0.19805969439783705,1.2316040726197537,-0.7249634658140399,-0.3514193020067609,0.07137493965690896,0.5880799821460928,0,-1,0.08351320028305054,-1.6105406920062464,-0.6994646231280726,-1.4205144087420862,0.570522129535675,0.18080824613571167
4171,1734172897,314429044,-0.535395450954199,0.1973059685142151,1.2289612423168466,-0.7251939298025749,-0.3536265727610506,0.07166968414552989,0.5864345381960817,0,-1,0.0840996727347374,-1.610804859791891,-0.7044675985919397,-1.4193995634662073,0.5746694207191467,0.18205386400222778
4187,1734172897,330743551,-0.5384335217568728,0.1965358947044069,1.2263174945663118,-0.7254387998293206,-0.3557651536986852,0.07198903486823807,0.5847967869052337,0,-1,0.08469776064157486,-1.6110804716693323,-0.7093990484820765,-1.4183085600482386,0.5787328481674194,0.18340733647346497
4203,1734172897,346439361,-0.5414034233860037,0.1957576119216319,1.223659206323175,-0.7256860464732786,-0.3579146969003716,0.07233017858363747,0.5831339271237412,0,-1,0.08529660105705261,-1.6113560835467737,-0.7144134680377405,-1.4171698729144495,0.5827602744102478,0.18471285700798035
4219,1734172897,362796306,-0.5443747512342049,0.19501431217027443,1.220954267667322,-0.7259343453237755,-0.36006094681079226,0.07258723497358187,0.5814692891115982,0,-1,0.08585911244153976,-1.6116440931903284,-0.7194646040545862,-1.4161389509784144,0.5868353247642517,0.18604199588298798
4235,1734172897,378522157,-0.547413143409805,0.19422133725548235,1.2181897978297194,-0.7261969390889947,-0.3622634774882271,0.0728933821709268,0.5797324670670039,0,-1,0.08648116886615753,-1.6118958632098597,-0.7245033423053187,-1.4150603453265589,0.59098219871521,0.18732355535030365
4251,1734172897,394956111,-0.5503689723219826,0.1934225472423784,1.2154332984949157,-0.7264366205067162,-0.36445660227819204,0.07316605593827323,0.578020717363188,0,-1,0.08704367280006409,-1.612136189137594,-0.7295902411090296,-1.413933579121725,0.5951294898986816,0.18864107131958008
4267,1734172897,410713672,-0.553318753220521,0.1926518546506378,1.2126835963585676,-0.7266921501033473,-0.36659895856689156,0.07343345405061065,0.5763082945629374,0,-1,0.08771366626024246,-1.6124356428729456,-0.7344854513751429,-1.4129021803485315,0.5992767810821533,0.18992263078689575
4283,1734172897,426925897,-0.5562314766132482,0.1918243754745046,1.209954065181371,-0.7269281867142958,-0.3687908247046869,0.07375734386659968,0.5745681797660283,0,-1,0.08831212669610977,-1.6127117315875452,-0.7394402662860315,-1.411799732838766,0.6033282279968262,0.19121618568897247
4299,1734172897,442466020,-0.5590977449874179,0.19106275968169611,1.2072135696709387,-0.7271991329208111,-0.3708789414685519,0.07406548756199031,0.5728390135165303,0,-1,0.08886303007602692,-1.6129635016070765,-0.7444189230548304,-1.4107330481158655,0.6074755191802979,0.1924857646226883
4315,1734172897,458616256,-0.5620584481042852,0.1902375013791959,1.2043794657046616,-0.7274394914653454,-0.37306286686337314,0.07430649052318151,0.5710818059529205,0,-1,0.08944912999868393,-1.6132391134845179,-0.7495177427874964,-1.4097374121295374,0.6115748882293701,0.19380326569080353
4331,1734172897,474533796,-0.5649625976986983,0.18942824296100164,1.2015277501871273,-0.7276875206840611,-0.37522970190068905,0.07450070302728291,0.5693181784385993,0,-1,0.09003560990095139,-1.613467041646139,-0.754676644002096,-1.4086349646197718,0.6156262755393982,0.1950369030237198
4347,1734172897,490782737,-0.5678895688581983,0.18862315460654056,1.1986368713013307,-0.7279398069771295,-0.3774022589776574,0.07468284458748287,0.5675329462339458,0,-1,0.090658038854599,-1.6137431303607386,-0.7597511450396937,-1.4075921217547815,0.6197971701622009,0.196258544921875
4363,1734172897,506585836,-0.5706979787072083,0.18780705701006356,1.1958311972443703,-0.7281899246462596,-0.37953397545790074,0.07497068791964716,0.5657497601145327,0,-1,0.09129208326339722,-1.614030663167135,-0.7647302786456507,-1.4065611998187464,0.6239328384399414,0.19756369292736053
4379,1734172897,522698640,-0.5735548667202952,0.186972992178698,1.192980819002736,-0.7284381405978089,-0.3816595208639723,0.0752096127430877,0.5639657787555238,0,-1,0.09190290421247482,-1.6143186728106897,-0.7696250120746058,-1.4054587523089808,0.6279723048210144,0.19886885583400726
4395,1734172897,538900136,-0.576395740919195,0.18612817878850835,1.1901352961245326,-0.7286918063861743,-0.383761968717431,0.07547501239535762,0.5621730384638671,0,-1,0.09250099211931229,-1.6146066824542444,-0.7746284643756312,-1.4043553511248987,0.6320356726646423,0.2001863718032837
4411,1734172897,555026292,-0.579171573964028,0.18531296285603266,1.1872670286852374,-0.7289551719236386,-0.3858261173193647,0.07572328614395635,0.560382501917755,0,-1,0.09311144053936005,-1.6148584524737757,-0.7796786467181605,-1.403240982686178,0.6361470222473145,0.20147991180419922
4427,1734172897,570623159,-0.5819245828493147,0.1845094523445336,1.1843972592360574,-0.7292233085009372,-0.3878922225153154,0.07600748258551444,0.5585658892575599,0,-1,0.0936979129910469,-1.615134064351217,-0.7847541014300745,-1.402137581502096,0.6403785943984985,0.2028333842754364
4443,1734172897,586702585,-0.5847440268036059,0.183676221159332,1.1814271985931124,-0.7295013977772159,-0.38998489969020644,0.07623602124521431,0.5567113773935353,0,-1,0.09433232992887497,-1.615350071583883,-0.7898286024676722,-1.4010112921344202,0.6444060206413269,0.2042587548494339
4459,1734172897,602378845,-0.5874674704687703,0.18287299596806228,1.1785108008730742,-0.7297879775317485,-0.39193604623755174,0.07638498084016851,0.554942319716061,0,-1,0.09490682184696198,-1.6156380812274378,-0.7947953383075159,-1.3999560515033167,0.6483739018440247,0.20561222732067108
4475,1734172897,618767499,-0.5902164636826402,0.18206363712419538,1.1755808384501443,-0.7300724389953714,-0.3940155789727048,0.0766650656159777,0.5530537271009497,0,-1,0.09549330174922943,-1.6159375349627894,-0.7997263113604944,-1.3988898436175745,0.6524852514266968,0.20696532726287842
4491,1734172897,634715795,-0.5928963752596803,0.18120132004049774,1.1727082125564163,-0.7303380857840094,-0.3960170603190115,0.07695171607212992,0.5512306248596783,0,-1,0.09610337764024734,-1.616225544606344,-0.8047412077533167,-1.3977740446673792,0.6565007567405701,0.2082468867301941
4507,1734172897,650278329,-0.5955958869457061,0.180405972493412,1.1697485294419767,-0.7306167799741818,-0.3980058952337071,0.07710301082558349,0.5494047268644523,0,-1,0.0966658815741539,-1.6165130774127405,-0.809756104146139,-1.3966839949237269,0.6605644822120667,0.20956440269947052
4523,1734172897,666464805,-0.5983065868946746,0.17957799056779755,1.166731494830754,-0.7308832255924478,-0.4000704838271768,0.07725644226018631,0.5475260365016136,0,-1,0.09725236147642136,-1.6167648474322718,-0.8148430029498499,-1.3956173102008265,0.6646279096603394,0.2108699381351471
4539,1734172897,682604074,-0.6009926674828332,0.17873565119613427,1.1637046632298227,-0.7311601268644361,-0.4021103114205308,0.07741372499581124,0.545636583739707,0,-1,0.09782685339450836,-1.6170652548419397,-0.8199651877032679,-1.3945263067828577,0.6687759160995483,0.21213951706886292
4555,1734172897,698518514,-0.6036802013032151,0.1778612601191104,1.1606692011355815,-0.7314204326317167,-0.40419640046956007,0.07760791465408438,0.5437153962868143,0,-1,0.09843730181455612,-1.6173647085772913,-0.8250277678119105,-1.3934834639178675,0.6728752851486206,0.21338512003421783
4571,1734172897,714693784,-0.6063289824761255,0.17701501765760191,1.157653720552575,-0.731698444218556,-0.40620036251097486,0.0777663658393087,0.5418219675947478,0,-1,0.09905935823917389,-1.617664639149801,-0.8299830595599573,-1.392404858266012,0.6769630312919617,0.21476255357265472
4587,1734172897,730411767,-0.6089687510056755,0.1761672940940872,1.154643319222639,-0.7319687155199948,-0.40822072645175156,0.07794961024235443,0.5399087851278939,0,-1,0.09959827363491058,-1.617976490651266,-0.8348901907550257,-1.3913615385638636,0.6811582446098328,0.21605610847473145
4603,1734172897,746589422,-0.611617171072263,0.17532347089171818,1.1516030904523604,-0.7322461936591409,-0.4102406802857262,0.07815719895588133,0.5379679807960464,0,-1,0.1002083495259285,-1.6182645002948206,-0.8398454825030726,-1.390259091054098,0.685270369052887,0.21731331944465637
4619,1734172897,762540340,-0.6141998937356614,0.1744230281059716,1.1485418753529546,-0.7325089719236284,-0.41226872366593625,0.07835367276086491,0.536027804785472,0,-1,0.10090268403291702,-1.6185157934771937,-0.8449557463275355,-1.389179531727926,0.6893817186355591,0.2185828983783722
4635,1734172897,778135299,-0.6167871172959363,0.1735552344596548,1.1454532346335018,-0.7327892315927778,-0.41424832765583447,0.07852434016850243,0.5340900608484602,0,-1,0.10146519541740417,-1.618791405354635,-0.8500178495990198,-1.3880532423602503,0.6934694647789001,0.21993637084960938
4651,1734172897,794292449,-0.6193515687961977,0.17269496721618227,1.14234486563282,-0.7330652285763951,-0.41622597056779176,0.07865563127057927,0.5321509219634633,0,-1,0.10206328332424164,-1.619103733693258,-0.8552010695086878,-1.3869388739215296,0.6975452303886414,0.22121793031692505
4667,1734172897,810387611,-0.6219704289337209,0.1717993246516184,1.139195987710369,-0.7333295692663483,-0.4182664292404576,0.07875972786802056,0.5301677491853165,0,-1,0.1026737242937088,-1.6194880644427698,-0.8600838820086878,-1.385859791432516,0.7016808986663818,0.2224515676498413
4683,1734172897,826560974,-0.6244692497906692,0.17094185055659536,1.136145127018633,-0.7336059118073934,-0.4201930198467575,0.0789505716871801,0.5282300630062368,0,-1,0.10329615324735641,-1.6197994391070765,-0.8649914900409144,-1.3847807089435022,0.7056251764297485,0.2238050252199173
4699,1734172897,842723846,-0.6269974281044484,0.17007465553550832,1.1330336084427557,-0.7338885074350769,-0.4221148561341879,0.07908112273374769,0.5262821324277491,0,-1,0.10393057018518448,-1.6200993696795862,-0.8700059095965784,-1.3836777845965784,0.7097249031066895,0.22509858012199402
4715,1734172897,858712673,-0.629511132575755,0.16919807282101712,1.1298740315351736,-0.7341751994062884,-0.4240796494003336,0.07920703455130854,0.5242799569112045,0,-1,0.10450506210327148,-1.6203988234149378,-0.8750570456134241,-1.3825872580157679,0.7138006687164307,0.22632022202014923
4731,1734172897,874285221,-0.6320034279337361,0.16833544516274704,1.1267025676553537,-0.7344465836344235,-0.4260469287563631,0.07930298166234243,0.5222865759182946,0,-1,0.10512711852788925,-1.6206868330584925,-0.8802512327777308,-1.3815086523639124,0.718008279800415,0.22761376202106476
4747,1734172897,890587091,-0.6345212386659401,0.16742382813617165,1.1234536380345923,-0.7347081366316744,-0.42807132943618365,0.07933425458405689,0.5202547135120864,0,-1,0.1057019904255867,-1.6209505240069788,-0.8853376547442835,-1.3805015722857874,0.722072422504425,0.22884702682495117
4763,1734172897,906889915,-0.6369605563276468,0.16653354079366184,1.120279766212355,-0.7349897690241398,-0.4300177297179097,0.07946742972274348,0.5182274782094798,0,-1,0.10633602738380432,-1.6212862173663538,-0.8902447859393519,-1.3794224897967737,0.7261601686477661,0.23012858629226685
4779,1734172897,922536373,-0.6393757159816046,0.16566618610926187,1.117113580482949,-0.7352714373427797,-0.4319434155584142,0.07957017899686211,0.5162067277729157,0,-1,0.10689853876829147,-1.6216099897967737,-0.8951996008502405,-1.3783324400531214,0.7303078174591064,0.23139816522598267
4795,1734172897,938374757,-0.6417606511132641,0.1647891861606442,1.1139700400451553,-0.7355589349344099,-0.4338424223134656,0.07971042319769736,0.514179009949828,0,-1,0.10753295570611954,-1.6219103972064417,-0.9001548925982874,-1.377253834401266,0.7344434857368469,0.23265576362609863
4811,1734172897,954531908,-0.6441392150668528,0.1638945524578297,1.1107692777685478,-0.7358531278116458,-0.4357398588502832,0.07983262558257737,0.5121305513163071,0,-1,0.10805913805961609,-1.6221378485309046,-0.9052532354937952,-1.3762100378619593,0.7385072708129883,0.23403319716453552
4827,1734172897,970649003,-0.6464634142462489,0.1630047649395539,1.107568774878897,-0.7361393449207204,-0.43762619803694286,0.07993024660823818,0.5100914930956696,0,-1,0.10865797102451324,-1.6224258581744593,-0.9102805296527308,-1.3751433531390589,0.742655336856842,0.23539865016937256
4843,1734172897,986798048,-0.6487896720539209,0.16215307483266156,1.104340655426044,-0.7364618159909431,-0.43946242936750735,0.08003537956839693,0.5080266772316918,0,-1,0.1092444509267807,-1.622629467641012,-0.9153788725482386,-1.374005142842428,0.7467913627624512,0.2367757111787796
4859,1734172898,2884387,-0.6511156571946922,0.16123039951902016,1.101078963736135,-0.7367483881359559,-0.4413515283264459,0.0801389316268493,0.505952954987604,0,-1,0.10985452681779861,-1.6229413191424769,-0.9203937689410608,-1.3729622999774378,0.7509274482727051,0.23808124661445618
4875,1734172898,18742799,-0.6534095281346476,0.16036703414929873,1.097843957736741,-0.7370545443517093,-0.4432042651124856,0.0802135137025443,0.5038713826524458,0,-1,0.11047695577144623,-1.6232531706439417,-0.9253605047809046,-1.371871296559469,0.7549552321434021,0.23938676714897156
4891,1734172898,34661054,-0.6556671357181311,0.1594678380771457,1.0946148206099806,-0.7373541923697313,-0.4450206860229867,0.0803379083973542,0.501807935848717,0,-1,0.11107541620731354,-1.6235292593585413,-0.9303877989398401,-1.370744530354635,0.7590673565864563,0.24071627855300903
4907,1734172898,50729274,-0.6579491667864822,0.15856165495029878,1.0913497466149427,-0.7376342530116239,-0.44687912569449517,0.08041778669993234,0.4997276612163784,0,-1,0.11169784516096115,-1.623864475880758,-0.9353907744037073,-1.3696416060077112,0.7631914019584656,0.24200981855392456
4923,1734172898,66730976,-0.6602407423975929,0.15763408855435662,1.0880127081345234,-0.7379200166399437,-0.44876974159209887,0.08044490687562807,0.4976026376851691,0,-1,0.11230829358100891,-1.6240924040423792,-0.9405611197101038,-1.368575398121969,0.7672915458679199,0.24325543642044067
4939,1734172898,82269430,-0.6624436879965672,0.1567219528953011,1.084713506196139,-0.7382018065289444,-0.45061675454645134,0.08050185265542682,0.4955018517407075,0,-1,0.11290638148784637,-1.624357048665182,-0.9456957022296351,-1.3674967924701136,0.7713676691055298,0.24453699588775635
4955,1734172898,98400592,-0.6646547912077342,0.15585127226589343,1.0813806912846249,-0.738517756645237,-0.4524229063820361,0.08052067735081779,0.49337760125433683,0,-1,0.11354079842567444,-1.624608341847555,-0.950698200856344,-1.366429630910055,0.7754557728767395,0.24584214389324188
4971,1734172898,114572763,-0.6668477041775832,0.15491607483935269,1.0780901119710002,-0.7387954911391019,-0.45425811908744507,0.08058601007994105,0.49126029607028626,0,-1,0.11413925886154175,-1.624932591115133,-0.9556177298175257,-1.3653863112079065,0.7795558571815491,0.24720759689807892
4987,1734172898,130457639,-0.6689604009829435,0.15402748235346628,1.0748456845787273,-0.7390992796757703,-0.4560078000420384,0.08067244527408064,0.48916367164485786,0,-1,0.11473771929740906,-1.6251962820636194,-0.9604771772967737,-1.364283863698141,0.7835724353790283,0.2484891712665558
5003,1734172898,146145105,-0.6710379546053041,0.15307828087195396,1.071635767477729,-0.7393779957629933,-0.4577682061093617,0.08079009304751097,0.48707433695719415,0,-1,0.11532382667064667,-1.6254118124591272,-0.9655035177813929,-1.3631814161883753,0.7876601815223694,0.24978308379650116
5019,1734172898,162414550,-0.6731121949514575,0.15219405409679515,1.0683055529269745,-0.7396878327306452,-0.45952894492597623,0.08081889785833889,0.4849364542230494,0,-1,0.11593427509069443,-1.6256516615497034,-0.9706023375140589,-1.362138573323385,0.7917723059654236,0.2511245608329773
5035,1734172898,178108692,-0.6752129009338327,0.15130533685506492,1.0649305375493225,-0.7399980689697303,-0.46131722687883137,0.08083996141178572,0.48275684847015476,0,-1,0.1165926530957222,-1.6258915106402796,-0.9757126013385218,-1.3610475699054163,0.7959566712379456,0.25243011116981506
5051,1734172898,194424629,-0.6772657284334351,0.15035727345645747,1.0615744865075745,-0.7402691145248248,-0.46313756215454005,0.08087830126070004,0.4805870753436517,0,-1,0.11721470952033997,-1.6261070410357874,-0.9807637373553675,-1.359980885182516,0.8000567555427551,0.2537236511707306
5067,1734172898,210171937,-0.6793490418210446,0.14943303154306192,1.0582159294406979,-0.7405772922072036,-0.4649034085509117,0.08090554308623076,0.4783977300141717,0,-1,0.11778958141803741,-1.6264074484454554,-0.9856708685504358,-1.3589142004596155,0.804169237613678,0.25499284267425537
5083,1734172898,226476430,-0.6813758047967138,0.14853506159971971,1.0549166792998697,-0.7408761609239142,-0.46663580913147856,0.08097140294972131,0.47623226236281657,0,-1,0.11843560636043549,-1.6267073790179651,-0.9906018416034144,-1.3577635923968714,0.8083052635192871,0.25625044107437134
5099,1734172898,242168903,-0.6833883611946274,0.14757416191715597,1.051589140900132,-0.741155248866888,-0.4683787030573134,0.08105115133343872,0.4740685588255504,0,-1,0.11898612976074219,-1.62701923051943,-0.9956525007831019,-1.356684986745016,0.8124776482582092,0.2575799524784088
5115,1734172898,258482456,-0.685402718043241,0.14665618187454899,1.0481684964463505,-0.7414486199825685,-0.4701436003455386,0.08103072121732464,0.47186116729296473,0,-1,0.1196085587143898,-1.6272829214679163,-1.0006797949420374,-1.3556178251849573,0.8165417909622192,0.25876563787460327
5131,1734172898,274254798,-0.6873988212801441,0.1457563583871866,1.044714047304914,-0.7417504556475202,-0.4718802191993605,0.08097827287430809,0.4696571511191477,0,-1,0.12020664662122726,-1.6274870077716272,-1.0059102217303675,-1.3545149008380335,0.8206303119659424,0.26009514927864075
5147,1734172898,290539979,-0.68936928120731,0.14486139789196728,1.041252668485973,-0.7420599060962659,-0.4736214794200421,0.08090704246811953,0.4674225502427472,0,-1,0.12075755000114441,-1.6277983824359339,-1.0109489599811,-1.353436295186178,0.824790358543396,0.2613767087459564
5163,1734172898,306387901,-0.6913469469000084,0.14392850792064088,1.0378070434941116,-0.7423578010709818,-0.47534836962151855,0.08089597940348264,0.4651931461270384,0,-1,0.12139158695936203,-1.6280863920794886,-1.015940014516012,-1.3523219267474573,0.8288432359695435,0.2626582682132721
5179,1734172898,322648048,-0.6932302837355102,0.14304931501944354,1.0344614791035673,-0.742670122911532,-0.4769857806176582,0.08090817609242355,0.4630113612693868,0,-1,0.12191814184188843,-1.6283982435809534,-1.0208471457110804,-1.351255242024557,0.8329193592071533,0.2639993727207184
5195,1734172898,338391542,-0.695200892749847,0.14212992449173747,1.0310085026111941,-0.7429913334291357,-0.478650377971895,0.08087782557628942,0.46077811519928763,0,-1,0.12254095077514648,-1.6286619345294397,-1.0257661978351038,-1.350152317677633,0.8370554447174072,0.26528093218803406
5211,1734172898,354768037,-0.6970286271134108,0.14121501537767,1.0276189480869156,-0.7432924462024121,-0.4803196571319876,0.08087331076534443,0.458550841234531,0,-1,0.1231510192155838,-1.6289737860309046,-1.0308650175677698,-1.3491094748126429,0.841228187084198,0.26661044359207153
5227,1734172898,370518207,-0.6989172504613297,0.14027940069012854,1.0241253055028472,-0.7436194121660427,-0.48198337983442313,0.08083980219100378,0.456275265377091,0,-1,0.12368956208229065,-1.6291897932635706,-1.035999600087301,-1.3480666319476526,0.8452563881874084,0.2679522931575775
5243,1734172898,386800289,-0.7007646904501215,0.1393660569171328,1.0206137940866427,-0.7439344497348082,-0.48364402963436126,0.08075632848863581,0.4540136589419317,0,-1,0.12428802251815796,-1.6294296423541468,-1.0411580244647425,-1.346976105366842,0.8493572473526001,0.26931774616241455
5259,1734172898,402537822,-0.7026370381885008,0.13846028606091582,1.0170615304805601,-0.7442517319766769,-0.4853198389712904,0.08063770457854634,0.45172068134069354,0,-1,0.12495839595794678,-1.6298015753375452,-1.0461614767657679,-1.3459332625018519,0.8534932732582092,0.2706109285354614
5275,1734172898,418923377,-0.704445358421554,0.137543688040768,1.0136268206538093,-0.7445727801639493,-0.4869276918215074,0.08060791759281404,0.44946096782441114,0,-1,0.12544900178909302,-1.630124870930807,-1.0511282126056116,-1.3448784987079065,0.8576180934906006,0.27188050746917725
5291,1734172898,434478521,-0.7062548342402822,0.13660582628862078,1.0101637737276947,-0.7448540892142146,-0.4885940554655472,0.08055195027965252,0.4471908072073228,0,-1,0.12610700726509094,-1.6304128805743616,-1.056000057850973,-1.3438118139850062,0.8616942763328552,0.2731620669364929
5307,1734172898,450907707,-0.7080646432488213,0.13564865187571423,1.0066667162817275,-0.745159612375309,-0.4902260379320726,0.08049526936683112,0.44490009600770214,0,-1,0.12670546770095825,-1.630700413380758,-1.0610507170306605,-1.3426850477801722,0.8657951354980469,0.27443164587020874
5323,1734172898,466404914,-0.7098172336561794,0.13473834145984065,1.0031328435502356,-0.7454623208182638,-0.49185043752151114,0.08039146987174475,0.4426130216362893,0,-1,0.1272679716348648,-1.6309645811664026,-1.0661733786212366,-1.3416183630572718,0.8698835968971252,0.2756892442703247
5339,1734172898,482629060,-0.7115294277016646,0.13379884741435,0.999616373725453,-0.7457731764023126,-0.4934720699544234,0.08034096080391408,0.44028742379360086,0,-1,0.12790238857269287,-1.631228272114889,-1.0712721983539026,-1.340515438710348,0.8740559816360474,0.27703070640563965
